demetriskallis/dobot_magician_pick_and_place_and_color_sorting/Sampling/WholeSystemExperiments_training_data/payload_32g/joint_measurements__armv_100_arma_100_belts_80_cube_32g.csv
cube/weight,arm/velocity_ratio,arm/acceleration_ratio,belt/speed,dobot/operation,dobot/color,dobot/moving_arm,dobot/moving_belt,dobot/operation2,dobot/suction,meross/sample_timestamp,meross/power,meross/current,meross/voltage,dobot/pose_x,dobot/pose_y,dobot/pose_z,dobot/pose_rHead,dobot/pose_joint1Angle,dobot/pose_joint2Angle,dobot/pose_joint3Angle,dobot/pose_joint4Angle
32,100,100,80,homing,,,,homing,,,,,,176.87367248535156,52.1851921081543,64.40847778320312,-3.5617198944091797,16.038280487060547,-1.8111200332641602,28.669443130493164,-20.0
32,100,100,80,homing,,,,homing,,,,,,184.25482177734375,-7.599226951599121,64.40847778320312,-22.361713409423828,-2.7617130279541016,-1.8111200332641602,28.669443130493164,-20.0
32,100,100,80,homing,,,,homing,,,,,,171.5067901611328,-67.77177429199219,64.40847778320312,-41.561702728271484,-21.961702346801758,-1.8111200332641602,28.669443130493164,-20.0
32,100,100,80,homing,,,,homing,,2024-03-04 16:53:38.762811,16.443,0.152,233.1,134.51446533203125,-126.14852905273438,64.40847778320312,-63.16173553466797,-43.561737060546875,-1.8111200332641602,28.669443130493164,-20.0
32,100,100,80,homing,,,,homing,,2024-03-04 16:53:39.449661,16.443,0.152,233.1,85.54600524902344,-163.36911010742188,64.40847778320312,-82.36180877685547,-62.761810302734375,-1.8111200332641602,28.669443130493164,-20.0
32,100,100,80,homing,,,,homing,,2024-03-04 16:53:40.845190,16.31,0.153,233.1,27.06074333190918,-182.4152069091797,64.40847778320312,-101.56188201904297,-81.96188354492188,-1.8111200332641602,28.669443130493164,-20.0
32,100,100,80,homing,,,,homing,,2024-03-04 16:53:41.542402,16.348,0.153,233.1,-41.991336822509766,-179.56703186035156,64.40847778320312,-123.1619644165039,-103.56196594238281,-1.8111200332641602,28.669443130493164,-20.0
32,100,100,80,homing,,,,homing,,2024-03-04 16:53:42.929594,16.424,0.153,233.1,-98.7094497680664,-155.7691650390625,64.40847778320312,-142.36203002929688,-122.76203918457031,-1.8111200332641602,28.669443130493164,-20.0
32,100,100,80,homing,,,,homing,,2024-03-04 16:53:43.630428,16.424,0.153,233.1,-132.88209533691406,-127.86687469482422,64.40847778320312,-156.1018829345703,-136.08187866210938,-1.8111200332641602,28.669443130493164,-20.0
32,100,100,80,homing,,,,homing,,2024-03-04 16:53:45.009898,16.348,0.155,233.1,-129.16773986816406,-131.93443298339844,64.31067657470703,-154.3347625732422,-134.2609100341797,-1.6662529706954956,28.726228713989258,-19.930225372314453
32,100,100,80,homing,,,,homing,,2024-03-04 16:53:45.698451,16.424,0.155,233.1,-80.74842071533203,-173.53761291503906,61.10791015625,-133.14410400390625,-114.3529281616211,2.0739498138427734,30.192346572875977,-18.128803253173828
32,100,100,80,homing,,,,homing,,2024-03-04 16:53:46.390743,16.747,0.158,233.1,27.172969818115234,-207.88536071777344,49.56755828857422,-95.86322021484375,-81.95301055908203,12.326582908630371,34.211265563964844,-13.19074821472168
32,100,100,80,homing,,,,homing,,2024-03-04 16:53:47.771668,16.842,0.158,233.1,136.6759033203125,-186.4234619140625,28.94495391845703,-60.693790435791016,-53.15308380126953,25.553634643554688,39.3961181640625,-6.820097923278809
32,100,100,80,homing,,,,homing,,2024-03-04 16:53:48.470741,16.842,0.158,233.1,221.47579956054688,-103.05538940429688,10.464141845703125,-27.297008514404297,-24.353132247924805,34.99245071411133,43.096031188964844,-2.2740085124969482
32,100,100,80,homing,,,,homing,,2024-03-04 16:53:49.857095,16.709,0.158,233.1,249.77322387695312,-4.1416826248168945,0.3857879638671875,-1.0338695049285889,-0.8049203157424927,39.56621170043945,44.888893127441406,-0.07111168652772903
32,100,100,80,homing,,,,homing,,2024-03-04 16:53:50.548569,16.614,0.158,233.1,248.58604431152344,0.00017864398250821978,0.15845489501953125,4.117506250622682e-05,4.117506250622682e-05,39.36770248413086,45.16912841796875,0.0
32,100,100,80,homing,,,,homing,,2024-03-04 16:53:51.939834,16.69,0.158,233.1,250.542724609375,0.00018005013407673687,-0.18592071533203125,4.117506250622682e-05,4.117506250622682e-05,39.84967041015625,44.89723587036133,0.0
32,100,100,80,homing,,,,homing,,2024-03-04 16:53:52.628401,16.215,0.158,233.1,249.99998474121094,0.00017966009909287095,-7.62939453125e-06,4.117506250622682e-05,4.117506250622682e-05,39.71385955810547,44.94676971435547,0.0
32,100,100,80,homing,,,,homing,,2024-03-04 16:53:54.028978,16.367,0.153,233.1,249.99998474121094,0.00017966009909287095,-7.62939453125e-06,4.117506250622682e-05,4.117506250622682e-05,39.71385955810547,44.94676971435547,0.0
32,100,100,80,homing,,,,homing,,2024-03-04 16:53:54.728281,16.367,0.153,233.1,249.99998474121094,0.00017966009909287095,-7.62939453125e-06,4.117506250622682e-05,4.117506250622682e-05,39.71385955810547,44.94676971435547,0.0
32,100,100,80,homing,,,,homing,,2024-03-04 16:53:55.418055,16.424,0.155,233.1,249.99998474121094,0.0,-7.62939453125e-06,0.0,0.0,39.71385955810547,44.94676971435547,0.0
32,100,100,80,homing,,,,homing,,2024-03-04 16:53:56.798277,16.5,0.155,233.1,249.99998474121094,0.0,-7.62939453125e-06,0.0,0.0,39.71385955810547,44.94676971435547,0.0
32,100,100,80,homing,,,,homing,,2024-03-04 16:53:57.497649,16.367,0.155,233.1,250.00108337402344,0.00017966088489629328,-0.000640869140625,4.117506250622682e-05,4.117506250622682e-05,39.713863372802734,44.9467658996582,0.0
32,100,100,80,homing,,,,homing,,2024-03-04 16:53:58.885567,16.367,0.154,233.1,249.99998474121094,0.00017966009909287095,-7.62939453125e-06,4.117506250622682e-05,4.117506250622682e-05,39.71385955810547,44.94676971435547,0.0
32,100,100,80,homing,,,,homing,,2024-03-04 16:53:59.574255,16.367,0.154,233.1,250.0009002685547,0.00017966075392905623,-0.00185394287109375,4.117506250622682e-05,4.117506250622682e-05,39.71385955810547,44.94676971435547,0.0
32,100,100,80,homing,,,,homing,,2024-03-04 16:54:00.954050,16.5,0.155,233.1,250.02516174316406,0.0001796781871234998,0.02886199951171875,4.117506250622682e-05,4.117506250622682e-05,39.71383285522461,44.946407318115234,0.0
32,100,100,80,homing,,,,homing,,2024-03-04 16:54:01.655694,16.291,0.155,233.1,249.97044372558594,0.00017963886784855276,0.04657745361328125,4.117506250622682e-05,4.117506250622682e-05,39.70953369140625,44.945518493652344,0.0
32,100,100,80,homing,,,,homing,,2024-03-04 16:54:02.349208,16.462,0.155,233.1,249.94932556152344,0.00017962369020096958,-0.160675048828125,4.117506250622682e-05,4.117506250622682e-05,39.73613357543945,44.98781204223633,0.0
32,100,100,80,homing,,,,homing,,2024-03-04 16:54:03.739644,16.367,0.155,233.1,249.99998474121094,0.00017966009909287095,-7.62939453125e-06,4.117506250622682e-05,4.117506250622682e-05,39.71385955810547,44.94676971435547,0.0
32,100,100,80,homing,,,,homing,,2024-03-04 16:54:04.429663,16.367,0.154,233.1,260.10760498046875,41.74486541748047,26.328628540039062,4.100799560546875e-05,9.608180046081543,37.04085159301758,32.93557357788086,-9.608139038085938
32,100,100,80,go_to_pick_up_from_homing,nothing,,,go_to_pick_up_from_homing,,2024-03-04 16:54:05.815273,16.405,0.154,233.1,275.1988220214844,103.04874420166016,65.17930603027344,4.1961669921875e-05,20.523815155029297,42.58734893798828,13.387081146240234,-20.523773193359375
32,100,100,80,moving_belt,nothing,false,true,go_to_pick_up_from_homing,,2024-03-04 16:54:06.503728,17.241,0.156,233.1,292.8220520019531,106.5785140991211,84.958251953125,0.0,20.0,51.0,0.0,-20.0
32,100,100,80,moving_belt,nothing,false,true,go_to_pick_up_from_homing,,2024-03-04 16:54:07.882479,16.766,0.156,233.1,292.8220520019531,106.5785140991211,84.958251953125,0.0,20.0,51.0,0.0,-20.0
32,100,100,80,moving_belt,nothing,false,true,go_to_pick_up_from_homing,,2024-03-04 16:54:08.578999,16.405,0.156,233.1,292.8220520019531,106.5785140991211,84.958251953125,0.0,20.0,51.0,0.0,-20.0
32,100,100,80,go_to_pick_down,nothing,true,false,joint 3 +,,2024-03-04 16:54:09.958260,16.424,0.156,233.1,292.8220520019531,106.5785140991211,84.958251953125,0.0,20.0,51.0,0.03999999910593033,-20.0
32,100,100,80,go_to_pick_up_from_pick_down,nothing,true,false,joint 3 -,true,2024-03-04 16:54:10.650943,16.424,0.156,233.1,282.76361083984375,102.91754913330078,29.89107894897461,0.0,20.0,51.0,21.959999084472656,-20.0
32,100,100,80,go_to_color_detect_up_from_pick_up,nothing,true,false,joint 1 +,true,2024-03-04 16:54:12.038783,23.848,0.154,233.1,292.8220520019531,106.5785140991211,84.958251953125,0.0,20.0,51.0,0.0,-20.0
32,100,100,80,go_to_color_detect_up_from_pick_up,nothing,true,false,joint 1 +,true,2024-03-04 16:54:12.730001,22.443,0.154,233.1,171.88888549804688,259.9190979003906,84.958251953125,36.52266311645508,57.32594299316406,51.0,0.0,-20.0
32,100,100,80,go_to_color_detect_down,nothing,true,false,joint 3 +,true,2024-03-04 16:54:13.419415,22.443,0.203,233.1,128.006591796875,274.5110168457031,35.067237854003906,45.0,65.0,51.0,21.1199951171875,-20.0
32,100,100,80,go_to_color_detect_up_from_color_detect_down,nothing,true,false,joint 3 -,false,2024-03-04 16:54:14.826228,22.329,0.203,233.1,112.28592681884766,240.7979278564453,-21.777687072753906,45.0,65.0,51.0,46.19999694824219,-20.0
32,100,100,80,go_to_color_detect_up_from_color_detect_down,nothing,true,false,joint 3 -,false,2024-03-04 16:54:15.522502,22.329,0.195,233.1,131.5928192138672,282.2016906738281,76.56852722167969,45.0,65.0,51.0,2.7805356979370117,-20.0
32,100,100,80,detecting_color,nothing,false,false,detecting_color,false,2024-03-04 16:54:16.913961,16.557,0.195,233.1,131.69407653808594,282.4188232421875,84.958251953125,45.0,65.0,51.0,-4.656612873077393e-10,-20.0
32,100,100,80,go_to_color_detect_down,nothing,true,false,joint 3 +,false,2024-03-04 16:54:17.615740,16.557,0.155,233.1,131.69407653808594,282.4188232421875,84.958251953125,45.0,65.0,51.0,0.03999999165534973,-20.0
32,100,100,80,go_to_color_detect_down,nothing,true,false,joint 3 +,false,2024-03-04 16:54:19.001397,16.367,0.155,233.1,114.53912353515625,245.6299285888672,-16.463424682617188,45.0,65.0,51.0,44.19690704345703,-20.0
32,100,100,80,go_to_color_detect_up_from_color_detect_down,nothing,true,false,joint 3 -,true,2024-03-04 16:54:19.708659,16.462,0.162,233.1,124.34054565429688,266.6491394042969,15.583740234375,45.0,65.0,51.0,26.8800048828125,-20.0
32,100,100,80,go_to_green_up,green,true,false,joint 1 +,true,2024-03-04 16:54:20.401006,23.753,0.162,233.1,126.14859008789062,284.9390563964844,84.958251953125,46.12000274658203,66.44000244140625,51.0,-4.656612873077393e-10,-20.0
32,100,100,80,go_to_green_up,green,true,false,joint 1 +,true,2024-03-04 16:54:21.787852,22.88,0.205,233.1,-74.30796813964844,302.6252746582031,84.958251953125,83.79573059082031,104.08555603027344,51.0,-4.656612873077393e-10,-20.0
32,100,100,80,go_to_pick_up_from_green,green,true,false,joint 1 -,false,2024-03-04 16:54:22.478516,22.709,0.205,233.1,103.71147155761719,293.8497314453125,84.958251953125,50.55999755859375,68.87999725341797,51.0,-4.656612873077393e-10,-20.0
32,100,100,80,go_to_pick_up_from_green,green,true,false,joint 1 -,false,2024-03-04 16:54:23.899727,16.652,0.205,233.1,292.5535888671875,107.31327056884766,84.958251953125,0.14383316040039062,20.056015014648438,51.0,-4.656612873077393e-10,-20.0
32,100,100,80,moving_belt,green,false,true,joint 1 -,false,2024-03-04 16:54:24.594404,16.329,0.154,233.1,292.8220520019531,106.5785140991211,84.958251953125,0.0,20.0,51.0,-4.656612873077393e-10,-20.0
32,100,100,80,moving_belt,green,false,true,joint 1 -,false,2024-03-04 16:54:25.985082,16.899,0.154,233.1,292.8220520019531,106.5785140991211,84.958251953125,0.0,20.0,51.0,-4.656612873077393e-10,-20.0
32,100,100,80,moving_belt,green,false,true,joint 1 -,false,2024-03-04 16:54:26.679302,17.127,0.159,233.1,292.8220520019531,106.5785140991211,84.958251953125,0.0,20.0,51.0,-4.656612873077393e-10,-20.0
32,100,100,80,go_to_pick_down,green,true,false,joint 3 +,false,2024-03-04 16:54:27.368076,17.127,0.159,233.1,288.90997314453125,105.15463256835938,50.22156524658203,0.0,20.0,51.0,14.464665412902832,-20.0
32,100,100,80,go_to_pick_up_from_pick_down,green,true,false,joint 3 -,true,2024-03-04 16:54:28.757897,16.842,0.156,233.1,292.3475036621094,106.40579223632812,72.78374481201172,0.0,20.0,51.0,4.154499053955078,-20.0
32,100,100,80,go_to_color_detect_up_from_pick_up,green,true,false,joint 1 +,true,2024-03-04 16:54:29.691606,20.981,0.156,233.1,243.5332794189453,194.41004943847656,84.958251953125,18.599998474121094,39.84000015258789,51.0,0.0,-20.0
