demetriskallis/dobot_magician_pick_and_place_and_color_sorting/Sampling/WholeSystemExperiments_training_data/payload_32g/joint_measurements__armv_100_arma_80_belts_60_cube_32g.csv
cube/weight,arm/velocity_ratio,arm/acceleration_ratio,belt/speed,dobot/operation,dobot/color,dobot/moving_arm,dobot/moving_belt,dobot/operation2,dobot/suction,meross/sample_timestamp,meross/power,meross/current,meross/voltage,dobot/pose_x,dobot/pose_y,dobot/pose_z,dobot/pose_rHead,dobot/pose_joint1Angle,dobot/pose_joint2Angle,dobot/pose_joint3Angle,dobot/pose_joint4Angle
32,100,80,60,homing,,,,homing,,,,,,163.4792938232422,68.671142578125,74.90786743164062,2.7853355407714844,22.38533592224121,-7.241436958312988,23.66979217529297,-20.0
32,100,80,60,homing,,,,homing,,,,,,177.2787322998047,3.6681058406829834,74.90786743164062,-18.814651489257812,0.7853479385375977,-7.241436958312988,23.66979217529297,-20.0
32,100,80,60,homing,,,,homing,,,,,,168.62417602539062,-54.83697509765625,74.90786743164062,-38.014644622802734,-18.414644241333008,-7.241436958312988,23.66979217529297,-20.0
32,100,80,60,homing,,,,homing,,2024-03-04 13:32:26.189366,16.557,0.156,236.8,141.2106170654297,-107.24163055419922,74.90786743164062,-57.21465301513672,-37.614654541015625,-7.241436958312988,23.66979217529297,-20.0
32,100,80,60,homing,,,,homing,,2024-03-04 13:32:26.877031,16.557,0.156,236.8,91.81581115722656,-151.6939697265625,74.90786743164062,-78.81473541259766,-59.21473693847656,-7.241436958312988,23.66979217529297,-20.0
32,100,80,60,homing,,,,homing,,2024-03-04 13:32:28.261410,16.386,0.158,236.8,36.82137680053711,-173.451416015625,74.90786743164062,-98.01480865478516,-78.41481018066406,-7.241436958312988,23.66979217529297,-20.0
32,100,80,60,homing,,,,homing,,2024-03-04 13:32:28.946979,16.557,0.158,236.8,-23.496944427490234,-175.75294494628906,74.90786743164062,-117.61488342285156,-98.01488494873047,-7.241436958312988,23.66979217529297,-20.0
32,100,80,60,homing,,,,homing,,2024-03-04 13:32:30.334756,16.443,0.156,236.8,-86.54609680175781,-154.7610321044922,74.90786743164062,-139.2149658203125,-119.6149673461914,-7.241436958312988,23.66979217529297,-20.0
32,100,80,60,homing,,,,homing,,2024-03-04 13:32:31.027593,16.348,0.156,236.8,-128.22589111328125,-122.47174072265625,74.90786743164062,-156.31484985351562,-136.2948455810547,-7.241436958312988,23.66979217529297,-20.0
32,100,80,60,homing,,,,homing,,2024-03-04 13:32:32.400302,16.538,0.156,236.8,-126.15550231933594,-124.60334014892578,74.90786743164062,-155.35464477539062,-135.3346405029297,-7.241436958312988,23.66979217529297,-20.0
32,100,80,60,homing,,,,homing,,2024-03-04 13:32:33.090900,16.538,0.156,236.8,-93.96687316894531,-156.7530517578125,72.5087661743164,-139.6976776123047,-120.35291290283203,-4.200994491577148,25.047515869140625,-18.7049617767334
32,100,80,60,homing,,,,homing,,2024-03-04 13:32:33.818319,16.424,0.156,236.8,-7.458810329437256,-198.40208435058594,63.560791015625,-107.23078918457031,-91.55298614501953,4.555480003356934,29.01535987854004,-14.975255966186523
32,100,80,60,homing,,,,homing,,2024-03-04 13:32:35.203213,16.766,0.16,236.8,99.80580139160156,-198.900390625,42.921607971191406,-72.36731719970703,-62.75305938720703,18.873371124267578,35.50326156616211,-8.87673568725586
32,100,80,60,homing,,,,homing,,2024-03-04 13:32:35.203213,16.766,0.16,236.8,207.4925537109375,-124.44324493408203,16.251686096191406,-34.0538215637207,-30.35313606262207,32.62302780151367,41.733680725097656,-3.0202476978302
32,100,80,60,homing,,,,homing,,2024-03-04 13:32:37.243627,16.671,0.161,236.8,248.0665740966797,-21.27948760986328,2.3491897583007812,-5.335042476654053,-4.565849304199219,38.769020080566406,44.51863098144531,-0.4024410843849182
32,100,80,60,homing,,,,homing,,2024-03-04 13:32:37.929346,16.671,0.161,236.8,250.84263610839844,0.0001802656624931842,-0.28621673583984375,4.117506250622682e-05,4.117506250622682e-05,39.947628021240234,44.860599517822266,0.0
32,100,80,60,homing,,,,homing,,2024-03-04 13:32:39.305279,16.538,0.158,236.8,249.5020294189453,0.00017930223839357495,-0.8167800903320312,4.117506250622682e-05,4.117506250622682e-05,39.7899284362793,45.237247467041016,0.0
32,100,80,60,homing,,,,homing,,2024-03-04 13:32:39.989310,16.329,0.158,236.8,249.99998474121094,0.00017966009909287095,-7.62939453125e-06,4.117506250622682e-05,4.117506250622682e-05,39.71385955810547,44.94676971435547,0.0
32,100,80,60,homing,,,,homing,,2024-03-04 13:32:41.363965,16.158,0.154,236.8,249.99998474121094,0.00017966009909287095,-7.62939453125e-06,4.117506250622682e-05,4.117506250622682e-05,39.71385955810547,44.94676971435547,0.0
32,100,80,60,homing,,,,homing,,2024-03-04 13:32:42.052331,16.215,0.154,236.8,249.99998474121094,0.00017966009909287095,-7.62939453125e-06,4.117506250622682e-05,4.117506250622682e-05,39.71385955810547,44.94676971435547,0.0
32,100,80,60,homing,,,,homing,,2024-03-04 13:32:43.462819,16.253,0.154,236.8,249.99998474121094,0.00017966009909287095,-7.62939453125e-06,4.117506250622682e-05,4.117506250622682e-05,39.71385955810547,44.94676971435547,0.0
32,100,80,60,homing,,,,homing,,2024-03-04 13:32:44.155159,16.253,0.154,236.8,249.99998474121094,0.00017966009909287095,-7.62939453125e-06,4.117506250622682e-05,4.117506250622682e-05,39.71385955810547,44.94676971435547,0.0
32,100,80,60,homing,,,,homing,,2024-03-04 13:32:44.841738,16.481,0.154,236.8,249.9848175048828,0.0001796491997083649,-0.00384521484375,4.117506250622682e-05,4.117506250622682e-05,39.71385955810547,44.94676971435547,0.0
32,100,80,60,homing,,,,homing,,2024-03-04 13:32:46.403395,16.101,0.155,236.8,249.99998474121094,0.00017966009909287095,-7.62939453125e-06,4.117506250622682e-05,4.117506250622682e-05,39.71385955810547,44.94676971435547,0.0
32,100,80,60,homing,,,,homing,,2024-03-04 13:32:47.095330,16.386,0.155,236.8,261.0909118652344,45.644561767578125,28.78730010986328,4.100799560546875e-05,10.368825912475586,37.0704345703125,31.82764434814453,-10.36878490447998
32,100,80,60,go_to_pick_up_from_homing,nothing,,,go_to_pick_up_from_homing,,2024-03-04 13:32:48.470977,17.279,0.154,236.8,275.0000305175781,103.0,65.0,4.1961669921875e-05,20.533206939697266,42.43653106689453,13.627080917358398,-20.533164978027344
32,100,80,60,moving_belt,nothing,false,true,go_to_pick_up_from_homing,,2024-03-04 13:32:49.163904,17.279,0.154,236.8,292.8220520019531,106.5785140991211,84.958251953125,0.0,20.0,51.0,0.0,-20.0
32,100,80,60,moving_belt,nothing,false,true,go_to_pick_up_from_homing,,2024-03-04 13:32:50.544109,16.918,0.159,236.8,292.8220520019531,106.5785140991211,84.958251953125,0.0,20.0,51.0,0.0,-20.0
32,100,80,60,moving_belt,nothing,false,true,go_to_pick_up_from_homing,,2024-03-04 13:32:51.235123,16.918,0.159,236.8,292.8220520019531,106.5785140991211,84.958251953125,0.0,20.0,51.0,0.0,-20.0
32,100,80,60,moving_belt,nothing,false,true,go_to_pick_up_from_homing,,2024-03-04 13:32:51.953089,16.652,0.157,236.8,292.8220520019531,106.5785140991211,84.958251953125,0.0,20.0,51.0,0.0,-20.0
32,100,80,60,moving_belt,nothing,false,true,go_to_pick_up_from_homing,,2024-03-04 13:32:53.331412,16.538,0.157,236.8,292.8220520019531,106.5785140991211,84.958251953125,0.0,20.0,51.0,0.0,-20.0
32,100,80,60,go_to_pick_down,nothing,true,false,joint 3 +,,2024-03-04 13:32:54.015281,16.538,0.158,236.8,289.5078125,105.37222290039062,52.950626373291016,0.0,20.0,51.0,13.2579984664917,-20.0
32,100,80,60,go_to_pick_up_from_pick_down,nothing,true,false,joint 3 -,true,2024-03-04 13:32:55.391788,16.481,0.158,236.8,286.3397216796875,104.2191390991211,40.455101013183594,0.0,20.0,51.0,17.135997772216797,-20.0
32,100,80,60,go_to_color_detect_up_from_pick_up,nothing,true,false,joint 1 +,true,2024-03-04 13:32:56.081002,16.899,0.215,236.8,291.4658203125,110.23343658447266,84.958251953125,0.7168006896972656,20.921600341796875,51.0,0.0,-20.0
32,100,80,60,go_to_color_detect_up_from_pick_up,nothing,true,false,joint 1 +,true,2024-03-04 13:32:57.007811,23.127,0.215,236.8,162.32589721679688,265.9963073730469,84.958251953125,38.606109619140625,59.16553497314453,51.0,0.0,-20.0
32,100,80,60,go_to_color_detect_down,nothing,true,false,joint 3 +,true,2024-03-04 13:32:58.398358,22.367,0.207,236.8,131.29757690429688,281.56854248046875,68.37651824951172,45.0,65.0,51.0,7.065600872039795,-20.0
32,100,80,60,go_to_color_detect_down,nothing,true,false,joint 3 +,true,2024-03-04 13:32:59.143205,22.177,0.207,236.8,113.7436294555664,243.92398071289062,-18.402252197265625,45.0,65.0,51.0,45.07830810546875,-20.0
32,100,80,60,go_to_color_detect_up_from_color_detect_down,nothing,true,false,joint 3 -,false,2024-03-04 13:33:00.586897,22.272,0.206,236.8,121.29127502441406,260.1099548339844,3.5276641845703125,45.0,65.0,51.0,32.76799392700195,-20.0
32,100,80,60,go_to_color_detect_up_from_color_detect_down,nothing,true,false,joint 3 -,false,2024-03-04 13:33:01.279119,16.899,0.206,236.8,131.69300842285156,282.41656494140625,84.09764862060547,45.0,65.0,51.0,0.21761241555213928,-20.0
32,100,80,60,detecting_color,nothing,false,false,detecting_color,false,2024-03-04 13:33:01.975669,16.899,0.206,236.8,131.69407653808594,282.4188232421875,84.958251953125,45.0,65.0,51.0,0.0,-20.0
32,100,80,60,go_to_color_detect_down,nothing,true,false,joint 3 +,false,2024-03-04 13:33:03.349133,16.31,0.158,236.8,131.4703369140625,281.9390563964844,72.49398803710938,45.0,65.0,51.0,5.376000881195068,-20.0
32,100,80,60,go_to_color_detect_down,nothing,true,false,joint 3 +,false,2024-03-04 13:33:04.071472,16.481,0.158,236.8,114.76189422607422,246.107666015625,-15.907455444335938,45.0,65.0,51.0,43.80323028564453,-20.0
32,100,80,60,go_to_color_detect_up_from_color_detect_down,nothing,true,false,joint 3 -,true,2024-03-04 13:33:05.447965,16.386,0.156,236.8,120.77824401855469,259.009765625,1.7320709228515625,45.0,65.0,51.0,33.63839340209961,-20.0
32,100,80,60,go_to_color_detect_up_from_color_detect_down,nothing,true,false,joint 3 -,true,2024-03-04 13:33:06.160472,23.165,0.156,236.8,131.69190979003906,282.4141845703125,83.72968292236328,45.0,65.0,51.0,0.3354374170303345,-20.0
32,100,80,60,go_to_red_up,red,true,false,joint 1 +,true,2024-03-04 13:33:07.534092,22.462,0.206,236.8,27.332361221313477,310.4137268066406,84.958251953125,64.96800231933594,85.99200439453125,51.0,0.0,-20.0
32,100,80,60,go_to_red_up,red,true,false,joint 1 +,true,2024-03-04 13:33:07.534092,22.462,0.206,236.8,-177.6533966064453,256.013671875,84.958251953125,104.75760650634766,124.85551452636719,51.0,0.0,-20.0
32,100,80,60,go_to_pick_up_from_red,red,true,false,joint 1 -,false,2024-03-04 13:33:09.477803,22.804,0.203,236.8,-69.87759399414062,303.6788635253906,84.958251953125,82.9583969116211,101.88319396972656,51.0,0.0,-20.0
32,100,80,60,go_to_pick_up_from_red,red,true,false,joint 1 -,false,2024-03-04 13:33:10.168842,16.918,0.203,236.8,259.579833984375,172.4008026123047,84.958251953125,13.590255737304688,32.76883316040039,51.0,0.0,-20.0
32,100,80,60,moving_belt,red,false,true,joint 1 -,false,2024-03-04 13:33:10.864734,16.557,0.203,236.8,292.8220520019531,106.5785140991211,84.958251953125,0.0,20.0,51.0,0.0,-20.0
32,100,80,60,moving_belt,red,false,true,joint 1 -,false,2024-03-04 13:33:11.963083,16.557,0.157,236.8,292.8220520019531,106.5785140991211,84.958251953125,0.0,20.0,51.0,0.0,-20.0
32,100,80,60,moving_belt,red,false,true,joint 1 -,false,2024-03-04 13:33:13.352928,16.557,0.157,236.8,292.8220520019531,106.5785140991211,84.958251953125,0.0,20.0,51.0,0.0,-20.0
32,100,80,60,moving_belt,red,false,true,joint 1 -,false,2024-03-04 13:33:14.081665,16.557,0.157,236.8,292.8220520019531,106.5785140991211,84.958251953125,0.0,20.0,51.0,0.0,-20.0
32,100,80,60,moving_belt,red,false,true,joint 1 -,false,2024-03-04 13:33:15.463637,16.291,0.157,236.8,292.8220520019531,106.5785140991211,84.958251953125,0.0,20.0,51.0,0.0,-20.0
32,100,80,60,go_to_pick_down,red,true,false,joint 3 +,false,2024-03-04 13:33:16.161587,16.367,0.16,236.8,286.2166442871094,104.1743392944336,40.04482650756836,0.0,20.0,51.0,18.241596221923828,-20.0
32,100,80,60,go_to_pick_up_from_pick_down,red,true,false,joint 3 -,true,2024-03-04 13:33:17.541668,16.348,0.16,236.8,289.27386474609375,105.28707885742188,51.854454040527344,0.0,20.0,51.0,12.323198318481445,-20.0
32,100,80,60,go_to_color_detect_up_from_pick_up,red,true,false,joint 1 +,true,2024-03-04 13:33:18.246100,23.488,0.215,236.8,288.2478332519531,118.39306640625,84.958251953125,2.329601287841797,22.68800163269043,51.0,0.0,-20.0
32,100,80,60,go_to_color_detect_up_from_pick_up,red,true,false,joint 1 +,true,2024-03-04 13:33:18.939812,22.576,0.215,236.8,148.31356811523438,274.05621337890625,84.958251953125,41.57865905761719,61.9844856262207,51.0,0.0,-20.0
32,100,80,60,go_to_color_detect_down,red,true,false,joint 3 +,true,2024-03-04 13:33:20.321825,22.804,0.211,236.8,130.67471313476562,280.2328186035156,58.438087463378906,45.0,65.0,51.0,11.136000633239746,-20.0
32,100,80,60,go_to_color_detect_down,red,true,false,joint 3 +,true,2024-03-04 13:33:21.011569,22.367,0.211,236.8,112.18233489990234,240.57577514648438,-22.00926971435547,45.0,65.0,51.0,46.937255859375,-20.0
32,100,80,60,go_to_color_detect_up_from_color_detect_down,red,true,false,joint 3 -,false,2024-03-04 13:33:22.390087,22.348,0.208,236.8,124.91893768310547,267.8894958496094,18.203369140625,45.0,65.0,51.0,25.958393096923828,-20.0
32,100,80,60,detecting_color,red,false,false,detecting_color,false,2024-03-04 13:33:23.076002,17.943,0.208,236.8,131.69407653808594,282.4188232421875,84.958251953125,45.0,65.0,51.0,0.0,-20.0
32,100,80,60,detecting_color,red,false,false,detecting_color,false,2024-03-04 13:33:24.449530,16.975,0.155,236.8,131.69407653808594,282.4188232421875,84.958251953125,45.0,65.0,51.0,0.0,-20.0
32,100,80,60,detecting_color,red,false,false,detecting_color,false,2024-03-04 13:33:25.134445,16.424,0.155,236.8,131.69407653808594,282.4188232421875,84.958251953125,45.0,65.0,51.0,0.0,-20.0
32,100,80,60,detecting_color,red,false,false,detecting_color,false,2024-03-04 13:33:26.531379,16.405,0.155,236.8,131.69407653808594,282.4188232421875,84.958251953125,45.0,65.0,51.0,0.0,-20.0
32,100,80,60,detecting_color,red,false,false,detecting_color,false,2024-03-04 13:33:27.222308,16.405,0.155,236.8,131.69407653808594,282.4188232421875,84.958251953125,45.0,65.0,51.0,0.0,-20.0
32,100,80,60,go_to_color_detect_down,red,true,false,joint 3 +,false,2024-03-04 13:33:28.593540,16.538,0.155,236.8,131.689208984375,282.4084167480469,83.11925506591797,45.0,65.0,51.0,0.9216000437736511,-20.0
32,100,80,60,go_to_color_detect_down,red,true,false,joint 3 +,false,2024-03-04 13:33:29.284271,16.538,0.154,236.8,120.07318878173828,257.4977722167969,-0.6461639404296875,45.0,65.0,51.0,36.398929595947266,-20.0
32,100,80,60,go_to_color_detect_up_from_color_detect_down,red,true,false,joint 3 -,true,2024-03-04 13:33:29.969923,16.405,0.154,236.8,112.98113250732422,242.28880310058594,-20.195518493652344,45.0,65.0,51.0,45.31199645996094,-20.0
32,100,80,60,go_to_color_detect_up_from_color_detect_down,red,true,false,joint 3 -,true,2024-03-04 13:33:31.413182,22.557,0.2,236.8,131.0791778564453,281.1001892089844,64.32720947265625,45.0,65.0,51.0,7.438114643096924,-20.0
32,100,80,60,go_to_green_up,green,true,false,joint 1 +,true,2024-03-04 13:33:32.102157,23.412,0.2,236.8,82.348388671875,300.5369873046875,84.958251953125,54.67680358886719,75.39360046386719,51.0,0.0,-20.0
32,100,80,60,go_to_green_up,green,true,false,joint 1 +,true,2024-03-04 13:33:33.481625,22.481,0.208,236.8,-79.78404235839844,301.2278747558594,84.958251953125,84.83487701416016,104.91313171386719,51.0,0.0,-20.0
32,100,80,60,go_to_pick_up_from_green,green,true,false,joint 1 -,false,2024-03-04 13:33:34.167330,22.633,0.208,236.8,32.52936935424805,309.9122009277344,84.958251953125,64.00799560546875,82.9583969116211,51.0,0.0,-20.0
32,100,80,60,go_to_pick_up_from_green,green,true,false,joint 1 -,false,2024-03-04 13:33:35.550700,16.652,0.156,236.8,281.23309326171875,134.2075653076172,84.958251953125,5.510993957519531,24.992740631103516,51.0,0.0,-20.0
32,100,80,60,moving_belt,green,false,true,joint 1 -,false,2024-03-04 13:33:36.237402,16.329,0.156,236.8,292.8220520019531,106.5785140991211,84.958251953125,0.0,20.0,51.0,0.0,-20.0
32,100,80,60,moving_belt,green,false,true,joint 1 -,false,2024-03-04 13:33:37.609061,16.728,0.156,236.8,292.8220520019531,106.5785140991211,84.958251953125,0.0,20.0,51.0,0.0,-20.0
32,100,80,60,moving_belt,green,false,true,joint 1 -,false,2024-03-04 13:33:38.295227,16.728,0.156,236.8,292.8220520019531,106.5785140991211,84.958251953125,0.0,20.0,51.0,0.0,-20.0
32,100,80,60,moving_belt,green,false,true,joint 1 -,false,2024-03-04 13:33:38.984700,16.348,0.156,236.8,292.8220520019531,106.5785140991211,84.958251953125,0.0,20.0,51.0,0.0,-20.0
32,100,80,60,go_to_pick_down,green,true,false,joint 3 +,false,2024-03-04 13:33:40.387719,16.5,0.155,236.8,292.8220520019531,106.5785140991211,84.958251953125,0.0,20.0,51.0,0.0,-20.0
32,100,80,60,go_to_pick_down,green,true,false,joint 3 +,false,2024-03-04 13:33:41.071970,16.595,0.155,236.8,282.9619445800781,102.98973083496094,30.416423797607422,0.0,20.0,51.0,21.87226104736328,-20.0
32,100,80,60,go_to_pick_up_from_pick_down,green,true,false,joint 3 -,true,2024-03-04 13:33:42.441296,16.614,0.155,236.8,292.4493713378906,106.44286346435547,74.16732788085938,0.0,20.0,51.0,3.7584023475646973,-20.0
32,100,80,60,go_to_color_detect_up_from_pick_up,green,true,false,joint 1 +,true,2024-03-04 13:33:43.127470,23.222,0.155,236.8,272.58233642578125,151.00531005859375,84.958251953125,8.985601425170898,29.676801681518555,51.0,0.0,-20.0
32,100,80,60,go_to_color_detect_up_from_pick_up,green,true,false,joint 1 +,true,2024-03-04 13:33:44.508463,22.253,0.202,236.8,132.39566040039062,282.0906066894531,84.958251953125,44.857582092285156,64.93061065673828,51.0,0.0,-20.0
32,100,80,60,go_to_color_detect_down,green,true,false,joint 3 +,true,2024-03-04 13:33:45.218461,22.272,0.202,236.8,126.70584106445312,271.7215270996094,27.245040893554688,45.0,65.0,51.0,24.217601776123047,-20.0
32,100,80,60,go_to_color_detect_up_from_color_detect_down,green,true,false,joint 3 -,false,2024-03-04 13:33:46.588420,22.064,0.198,236.8,111.13883972167969,238.33799743652344,-24.284042358398438,45.0,65.0,51.0,48.0,-20.0
32,100,80,60,go_to_color_detect_up_from_color_detect_down,green,true,false,joint 3 -,false,2024-03-04 13:33:47.272803,22.064,0.198,236.8,129.84130859375,278.4455871582031,49.325679779052734,45.0,65.0,51.0,13.19351577758789,-20.0
32,100,80,60,detecting_color,green,false,false,detecting_color,false,2024-03-04 13:33:48.091975,16.918,0.198,236.8,131.69407653808594,282.4188232421875,84.958251953125,45.0,65.0,51.0,0.0,-20.0
32,100,80,60,detecting_color,green,false,false,detecting_color,false,2024-03-04 13:33:49.500586,16.519,0.159,236.8,131.69407653808594,282.4188232421875,84.958251953125,45.0,65.0,51.0,0.0,-20.0
32,100,80,60,go_to_color_detect_down,green,true,false,joint 3 +,false,2024-03-04 13:33:50.193259,16.5,0.159,236.8,130.1747283935547,279.1606140136719,52.64686584472656,45.0,65.0,51.0,13.516799926757812,-20.0
32,100,80,60,go_to_color_detect_down,green,true,false,joint 3 +,false,2024-03-04 13:33:50.884991,16.5,0.155,236.8,111.65824127197266,239.4518585205078,-23.164817810058594,45.0,65.0,51.0,47.52113342285156,-20.0
32,100,80,60,go_to_color_detect_up_from_color_detect_down,green,true,false,joint 3 -,true,2024-03-04 13:33:52.454728,22.842,0.155,236.8,126.41865539550781,271.1056823730469,25.678424835205078,45.0,65.0,51.0,22.691768646240234,-20.0
32,100,80,60,go_to_blue_up,blue,true,false,joint 1 +,true,2024-03-04 13:33:53.375757,23.127,0.209,236.8,131.31539916992188,282.5951232910156,84.958251953125,45.07679748535156,65.15359497070312,51.0,0.0,-20.0
32,100,80,60,go_to_blue_up,blue,true,false,joint 1 +,true,2024-03-04 13:33:54.194846,23.127,0.209,236.8,29.171091079711914,310.2463073730469,84.958251953125,64.62852478027344,84.7540054321289,51.0,0.0,-20.0
32,100,80,60,go_to_pick_up_from_blue,blue,true,false,joint 1 -,false,2024-03-04 13:33:55.622416,20.507,0.203,236.8,162.79969787597656,265.7065734863281,84.958251953125,38.503997802734375,57.32639694213867,51.0,0.0,-20.0
32,100,80,60,go_to_pick_up_from_blue,blue,true,false,joint 1 -,false,2024-03-04 13:33:56.311362,20.507,0.203,236.8,291.5347900390625,110.0509262084961,84.958251953125,0.6809291839599609,20.50740623474121,51.0,0.0,-20.0
32,100,80,60,moving_belt,blue,false,true,joint 1 -,false,2024-03-04 13:33:57.003282,16.31,0.203,236.8,292.8220520019531,106.5785140991211,84.958251953125,0.0,20.0,51.0,0.0,-20.0
32,100,80,60,moving_belt,blue,false,true,joint 1 -,false,2024-03-04 13:33:58.479842,16.804,0.155,236.8,292.8220520019531,106.5785140991211,84.958251953125,0.0,20.0,51.0,0.0,-20.0
32,100,80,60,moving_belt,blue,false,true,joint 1 -,false,2024-03-04 13:33:59.337037,16.329,0.156,236.8,292.8220520019531,106.5785140991211,84.958251953125,0.0,20.0,51.0,0.0,-20.0
32,100,80,60,moving_belt,blue,false,true,joint 1 -,false,2024-03-04 13:34:00.028150,16.329,0.156,236.8,292.8220520019531,106.5785140991211,84.958251953125,0.0,20.0,51.0,0.0,-20.0
32,100,80,60,go_to_pick_down,blue,true,false,joint 3 +,false,2024-03-04 13:34:01.421061,16.196,0.156,236.8,292.4993896484375,106.4610824584961,74.91699981689453,0.0,20.0,51.0,4.377599716186523,-20.0
32,100,80,60,go_to_pick_up_from_pick_down,blue,true,false,joint 3 -,true,2024-03-04 13:34:02.106012,16.196,0.155,236.8,282.9018859863281,102.96786499023438,30.256664276123047,0.0,20.0,51.0,21.743999481201172,-20.0
32,100,80,60,go_to_pick_up_from_pick_down,blue,true,false,joint 3 -,true,2024-03-04 13:34:03.526080,23.203,0.155,236.8,292.8130798339844,106.57524871826172,83.28274536132812,0.0,20.0,51.0,0.483337938785553,-20.0
32,100,80,60,go_to_color_detect_up_from_pick_up,blue,true,false,joint 1 +,true,2024-03-04 13:34:04.210863,23.203,0.206,236.8,215.7852020263672,224.8120880126953,84.958251953125,26.173702239990234,47.14272689819336,51.0,0.0,-20.0
32,100,80,60,go_to_color_detect_down,blue,true,false,joint 3 +,true,2024-03-04 13:34:05.587330,22.462,0.206,236.8,131.689208984375,282.4084167480469,83.11925506591797,45.0,65.0,51.0,0.9216000437736511,-20.0
32,100,80,60,go_to_color_detect_down,blue,true,false,joint 3 +,true,2024-03-04 13:34:06.274761,21.988,0.207,236.8,120.07318878173828,257.4977722167969,-0.6461639404296875,45.0,65.0,51.0,36.398929595947266,-20.0
32,100,80,60,go_to_color_detect_up_from_color_detect_down,blue,true,false,joint 3 -,false,2024-03-04 13:34:06.967094,21.988,0.207,236.8,115.2815170288086,247.2220001220703,-14.58782958984375,45.0,65.0,51.0,42.086395263671875,-20.0
32,100,80,60,go_to_color_detect_up_from_color_detect_down,blue,true,false,joint 3 -,false,2024-03-04 13:34:08.358010,16.614,0.163,236.8,131.52749633789062,282.06158447265625,74.20051574707031,45.0,65.0,51.0,3.746138572692871,-20.0
32,100,80,60,detecting_color,blue,false,false,detecting_color,false,2024-03-04 13:34:09.305651,16.614,0.163,236.8,131.69407653808594,282.4188232421875,84.958251953125,45.0,65.0,51.0,0.0,-20.0
32,100,80,60,go_to_color_detect_down,blue,true,false,joint 3 +,false,2024-03-04 13:34:09.998038,16.5,0.163,236.8,131.689208984375,282.4084167480469,83.11925506591797,45.0,65.0,51.0,0.9216000437736511,-20.0
32,100,80,60,go_to_color_detect_down,blue,true,false,joint 3 +,false,2024-03-04 13:34:11.148682,16.462,0.157,236.8,117.20692443847656,251.35104370117188,-9.397926330566406,45.0,65.0,51.0,40.56188201904297,-20.0
32,100,80,60,go_to_color_detect_up_from_color_detect_down,blue,true,false,joint 3 -,true,2024-03-04 13:34:11.964263,16.424,0.157,236.8,114.90375518798828,246.41188049316406,-15.5504150390625,45.0,65.0,51.0,42.62399673461914,-20.0
32,100,80,60,go_to_color_detect_up_from_color_detect_down,blue,true,false,joint 3 -,true,2024-03-04 13:34:13.343026,23.184,0.156,236.8,131.48756408691406,281.9759826660156,72.98236083984375,45.0,65.0,51.0,4.196763515472412,-20.0
32,100,80,60,go_to_red_up,red,true,false,joint 1 +,true,2024-03-04 13:34:14.034137,22.937,0.156,236.8,62.036434173583984,305.3771667480469,84.958251953125,58.51679992675781,79.36160278320312,51.0,0.0,-20.0
32,100,80,60,go_to_red_up,red,true,false,joint 1 +,true,2024-03-04 13:34:15.434443,22.026,0.202,236.8,-163.21636962890625,265.4508361816406,84.958251953125,101.58589172363281,121.99099731445312,51.0,0.0,-20.0
32,100,80,60,go_to_pick_up_from_red,red,true,false,joint 1 -,false,2024-03-04 13:34:16.561083,22.576,0.202,236.8,-129.7509002685547,283.31683349609375,84.958251953125,94.60639953613281,113.86399841308594,51.0,0.0,-20.0
32,100,80,60,go_to_pick_up_from_red,red,true,false,joint 1 -,false,2024-03-04 13:34:17.250249,18.171,0.159,236.8,214.11300659179688,226.40525817871094,84.958251953125,26.598369598388672,45.44414520263672,51.0,0.0,-20.0
32,100,80,60,moving_belt,red,false,true,joint 1 -,false,2024-03-04 13:34:18.628632,16.5,0.159,236.8,292.8220520019531,106.5785140991211,84.958251953125,0.0,20.0,51.0,0.0,-20.0
32,100,80,60,moving_belt,red,false,true,joint 1 -,false,2024-03-04 13:34:19.317250,16.386,0.154,236.8,292.8220520019531,106.5785140991211,84.958251953125,0.0,20.0,51.0,0.0,-20.0
32,100,80,60,moving_belt,red,false,true,joint 1 -,false,2024-03-04 13:34:20.006943,16.386,0.154,235.0,292.8220520019531,106.5785140991211,84.958251953125,0.0,20.0,51.0,0.0,-20.0
32,100,80,60,moving_belt,red,false,true,joint 1 -,false,2024-03-04 13:34:21.382130,16.481,0.157,235.0,292.8220520019531,106.5785140991211,84.958251953125,0.0,20.0,51.0,0.0,-20.0
32,100,80,60,moving_belt,red,false,true,joint 1 -,false,2024-03-04 13:34:22.070829,16.709,0.157,236.8,292.8220520019531,106.5785140991211,84.958251953125,0.0,20.0,51.0,0.0,-20.0
32,100,80,60,go_to_pick_down,red,true,false,joint 3 +,false,2024-03-04 13:34:23.022624,16.367,0.157,236.8,290.85662841796875,105.8631591796875,60.248985290527344,0.0,20.0,51.0,10.393599510192871,-20.0
32,100,80,60,go_to_pick_up_from_pick_down,red,true,false,joint 3 -,true,2024-03-04 13:34:24.393498,16.253,0.157,236.8,284.7611389160156,103.64457702636719,35.47675704956055,0.0,20.0,51.0,19.31199836730957,-20.0
32,100,80,60,go_to_color_detect_up_from_pick_up,red,true,false,joint 1 +,true,2024-03-04 13:34:25.081091,23.203,0.157,236.8,292.8220520019531,106.5785140991211,84.958251953125,0.0,20.02560043334961,51.0,0.0,-20.0
32,100,80,60,go_to_color_detect_up_from_pick_up,red,true,false,joint 1 +,true,2024-03-04 13:34:26.451679,22.557,0.208,236.8,180.01585388183594,254.35806274414062,84.958251953125,34.71195602416992,55.42498016357422,51.0,0.0,-20.0
32,100,80,60,go_to_color_detect_down,red,true,false,joint 3 +,true,2024-03-04 13:34:27.137608,22.766,0.208,236.8,131.5794219970703,282.1729431152344,76.03123474121094,45.0,65.0,51.0,3.9168004989624023,-20.0
32,100,80,60,go_to_color_detect_down,red,true,false,joint 3 +,true,2024-03-04 13:34:28.516022,22.481,0.203,236.8,115.92172241210938,248.5949249267578,-12.916275024414062,45.0,65.0,51.0,42.29775619506836,-20.0
32,100,80,60,go_to_color_detect_up_from_color_detect_down,red,true,false,joint 3 -,false,2024-03-04 13:34:29.206720,22.443,0.203,236.8,118.78585815429688,254.73709106445312,-4.746086120605469,45.0,65.0,51.0,36.86399459838867,-20.0
32,100,80,60,go_to_color_detect_up_from_color_detect_down,red,true,false,joint 3 -,false,2024-03-04 13:34:30.581685,19.253,0.164,236.8,131.67787170410156,282.38409423828125,81.60124969482422,45.0,65.0,51.0,1.0627379417419434,-20.0
32,100,80,60,detecting_color,red,false,false,detecting_color,false,2024-03-04 13:34:31.311117,17.146,0.164,236.8,131.69407653808594,282.4188232421875,84.958251953125,45.0,65.0,51.0,0.0,-20.0
32,100,80,60,detecting_color,red,false,false,detecting_color,false,2024-03-04 13:34:31.998883,17.146,0.164,236.8,131.69407653808594,282.4188232421875,84.958251953125,45.0,65.0,51.0,0.0,-20.0
32,100,80,60,detecting_color,red,false,false,detecting_color,false,2024-03-04 13:34:33.386614,16.329,0.158,236.8,131.69407653808594,282.4188232421875,84.958251953125,45.0,65.0,51.0,0.0,-20.0
32,100,80,60,go_to_color_detect_down,red,true,false,joint 3 +,false,2024-03-04 13:34:34.071069,16.329,0.158,236.8,131.69407653808594,282.4188232421875,84.958251953125,45.0,65.0,51.0,0.0,-20.0
32,100,80,60,go_to_color_detect_down,red,true,false,joint 3 +,false,2024-03-04 13:34:35.446694,16.5,0.157,236.8,124.71829223632812,267.459228515625,17.280006408691406,45.0,65.0,51.0,28.426502227783203,-20.0
32,100,80,60,go_to_color_detect_up_from_color_detect_down,red,true,false,joint 3 -,true,2024-03-04 13:34:36.136665,16.424,0.157,236.8,112.05863952636719,240.31051635742188,-22.284408569335938,45.0,65.0,51.0,46.59199905395508,-20.0
32,100,80,60,go_to_color_detect_up_from_color_detect_down,red,true,false,joint 3 -,true,2024-03-04 13:34:37.005475,19.329,0.156,236.8,130.58486938476562,280.0401306152344,57.304229736328125,45.0,65.0,51.0,10.111015319824219,-20.0
32,100,80,60,go_to_green_up,green,true,false,joint 1 +,true,2024-03-04 13:34:38.382904,23.412,0.156,236.8,116.36975860595703,289.07061767578125,84.958251953125,48.071998596191406,68.48159790039062,51.0,0.0,-20.0
32,100,80,60,go_to_green_up,green,true,false,joint 1 +,true,2024-03-04 13:34:39.071923,22.576,0.204,236.8,-74.47701263427734,302.583740234375,84.958251953125,83.82772827148438,104.05958557128906,51.0,0.0,-20.0
32,100,80,60,go_to_pick_up_from_green,green,true,false,joint 1 -,false,2024-03-04 13:34:40.451584,22.804,0.204,236.8,1.2617675065994263,311.6121520996094,84.958251953125,69.76799774169922,88.87199401855469,51.0,0.0,-20.0
32,100,80,60,go_to_pick_up_from_green,green,true,false,joint 1 -,false,2024-03-04 13:34:41.143507,18.285,0.157,236.8,259.1680908203125,173.01914978027344,84.958251953125,13.726844787597656,32.901390075683594,51.0,0.0,-20.0
32,100,80,60,moving_belt,green,false,true,joint 1 -,false,2024-03-04 13:34:42.522982,16.538,0.157,236.8,292.8220520019531,106.5785140991211,84.958251953125,0.0,20.0,51.0,0.0,-20.0
32,100,80,60,moving_belt,green,false,true,joint 1 -,false,2024-03-04 13:34:43.211393,16.785,0.16,236.8,292.8220520019531,106.5785140991211,84.958251953125,0.0,20.0,51.0,0.0,-20.0
32,100,80,60,moving_belt,green,false,true,joint 1 -,false,2024-03-04 13:34:44.388579,16.462,0.16,236.8,292.8220520019531,106.5785140991211,84.958251953125,0.0,20.0,51.0,0.0,-20.0
32,100,80,60,moving_belt,green,false,true,joint 1 -,false,2024-03-04 13:34:45.133097,16.462,0.16,236.8,292.8220520019531,106.5785140991211,84.958251953125,0.0,20.0,51.0,0.0,-20.0
32,100,80,60,moving_belt,green,false,true,joint 1 -,false,2024-03-04 13:34:46.506948,16.576,0.155,235.0,292.8220520019531,106.5785140991211,84.958251953125,0.0,20.0,51.0,0.0,-20.0
32,100,80,60,go_to_pick_down,green,true,false,joint 3 +,false,2024-03-04 13:34:47.202033,16.462,0.155,235.0,286.56341552734375,104.30055236816406,41.21149444580078,0.0,20.0,51.0,17.79026222229004,-20.0
32,100,80,60,go_to_pick_up_from_pick_down,green,true,false,joint 3 -,true,2024-03-04 13:34:48.576933,16.31,0.153,236.8,290.9578552246094,105.9000015258789,60.88926315307617,0.0,20.0,51.0,8.741999626159668,-20.0
32,100,80,60,go_to_color_detect_up_from_pick_up,green,true,false,joint 1 +,true,2024-03-04 13:34:49.265281,23.203,0.153,236.8,283.8327331542969,128.61846923828125,84.958251953125,4.377601623535156,24.864002227783203,51.0,0.0,-20.0
32,100,80,60,go_to_color_detect_up_from_pick_up,green,true,false,joint 1 +,true,2024-03-04 13:34:50.644060,22.215,0.204,236.8,150.37295532226562,272.9316711425781,84.958251953125,41.14723205566406,61.57865905761719,51.0,0.0,-20.0
32,100,80,60,go_to_color_detect_down,green,true,false,joint 3 +,true,2024-03-04 13:34:51.337533,22.253,0.204,236.8,129.75265502929688,278.2554626464844,48.496273040771484,45.0,65.0,51.0,15.232000350952148,-20.0
32,100,80,60,go_to_color_detect_down,green,true,false,joint 3 +,true,2024-03-04 13:34:52.156793,21.988,0.2,236.8,111.4084243774414,238.91612243652344,-23.706314086914062,45.0,65.0,51.0,47.78238296508789,-20.0
32,100,80,60,go_to_color_detect_up_from_color_detect_down,green,true,false,joint 3 -,false,2024-03-04 13:34:53.622430,22.14,0.2,236.8,123.88885498046875,265.68048095703125,13.623046875,45.0,65.0,51.0,28.031993865966797,-20.0
32,100,80,60,detecting_color,green,false,false,detecting_color,false,2024-03-04 13:34:54.309070,16.975,0.159,236.8,131.69407653808594,282.4188232421875,84.958251953125,45.0,65.0,51.0,0.0,-20.0
32,100,80,60,detecting_color,green,false,false,detecting_color,false,2024-03-04 13:34:54.993446,16.785,0.159,236.8,131.69407653808594,282.4188232421875,84.958251953125,45.0,65.0,51.0,0.0,-20.0
32,100,80,60,go_to_color_detect_down,green,true,false,joint 3 +,false,2024-03-04 13:34:56.365067,16.576,0.155,236.8,130.81015014648438,280.52325439453125,60.248985290527344,45.0,65.0,51.0,10.393600463867188,-20.0
32,100,80,60,go_to_color_detect_down,green,true,false,joint 3 +,false,2024-03-04 13:34:57.052009,16.576,0.155,236.8,111.4084243774414,238.91612243652344,-23.706314086914062,45.0,65.0,51.0,47.78238296508789,-20.0
32,100,80,60,go_to_color_detect_up_from_color_detect_down,green,true,false,joint 3 -,true,2024-03-04 13:34:58.425949,21.209,0.155,236.8,124.40592193603516,266.7893371582031,15.873466491699219,45.0,65.0,51.0,27.007993698120117,-20.0
32,100,80,60,go_to_red_up,red,true,false,joint 1 +,true,2024-03-04 13:34:59.109797,21.209,0.207,236.8,131.69407653808594,282.4188232421875,84.958251953125,45.0,65.0,51.0,0.0,-20.0
32,100,80,60,go_to_red_up,red,true,false,joint 1 +,true,2024-03-04 13:35:00.492248,22.215,0.207,235.0,-47.1444091796875,308.02783203125,84.958251953125,78.70172882080078,99.84923553466797,51.0,0.0,-20.0
32,100,80,60,go_to_pick_up_from_red,red,true,false,joint 1 -,false,2024-03-04 13:35:01.188591,22.652,0.2,235.0,-178.73486328125,255.2598114013672,84.958251953125,105.0,124.97440338134766,51.0,0.0,-20.0
32,100,80,60,go_to_pick_up_from_red,red,true,false,joint 1 -,false,2024-03-04 13:35:02.570230,20.696,0.2,235.0,-26.586824417114258,310.47845458984375,84.958251953125,74.89440155029297,93.63999938964844,51.0,0.0,-20.0
32,100,80,60,go_to_pick_up_from_red,red,true,false,joint 1 -,false,2024-03-04 13:35:03.255771,16.69,0.155,235.0,274.1686096191406,148.10569763183594,84.958251953125,8.377887725830078,27.73566246032715,51.0,0.0,-20.0
32,100,80,60,moving_belt,red,false,true,joint 1 -,false,2024-03-04 13:35:04.629656,16.481,0.155,236.8,292.8220520019531,106.5785140991211,84.958251953125,0.0,20.0,51.0,0.0,-20.0
32,100,80,60,moving_belt,red,false,true,joint 1 -,false,2024-03-04 13:35:05.316471,16.481,0.157,236.8,292.8220520019531,106.5785140991211,84.958251953125,0.0,20.0,51.0,0.0,-20.0
32,100,80,60,moving_belt,red,false,true,joint 1 -,false,2024-03-04 13:35:06.000816,16.519,0.157,236.8,292.8220520019531,106.5785140991211,84.958251953125,0.0,20.0,51.0,0.0,-20.0
32,100,80,60,moving_belt,red,false,true,joint 1 -,false,2024-03-04 13:35:07.388056,16.709,0.157,236.8,292.8220520019531,106.5785140991211,84.958251953125,0.0,20.0,51.0,0.0,-20.0
32,100,80,60,go_to_pick_down,red,true,false,joint 3 +,false,2024-03-04 13:35:08.089146,16.709,0.157,236.8,292.8220520019531,106.5785140991211,84.958251953125,0.0,20.0,51.0,0.025599999353289604,-20.0
32,100,80,60,go_to_pick_down,red,true,false,joint 3 +,false,2024-03-04 13:35:09.481609,16.481,0.157,236.8,283.91815185546875,103.33775329589844,33.035545349121094,0.0,20.0,51.0,20.930660247802734,-20.0
32,100,80,60,go_to_pick_up_from_pick_down,red,true,false,joint 3 -,true,2024-03-04 13:35:10.171926,16.481,0.153,236.8,291.44879150390625,106.07868957519531,64.28166961669922,0.0,20.0,51.0,7.455333709716797,-20.0
32,100,80,60,go_to_color_detect_up_from_pick_up,red,true,false,joint 1 +,true,2024-03-04 13:35:11.550788,22.481,0.153,236.8,274.3180847167969,147.82864379882812,84.958251953125,8.320001602172852,28.9856014251709,51.0,0.0,-20.0
32,100,80,60,go_to_color_detect_up_from_pick_up,red,true,false,joint 1 +,true,2024-03-04 13:35:12.239100,22.557,0.198,236.8,138.4105987548828,279.18853759765625,84.958251953125,43.62961196899414,63.8818359375,51.0,0.0,-20.0
32,100,80,60,go_to_color_detect_down,red,true,false,joint 3 +,true,2024-03-04 13:35:13.616817,22.234,0.198,236.8,127.57087707519531,273.57659912109375,32.297325134277344,45.0,65.0,51.0,22.041601181030273,-20.0
32,100,80,60,go_to_color_detect_up_from_color_detect_down,red,true,false,joint 3 -,false,2024-03-04 13:35:14.301804,22.158,0.2,236.8,111.13883972167969,238.33799743652344,-24.284042358398438,45.0,65.0,51.0,48.0,-20.0
32,100,80,60,go_to_color_detect_up_from_color_detect_down,red,true,false,joint 3 -,false,2024-03-04 13:35:15.013427,22.158,0.2,236.8,127.32077026367188,273.0402526855469,30.7801513671875,45.0,65.0,51.0,20.587318420410156,-20.0
32,100,80,60,detecting_color,red,false,false,detecting_color,false,2024-03-04 13:35:16.444604,17.241,0.163,236.8,131.69407653808594,282.4188232421875,84.958251953125,45.0,65.0,51.0,0.0,-20.0
32,100,80,60,detecting_color,red,false,false,detecting_color,false,2024-03-04 13:35:17.135352,17.241,0.163,235.0,131.69407653808594,282.4188232421875,84.958251953125,45.0,65.0,51.0,0.0,-20.0
32,100,80,60,go_to_color_detect_down,red,true,false,joint 3 +,false,2024-03-04 13:35:18.520444,16.443,0.157,235.0,131.5794219970703,282.1729431152344,76.03123474121094,45.0,65.0,51.0,3.9168004989624023,-20.0
32,100,80,60,go_to_color_detect_down,red,true,false,joint 3 +,false,2024-03-04 13:35:19.210898,16.557,0.157,236.8,116.33708190917969,249.48565673828125,-11.80364990234375,45.0,65.0,51.0,41.74473190307617,-20.0
32,100,80,60,go_to_color_detect_up_from_color_detect_down,red,true,false,joint 3 -,true,2024-03-04 13:35:20.584499,16.272,0.159,236.8,115.67424011230469,248.06419372558594,-13.568557739257812,45.0,65.0,51.0,41.523193359375,-20.0
32,100,80,60,go_to_color_detect_up_from_color_detect_down,red,true,false,joint 3 -,true,2024-03-04 13:35:21.410368,23.127,0.159,236.8,131.6704559326172,282.3681945800781,80.90509033203125,45.0,65.0,51.0,1.3085631132125854,-20.0
32,100,80,60,go_to_blue_up,blue,true,false,joint 1 +,true,2024-03-04 13:35:22.112588,22.728,0.159,236.8,58.71561813354492,306.03302001953125,84.958251953125,59.139190673828125,79.67427062988281,51.0,0.0,-20.0
32,100,80,60,go_to_pick_up_from_blue,blue,true,false,joint 1 -,false,2024-03-04 13:35:23.687583,22.329,0.202,236.8,68.40118408203125,304.01483154296875,84.958251953125,57.31999969482422,76.68000030517578,51.0,0.0,-20.0
32,100,80,60,go_to_pick_up_from_blue,blue,true,false,joint 1 -,false,2024-03-04 13:35:24.383454,18.247,0.202,236.8,279.2238464355469,138.33935546875,84.958251953125,6.355768203735352,25.798246383666992,51.0,0.0,-20.0
32,100,80,60,moving_belt,blue,false,true,joint 1 -,false,2024-03-04 13:35:25.067837,16.5,0.157,236.8,292.8220520019531,106.5785140991211,84.958251953125,0.0,20.0,51.0,0.0,-20.0
32,100,80,60,moving_belt,blue,false,true,joint 1 -,false,2024-03-04 13:35:26.681571,16.557,0.157,235.0,292.8220520019531,106.5785140991211,84.958251953125,0.0,20.0,51.0,0.0,-20.0
32,100,80,60,moving_belt,blue,false,true,joint 1 -,false,2024-03-04 13:35:27.615930,16.557,0.157,235.0,292.8220520019531,106.5785140991211,84.958251953125,0.0,20.0,51.0,0.0,-20.0
32,100,80,60,moving_belt,blue,false,true,joint 1 -,false,2024-03-04 13:35:28.303647,16.538,0.157,235.0,292.8220520019531,106.5785140991211,84.958251953125,0.0,20.0,51.0,0.0,-20.0
32,100,80,60,go_to_pick_down,blue,true,false,joint 3 +,false,2024-03-04 13:35:29.691417,16.576,0.156,235.0,292.8220520019531,106.5785140991211,84.958251953125,0.0,20.0,51.0,0.0,-20.0
32,100,80,60,go_to_pick_down,blue,true,false,joint 3 +,false,2024-03-04 13:35:29.691417,16.576,0.156,235.0,283.3450927734375,103.12918090820312,31.448162078857422,0.0,20.0,51.0,21.516660690307617,-20.0
32,100,80,60,go_to_pick_up_from_pick_down,blue,true,false,joint 3 -,true,2024-03-04 13:35:31.611880,16.595,0.18,235.0,292.1348876953125,106.32840728759766,70.31399536132812,0.0,20.0,51.0,5.189201354980469,-20.0
32,100,80,60,go_to_color_detect_up_from_pick_up,blue,true,false,joint 1 +,true,2024-03-04 13:35:32.298721,22.88,0.18,236.8,275.95220947265625,144.7553253173828,84.958251953125,7.680002212524414,28.32000160217285,51.0,0.0,-20.0
32,100,80,60,go_to_color_detect_up_from_pick_up,blue,true,false,joint 1 +,true,2024-03-04 13:35:33.690794,22.424,0.205,236.8,133.4918212890625,281.57354736328125,84.958251953125,44.634735107421875,64.75895690917969,51.0,0.0,-20.0
32,100,80,60,go_to_color_detect_down,blue,true,false,joint 3 +,true,2024-03-04 13:35:34.613311,22.234,0.205,236.8,127.57087707519531,273.57659912109375,32.297325134277344,45.0,65.0,51.0,22.041601181030273,-20.0
32,100,80,60,go_to_color_detect_up_from_color_detect_down,blue,true,false,joint 3 -,false,2024-03-04 13:35:35.307603,22.083,0.205,236.8,111.13883972167969,238.33799743652344,-24.284042358398438,45.0,65.0,51.0,48.0,-20.0
32,100,80,60,go_to_color_detect_up_from_color_detect_down,blue,true,false,joint 3 -,false,2024-03-04 13:35:36.254197,22.026,0.2,236.8,129.3544921875,277.4015808105469,44.99677276611328,45.0,65.0,51.0,14.88836669921875,-20.0
32,100,80,60,detecting_color,blue,false,false,detecting_color,false,2024-03-04 13:35:37.638379,16.956,0.2,236.8,131.69407653808594,282.4188232421875,84.958251953125,45.0,65.0,51.0,0.0,-20.0
32,100,80,60,detecting_color,blue,false,false,detecting_color,false,2024-03-04 13:35:38.326522,16.481,0.157,236.8,131.69407653808594,282.4188232421875,84.958251953125,45.0,65.0,51.0,0.0,-20.0
32,100,80,60,go_to_color_detect_down,blue,true,false,joint 3 +,false,2024-03-04 13:35:39.017179,16.481,0.157,236.8,127.95934295654297,274.40966796875,34.758445739746094,45.0,65.0,51.0,20.992000579833984,-20.0
32,100,80,60,go_to_color_detect_up_from_color_detect_down,blue,true,false,joint 3 -,true,2024-03-04 13:35:40.406465,16.462,0.156,236.8,111.13883972167969,238.33799743652344,-24.284042358398438,45.0,65.0,51.0,48.0,-20.0
32,100,80,60,go_to_color_detect_up_from_color_detect_down,blue,true,false,joint 3 -,true,2024-03-04 13:35:41.377721,16.386,0.156,236.8,129.3544921875,277.4015808105469,44.99677276611328,45.0,65.0,51.0,14.88836669921875,-20.0
32,100,80,60,go_to_red_up,red,true,false,joint 1 +,true,2024-03-04 13:35:42.065727,23.222,0.156,236.8,124.71479797363281,285.56951904296875,84.958251953125,46.407997131347656,66.6895980834961,51.0,0.0,-20.0
32,100,80,60,go_to_red_up,red,true,false,joint 1 +,true,2024-03-04 13:35:43.449536,22.348,0.208,236.8,-86.92047882080078,299.2466735839844,84.958251953125,86.19669342041016,107.16500091552734,51.0,0.0,-20.0
32,100,80,60,go_to_pick_up_from_red,red,true,false,joint 1 -,false,2024-03-04 13:35:44.136670,22.671,0.208,236.8,-168.2113494873047,262.3140563964844,84.958251953125,102.67040252685547,122.31200408935547,51.0,0.0,-20.0
32,100,80,60,go_to_pick_up_from_red,red,true,false,joint 1 -,false,2024-03-04 13:35:44.822641,22.671,0.205,236.8,72.26679992675781,303.11920166015625,84.958251953125,56.59040069580078,75.00320434570312,51.0,0.0,-20.0
32,100,80,60,go_to_pick_up_from_red,red,true,false,joint 1 -,false,2024-03-04 13:35:45.790904,17.279,0.205,236.8,283.7376708984375,128.8280487060547,84.958251953125,4.419914245605469,23.956890106201172,51.0,0.0,-20.0
32,100,80,60,moving_belt,red,false,true,joint 1 -,false,2024-03-04 13:35:47.401430,16.405,0.157,236.8,292.8220520019531,106.5785140991211,84.958251953125,0.0,20.0,51.0,0.0,-20.0
32,100,80,60,moving_belt,red,false,true,joint 1 -,false,2024-03-04 13:35:48.667230,16.519,0.157,236.8,292.8220520019531,106.5785140991211,84.958251953125,0.0,20.0,51.0,0.0,-20.0
32,100,80,60,moving_belt,red,false,true,joint 1 -,false,2024-03-04 13:35:49.358305,16.5,0.156,236.8,292.8220520019531,106.5785140991211,84.958251953125,0.0,20.0,51.0,0.0,-20.0
32,100,80,60,moving_belt,red,false,true,joint 1 -,false,2024-03-04 13:35:50.046642,16.5,0.156,236.8,292.8220520019531,106.5785140991211,84.958251953125,0.0,20.0,51.0,0.0,-20.0
32,100,80,60,go_to_pick_down,red,true,false,joint 3 +,false,2024-03-04 13:35:51.437174,16.424,0.157,236.8,292.8041687011719,106.57201385498047,82.59386444091797,0.0,20.0,51.0,1.1519999504089355,-20.0
32,100,80,60,go_to_pick_up_from_pick_down,red,true,false,joint 3 -,true,2024-03-04 13:35:52.124963,16.424,0.157,236.8,282.8180847167969,102.93737030029297,30.034809112548828,0.0,20.0,51.0,21.981327056884766,-20.0
32,100,80,60,go_to_pick_up_from_pick_down,red,true,false,joint 3 -,true,2024-03-04 13:35:53.389045,16.158,0.157,236.8,292.7856140136719,106.56525421142578,81.58250427246094,0.0,20.0,51.0,1.069337248802185,-20.0
32,100,80,60,go_to_color_detect_up_from_pick_up,red,true,false,joint 1 +,true,2024-03-04 13:35:54.082225,23.108,0.175,236.8,248.7041473388672,187.74978637695312,84.958251953125,17.049598693847656,37.99679946899414,51.0,0.0,-20.0
32,100,80,60,go_to_color_detect_down,red,true,false,joint 3 +,true,2024-03-04 13:35:55.584446,22.272,0.202,236.8,131.69345092773438,282.4175109863281,84.30145263671875,45.0,65.0,51.0,0.3840000033378601,-20.0
32,100,80,60,go_to_color_detect_down,red,true,false,joint 3 +,true,2024-03-04 13:35:56.287036,22.272,0.202,236.8,121.60547637939453,260.7837829589844,4.656272888183594,45.0,65.0,51.0,33.97185516357422,-20.0
32,100,80,60,go_to_color_detect_up_from_color_detect_down,red,true,false,joint 3 -,false,2024-03-04 13:35:56.975543,21.969,0.202,236.8,112.7222671508789,241.73367309570312,-20.790390014648438,45.0,65.0,51.0,45.67039489746094,-20.0
32,100,80,60,go_to_color_detect_up_from_color_detect_down,red,true,false,joint 3 -,false,2024-03-04 13:35:58.221902,21.836,0.198,236.8,130.9754180908203,280.877685546875,62.66365432739258,45.0,65.0,51.0,8.067939758300781,-20.0
32,100,80,60,detecting_color,red,false,false,detecting_color,false,2024-03-04 13:35:59.599659,16.595,0.158,236.8,131.69407653808594,282.4188232421875,84.958251953125,45.0,65.0,51.0,0.0,-20.0
32,100,80,60,detecting_color,red,false,false,detecting_color,false,2024-03-04 13:36:00.285002,16.595,0.158,236.8,131.69407653808594,282.4188232421875,84.958251953125,45.0,65.0,51.0,0.0,-20.0
32,100,80,60,go_to_color_detect_down,red,true,false,joint 3 +,false,2024-03-04 13:36:01.016187,16.424,0.158,236.8,131.51283264160156,282.0301818847656,73.73785400390625,45.0,65.0,51.0,4.8640007972717285,-20.0
32,100,80,60,go_to_color_detect_down,red,true,false,joint 3 +,false,2024-03-04 13:36:02.532503,16.424,0.158,236.8,115.13351440429688,246.9046173095703,-14.967010498046875,45.0,65.0,51.0,43.327003479003906,-20.0
32,100,80,60,go_to_color_detect_up_from_color_detect_down,red,true,false,joint 3 -,true,2024-03-04 13:36:03.222177,16.348,0.156,236.8,120.27014923095703,257.9201354980469,0.00817108154296875,45.0,65.0,51.0,34.483192443847656,-20.0
32,100,80,60,go_to_color_detect_up_from_color_detect_down,red,true,false,joint 3 -,true,2024-03-04 13:36:03.222177,16.348,0.156,236.8,131.68734741210938,282.4044189453125,82.7967529296875,45.0,65.0,51.0,0.6478875875473022,-20.0
32,100,80,60,go_to_green_up,green,true,false,joint 1 +,true,2024-03-04 13:36:05.504560,22.291,0.209,236.8,32.73698806762695,309.89031982421875,84.958251953125,63.9696044921875,84.96800231933594,51.0,0.0,-20.0
32,100,80,60,go_to_pick_up_from_green,green,true,false,joint 1 -,false,2024-03-04 13:36:06.200687,22.329,0.202,236.8,-74.58403015136719,302.557373046875,84.958251953125,83.8479995727539,103.59200286865234,51.0,0.0,-20.0
32,100,80,60,go_to_pick_up_from_green,green,true,false,joint 1 -,false,2024-03-04 13:36:07.243551,20.184,0.202,236.8,143.00314331054688,276.8642883300781,84.958251953125,42.683197021484375,61.217742919921875,51.0,0.0,-20.0
32,100,80,60,go_to_pick_up_from_green,green,true,false,joint 1 -,false,2024-03-04 13:36:08.623715,16.367,0.156,236.8,290.4900207519531,112.7798080444336,84.958251953125,1.2181968688964844,20.981542587280273,51.0,0.0,-20.0
32,100,80,60,moving_belt,green,false,true,joint 1 -,false,2024-03-04 13:36:08.623715,16.367,0.156,236.8,292.8220520019531,106.5785140991211,84.958251953125,0.0,20.0,51.0,0.0,-20.0
32,100,80,60,moving_belt,green,false,true,joint 1 -,false,2024-03-04 13:36:09.876456,16.367,0.156,236.8,292.8220520019531,106.5785140991211,84.958251953125,0.0,20.0,51.0,0.0,-20.0
32,100,80,60,moving_belt,green,false,true,joint 1 -,false,2024-03-04 13:36:11.439890,16.424,0.157,236.8,292.8220520019531,106.5785140991211,84.958251953125,0.0,20.0,51.0,0.0,-20.0
32,100,80,60,moving_belt,green,false,true,joint 1 -,false,2024-03-04 13:36:12.697060,16.348,0.157,236.8,292.8220520019531,106.5785140991211,84.958251953125,0.0,20.0,51.0,0.0,-20.0
32,100,80,60,go_to_pick_down,green,true,false,joint 3 +,false,2024-03-04 13:36:13.387294,16.5,0.157,236.8,292.5671081542969,106.48572540283203,76.03123474121094,0.0,20.0,51.0,3.916799783706665,-20.0
32,100,80,60,go_to_pick_up_from_pick_down,green,true,false,joint 3 -,true,2024-03-04 13:36:14.087950,16.5,0.157,236.8,282.9018859863281,102.96786499023438,30.256664276123047,0.0,20.0,51.0,21.743999481201172,-20.0
32,100,80,60,go_to_pick_up_from_pick_down,green,true,false,joint 3 -,true,2024-03-04 13:36:15.479484,23.165,0.174,236.8,292.8220520019531,106.5785140991211,84.91034698486328,0.0,20.0,51.0,0.00253930501639843,-20.0
32,100,80,60,go_to_color_detect_up_from_pick_up,green,true,false,joint 1 +,true,2024-03-04 13:36:16.166708,23.165,0.174,236.8,219.65512084960938,221.032470703125,84.958251953125,25.1790771484375,46.173702239990234,51.0,0.0,-20.0
32,100,80,60,go_to_color_detect_down,green,true,false,joint 3 +,true,2024-03-04 13:36:17.542208,22.215,0.203,236.8,131.69134521484375,282.4129638671875,83.57898712158203,45.0,65.0,51.0,0.7168000340461731,-20.0
32,100,80,60,go_to_color_detect_down,green,true,false,joint 3 +,true,2024-03-04 13:36:18.276230,21.95,0.203,236.8,117.65996551513672,252.32260131835938,-8.102325439453125,45.0,65.0,51.0,39.93205642700195,-20.0
32,100,80,60,go_to_color_detect_up_from_color_detect_down,green,true,false,joint 3 -,false,2024-03-04 13:36:19.650186,21.893,0.198,236.8,114.90375518798828,246.41188049316406,-15.5504150390625,45.0,65.0,51.0,42.62399673461914,-20.0
32,100,80,60,go_to_color_detect_up_from_color_detect_down,green,true,false,joint 3 -,false,2024-03-04 13:36:20.347308,17.051,0.198,236.8,131.48756408691406,281.9759826660156,72.98236083984375,45.0,65.0,51.0,4.196763515472412,-20.0
32,100,80,60,detecting_color,green,false,false,detecting_color,false,2024-03-04 13:36:21.729321,16.633,0.155,236.8,131.69407653808594,282.4188232421875,84.958251953125,45.0,65.0,51.0,0.0,-20.0
32,100,80,60,detecting_color,green,false,false,detecting_color,false,2024-03-04 13:36:22.422682,16.633,0.155,236.8,131.69407653808594,282.4188232421875,84.958251953125,45.0,65.0,51.0,0.0,-20.0
32,100,80,60,go_to_color_detect_down,green,true,false,joint 3 +,false,2024-03-04 13:36:23.368554,16.405,0.155,236.8,128.32015991210938,275.1834411621094,37.173484802246094,45.0,65.0,51.0,19.968000411987305,-20.0
32,100,80,60,go_to_color_detect_up_from_color_detect_down,green,true,false,joint 3 -,true,2024-03-04 13:36:24.102071,16.272,0.157,236.8,111.14070892333984,238.34201049804688,-24.280067443847656,45.0,65.0,51.0,48.0,-20.0
32,100,80,60,go_to_color_detect_up_from_color_detect_down,green,true,false,joint 3 -,true,2024-03-04 13:36:25.483838,16.728,0.157,236.8,126.88520050048828,272.1061706542969,28.249542236328125,45.0,65.0,51.0,21.62674331665039,-20.0
32,100,80,60,go_to_blue_up,blue,true,false,joint 1 +,true,2024-03-04 13:36:26.193501,23.07,0.205,236.8,125.98946380615234,285.00946044921875,84.958251953125,46.152000427246094,66.40799713134766,51.0,0.0,-20.0
32,100,80,60,go_to_pick_up_from_blue,blue,true,false,joint 1 -,false,2024-03-04 13:36:27.285514,22.158,0.205,236.8,27.159029006958008,310.4289245605469,84.958251953125,65.0,85.0,51.0,0.0,-20.0
32,100,80,60,go_to_pick_up_from_blue,blue,true,false,joint 1 -,false,2024-03-04 13:36:27.975142,22.234,0.196,236.8,162.79969787597656,265.7065734863281,84.958251953125,38.503997802734375,57.32639694213867,51.0,0.0,-20.0
32,100,80,60,go_to_pick_up_from_blue,blue,true,false,joint 1 -,false,2024-03-04 13:36:29.642837,16.424,0.196,236.8,292.8148498535156,106.59830474853516,84.958251953125,0.003871917724609375,20.0,51.0,0.0,-20.0
32,100,80,60,moving_belt,blue,false,true,joint 1 -,false,2024-03-04 13:36:30.327202,16.5,0.154,236.8,292.8220520019531,106.5785140991211,84.958251953125,0.0,20.0,51.0,0.0,-20.0
32,100,80,60,moving_belt,blue,false,true,joint 1 -,false,2024-03-04 13:36:31.710206,16.519,0.154,236.8,292.8220520019531,106.5785140991211,84.958251953125,0.0,20.0,51.0,0.0,-20.0
32,100,80,60,moving_belt,blue,false,true,joint 1 -,false,2024-03-04 13:36:32.439414,16.519,0.157,236.8,292.8220520019531,106.5785140991211,84.958251953125,0.0,20.0,51.0,0.0,-20.0
32,100,80,60,moving_belt,blue,false,true,joint 1 -,false,2024-03-04 13:36:33.503037,16.5,0.157,236.8,292.8220520019531,106.5785140991211,84.958251953125,0.0,20.0,51.0,0.0,-20.0
32,100,80,60,go_to_pick_down,blue,true,false,joint 3 +,false,2024-03-04 13:36:34.315597,16.538,0.157,236.8,292.2144470214844,106.35736083984375,71.18563079833984,0.0,20.0,51.0,5.913599967956543,-20.0
32,100,80,60,go_to_pick_up_from_pick_down,blue,true,false,joint 3 -,true,2024-03-04 13:36:35.696881,16.424,0.155,236.8,284.7611389160156,103.64457702636719,35.47675704956055,0.0,20.0,51.0,19.31199836730957,-20.0
32,100,80,60,go_to_color_detect_up_from_pick_up,blue,true,false,joint 1 +,true,2024-03-04 13:36:36.388807,22.424,0.155,236.8,292.8220520019531,106.5785140991211,84.958251953125,0.0,20.02560043334961,51.0,0.0,-20.0
32,100,80,60,go_to_color_detect_up_from_pick_up,blue,true,false,joint 1 +,true,2024-03-04 13:36:37.077039,22.007,0.203,236.8,204.42132568359375,235.19281005859375,84.958251953125,29.00397491455078,49.896202087402344,51.0,0.0,-20.0
32,100,80,60,go_to_color_detect_down,blue,true,false,joint 3 +,true,2024-03-04 13:36:38.469000,22.177,0.203,236.8,131.5794219970703,282.1729431152344,76.03123474121094,45.0,65.0,51.0,3.9168004989624023,-20.0
32,100,80,60,go_to_color_detect_down,blue,true,false,joint 3 +,true,2024-03-04 13:36:39.156167,21.95,0.198,236.8,115.92172241210938,248.5949249267578,-12.916275024414062,45.0,65.0,51.0,42.29775619506836,-20.0
32,100,80,60,go_to_color_detect_up_from_color_detect_down,blue,true,false,joint 3 -,false,2024-03-04 13:36:40.529575,22.026,0.198,236.8,116.08131408691406,248.93716430664062,-12.491462707519531,45.0,65.0,51.0,40.93439483642578,-20.0
32,100,80,60,go_to_color_detect_up_from_color_detect_down,blue,true,false,joint 3 -,false,2024-03-04 13:36:41.244955,19.101,0.159,236.8,131.67787170410156,282.38409423828125,81.60124969482422,45.0,65.0,51.0,1.0627379417419434,-20.0
32,100,80,60,detecting_color,blue,false,false,detecting_color,false,2024-03-04 13:36:42.625362,17.184,0.159,236.8,131.69407653808594,282.4188232421875,84.958251953125,45.0,65.0,51.0,0.0,-20.0
32,100,80,60,go_to_color_detect_down,blue,true,false,joint 3 +,false,2024-03-04 13:36:43.434728,16.557,0.157,236.8,131.6670684814453,282.3609313964844,80.62398529052734,45.0,65.0,51.0,1.996800184249878,-20.0
32,100,80,60,go_to_color_detect_down,blue,true,false,joint 3 +,false,2024-03-04 13:36:44.124771,16.557,0.157,236.8,115.52031707763672,247.73411560058594,-13.970329284667969,45.0,65.0,51.0,42.82518005371094,-20.0
32,100,80,60,go_to_color_detect_up_from_color_detect_down,blue,true,false,joint 3 -,true,2024-03-04 13:36:45.506257,16.386,0.161,236.8,116.5020751953125,249.83949279785156,-11.355331420898438,45.0,65.0,51.0,40.31999588012695,-20.0
32,100,80,60,go_to_color_detect_up_from_color_detect_down,blue,true,false,joint 3 -,true,2024-03-04 13:36:46.193351,18.171,0.161,236.8,131.63267517089844,282.2871398925781,78.42352294921875,45.0,65.0,51.0,2.1996383666992188,-20.0
32,100,80,60,go_to_red_up,red,true,false,joint 1 +,true,2024-03-04 13:36:47.593432,22.102,0.195,236.8,37.993492126464844,309.2898864746094,84.958251953125,62.996803283691406,83.9696044921875,51.0,0.0,-20.0
32,100,80,60,go_to_red_up,red,true,false,joint 1 +,true,2024-03-04 13:36:48.284122,22.329,0.195,236.8,-171.33554077148438,260.2841796875,84.958251953125,103.35543823242188,123.6325454711914,51.0,0.0,-20.0
32,100,80,60,go_to_pick_up_from_red,red,true,false,joint 1 -,false,2024-03-04 13:36:49.666720,22.064,0.195,236.8,-109.83451843261719,291.6163635253906,84.958251953125,90.63839721679688,109.76799774169922,51.0,0.0,-20.0
32,100,80,60,go_to_pick_up_from_red,red,true,false,joint 1 -,false,2024-03-04 13:36:50.352047,16.576,0.158,236.8,234.88133239746094,204.77915954589844,84.958251953125,21.083251953125,40.05702590942383,51.0,0.0,-20.0
32,100,80,60,moving_belt,red,false,true,joint 1 -,false,2024-03-04 13:36:51.731195,16.519,0.158,236.8,292.8220520019531,106.5785140991211,84.958251953125,0.0,20.0,51.0,0.0,-20.0
32,100,80,60,moving_belt,red,false,true,joint 1 -,false,2024-03-04 13:36:52.435510,16.519,0.156,236.8,292.8220520019531,106.5785140991211,84.958251953125,0.0,20.0,51.0,0.0,-20.0
32,100,80,60,moving_belt,red,false,true,joint 1 -,false,2024-03-04 13:36:53.135472,16.652,0.156,236.8,292.8220520019531,106.5785140991211,84.958251953125,0.0,20.0,51.0,0.0,-20.0
32,100,80,60,moving_belt,red,false,true,joint 1 -,false,2024-03-04 13:36:54.506221,16.367,0.157,236.8,292.8220520019531,106.5785140991211,84.958251953125,0.0,20.0,51.0,0.0,-20.0
32,100,80,60,moving_belt,red,false,true,joint 1 -,false,2024-03-04 13:36:55.195208,16.367,0.157,236.8,292.8220520019531,106.5785140991211,84.958251953125,0.0,20.0,51.0,0.0,-20.0
32,100,80,60,go_to_pick_down,red,true,false,joint 3 +,false,2024-03-04 13:36:56.603002,16.367,0.156,236.8,288.3951416015625,104.96724700927734,48.04145812988281,0.0,20.0,51.0,15.14959716796875,-20.0
32,100,80,60,go_to_pick_up_from_pick_down,red,true,false,joint 3 -,true,2024-03-04 13:36:57.291177,16.367,0.156,236.8,287.41339111328125,104.60992431640625,44.226524353027344,0.0,20.0,51.0,15.523199081420898,-20.0
32,100,80,60,go_to_color_detect_up_from_pick_up,red,true,false,joint 1 +,true,2024-03-04 13:36:58.675259,22.5,0.204,236.8,291.0699462890625,111.27455139160156,84.958251953125,0.921600341796875,21.152000427246094,51.0,0.0,-20.0
32,100,80,60,go_to_color_detect_up_from_pick_up,red,true,false,joint 1 +,true,2024-03-04 13:36:59.364141,22.5,0.204,236.8,159.72105407714844,267.5685119628906,84.958251953125,39.16553497314453,59.69935989379883,51.0,0.0,-20.0
32,100,80,60,go_to_color_detect_down,red,true,false,joint 3 +,true,2024-03-04 13:37:00.168100,22.386,0.204,236.8,131.13681030273438,281.2237854003906,65.3131332397461,45.0,65.0,51.0,8.320000648498535,-20.0
32,100,80,60,go_to_color_detect_down,red,true,false,joint 3 +,true,2024-03-04 13:37:01.381089,22.007,0.198,236.8,113.15009307861328,242.65115356445312,-19.803451538085938,45.0,65.0,51.0,45.800357818603516,-20.0
32,100,80,60,go_to_color_detect_up_from_color_detect_down,red,true,false,joint 3 -,false,2024-03-04 13:37:02.074946,21.798,0.198,236.8,122.8482894897461,263.448974609375,9.356773376464844,45.0,65.0,51.0,30.003192901611328,-20.0
32,100,80,60,detecting_color,red,false,false,detecting_color,false,2024-03-04 13:37:03.586037,17.165,0.159,236.8,131.69407653808594,282.4188232421875,84.9127426147461,45.0,65.0,51.0,0.0023121191188693047,-20.0
32,100,80,60,detecting_color,red,false,false,detecting_color,false,2024-03-04 13:37:04.272900,17.165,0.159,236.8,131.69407653808594,282.4188232421875,84.958251953125,45.0,65.0,51.0,0.0,-20.0
32,100,80,60,detecting_color,red,false,false,detecting_color,false,2024-03-04 13:37:04.960403,16.557,0.159,236.8,131.69407653808594,282.4188232421875,84.958251953125,45.0,65.0,51.0,0.0,-20.0
32,100,80,60,detecting_color,red,false,false,detecting_color,false,2024-03-04 13:37:06.581308,16.329,0.156,236.8,131.69407653808594,282.4188232421875,84.958251953125,45.0,65.0,51.0,0.0,-20.0
32,100,80,60,detecting_color,red,false,false,detecting_color,false,2024-03-04 13:37:07.273195,16.5,0.157,236.8,131.69407653808594,282.4188232421875,84.958251953125,45.0,65.0,51.0,0.0,-20.0
32,100,80,60,go_to_color_detect_down,red,true,false,joint 3 +,false,2024-03-04 13:37:08.647942,16.386,0.157,236.8,126.22672271728516,270.6940612792969,24.65837860107422,45.0,65.0,51.0,25.3082275390625,-20.0
32,100,80,60,go_to_color_detect_up_from_color_detect_down,red,true,false,joint 3 -,true,2024-03-04 13:37:09.353194,16.386,0.157,236.8,111.15947723388672,238.38226318359375,-24.240074157714844,45.0,65.0,51.0,47.92319869995117,-20.0
32,100,80,60,go_to_color_detect_up_from_color_detect_down,red,true,false,joint 3 -,true,2024-03-04 13:37:10.726576,22.956,0.156,236.8,129.07827758789062,276.80926513671875,42.75160217285156,45.0,65.0,51.0,15.774191856384277,-20.0
32,100,80,60,go_to_green_up,green,true,false,joint 1 +,true,2024-03-04 13:37:11.442191,22.956,0.156,236.8,125.98946380615234,285.00946044921875,84.958251953125,46.152000427246094,66.40799713134766,51.0,0.0,-20.0
32,100,80,60,go_to_green_up,green,true,false,joint 1 +,true,2024-03-04 13:37:12.225002,22.348,0.202,236.8,-64.25081634521484,304.9189453125,84.958251953125,81.89897918701172,102.28443908691406,51.0,0.0,-20.0
32,100,80,60,go_to_pick_up_from_green,green,true,false,joint 1 -,false,2024-03-04 13:37:13.603485,21.912,0.202,236.8,-25.025888442993164,310.6081848144531,84.958251953125,74.60639953613281,93.86399841308594,51.0,0.0,-20.0
32,100,80,60,go_to_pick_up_from_green,green,true,false,joint 1 -,false,2024-03-04 13:37:14.299738,21.912,0.161,236.8,241.42507934570312,197.02198791503906,84.958251953125,19.21717071533203,38.23811721801758,51.0,0.0,-20.0
32,100,80,60,moving_belt,green,false,true,joint 1 -,false,2024-03-04 13:37:15.679449,16.424,0.161,236.8,292.8220520019531,106.5785140991211,84.958251953125,0.0,20.0,51.0,0.0,-20.0
32,100,80,60,moving_belt,green,false,true,joint 1 -,false,2024-03-04 13:37:16.371525,16.424,0.158,236.8,292.8220520019531,106.5785140991211,84.958251953125,0.0,20.0,51.0,0.0,-20.0
32,100,80,60,moving_belt,green,false,true,joint 1 -,false,2024-03-04 13:37:17.059381,16.576,0.158,236.8,292.8220520019531,106.5785140991211,84.958251953125,0.0,20.0,51.0,0.0,-20.0
32,100,80,60,moving_belt,green,false,true,joint 1 -,false,2024-03-04 13:37:18.686074,16.481,0.158,236.8,292.8220520019531,106.5785140991211,84.958251953125,0.0,20.0,51.0,0.0,-20.0
32,100,80,60,moving_belt,green,false,true,joint 1 -,false,2024-03-04 13:37:19.378972,16.481,0.158,236.8,292.8220520019531,106.5785140991211,84.958251953125,0.0,20.0,51.0,0.0,-20.0
32,100,80,60,go_to_pick_down,green,true,false,joint 3 +,false,2024-03-04 13:37:20.761738,16.177,0.156,236.8,285.8800964355469,104.05184173583984,38.94364929199219,0.0,20.0,51.0,18.667329788208008,-20.0
32,100,80,60,go_to_pick_up_from_pick_down,green,true,false,joint 3 -,true,2024-03-04 13:37:21.449196,16.177,0.156,236.8,289.27386474609375,105.28707885742188,51.854454040527344,0.0,20.0,51.0,12.323198318481445,-20.0
32,100,80,60,go_to_color_detect_up_from_pick_up,green,true,false,joint 1 +,true,2024-03-04 13:37:22.134519,22.253,0.156,236.8,288.2478332519531,118.39306640625,84.958251953125,2.329601287841797,22.68800163269043,51.0,0.0,-20.0
32,100,80,60,go_to_color_detect_up_from_pick_up,green,true,false,joint 1 +,true,2024-03-04 13:37:23.614258,22.102,0.203,236.8,148.31356811523438,274.05621337890625,84.958251953125,41.57865905761719,61.9844856262207,51.0,0.0,-20.0
32,100,80,60,go_to_color_detect_down,green,true,false,joint 3 +,true,2024-03-04 13:37:24.304069,22.102,0.203,236.8,130.67471313476562,280.2328186035156,58.438087463378906,45.0,65.0,51.0,11.136000633239746,-20.0
32,100,80,60,go_to_color_detect_down,green,true,false,joint 3 +,true,2024-03-04 13:37:25.676440,21.817,0.198,236.8,112.18233489990234,240.57577514648438,-22.00926971435547,45.0,65.0,51.0,46.937255859375,-20.0
32,100,80,60,go_to_color_detect_up_from_color_detect_down,green,true,false,joint 3 -,false,2024-03-04 13:37:26.360937,21.817,0.198,236.8,124.40592193603516,266.7893371582031,15.873466491699219,45.0,65.0,51.0,27.007993698120117,-20.0
32,100,80,60,detecting_color,green,false,false,detecting_color,false,2024-03-04 13:37:27.735174,16.937,0.158,236.8,131.69407653808594,282.4188232421875,84.958251953125,45.0,65.0,51.0,0.0,-20.0
32,100,80,60,detecting_color,green,false,false,detecting_color,false,2024-03-04 13:37:28.427892,16.937,0.158,236.8,131.69407653808594,282.4188232421875,84.958251953125,45.0,65.0,51.0,0.0,-20.0
32,100,80,60,go_to_color_detect_down,green,true,false,joint 3 +,false,2024-03-04 13:37:29.125479,16.291,0.158,236.8,131.689208984375,282.4084167480469,83.11925506591797,45.0,65.0,51.0,0.9216000437736511,-20.0
32,100,80,60,go_to_color_detect_down,green,true,false,joint 3 +,false,2024-03-04 13:37:30.505097,16.158,0.155,236.8,120.07318878173828,257.4977722167969,-0.6461639404296875,45.0,65.0,51.0,36.398929595947266,-20.0
32,100,80,60,go_to_color_detect_up_from_color_detect_down,green,true,false,joint 3 -,true,2024-03-04 13:37:31.238644,16.158,0.155,236.8,112.98113250732422,242.28880310058594,-20.195518493652344,45.0,65.0,51.0,45.31199645996094,-20.0
32,100,80,60,go_to_color_detect_up_from_color_detect_down,green,true,false,joint 3 -,true,2024-03-04 13:37:32.641571,22.861,0.155,236.8,131.52749633789062,282.06158447265625,74.20051574707031,45.0,65.0,51.0,3.746138572692871,-20.0
32,100,80,60,go_to_blue_up,blue,true,false,joint 1 +,true,2024-03-04 13:37:33.328937,22.14,0.155,236.8,82.348388671875,300.5369873046875,84.958251953125,54.67680358886719,75.3910903930664,51.0,0.0,-20.0
32,100,80,60,go_to_pick_up_from_blue,blue,true,false,joint 1 -,false,2024-03-04 13:37:34.721669,22.215,0.199,236.8,45.960594177246094,308.2066955566406,84.958251953125,61.518402099609375,81.08319854736328,51.0,0.0,-20.0
32,100,80,60,go_to_pick_up_from_blue,blue,true,false,joint 1 -,false,2024-03-04 13:37:35.426516,16.234,0.199,236.8,265.01788330078125,163.9184112548828,84.958251953125,11.737548828125,30.9752254486084,51.0,0.0,-20.0
32,100,80,60,moving_belt,blue,false,true,joint 1 -,false,2024-03-04 13:37:36.121782,16.234,0.156,236.8,292.8220520019531,106.5785140991211,84.958251953125,0.0,20.0,51.0,0.0,-20.0
32,100,80,60,moving_belt,blue,false,true,joint 1 -,false,2024-03-04 13:37:37.512666,16.234,0.156,236.8,292.8220520019531,106.5785140991211,84.958251953125,0.0,20.0,51.0,0.0,-20.0
32,100,80,60,moving_belt,blue,false,true,joint 1 -,false,2024-03-04 13:37:38.201362,16.405,0.157,236.8,292.8220520019531,106.5785140991211,84.958251953125,0.0,20.0,51.0,0.0,-20.0
32,100,80,60,moving_belt,blue,false,true,joint 1 -,false,2024-03-04 13:37:39.063676,16.405,0.157,236.8,292.8220520019531,106.5785140991211,84.958251953125,0.0,20.0,51.0,0.0,-20.0
32,100,80,60,moving_belt,blue,false,true,joint 1 -,false,2024-03-04 13:37:40.486717,16.291,0.155,236.8,292.8220520019531,106.5785140991211,84.958251953125,0.0,20.0,51.0,0.0,-20.0
32,100,80,60,go_to_pick_down,blue,true,false,joint 3 +,false,2024-03-04 13:37:41.173760,16.291,0.155,236.8,284.9454650878906,103.711669921875,36.02894592285156,0.0,20.0,51.0,19.79092788696289,-20.0
32,100,80,60,go_to_pick_up_from_pick_down,blue,true,false,joint 3 -,true,2024-03-04 13:37:42.552183,16.462,0.166,236.8,290.9578552246094,105.9000015258789,60.88926315307617,0.0,20.0,51.0,8.741999626159668,-20.0
32,100,80,60,go_to_color_detect_up_from_pick_up,blue,true,false,joint 1 +,true,2024-03-04 13:37:43.240705,20.336,0.166,236.8,284.8579406738281,126.33161926269531,84.958251953125,3.9168014526367188,24.377601623535156,51.0,0.0,-20.0
32,100,80,60,go_to_color_detect_up_from_pick_up,blue,true,false,joint 1 +,true,2024-03-04 13:37:44.614579,22.538,0.202,236.8,141.23570251464844,277.7700500488281,84.958251953125,43.048362731933594,63.35178756713867,51.0,0.0,-20.0
32,100,80,60,go_to_color_detect_down,blue,true,false,joint 3 +,true,2024-03-04 13:37:45.304574,22.538,0.202,236.8,129.75265502929688,278.2554626464844,48.496273040771484,45.0,65.0,51.0,15.232000350952148,-20.0
32,100,80,60,go_to_color_detect_down,blue,true,false,joint 3 +,true,2024-03-04 13:37:46.682860,22.177,0.198,236.8,111.4084243774414,238.91612243652344,-23.706314086914062,45.0,65.0,51.0,47.78238296508789,-20.0
32,100,80,60,go_to_color_detect_up_from_color_detect_down,blue,true,false,joint 3 -,false,2024-03-04 13:37:47.372212,21.57,0.198,236.8,127.72662353515625,273.9106140136719,33.26798629760742,45.0,65.0,51.0,19.57349395751953,-20.0
32,100,80,60,detecting_color,blue,false,false,detecting_color,false,2024-03-04 13:37:48.773218,17.07,0.158,236.8,131.69407653808594,282.4188232421875,84.958251953125,45.0,65.0,51.0,0.0,-20.0
32,100,80,60,detecting_color,blue,false,false,detecting_color,false,2024-03-04 13:37:49.468791,17.07,0.158,236.8,131.69407653808594,282.4188232421875,84.958251953125,45.0,65.0,51.0,0.0,-20.0
32,100,80,60,go_to_color_detect_down,blue,true,false,joint 3 +,false,2024-03-04 13:37:50.157005,16.405,0.158,236.8,129.51161193847656,277.7385559082031,46.33721923828125,45.0,65.0,51.0,16.128000259399414,-20.0
32,100,80,60,go_to_color_detect_down,blue,true,false,joint 3 +,false,2024-03-04 13:37:51.755403,16.367,0.156,236.8,111.31389617919922,238.71340942382812,-23.90966796875,45.0,65.0,51.0,47.87460708618164,-20.0
32,100,80,60,go_to_color_detect_up_from_color_detect_down,blue,true,false,joint 3 -,true,2024-03-04 13:37:52.467307,16.462,0.156,236.8,124.91893768310547,267.8894958496094,18.203369140625,45.0,65.0,51.0,25.958393096923828,-20.0
32,100,80,60,go_to_red_up,red,true,false,joint 1 +,true,2024-03-04 13:37:53.160728,23.222,0.156,236.8,130.43092346191406,283.0044250488281,84.958251953125,45.25599670410156,65.38399505615234,51.0,0.0,-20.0
32,100,80,60,go_to_red_up,red,true,false,joint 1 +,true,2024-03-04 13:37:54.546977,22.538,0.209,236.8,-53.303646087646484,307.02191162109375,84.958251953125,79.84923553466797,100.97114562988281,51.0,0.0,-20.0
32,100,80,60,go_to_pick_up_from_red,red,true,false,joint 1 -,false,2024-03-04 13:37:55.239533,22.329,0.209,236.8,-178.620849609375,255.33961486816406,84.958251953125,104.97440338134766,124.92320251464844,51.0,0.0,-20.0
32,100,80,60,go_to_pick_up_from_red,red,true,false,joint 1 -,false,2024-03-04 13:37:56.633783,22.614,0.206,236.8,24.036882400512695,310.686279296875,84.958251953125,65.57600402832031,84.14240264892578,51.0,0.0,-20.0
32,100,80,60,go_to_pick_up_from_red,red,true,false,joint 1 -,false,2024-03-04 13:37:57.317185,16.443,0.206,236.8,275.81146240234375,145.0233154296875,84.958251953125,7.735662460327148,27.119037628173828,51.0,0.0,-20.0
32,100,80,60,moving_belt,red,false,true,joint 1 -,false,2024-03-04 13:37:58.721516,16.519,0.157,236.8,292.8220520019531,106.5785140991211,84.958251953125,0.0,20.0,51.0,0.0,-20.0
32,100,80,60,moving_belt,red,false,true,joint 1 -,false,2024-03-04 13:37:59.409295,16.709,0.157,236.8,292.8220520019531,106.5785140991211,84.958251953125,0.0,20.0,51.0,0.0,-20.0
32,100,80,60,moving_belt,red,false,true,joint 1 -,false,2024-03-04 13:38:00.788426,16.576,0.156,236.8,292.8220520019531,106.5785140991211,84.958251953125,0.0,20.0,51.0,0.0,-20.0
32,100,80,60,moving_belt,red,false,true,joint 1 -,false,2024-03-04 13:38:01.512915,16.576,0.156,236.8,292.8220520019531,106.5785140991211,84.958251953125,0.0,20.0,51.0,0.0,-20.0
32,100,80,60,go_to_pick_down,red,true,false,joint 3 +,false,2024-03-04 13:38:02.258079,16.5,0.157,236.8,292.8220520019531,106.5785140991211,84.958251953125,0.0,20.0,51.0,0.025599999353289604,-20.0
32,100,80,60,go_to_pick_down,red,true,false,joint 3 +,false,2024-03-04 13:38:03.689652,16.728,0.157,236.8,283.70703125,103.26091003417969,32.44428253173828,0.0,20.0,51.0,21.151594161987305,-20.0
32,100,80,60,go_to_pick_up_from_pick_down,red,true,false,joint 3 -,true,2024-03-04 13:38:04.378519,16.367,0.161,236.8,291.9954833984375,106.27767181396484,68.90109252929688,0.0,20.0,51.0,5.717334270477295,-20.0
32,100,80,60,go_to_color_detect_up_from_pick_up,red,true,false,joint 1 +,true,2024-03-04 13:38:05.771957,22.88,0.161,236.8,270.7408447265625,154.28260803222656,84.958251953125,9.676801681518555,30.39360237121582,51.0,0.0,-20.0
32,100,80,60,go_to_color_detect_up_from_pick_up,red,true,false,joint 1 +,true,2024-03-04 13:38:06.507488,22.102,0.203,236.8,136.0724639892578,280.3355407714844,84.958251953125,44.10845947265625,64.30948638916016,51.0,0.0,-20.0
32,100,80,60,go_to_color_detect_down,red,true,false,joint 3 +,true,2024-03-04 13:38:07.204676,22.272,0.203,236.8,126.22672271728516,270.6940612792969,24.65837860107422,45.0,65.0,51.0,25.3082275390625,-20.0
32,100,80,60,go_to_color_detect_up_from_color_detect_down,red,true,false,joint 3 -,false,2024-03-04 13:38:08.590273,21.874,0.2,236.8,111.15947723388672,238.38226318359375,-24.240074157714844,45.0,65.0,51.0,47.92319869995117,-20.0
32,100,80,60,go_to_color_detect_up_from_color_detect_down,red,true,false,joint 3 -,false,2024-03-04 13:38:09.277070,22.121,0.2,236.8,128.45428466796875,275.4710998535156,38.107059478759766,45.0,65.0,51.0,17.622642517089844,-20.0
32,100,80,60,detecting_color,red,false,false,detecting_color,false,2024-03-04 13:38:10.646503,16.899,0.16,236.8,131.69407653808594,282.4188232421875,84.958251953125,45.0,65.0,51.0,0.0,-20.0
32,100,80,60,detecting_color,red,false,false,detecting_color,false,2024-03-04 13:38:11.337462,16.747,0.16,236.8,131.69407653808594,282.4188232421875,84.958251953125,45.0,65.0,51.0,0.0,-20.0
32,100,80,60,detecting_color,red,false,false,detecting_color,false,2024-03-04 13:38:12.718652,16.481,0.16,236.8,131.69407653808594,282.4188232421875,84.958251953125,45.0,65.0,51.0,0.0,-20.0
32,100,80,60,go_to_color_detect_down,red,true,false,joint 3 +,false,2024-03-04 13:38:13.415041,16.481,0.154,236.8,131.29757690429688,281.56854248046875,68.37651824951172,45.0,65.0,51.0,7.065600872039795,-20.0
32,100,80,60,go_to_color_detect_down,red,true,false,joint 3 +,false,2024-03-04 13:38:14.796251,16.329,0.154,236.8,112.18233489990234,240.57577514648438,-22.00926971435547,45.0,65.0,51.0,46.937255859375,-20.0
32,100,80,60,go_to_color_detect_up_from_color_detect_down,red,true,false,joint 3 -,true,2024-03-04 13:38:15.485823,16.329,0.154,236.8,122.8482894897461,263.448974609375,9.356773376464844,45.0,65.0,51.0,30.003192901611328,-20.0
32,100,80,60,go_to_green_up,green,true,false,joint 1 +,true,2024-03-04 13:38:16.174159,23.032,0.154,236.8,131.6940460205078,282.4187927246094,84.80748748779297,45.0,65.0,51.0,0.01773722842335701,-20.0
32,100,80,60,go_to_green_up,green,true,false,joint 1 +,true,2024-03-04 13:38:17.608469,22.196,0.202,236.8,-20.73101234436035,310.9243469238281,84.958251953125,73.8145751953125,94.55843353271484,51.0,0.0,-20.0
32,100,80,60,go_to_pick_up_from_green,green,true,false,joint 1 -,false,2024-03-04 13:38:18.317019,22.196,0.202,236.8,-66.44719696044922,304.4478759765625,84.958251953125,82.31200408935547,101.9280014038086,51.0,0.0,-20.0
32,100,80,60,go_to_pick_up_from_green,green,true,false,joint 1 -,false,2024-03-04 13:38:19.692794,16.443,0.159,236.8,175.9984893798828,257.1541442871094,84.958251953125,35.61193084716797,54.27447509765625,51.0,0.0,-20.0
32,100,80,60,moving_belt,green,false,true,joint 1 -,false,2024-03-04 13:38:20.377703,16.443,0.159,236.8,292.8220520019531,106.5785140991211,84.958251953125,0.0,20.0,51.0,0.0,-20.0
32,100,80,60,moving_belt,green,false,true,joint 1 -,false,2024-03-04 13:38:21.752506,16.519,0.158,236.8,292.8220520019531,106.5785140991211,84.958251953125,0.0,20.0,51.0,0.0,-20.0
32,100,80,60,moving_belt,green,false,true,joint 1 -,false,2024-03-04 13:38:22.543678,16.481,0.158,236.8,292.8220520019531,106.5785140991211,84.958251953125,0.0,20.0,51.0,0.0,-20.0
32,100,80,60,moving_belt,green,false,true,joint 1 -,false,2024-03-04 13:38:23.234204,16.481,0.158,236.8,292.8220520019531,106.5785140991211,84.958251953125,0.0,20.0,51.0,0.0,-20.0
32,100,80,60,moving_belt,green,false,true,joint 1 -,false,2024-03-04 13:38:24.618409,16.424,0.157,236.8,292.8220520019531,106.5785140991211,84.958251953125,0.0,20.0,51.0,0.0,-20.0
32,100,80,60,go_to_pick_down,green,true,false,joint 3 +,false,2024-03-04 13:38:25.308516,16.424,0.157,236.8,291.1268310546875,105.96150207519531,61.998878479003906,0.0,20.0,51.0,9.676799774169922,-20.0
32,100,80,60,go_to_pick_up_from_pick_down,green,true,false,joint 3 -,true,2024-03-04 13:38:26.685947,16.462,0.156,236.8,284.7611389160156,103.64457702636719,35.47675704956055,0.0,20.0,51.0,19.31199836730957,-20.0
32,100,80,60,go_to_color_detect_up_from_pick_up,green,true,false,joint 1 +,true,2024-03-04 13:38:27.373786,18.703,0.156,236.8,292.8220520019531,106.5785140991211,84.958251953125,0.0,20.0,51.0,0.0,-20.0
32,100,80,60,go_to_color_detect_up_from_pick_up,green,true,false,joint 1 +,true,2024-03-04 13:38:28.763953,22.329,0.2,236.8,183.27984619140625,252.01632690429688,84.958251953125,33.973331451416016,54.71195602416992,51.0,0.0,-20.0
32,100,80,60,go_to_color_detect_down,green,true,false,joint 3 +,true,2024-03-04 13:38:29.673439,22.329,0.2,236.8,131.5794219970703,282.1729431152344,76.03123474121094,45.0,65.0,51.0,3.9168004989624023,-20.0
32,100,80,60,go_to_color_detect_down,green,true,false,joint 3 +,true,2024-03-04 13:38:30.362671,22.14,0.2,236.8,115.92172241210938,248.5949249267578,-12.916275024414062,45.0,65.0,51.0,42.29775619506836,-20.0
32,100,80,60,go_to_color_detect_up_from_color_detect_down,green,true,false,joint 3 -,false,2024-03-04 13:38:31.752517,21.76,0.2,236.8,118.78585815429688,254.73709106445312,-4.746086120605469,45.0,65.0,51.0,36.86399459838867,-20.0
32,100,80,60,go_to_color_detect_up_from_color_detect_down,green,true,false,joint 3 -,false,2024-03-04 13:38:32.455543,21.76,0.2,236.8,131.67787170410156,282.38409423828125,81.60124969482422,45.0,65.0,51.0,1.0627379417419434,-20.0
32,100,80,60,detecting_color,green,false,false,detecting_color,false,2024-03-04 13:38:33.160103,17.203,0.162,236.8,131.69407653808594,282.4188232421875,84.958251953125,45.0,65.0,51.0,0.0,-20.0
32,100,80,60,go_to_color_detect_down,green,true,false,joint 3 +,false,2024-03-04 13:38:34.541290,16.424,0.162,236.8,131.68603515625,282.401611328125,82.59386444091797,45.0,65.0,51.0,1.152000069618225,-20.0
32,100,80,60,go_to_color_detect_down,green,true,false,joint 3 +,false,2024-03-04 13:38:35.228027,16.538,0.157,236.8,120.07318878173828,257.4977722167969,-0.6461639404296875,45.0,65.0,51.0,36.398929595947266,-20.0
32,100,80,60,go_to_color_detect_up_from_color_detect_down,green,true,false,joint 3 -,true,2024-03-04 13:38:36.607999,16.443,0.157,236.8,115.2815170288086,247.2220001220703,-14.58782958984375,45.0,65.0,51.0,42.086395263671875,-20.0
32,100,80,60,go_to_color_detect_up_from_color_detect_down,green,true,false,joint 3 -,true,2024-03-04 13:38:37.298736,16.443,0.2,236.8,131.52749633789062,282.06158447265625,74.20051574707031,45.0,65.0,51.0,3.746138572692871,-20.0
32,100,80,60,go_to_blue_up,blue,true,false,joint 1 +,true,2024-03-04 13:38:38.673765,22.595,0.2,236.8,82.348388671875,300.5369873046875,84.958251953125,54.67680358886719,75.3910903930664,51.0,0.0,-20.0
32,100,80,60,go_to_pick_up_from_blue,blue,true,false,joint 1 -,false,2024-03-04 13:38:39.399797,22.121,0.2,236.8,68.40118408203125,304.01483154296875,84.958251953125,57.31999969482422,76.68000030517578,51.0,0.0,-20.0
32,100,80,60,go_to_pick_up_from_blue,blue,true,false,joint 1 -,false,2024-03-04 13:38:40.796985,16.633,0.2,236.8,267.17529296875,160.3779296875,84.958251953125,10.975225448608398,30.238502502441406,51.0,0.0,-20.0
32,100,80,60,moving_belt,blue,false,true,joint 1 -,false,2024-03-04 13:38:41.494246,16.424,0.157,236.8,292.8220520019531,106.5785140991211,84.958251953125,0.0,20.0,51.0,0.0,-20.0
32,100,80,60,moving_belt,blue,false,true,joint 1 -,false,2024-03-04 13:38:42.182853,16.424,0.157,236.8,292.8220520019531,106.5785140991211,84.958251953125,0.0,20.0,51.0,0.0,-20.0
32,100,80,60,moving_belt,blue,false,true,joint 1 -,false,2024-03-04 13:38:43.617519,16.557,0.158,236.8,292.8220520019531,106.5785140991211,84.958251953125,0.0,20.0,51.0,0.0,-20.0
32,100,80,60,moving_belt,blue,false,true,joint 1 -,false,2024-03-04 13:38:44.308426,16.519,0.158,236.8,292.8220520019531,106.5785140991211,84.958251953125,0.0,20.0,51.0,0.0,-20.0
32,100,80,60,go_to_pick_down,blue,true,false,joint 3 +,false,2024-03-04 13:38:45.751000,16.576,0.157,236.8,292.8220520019531,106.5785140991211,84.958251953125,0.0,20.0,51.0,0.0,-20.0
32,100,80,60,go_to_pick_down,blue,true,false,joint 3 +,false,2024-03-04 13:38:46.788380,16.31,0.157,236.8,284.66302490234375,103.60887145996094,35.1856803894043,0.0,20.0,51.0,20.114261627197266,-20.0
32,100,80,60,go_to_pick_up_from_pick_down,blue,true,false,joint 3 -,true,2024-03-04 13:38:47.607824,19.063,0.157,236.8,291.2173156738281,105.99443054199219,62.61640167236328,0.0,20.0,51.0,8.085866928100586,-20.0
32,100,80,60,go_to_color_detect_up_from_pick_up,blue,true,false,joint 1 +,true,2024-03-04 13:38:48.426595,22.614,0.208,236.8,272.58233642578125,151.00531005859375,84.958251953125,8.985601425170898,29.676801681518555,51.0,0.0,-20.0
32,100,80,60,go_to_color_detect_up_from_pick_up,blue,true,false,joint 1 +,true,2024-03-04 13:38:49.234797,22.614,0.208,236.8,137.1802215576172,279.7951354980469,84.958251953125,43.8818359375,64.10845947265625,51.0,0.0,-20.0
32,100,80,60,go_to_color_detect_down,blue,true,false,joint 3 +,true,2024-03-04 13:38:50.610405,22.007,0.202,236.8,128.654541015625,275.9005432128906,39.54055404663086,45.0,65.0,51.0,18.969600677490234,-20.0
32,100,80,60,go_to_color_detect_up_from_color_detect_down,blue,true,false,joint 3 -,false,2024-03-04 13:38:51.301599,21.684,0.202,236.8,111.15947723388672,238.38226318359375,-24.240074157714844,45.0,65.0,51.0,47.92319869995117,-20.0
32,100,80,60,go_to_color_detect_up_from_color_detect_down,blue,true,false,joint 3 -,false,2024-03-04 13:38:52.677664,20.772,0.198,236.8,128.77862548828125,276.1666564941406,40.454505920410156,45.0,65.0,51.0,16.685617446899414,-20.0
32,100,80,60,detecting_color,blue,false,false,detecting_color,false,2024-03-04 13:38:53.364645,17.127,0.198,236.8,131.69407653808594,282.4188232421875,84.958251953125,45.0,65.0,51.0,0.0,-20.0
32,100,80,60,detecting_color,blue,false,false,detecting_color,false,2024-03-04 13:38:54.799638,16.557,0.156,236.8,131.69407653808594,282.4188232421875,84.958251953125,45.0,65.0,51.0,0.0,-20.0
32,100,80,60,go_to_color_detect_down,blue,true,false,joint 3 +,false,2024-03-04 13:38:55.487446,16.557,0.156,236.8,128.654541015625,275.9005432128906,39.54055404663086,45.0,65.0,51.0,18.969600677490234,-20.0
32,100,80,60,go_to_color_detect_up_from_color_detect_down,blue,true,false,joint 3 -,true,2024-03-04 13:38:56.175771,16.158,0.156,236.8,111.26245880126953,238.6031036376953,-24.01995849609375,45.0,65.0,51.0,47.743995666503906,-20.0
32,100,80,60,go_to_color_detect_up_from_color_detect_down,blue,true,false,joint 3 -,true,2024-03-04 13:38:57.661665,16.785,0.156,236.8,129.3544921875,277.4015808105469,44.99677276611328,45.0,65.0,51.0,14.88836669921875,-20.0
32,100,80,60,go_to_red_up,red,true,false,joint 1 +,true,2024-03-04 13:38:58.356478,22.861,0.156,236.8,124.71479797363281,285.56951904296875,84.958251953125,46.407997131347656,66.6895980834961,51.0,0.0,-20.0
32,100,80,60,go_to_red_up,red,true,false,joint 1 +,true,2024-03-04 13:38:59.730594,22.291,0.204,236.8,-114.82701110839844,289.6868896484375,84.958251953125,91.62254333496094,112.437255859375,51.0,0.0,-20.0
32,100,80,60,go_to_pick_up_from_red,red,true,false,joint 1 -,false,2024-03-04 13:39:00.419906,22.291,0.204,236.8,-168.2113494873047,262.3140563964844,84.958251953125,102.67040252685547,122.31200408935547,51.0,0.0,-20.0
32,100,80,60,go_to_pick_up_from_red,red,true,false,joint 1 -,false,2024-03-04 13:39:01.800690,16.386,0.202,236.8,72.26679992675781,303.11920166015625,84.958251953125,56.59040069580078,75.00320434570312,51.0,0.0,-20.0
32,100,80,60,go_to_pick_up_from_red,red,true,false,joint 1 -,false,2024-03-04 13:39:02.497360,16.386,0.202,236.8,288.8716125488281,116.86285400390625,84.958251953125,2.025768280029297,21.71634292602539,51.0,0.0,-20.0
32,100,80,60,moving_belt,red,false,true,joint 1 -,false,2024-03-04 13:39:03.182730,16.462,0.156,236.8,292.8220520019531,106.5785140991211,84.958251953125,0.0,20.0,51.0,0.0,-20.0
32,100,80,60,moving_belt,red,false,true,joint 1 -,false,2024-03-04 13:39:04.568598,16.595,0.156,236.8,292.8220520019531,106.5785140991211,84.958251953125,0.0,20.0,51.0,0.0,-20.0
32,100,80,60,moving_belt,red,false,true,joint 1 -,false,2024-03-04 13:39:05.261757,16.595,0.157,236.8,292.8220520019531,106.5785140991211,84.958251953125,0.0,20.0,51.0,0.0,-20.0
32,100,80,60,moving_belt,red,false,true,joint 1 -,false,2024-03-04 13:39:06.688348,16.443,0.157,236.8,292.8220520019531,106.5785140991211,84.958251953125,0.0,20.0,51.0,0.0,-20.0
32,100,80,60,go_to_pick_down,red,true,false,joint 3 +,false,2024-03-04 13:39:07.381022,16.576,0.158,236.8,292.8041687011719,106.57201385498047,82.59386444091797,0.0,20.0,51.0,1.1519999504089355,-20.0
32,100,80,60,go_to_pick_up_from_pick_down,red,true,false,joint 3 -,true,2024-03-04 13:39:08.780635,16.31,0.158,236.8,282.76361083984375,102.91754913330078,29.89107894897461,0.0,20.0,51.0,21.97439956665039,-20.0
32,100,80,60,go_to_pick_up_from_pick_down,red,true,false,joint 3 -,true,2024-03-04 13:39:09.466947,17.924,0.203,236.8,292.7856140136719,106.56525421142578,81.58250427246094,0.0,20.0,51.0,1.069337248802185,-20.0
32,100,80,60,go_to_color_detect_up_from_pick_up,red,true,false,joint 1 +,true,2024-03-04 13:39:10.155798,22.747,0.203,236.8,245.56646728515625,191.83546447753906,84.958251953125,17.99679946899414,38.969600677490234,51.0,0.0,-20.0
32,100,80,60,go_to_color_detect_down,red,true,false,joint 3 +,true,2024-03-04 13:39:11.539694,22.253,0.204,236.8,131.6926727294922,282.41583251953125,83.97305297851562,45.0,65.0,51.0,0.537600040435791,-20.0
32,100,80,60,go_to_color_detect_down,red,true,false,joint 3 +,true,2024-03-04 13:39:12.228072,22.31,0.204,236.8,121.09010314941406,259.6785583496094,2.8167648315429688,45.0,65.0,51.0,34.806480407714844,-20.0
32,100,80,60,go_to_color_detect_up_from_color_detect_down,red,true,false,joint 3 -,false,2024-03-04 13:39:13.181498,21.855,0.204,235.0,112.7222671508789,241.73367309570312,-20.790390014648438,45.0,65.0,51.0,45.67039489746094,-20.0
32,100,80,60,go_to_color_detect_up_from_color_detect_down,red,true,false,joint 3 -,false,2024-03-04 13:39:14.572517,21.988,0.2,236.8,131.38665771484375,281.7596130371094,70.35253143310547,45.0,65.0,51.0,5.174813747406006,-20.0
32,100,80,60,detecting_color,red,false,false,detecting_color,false,2024-03-04 13:39:15.260056,17.108,0.2,236.8,131.69407653808594,282.4188232421875,84.958251953125,45.0,65.0,51.0,0.0,-20.0
32,100,80,60,detecting_color,red,false,false,detecting_color,false,2024-03-04 13:39:16.640498,16.386,0.157,236.8,131.69407653808594,282.4188232421875,84.958251953125,45.0,65.0,51.0,0.0,-20.0
32,100,80,60,detecting_color,red,false,false,detecting_color,false,2024-03-04 13:39:17.332507,16.481,0.157,236.8,131.69407653808594,282.4188232421875,84.958251953125,45.0,65.0,51.0,0.0,-20.0
32,100,80,60,detecting_color,red,false,false,detecting_color,false,2024-03-04 13:39:18.833352,16.424,0.158,236.8,131.69407653808594,282.4188232421875,84.958251953125,45.0,65.0,51.0,0.0,-20.0
32,100,80,60,go_to_color_detect_down,red,true,false,joint 3 +,false,2024-03-04 13:39:19.520771,16.424,0.158,236.8,131.62571716308594,282.2722473144531,78.0643539428711,45.0,65.0,51.0,3.072000503540039,-20.0
32,100,80,60,go_to_color_detect_down,red,true,false,joint 3 +,false,2024-03-04 13:39:20.211233,16.405,0.158,236.8,114.40603637695312,245.34451293945312,-16.79278564453125,45.0,65.0,51.0,44.25385665893555,-20.0
32,100,80,60,go_to_color_detect_up_from_color_detect_down,red,true,false,joint 3 -,true,2024-03-04 13:39:21.584821,16.386,0.157,236.8,117.83946990966797,252.70755004882812,-7.5805511474609375,45.0,65.0,51.0,38.32319641113281,-20.0
32,100,80,60,go_to_color_detect_up_from_color_detect_down,red,true,false,joint 3 -,true,2024-03-04 13:39:22.274714,23.241,0.157,236.8,131.66075134277344,282.34735107421875,80.14338684082031,45.0,65.0,51.0,1.5799882411956787,-20.0
32,100,80,60,go_to_green_up,green,true,false,joint 1 +,true,2024-03-04 13:39:23.653024,22.918,0.209,236.8,27.332361221313477,310.4137268066406,84.958251953125,64.96800231933594,85.96785736083984,51.0,0.0,-20.0
32,100,80,60,go_to_pick_up_from_green,green,true,false,joint 1 -,false,2024-03-04 13:39:24.343984,22.14,0.209,236.8,-77.82413482666016,301.74017333984375,84.958251953125,84.46240234375,104.283203125,51.0,0.0,-20.0
32,100,80,60,go_to_pick_up_from_green,green,true,false,joint 1 -,false,2024-03-04 13:39:25.731179,22.272,0.204,236.8,121.83770751953125,286.808837890625,84.958251953125,46.98399353027344,65.57599639892578,51.0,0.0,-20.0
32,100,80,60,go_to_pick_up_from_green,green,true,false,joint 1 -,false,2024-03-04 13:39:26.420795,16.538,0.204,236.8,291.71856689453125,109.5628433227539,84.958251953125,0.5850334167480469,20.42517852783203,51.0,0.0,-20.0
32,100,80,60,moving_belt,green,false,true,joint 1 -,false,2024-03-04 13:39:27.809877,16.348,0.158,236.8,292.8220520019531,106.5785140991211,84.958251953125,0.0,20.0,51.0,0.0,-20.0
32,100,80,60,moving_belt,green,false,true,joint 1 -,false,2024-03-04 13:39:28.506664,16.652,0.158,236.8,292.8220520019531,106.5785140991211,84.958251953125,0.0,20.0,51.0,0.0,-20.0
32,100,80,60,moving_belt,green,false,true,joint 1 -,false,2024-03-04 13:39:29.194749,16.652,0.157,236.8,292.8220520019531,106.5785140991211,84.958251953125,0.0,20.0,51.0,0.0,-20.0
32,100,80,60,moving_belt,green,false,true,joint 1 -,false,2024-03-04 13:39:30.574483,16.291,0.157,236.8,292.8220520019531,106.5785140991211,84.958251953125,0.0,20.0,51.0,0.0,-20.0
32,100,80,60,go_to_pick_down,green,true,false,joint 3 +,false,2024-03-04 13:39:31.270392,16.424,0.157,236.8,292.7078857421875,106.5369644165039,78.98300170898438,0.0,20.0,51.0,2.687999725341797,-20.0
32,100,80,60,go_to_pick_up_from_pick_down,green,true,false,joint 3 -,true,2024-03-04 13:39:32.664562,16.405,0.157,236.8,282.9935302734375,103.00122833251953,30.5006103515625,0.0,20.0,51.0,21.615999221801758,-20.0
32,100,80,60,go_to_pick_up_from_pick_down,green,true,false,joint 3 -,true,2024-03-04 13:39:33.353620,19.785,0.197,236.8,292.817138671875,106.57672882080078,83.71820068359375,0.0,20.0,51.0,0.3392047882080078,-20.0
32,100,80,60,go_to_color_detect_up_from_pick_up,green,true,false,joint 1 +,true,2024-03-04 13:39:34.399597,22.671,0.197,236.8,238.8225555419922,200.1687469482422,84.958251953125,19.968002319335938,40.992000579833984,51.0,0.0,-20.0
32,100,80,60,go_to_color_detect_down,green,true,false,joint 3 +,true,2024-03-04 13:39:35.223280,22.177,0.197,236.8,131.689208984375,282.4084167480469,83.11925506591797,45.0,65.0,51.0,0.9216000437736511,-20.0
32,100,80,60,go_to_color_detect_down,green,true,false,joint 3 +,true,2024-03-04 13:39:36.622288,22.196,0.204,235.0,120.07318878173828,257.4977722167969,-0.6461639404296875,45.0,65.0,51.0,36.398929595947266,-20.0
32,100,80,60,go_to_color_detect_up_from_color_detect_down,green,true,false,joint 3 -,false,2024-03-04 13:39:37.311580,21.798,0.204,235.0,113.25825500488281,242.88308715820312,-19.55091094970703,45.0,65.0,51.0,44.92799758911133,-20.0
32,100,80,60,go_to_color_detect_up_from_color_detect_down,green,true,false,joint 3 -,false,2024-03-04 13:39:38.681745,21.418,0.2,236.8,131.52749633789062,282.06158447265625,74.20051574707031,45.0,65.0,51.0,3.746138572692871,-20.0
32,100,80,60,detecting_color,green,false,false,detecting_color,false,2024-03-04 13:39:39.367006,17.203,0.2,236.8,131.69407653808594,282.4188232421875,84.958251953125,45.0,65.0,51.0,0.0,-20.0
32,100,80,60,detecting_color,green,false,false,detecting_color,false,2024-03-04 13:39:40.751655,16.576,0.155,236.8,131.69407653808594,282.4188232421875,84.958251953125,45.0,65.0,51.0,0.0,-20.0
32,100,80,60,go_to_color_detect_down,green,true,false,joint 3 +,false,2024-03-04 13:39:41.450390,16.519,0.155,236.8,130.35804748535156,279.5537414550781,54.636192321777344,45.0,65.0,51.0,12.697600364685059,-20.0
32,100,80,60,go_to_color_detect_down,green,true,false,joint 3 +,false,2024-03-04 13:39:42.844435,16.519,0.155,236.8,111.81321716308594,239.78419494628906,-22.825897216796875,45.0,65.0,51.0,47.352108001708984,-20.0
32,100,80,60,go_to_color_detect_up_from_color_detect_down,green,true,false,joint 3 -,true,2024-03-04 13:39:43.552452,16.519,0.155,236.8,125.9268569946289,270.0509948730469,23.1051025390625,45.0,65.0,51.0,23.782394409179688,-20.0
32,100,80,60,go_to_blue_up,blue,true,false,joint 1 +,true,2024-03-04 13:39:44.241679,23.089,0.208,236.8,131.69407653808594,282.4188232421875,84.958251953125,45.0,65.0,51.0,0.0,-20.0
32,100,80,60,go_to_blue_up,blue,true,false,joint 1 +,true,2024-03-04 13:39:45.447635,22.899,0.208,236.8,32.03989028930664,309.96319580078125,84.958251953125,64.09847259521484,84.3007583618164,51.0,0.0,-20.0
32,100,80,60,go_to_pick_up_from_blue,blue,true,false,joint 1 -,false,2024-03-04 13:39:46.846133,19.538,0.196,236.8,146.85482788085938,274.8406677246094,84.958251953125,41.88319778442383,60.78239822387695,51.0,0.0,-20.0
32,100,80,60,go_to_pick_up_from_blue,blue,true,false,joint 1 -,false,2024-03-04 13:39:47.536432,19.538,0.196,236.8,290.2197265625,113.47356414794922,84.958251953125,1.3550968170166016,21.104774475097656,51.0,0.0,-20.0
32,100,80,60,moving_belt,blue,false,true,joint 1 -,false,2024-03-04 13:39:48.230499,16.5,0.196,236.8,292.8220520019531,106.5785140991211,84.958251953125,0.0,20.0,51.0,0.0,-20.0
32,100,80,60,moving_belt,blue,false,true,joint 1 -,false,2024-03-04 13:39:49.278049,16.728,0.158,236.8,292.8220520019531,106.5785140991211,84.958251953125,0.0,20.0,51.0,0.0,-20.0
32,100,80,60,moving_belt,blue,false,true,joint 1 -,false,2024-03-04 13:39:50.652405,16.196,0.158,235.0,292.8220520019531,106.5785140991211,84.958251953125,0.0,20.0,51.0,0.0,-20.0
32,100,80,60,moving_belt,blue,false,true,joint 1 -,false,2024-03-04 13:39:51.341338,16.196,0.157,235.0,292.8220520019531,106.5785140991211,84.958251953125,0.0,20.0,51.0,0.0,-20.0
32,100,80,60,go_to_pick_down,blue,true,false,joint 3 +,false,2024-03-04 13:39:52.317326,16.557,0.157,236.8,292.62353515625,106.50626373291016,77.08039855957031,0.0,20.0,51.0,3.481599807739258,-20.0
32,100,80,60,go_to_pick_up_from_pick_down,blue,true,false,joint 3 -,true,2024-03-04 13:39:53.843253,16.462,0.157,236.8,282.7867126464844,102.92594909667969,29.951984405517578,0.0,20.0,51.0,21.923198699951172,-20.0
32,100,80,60,go_to_pick_up_from_pick_down,blue,true,false,joint 3 -,true,2024-03-04 13:39:54.717199,16.462,0.157,236.8,292.8219909667969,106.5784912109375,84.80327606201172,0.0,20.0,51.0,0.01867242157459259,-20.0
32,100,80,60,go_to_color_detect_up_from_pick_up,blue,true,false,joint 1 +,true,2024-03-04 13:39:55.584165,22.899,0.206,236.8,223.5558319091797,217.08642578125,84.958251953125,24.158851623535156,45.1790771484375,51.0,0.0,-20.0
32,100,80,60,go_to_color_detect_down,blue,true,false,joint 3 +,true,2024-03-04 13:39:55.584165,22.899,0.206,236.8,131.69384765625,282.4183654785156,84.56417083740234,45.0,65.0,51.0,0.25600001215934753,-20.0
32,100,80,60,go_to_color_detect_down,blue,true,false,joint 3 +,true,2024-03-04 13:39:57.611168,21.836,0.2,236.8,119.08185577392578,255.37184143066406,-3.8294219970703125,45.0,65.0,51.0,37.88897705078125,-20.0
32,100,80,60,go_to_color_detect_up_from_color_detect_down,blue,true,false,joint 3 -,false,2024-03-04 13:39:58.297463,21.836,0.2,236.8,113.86580657958984,244.1859893798828,-18.10907745361328,45.0,65.0,51.0,44.08319854736328,-20.0
32,100,80,60,go_to_color_detect_up_from_color_detect_down,blue,true,false,joint 3 -,false,2024-03-04 13:39:59.705936,16.842,0.159,236.8,131.32420349121094,281.6256408691406,68.94139099121094,45.0,65.0,51.0,5.702239036560059,-20.0
32,100,80,60,detecting_color,blue,false,false,detecting_color,false,2024-03-04 13:40:00.395628,16.842,0.159,236.8,131.69407653808594,282.4188232421875,84.958251953125,45.0,65.0,51.0,0.0,-20.0
32,100,80,60,go_to_color_detect_down,blue,true,false,joint 3 +,false,2024-03-04 13:40:01.779166,16.557,0.158,236.8,131.69345092773438,282.4175109863281,84.30145263671875,45.0,65.0,51.0,0.3840000033378601,-20.0
32,100,80,60,go_to_color_detect_down,blue,true,false,joint 3 +,false,2024-03-04 13:40:02.471830,16.595,0.158,236.8,121.09010314941406,259.6785583496094,2.8167648315429688,45.0,65.0,51.0,34.806480407714844,-20.0
32,100,80,60,go_to_color_detect_up_from_color_detect_down,blue,true,false,joint 3 -,true,2024-03-04 13:40:03.185867,16.595,0.158,236.8,114.54153442382812,245.63510131835938,-16.457427978515625,45.0,65.0,51.0,43.1359977722168,-20.0
32,100,80,60,go_to_color_detect_up_from_color_detect_down,blue,true,false,joint 3 -,true,2024-03-04 13:40:04.575980,23.222,0.175,236.8,131.44085693359375,281.8758239746094,71.69961547851562,45.0,65.0,51.0,4.672988414764404,-20.0
32,100,80,60,go_to_red_up,red,true,false,joint 1 +,true,2024-03-04 13:40:05.405090,22.937,0.175,236.8,89.44155883789062,298.5028381347656,84.958251953125,53.31999969482422,73.98560333251953,51.0,0.0,-20.0
32,100,80,60,go_to_red_up,red,true,false,joint 1 +,true,2024-03-04 13:40:06.797861,22.064,0.202,235.0,-161.21629333496094,266.6702575683594,84.958251953125,101.15518188476562,121.58589172363281,51.0,0.0,-20.0
32,100,80,60,go_to_pick_up_from_red,red,true,false,joint 1 -,false,2024-03-04 13:40:07.487445,22.557,0.202,235.0,-133.2850341796875,281.6714782714844,84.958251953125,95.32319641113281,114.60639953613281,51.0,0.0,-20.0
32,100,80,60,go_to_pick_up_from_red,red,true,false,joint 1 -,false,2024-03-04 13:40:08.869026,18.209,0.158,235.0,176.9720001220703,256.48516845703125,84.958251953125,35.39474105834961,54.061317443847656,51.0,0.0,-20.0
32,100,80,60,moving_belt,red,false,true,joint 1 -,false,2024-03-04 13:40:09.570923,16.519,0.158,235.0,292.8220520019531,106.5785140991211,84.958251953125,0.0,20.0,51.0,0.0,-20.0
32,100,80,60,moving_belt,red,false,true,joint 1 -,false,2024-03-04 13:40:10.254955,16.519,0.158,235.0,292.8220520019531,106.5785140991211,84.958251953125,0.0,20.0,51.0,0.0,-20.0
32,100,80,60,moving_belt,red,false,true,joint 1 -,false,2024-03-04 13:40:11.790492,16.329,0.159,235.0,292.8220520019531,106.5785140991211,84.958251953125,0.0,20.0,51.0,0.0,-20.0
32,100,80,60,moving_belt,red,false,true,joint 1 -,false,2024-03-04 13:40:12.632166,16.329,0.159,235.0,292.8220520019531,106.5785140991211,84.958251953125,0.0,20.0,51.0,0.0,-20.0
32,100,80,60,moving_belt,red,false,true,joint 1 -,false,2024-03-04 13:40:13.450584,16.671,0.158,235.0,292.8220520019531,106.5785140991211,84.958251953125,0.0,20.0,51.0,0.0,-20.0
32,100,80,60,go_to_pick_down,red,true,false,joint 3 +,false,2024-03-04 13:40:14.252606,16.348,0.158,235.0,292.2144470214844,106.35736083984375,71.18563079833984,0.0,20.0,51.0,5.913599967956543,-20.0
32,100,80,60,go_to_pick_up_from_pick_down,red,true,false,joint 3 -,true,2024-03-04 13:40:15.785676,16.31,0.158,235.0,284.4888610839844,103.54548645019531,34.673580169677734,0.0,20.0,51.0,19.670398712158203,-20.0
32,100,80,60,go_to_color_detect_up_from_pick_up,red,true,false,joint 1 +,true,2024-03-04 13:40:16.474254,23.108,0.158,235.0,292.8220520019531,106.5785140991211,84.958251953125,0.0,20.0,51.0,0.0,-20.0
32,100,80,60,go_to_color_detect_up_from_pick_up,red,true,false,joint 1 +,true,2024-03-04 13:40:17.856146,21.969,0.205,235.0,211.95236206054688,228.4292755126953,84.958251953125,27.14272689819336,48.086151123046875,51.0,0.0,-20.0
32,100,80,60,go_to_color_detect_down,red,true,false,joint 3 +,true,2024-03-04 13:40:18.547245,22.253,0.205,235.0,131.62571716308594,282.2722473144531,78.0643539428711,45.0,65.0,51.0,3.072000503540039,-20.0
32,100,80,60,go_to_color_detect_down,red,true,false,joint 3 +,true,2024-03-04 13:40:19.233930,22.064,0.202,235.0,116.7657241821289,250.40487670898438,-10.63128662109375,45.0,65.0,51.0,41.166107177734375,-20.0
32,100,80,60,go_to_color_detect_up_from_color_detect_down,red,true,false,joint 3 -,false,2024-03-04 13:40:20.606957,22.007,0.202,235.0,117.83946990966797,252.70755004882812,-7.5805511474609375,45.0,65.0,51.0,38.32319641113281,-20.0
32,100,80,60,go_to_color_detect_up_from_color_detect_down,red,true,false,joint 3 -,false,2024-03-04 13:40:21.299802,17.867,0.16,235.0,131.66075134277344,282.34735107421875,80.14338684082031,45.0,65.0,51.0,1.5799882411956787,-20.0
32,100,80,60,detecting_color,red,false,false,detecting_color,false,2024-03-04 13:40:22.678746,16.975,0.16,235.0,131.69407653808594,282.4188232421875,84.958251953125,45.0,65.0,51.0,0.0,-20.0
32,100,80,60,detecting_color,red,false,false,detecting_color,false,2024-03-04 13:40:23.385950,16.975,0.16,235.0,131.69407653808594,282.4188232421875,84.958251953125,45.0,65.0,51.0,0.0,-20.0
32,100,80,60,detecting_color,red,false,false,detecting_color,false,2024-03-04 13:40:24.783653,16.462,0.159,235.0,131.69407653808594,282.4188232421875,84.958251953125,45.0,65.0,51.0,0.0,-20.0
