demetriskallis/dobot_magician_pick_and_place_and_color_sorting/Sampling/WholeSystemExperiments_training_data/payload_32g/joint_measurements__armv_60_arma_100_belts_60_cube_32g.csv
cube/weight,arm/velocity_ratio,arm/acceleration_ratio,belt/speed,dobot/operation,dobot/color,dobot/moving_arm,dobot/moving_belt,dobot/operation2,dobot/suction,meross/sample_timestamp,meross/power,meross/current,meross/voltage,dobot/pose_x,dobot/pose_y,dobot/pose_z,dobot/pose_rHead,dobot/pose_joint1Angle,dobot/pose_joint2Angle,dobot/pose_joint3Angle,dobot/pose_joint4Angle
32,60,100,60,homing,,,,homing,,,,,,165.33425903320312,61.43910598754883,65.29702758789062,0.38533782958984375,19.98533821105957,-5.561375617980957,28.024368286132812,-20.0
32,60,100,60,homing,,,,homing,,,,,,176.34304809570312,3.648745059967041,65.29702758789062,-18.814651489257812,0.7853479385375977,-5.561375617980957,28.024368286132812,-20.0
32,60,100,60,homing,,,,homing,,,,,,167.73416137695312,-54.54753875732422,65.29702758789062,-38.014644622802734,-18.414644241333008,-5.561375617980957,28.024368286132812,-20.0
32,60,100,60,homing,,,,homing,,2024-03-03 17:10:22.728147,16.367,0.156,235.0,135.8749542236328,-112.46411895751953,65.29702758789062,-59.614662170410156,-40.01466369628906,-5.561375617980957,28.024368286132812,-20.0
32,60,100,60,homing,,,,homing,,2024-03-03 17:10:23.540640,16.291,0.156,235.0,91.33119201660156,-150.893310546875,65.29702758789062,-78.81473541259766,-59.21473693847656,-5.561375617980957,28.024368286132812,-20.0
32,60,100,60,homing,,,,homing,,2024-03-03 17:10:24.245502,16.367,0.156,235.0,36.62702941894531,-172.53591918945312,65.29702758789062,-98.01480865478516,-78.41481018066406,-5.561375617980957,28.024368286132812,-20.0
32,60,100,60,homing,,,,homing,,2024-03-03 17:10:25.622108,16.31,0.156,235.0,-29.46000862121582,-173.90310668945312,65.29702758789062,-119.6148910522461,-100.014892578125,-5.561375617980957,28.024368286132812,-20.0
32,60,100,60,homing,,,,homing,,2024-03-03 17:10:26.310451,16.31,0.156,235.0,-85.01245880126953,-154.54144287109375,65.29702758789062,-138.81497192382812,-119.2149658203125,-5.561375617980957,28.024368286132812,-20.0
32,60,100,60,homing,,,,homing,,2024-03-03 17:10:27.253870,16.348,0.156,235.0,-127.59160614013672,-121.78079986572266,65.29702758789062,-156.33485412597656,-136.31484985351562,-5.561375617980957,28.024368286132812,-20.0
32,60,100,60,homing,,,,homing,,2024-03-03 17:10:28.654008,16.367,0.156,235.0,-125.27307891845703,-124.16454315185547,65.29702758789062,-155.25462341308594,-135.04090881347656,-5.5589823722839355,28.0252628326416,-19.998943328857422
32,60,100,60,homing,,,,homing,,2024-03-03 17:10:29.345695,16.215,0.156,235.0,-93.42388153076172,-155.8472442626953,63.406700134277344,-139.6976776123047,-120.35291290283203,-2.6297197341918945,29.120128631591797,-18.7049617767334
32,60,100,60,homing,,,,homing,,2024-03-03 17:10:30.256647,16.215,0.156,235.0,-7.409702777862549,-197.09585571289062,56.05073547363281,-107.23078918457031,-91.55298614501953,5.813448429107666,32.27591323852539,-14.975255966186523
32,60,100,60,homing,,,,homing,,2024-03-03 17:10:31.644531,16.747,0.16,235.0,112.94462585449219,-193.6931915283203,35.403839111328125,-67.9580307006836,-59.15306854248047,21.436742782592773,38.115386962890625,-8.07378101348877
32,60,100,60,homing,,,,homing,,2024-03-03 17:10:32.332874,16.747,0.16,235.0,206.9424591064453,-124.11331939697266,14.633865356445312,-34.0538215637207,-30.35313606262207,32.876739501953125,42.39128875732422,-3.0202476978302
32,60,100,60,homing,,,,homing,,2024-03-03 17:10:33.728012,16.747,0.159,235.0,247.96438598632812,-21.270719528198242,2.1235809326171875,-5.335042476654053,-4.565849304199219,38.80282974243164,44.606266021728516,-0.4024410843849182
32,60,100,60,homing,,,,homing,,2024-03-03 17:10:34.427671,16.595,0.159,236.8,250.63079833984375,-0.11091611534357071,-0.318511962890625,-0.025356117635965347,-0.016742292791604996,39.90280532836914,44.905487060546875,0.0
32,60,100,60,homing,,,,homing,,2024-03-03 17:10:35.120534,16.614,0.159,236.8,249.99998474121094,0.00017966009909287095,-7.62939453125e-06,4.117506250622682e-05,4.117506250622682e-05,39.71385955810547,44.94676971435547,0.0
32,60,100,60,homing,,,,homing,,2024-03-03 17:10:35.831158,16.614,0.159,236.8,249.99998474121094,0.00017966009909287095,-7.62939453125e-06,4.117506250622682e-05,4.117506250622682e-05,39.71385955810547,44.94676971435547,0.0
32,60,100,60,homing,,,,homing,,2024-03-03 17:10:37.715182,16.272,0.159,236.8,249.99998474121094,0.00017966009909287095,-7.62939453125e-06,4.117506250622682e-05,4.117506250622682e-05,39.71385955810547,44.94676971435547,0.0
32,60,100,60,homing,,,,homing,,2024-03-03 17:10:38.413046,16.272,0.156,236.8,249.99998474121094,0.00017966009909287095,-7.62939453125e-06,4.117506250622682e-05,4.117506250622682e-05,39.71385955810547,44.94676971435547,0.0
32,60,100,60,homing,,,,homing,,2024-03-03 17:10:39.111901,16.386,0.156,235.0,249.99998474121094,0.00017966009909287095,-7.62939453125e-06,4.117506250622682e-05,4.117506250622682e-05,39.71385955810547,44.94676971435547,0.0
32,60,100,60,homing,,,,homing,,2024-03-03 17:10:40.603660,16.386,0.156,235.0,250.00009155273438,0.0001796601718524471,-9.1552734375e-05,4.117506250622682e-05,4.117506250622682e-05,39.71392059326172,44.94676971435547,0.0
32,60,100,60,homing,,,,homing,,2024-03-03 17:10:41.298999,16.386,0.156,236.8,249.99998474121094,0.00017966009909287095,-7.62939453125e-06,4.117506250622682e-05,4.117506250622682e-05,39.71385955810547,44.94676971435547,0.0
32,60,100,60,homing,,,,homing,,2024-03-03 17:10:42.691533,16.329,0.157,236.8,249.99998474121094,0.00017966009909287095,-7.62939453125e-06,4.117506250622682e-05,4.117506250622682e-05,39.71385955810547,44.94676971435547,0.0
32,60,100,60,homing,,,,homing,,2024-03-03 17:10:43.534885,16.329,0.157,236.8,249.99998474121094,0.00017966009909287095,-7.62939453125e-06,4.117506250622682e-05,4.117506250622682e-05,39.71385955810547,44.94676971435547,0.0
32,60,100,60,homing,,,,homing,,2024-03-03 17:10:44.272594,16.139,0.157,236.8,249.99998474121094,0.00017966009909287095,-7.62939453125e-06,4.117506250622682e-05,4.117506250622682e-05,39.71385955810547,44.94676971435547,0.0
32,60,100,60,homing,,,,homing,,2024-03-03 17:10:45.096978,16.139,0.154,236.8,249.99998474121094,0.00017966009909287095,-7.62939453125e-06,4.117506250622682e-05,4.117506250622682e-05,39.71385955810547,44.94676971435547,0.0
32,60,100,60,homing,,,,homing,,2024-03-03 17:10:46.533173,16.158,0.154,235.0,249.99998474121094,0.00017966009909287095,-7.62939453125e-06,4.117506250622682e-05,4.117506250622682e-05,39.71385955810547,44.94676971435547,0.0
32,60,100,60,homing,,,,homing,,2024-03-03 17:10:47.229844,16.158,0.159,235.0,254.35813903808594,18.284765243530273,11.4974365234375,4.100799560546875e-05,4.461062908172607,37.86543273925781,39.78917694091797,-4.461021900177002
32,60,100,60,homing,,,,homing,,2024-03-03 17:10:48.611403,16.367,0.159,235.0,274.1404724121094,99.4723129272461,62.77205276489258,4.1961669921875e-05,20.052827835083008,41.878971099853516,14.711930274963379,-20.052785873413086
32,60,100,60,moving_belt,nothing,false,true,go_to_pick_up_from_homing,,2024-03-03 17:10:49.302374,17.203,0.166,235.0,292.70538330078125,106.5638198852539,84.80648040771484,7.62939453125e-06,20.001785278320312,50.97134017944336,0.03706178814172745,-20.00177764892578
32,60,100,60,moving_belt,nothing,false,true,go_to_pick_up_from_homing,,2024-03-03 17:10:50.138343,16.747,0.166,235.0,292.8220520019531,106.5785140991211,84.958251953125,0.0,20.0,51.0,0.0,-20.0
32,60,100,60,moving_belt,nothing,false,true,go_to_pick_up_from_homing,,2024-03-03 17:10:50.832998,16.747,0.166,235.0,292.8220520019531,106.5785140991211,84.958251953125,0.0,20.0,51.0,0.0,-20.0
32,60,100,60,moving_belt,nothing,false,true,go_to_pick_up_from_homing,,2024-03-03 17:10:52.107323,16.443,0.161,235.0,292.8220520019531,106.5785140991211,84.958251953125,0.0,20.0,51.0,0.0,-20.0
32,60,100,60,moving_belt,nothing,false,true,go_to_pick_up_from_homing,,2024-03-03 17:10:53.513892,16.405,0.162,235.0,292.8220520019531,106.5785140991211,84.958251953125,0.0,20.0,51.0,0.0,-20.0
32,60,100,60,go_to_pick_down,nothing,true,false,joint 3 +,,2024-03-03 17:10:54.205677,16.5,0.162,235.0,290.5352783203125,105.7461929321289,58.321006774902344,0.0,20.0,51.0,11.159998893737793,-20.0
32,60,100,60,go_to_pick_up_from_pick_down,nothing,true,false,joint 3 -,true,2024-03-03 17:10:54.991635,16.31,0.162,235.0,288.0148620605469,104.82884216308594,46.51548767089844,0.0,20.0,51.0,14.439997673034668,-20.0
32,60,100,60,go_to_color_detect_up_from_pick_up,nothing,true,false,joint 1 +,true,2024-03-03 17:10:55.940662,16.31,0.166,235.0,272.54437255859375,151.07382202148438,84.958251953125,9.0,29.719999313354492,51.0,0.0,-20.0
32,60,100,60,go_to_color_detect_up_from_pick_up,nothing,true,false,joint 1 +,true,2024-03-03 17:10:57.553447,22.14,0.166,235.0,143.5013885498047,276.6063537597656,84.958251953125,42.58004379272461,63.00004577636719,51.0,0.0,-20.0
32,60,100,60,go_to_color_detect_down,nothing,true,false,joint 3 +,true,2024-03-03 17:10:58.345784,22.234,0.211,235.0,128.77293395996094,276.1544189453125,40.41206741333008,45.0,65.0,51.0,18.35999870300293,-20.0
32,60,100,60,go_to_color_detect_up_from_color_detect_down,nothing,true,false,joint 3 -,false,2024-03-03 17:10:59.199543,21.969,0.211,236.8,111.13883972167969,238.33799743652344,-24.284042358398438,45.0,65.0,51.0,48.0,-20.0
32,60,100,60,go_to_color_detect_up_from_color_detect_down,nothing,true,false,joint 3 -,false,2024-03-03 17:10:59.888428,21.874,0.208,236.8,128.1089324951172,274.7304992675781,35.74357604980469,45.0,65.0,51.0,18.839994430541992,-20.0
32,60,100,60,detecting_color,nothing,false,false,detecting_color,false,2024-03-03 17:10:59.888428,21.874,0.208,236.8,131.69407653808594,282.4188232421875,84.958251953125,45.0,65.0,51.0,0.0,-20.0
32,60,100,60,detecting_color,nothing,false,false,detecting_color,false,2024-03-03 17:11:02.125921,16.728,0.208,235.0,131.69407653808594,282.4188232421875,84.958251953125,45.0,65.0,51.0,0.0,-20.0
32,60,100,60,go_to_color_detect_down,nothing,true,false,joint 3 +,false,2024-03-03 17:11:03.413622,16.234,0.161,235.0,127.4739990234375,273.3688659667969,31.703781127929688,45.0,65.0,51.0,21.95999526977539,-20.0
32,60,100,60,go_to_color_detect_up_from_color_detect_down,nothing,true,false,joint 3 -,true,2024-03-03 17:11:04.186186,16.234,0.159,235.0,111.46013641357422,239.0270233154297,-23.594696044921875,45.0,65.0,51.0,47.39999771118164,-20.0
32,60,100,60,go_to_color_detect_up_from_color_detect_down,nothing,true,false,joint 3 -,true,2024-03-03 17:11:05.107306,16.234,0.159,235.0,129.0800323486328,276.8130187988281,42.76541519165039,45.0,65.0,51.0,15.959996223449707,-20.0
32,60,100,60,go_to_red_up,red,true,false,joint 1 +,true,2024-03-03 17:11:06.504209,22.614,0.214,235.0,116.12750244140625,289.1679992675781,84.958251953125,48.12001037597656,68.64000701904297,51.0,0.0,-20.0
32,60,100,60,go_to_red_up,red,true,false,joint 1 +,true,2024-03-03 17:11:07.195500,22.614,0.214,235.0,-87.98212432861328,298.9362487792969,84.958251953125,86.40006256103516,107.12006378173828,51.0,0.0,-20.0
32,60,100,60,go_to_pick_up_from_red,red,true,false,joint 1 -,false,2024-03-03 17:11:08.744493,22.367,0.212,235.0,-168.8042449951172,261.93292236328125,84.958251953125,102.79999542236328,122.35999298095703,51.0,0.0,-20.0
32,60,100,60,go_to_pick_up_from_red,red,true,false,joint 1 -,false,2024-03-03 17:11:09.438824,17.582,0.212,235.0,26.942575454711914,310.4477844238281,84.958251953125,65.0399398803711,84.31993865966797,51.0,0.0,-20.0
32,60,100,60,go_to_pick_up_from_red,red,true,false,joint 1 -,false,2024-03-03 17:11:10.139481,17.582,0.212,235.0,198.2957305908203,240.37997436523438,84.958251953125,30.479881286621094,49.75988006591797,51.0,0.0,-20.0
32,60,100,60,go_to_pick_up_from_red,red,true,false,joint 1 -,false,2024-03-03 17:11:10.957735,16.424,0.16,235.0,292.41094970703125,107.70130920410156,84.958251953125,0.2198486328125,20.106515884399414,51.0,0.0,-20.0
32,60,100,60,moving_belt,red,false,true,joint 1 -,false,2024-03-03 17:11:12.212901,16.576,0.16,235.0,292.8220520019531,106.5785140991211,84.958251953125,0.0,20.0,51.0,0.0,-20.0
32,60,100,60,moving_belt,red,false,true,joint 1 -,false,2024-03-03 17:11:13.190137,16.652,0.163,235.0,292.8220520019531,106.5785140991211,84.958251953125,0.0,20.0,51.0,0.0,-20.0
32,60,100,60,moving_belt,red,false,true,joint 1 -,false,2024-03-03 17:11:14.568732,16.215,0.163,235.0,292.8220520019531,106.5785140991211,84.958251953125,0.0,20.0,51.0,0.0,-20.0
32,60,100,60,moving_belt,red,false,true,joint 1 -,false,2024-03-03 17:11:15.257428,16.215,0.161,235.0,292.8220520019531,106.5785140991211,84.958251953125,0.0,20.0,51.0,0.0,-20.0
32,60,100,60,go_to_pick_down,red,true,false,joint 3 +,false,2024-03-03 17:11:16.703744,16.291,0.161,236.8,290.5352783203125,105.7461929321289,58.321006774902344,0.0,20.0,51.0,11.159998893737793,-20.0
32,60,100,60,go_to_pick_up_from_pick_down,red,true,false,joint 3 -,true,2024-03-03 17:11:17.660763,16.291,0.159,236.8,288.4582824707031,104.99022674560547,48.301448822021484,0.0,20.0,51.0,13.71999740600586,-20.0
32,60,100,60,go_to_color_detect_up_from_pick_up,red,true,false,joint 1 +,true,2024-03-03 17:11:18.349479,19.215,0.159,235.0,279.79071044921875,137.18922424316406,84.958251953125,6.120002746582031,26.840002059936523,51.0,0.0,-20.0
32,60,100,60,go_to_color_detect_up_from_pick_up,red,true,false,joint 1 +,true,2024-03-03 17:11:19.731035,22.5,0.212,235.0,139.62533569335938,278.5830078125,84.958251953125,43.38004684448242,63.72004699707031,51.0,0.0,-20.0
32,60,100,60,go_to_color_detect_down,red,true,false,joint 3 +,true,2024-03-03 17:11:19.731035,22.5,0.212,235.0,128.02130126953125,274.54254150390625,35.16378402709961,45.0,65.0,51.0,20.519996643066406,-20.0
32,60,100,60,go_to_color_detect_up_from_color_detect_down,red,true,false,joint 3 -,false,2024-03-03 17:11:21.720553,22.083,0.209,235.0,111.13883972167969,238.33799743652344,-24.284042358398438,45.0,65.0,51.0,48.0,-20.0
32,60,100,60,go_to_color_detect_up_from_color_detect_down,red,true,false,joint 3 -,false,2024-03-03 17:11:22.708249,18.285,0.209,235.0,128.61312866210938,275.8117370605469,39.24005126953125,45.0,65.0,51.0,17.399995803833008,-20.0
32,60,100,60,detecting_color,red,false,false,detecting_color,false,2024-03-03 17:11:23.400728,18.285,0.209,235.0,131.69407653808594,282.4188232421875,84.958251953125,45.0,65.0,51.0,0.0,-20.0
32,60,100,60,detecting_color,red,false,false,detecting_color,false,2024-03-03 17:11:24.092401,17.089,0.166,235.0,131.69407653808594,282.4188232421875,84.958251953125,45.0,65.0,51.0,0.0,-20.0
32,60,100,60,detecting_color,red,false,false,detecting_color,false,2024-03-03 17:11:25.600364,16.386,0.166,235.0,131.69407653808594,282.4188232421875,84.958251953125,45.0,65.0,51.0,0.0,-20.0
32,60,100,60,go_to_color_detect_down,red,true,false,joint 3 +,false,2024-03-03 17:11:26.357822,16.538,0.161,235.0,127.18661499023438,272.7525634765625,29.98625946044922,45.0,65.0,51.0,22.679994583129883,-20.0
32,60,100,60,go_to_color_detect_up_from_color_detect_down,red,true,false,joint 3 -,true,2024-03-03 17:11:27.752760,16.367,0.161,235.0,111.13883972167969,238.33799743652344,-24.284042358398438,45.0,65.0,51.0,47.959999084472656,-20.0
32,60,100,60,go_to_color_detect_up_from_color_detect_down,red,true,false,joint 3 -,true,2024-03-03 17:11:28.480020,22.633,0.161,235.0,128.1089324951172,274.7304992675781,35.74357604980469,45.0,65.0,51.0,18.839994430541992,-20.0
32,60,100,60,go_to_green_up,green,true,false,joint 1 +,true,2024-03-03 17:11:29.466865,22.633,0.161,235.0,107.59998321533203,292.4482421875,84.958251953125,49.80000305175781,70.44000244140625,51.0,0.0,-20.0
32,60,100,60,go_to_green_up,green,true,false,joint 1 +,true,2024-03-03 17:11:30.161386,22.329,0.21,235.0,-67.74098205566406,304.1626281738281,84.958251953125,82.55560302734375,102.97782897949219,51.0,0.0,-20.0
32,60,100,60,go_to_pick_up_from_green,green,true,false,joint 1 -,false,2024-03-03 17:11:31.563290,22.481,0.21,235.0,14.353219032287598,311.2839660644531,84.958251953125,67.35997772216797,86.63997650146484,51.0,0.0,-20.0
32,60,100,60,go_to_pick_up_from_green,green,true,false,joint 1 -,false,2024-03-03 17:11:32.254976,16.386,0.16,235.0,206.56396484375,233.313232421875,84.958251953125,28.47991180419922,47.759910583496094,51.0,0.0,-20.0
32,60,100,60,moving_belt,green,false,true,joint 1 -,false,2024-03-03 17:11:33.641940,16.576,0.16,235.0,292.818115234375,106.58930206298828,84.958251953125,0.0021114349365234375,19.999889373779297,51.0,0.0,-20.0
32,60,100,60,moving_belt,green,false,true,joint 1 -,false,2024-03-03 17:11:34.330240,16.576,0.16,235.0,292.8220520019531,106.5785140991211,84.958251953125,0.0,20.0,51.0,0.0,-20.0
32,60,100,60,moving_belt,green,false,true,joint 1 -,false,2024-03-03 17:11:35.705639,16.785,0.163,235.0,292.8220520019531,106.5785140991211,84.958251953125,0.0,20.0,51.0,0.0,-20.0
32,60,100,60,moving_belt,green,false,true,joint 1 -,false,2024-03-03 17:11:36.405407,16.253,0.163,235.0,292.8220520019531,106.5785140991211,84.958251953125,0.0,20.0,51.0,0.0,-20.0
32,60,100,60,moving_belt,green,false,true,joint 1 -,false,2024-03-03 17:11:37.093744,16.253,0.16,235.0,292.8220520019531,106.5785140991211,84.958251953125,0.0,20.0,51.0,0.0,-20.0
32,60,100,60,go_to_pick_down,green,true,false,joint 3 +,false,2024-03-03 17:11:38.478113,16.576,0.16,236.8,289.86334228515625,105.50163269042969,54.696449279785156,0.0,20.0,51.0,12.59999942779541,-20.0
32,60,100,60,go_to_pick_up_from_pick_down,green,true,false,joint 3 -,true,2024-03-03 17:11:39.178346,16.576,0.16,236.8,289.28167724609375,105.28992462158203,51.89045333862305,0.0,20.0,51.0,12.279996871948242,-20.0
32,60,100,60,go_to_color_detect_up_from_pick_up,green,true,false,joint 1 +,true,2024-03-03 17:11:40.558894,23.032,0.16,235.0,278.0447082519531,140.69422912597656,84.958251953125,6.840002059936523,27.560001373291016,51.0,0.0,-20.0
32,60,100,60,go_to_color_detect_up_from_pick_up,green,true,false,joint 1 +,true,2024-03-03 17:11:41.251586,23.032,0.211,235.0,137.96974182128906,279.4066467285156,84.958251953125,43.72004699707031,64.02005004882812,51.0,0.0,-20.0
32,60,100,60,go_to_color_detect_down,green,true,false,joint 3 +,true,2024-03-03 17:11:42.635312,22.405,0.211,235.0,127.75225067138672,273.965576171875,33.42971420288086,45.0,65.0,51.0,21.2399959564209,-20.0
32,60,100,60,go_to_color_detect_up_from_color_detect_down,green,true,false,joint 3 -,false,2024-03-03 17:11:43.333959,22.026,0.208,235.0,111.13883972167969,238.33799743652344,-24.284042358398438,45.0,65.0,51.0,48.0,-20.0
32,60,100,60,go_to_color_detect_up_from_color_detect_down,green,true,false,joint 3 -,false,2024-03-03 17:11:44.755717,20.412,0.208,235.0,128.8512725830078,276.3224182128906,40.999263763427734,45.0,65.0,51.0,16.679996490478516,-20.0
32,60,100,60,detecting_color,green,false,false,detecting_color,false,2024-03-03 17:11:45.739515,17.07,0.166,235.0,131.69407653808594,282.4188232421875,84.958251953125,45.0,65.0,51.0,0.0,-20.0
32,60,100,60,detecting_color,green,false,false,detecting_color,false,2024-03-03 17:11:46.438771,17.07,0.166,235.0,131.69407653808594,282.4188232421875,84.958251953125,45.0,65.0,51.0,0.0,-20.0
32,60,100,60,go_to_color_detect_down,green,true,false,joint 3 +,false,2024-03-03 17:11:47.141411,16.557,0.166,235.0,126.89012908935547,272.11676025390625,28.277416229248047,45.0,65.0,51.0,23.399993896484375,-20.0
32,60,100,60,go_to_color_detect_up_from_color_detect_down,green,true,false,joint 3 -,true,2024-03-03 17:11:48.519832,16.367,0.161,235.0,111.13883972167969,238.33799743652344,-24.284042358398438,45.0,65.0,51.0,47.959999084472656,-20.0
32,60,100,60,go_to_color_detect_up_from_color_detect_down,green,true,false,joint 3 -,true,2024-03-03 17:11:49.213089,17.393,0.161,235.0,128.1089324951172,274.7304992675781,35.74357604980469,45.0,65.0,51.0,18.839994430541992,-20.0
32,60,100,60,go_to_blue_up,blue,true,false,joint 1 +,true,2024-03-03 17:11:50.595374,23.146,0.219,235.0,107.59998321533203,292.4482421875,84.958251953125,49.80000305175781,70.44000244140625,51.0,0.0,-20.0
32,60,100,60,go_to_pick_up_from_blue,blue,true,false,joint 1 -,false,2024-03-03 17:11:51.291038,22.557,0.219,235.0,53.03978729248047,307.067626953125,84.958251953125,60.19999694824219,79.55999755859375,51.0,0.0,-20.0
32,60,100,60,go_to_pick_up_from_blue,blue,true,false,joint 1 -,false,2024-03-03 17:11:52.675417,21.817,0.21,235.0,217.40304565429688,223.24795532226562,84.958251953125,25.75994110107422,45.039939880371094,51.0,0.0,-20.0
32,60,100,60,moving_belt,blue,false,true,joint 1 -,false,2024-03-03 17:11:53.366347,16.5,0.21,235.0,292.8220520019531,106.5785140991211,84.958251953125,0.0,20.0,51.0,0.0,-20.0
32,60,100,60,moving_belt,blue,false,true,joint 1 -,false,2024-03-03 17:11:54.749321,16.709,0.162,235.0,292.8220520019531,106.5785140991211,84.958251953125,0.0,20.0,51.0,0.0,-20.0
32,60,100,60,moving_belt,blue,false,true,joint 1 -,false,2024-03-03 17:11:55.441007,16.443,0.162,235.0,292.8220520019531,106.5785140991211,84.958251953125,0.0,20.0,51.0,0.0,-20.0
32,60,100,60,moving_belt,blue,false,true,joint 1 -,false,2024-03-03 17:11:56.132267,16.443,0.16,235.0,292.8220520019531,106.5785140991211,84.958251953125,0.0,20.0,51.0,0.0,-20.0
32,60,100,60,moving_belt,blue,false,true,joint 1 -,false,2024-03-03 17:11:57.518837,16.595,0.16,235.0,292.8220520019531,106.5785140991211,84.958251953125,0.0,20.0,51.0,0.0,-20.0
32,60,100,60,go_to_pick_down,blue,true,false,joint 3 +,false,2024-03-03 17:11:58.212885,16.557,0.16,235.0,285.6138916015625,103.95496368408203,38.09284591674805,0.0,20.0,51.0,19.093334197998047,-20.0
32,60,100,60,go_to_pick_up_from_pick_down,blue,true,false,joint 3 -,true,2024-03-03 17:11:59.606875,16.329,0.16,235.0,292.1105651855469,106.3195571899414,70.05760955810547,0.0,20.0,51.0,5.155551433563232,-20.0
32,60,100,60,go_to_color_detect_up_from_pick_up,blue,true,false,joint 1 +,true,2024-03-03 17:12:00.302539,23.26,0.216,235.0,258.21856689453125,174.4330596923828,84.958251953125,14.040000915527344,34.76000213623047,51.0,0.0,-20.0
32,60,100,60,go_to_color_detect_down,blue,true,false,joint 3 +,true,2024-03-03 17:12:01.686561,22.253,0.216,235.0,131.69407653808594,282.4188232421875,84.958251953125,45.0,65.0,51.0,0.0,-20.0
32,60,100,60,go_to_color_detect_down,blue,true,false,joint 3 +,true,2024-03-03 17:12:02.384236,22.31,0.207,235.0,124.92286682128906,267.89794921875,18.22167205810547,45.0,65.0,51.0,27.719989776611328,-20.0
32,60,100,60,go_to_color_detect_up_from_color_detect_down,blue,true,false,joint 3 -,false,2024-03-03 17:12:03.778786,21.95,0.207,236.8,112.03331756591797,240.25621032714844,-22.340538024902344,45.0,65.0,51.0,46.55999755859375,-20.0
32,60,100,60,go_to_color_detect_up_from_color_detect_down,blue,true,false,joint 3 -,false,2024-03-03 17:12:04.471065,21.95,0.207,236.8,130.7122344970703,280.3132629394531,58.92681121826172,45.0,65.0,51.0,9.47999382019043,-20.0
32,60,100,60,detecting_color,blue,false,false,detecting_color,false,2024-03-03 17:12:05.159770,16.956,0.164,236.8,131.69407653808594,282.4188232421875,84.958251953125,45.0,65.0,51.0,0.0,-20.0
32,60,100,60,detecting_color,blue,false,false,detecting_color,false,2024-03-03 17:12:06.659753,16.367,0.164,235.0,131.69407653808594,282.4188232421875,84.958251953125,45.0,65.0,51.0,0.0,-20.0
32,60,100,60,go_to_color_detect_down,blue,true,false,joint 3 +,false,2024-03-03 17:12:07.348032,16.5,0.16,235.0,127.4739990234375,273.3688659667969,31.703781127929688,45.0,65.0,51.0,21.95999526977539,-20.0
32,60,100,60,go_to_color_detect_up_from_color_detect_down,blue,true,false,joint 3 -,true,2024-03-03 17:12:08.778054,16.196,0.16,235.0,111.46013641357422,239.0270233154297,-23.594696044921875,45.0,65.0,51.0,47.39999771118164,-20.0
32,60,100,60,go_to_color_detect_up_from_color_detect_down,blue,true,false,joint 3 -,true,2024-03-03 17:12:09.468811,16.196,0.162,235.0,129.0800323486328,276.8130187988281,42.76541519165039,45.0,65.0,51.0,15.959996223449707,-20.0
32,60,100,60,go_to_red_up,red,true,false,joint 1 +,true,2024-03-03 17:12:10.274648,23.241,0.162,235.0,113.49833679199219,290.21002197265625,84.958251953125,48.64000701904297,69.20000457763672,51.0,0.0,-20.0
32,60,100,60,go_to_red_up,red,true,false,joint 1 +,true,2024-03-03 17:12:11.610772,22.709,0.209,235.0,-91.73161315917969,297.80706787109375,84.958251953125,87.12006378173828,107.8400650024414,51.0,0.0,-20.0
32,60,100,60,go_to_pick_up_from_red,red,true,false,joint 1 -,false,2024-03-03 17:12:12.396145,22.367,0.209,235.0,-164.5767364501953,264.60955810546875,84.958251953125,101.87998962402344,121.35999298095703,51.0,0.0,-20.0
32,60,100,60,go_to_pick_up_from_red,red,true,false,joint 1 -,false,2024-03-03 17:12:13.250891,22.367,0.209,235.0,11.310287475585938,311.4093933105469,84.958251953125,67.9199447631836,87.19994354248047,51.0,0.0,-20.0
32,60,100,60,go_to_pick_up_from_red,red,true,false,joint 1 -,false,2024-03-03 17:12:14.685658,16.481,0.169,235.0,185.967529296875,250.03961181640625,84.958251953125,33.359886169433594,52.63988494873047,51.0,0.0,-20.0
32,60,100,60,moving_belt,red,false,true,joint 1 -,false,2024-03-03 17:12:15.375933,16.481,0.169,235.0,292.7602844238281,106.7480697631836,84.958251953125,0.03318214416503906,19.999849319458008,51.0,0.0,-20.0
32,60,100,60,moving_belt,red,false,true,joint 1 -,false,2024-03-03 17:12:16.764015,16.424,0.161,235.0,292.8220520019531,106.5785140991211,84.958251953125,0.0,20.0,51.0,0.0,-20.0
32,60,100,60,moving_belt,red,false,true,joint 1 -,false,2024-03-03 17:12:17.456272,16.481,0.161,235.0,292.8220520019531,106.5785140991211,84.958251953125,0.0,20.0,51.0,0.0,-20.0
32,60,100,60,moving_belt,red,false,true,joint 1 -,false,2024-03-03 17:12:18.143971,16.481,0.161,235.0,292.8220520019531,106.5785140991211,84.958251953125,0.0,20.0,51.0,0.0,-20.0
32,60,100,60,moving_belt,red,false,true,joint 1 -,false,2024-03-03 17:12:19.804057,16.538,0.16,236.8,292.8220520019531,106.5785140991211,84.958251953125,0.0,20.0,51.0,0.0,-20.0
32,60,100,60,go_to_pick_down,red,true,false,joint 3 +,false,2024-03-03 17:12:20.497442,16.538,0.16,236.8,289.4953308105469,105.36768341064453,52.891197204589844,0.0,20.0,51.0,13.319999694824219,-20.0
32,60,100,60,go_to_pick_up_from_pick_down,red,true,false,joint 3 -,true,2024-03-03 17:12:21.187448,16.519,0.16,235.0,289.6614990234375,105.42816925048828,53.69293212890625,0.0,20.0,51.0,11.559996604919434,-20.0
32,60,100,60,go_to_color_detect_up_from_pick_up,red,true,false,joint 1 +,true,2024-03-03 17:12:22.566462,19.861,0.218,235.0,276.2547912597656,144.17703247070312,84.958251953125,7.560001373291016,28.280000686645508,51.0,0.0,-20.0
32,60,100,60,go_to_color_detect_up_from_pick_up,red,true,false,joint 1 +,true,2024-03-03 17:12:23.254726,22.538,0.218,235.0,136.50486755371094,280.125244140625,84.958251953125,44.020050048828125,64.2800521850586,51.0,0.0,-20.0
32,60,100,60,go_to_color_detect_down,red,true,false,joint 3 +,true,2024-03-03 17:12:24.769758,22.196,0.211,235.0,127.75225067138672,273.965576171875,33.42971420288086,45.0,65.0,51.0,21.2399959564209,-20.0
32,60,100,60,go_to_color_detect_up_from_color_detect_down,red,true,false,joint 3 -,false,2024-03-03 17:12:25.470414,22.215,0.211,235.0,111.13883972167969,238.33799743652344,-24.284042358398438,45.0,65.0,51.0,48.0,-20.0
32,60,100,60,go_to_color_detect_up_from_color_detect_down,red,true,false,joint 3 -,false,2024-03-03 17:12:26.167083,22.215,0.195,235.0,129.0800323486328,276.8130187988281,42.76541519165039,45.0,65.0,51.0,15.959996223449707,-20.0
32,60,100,60,detecting_color,red,false,false,detecting_color,false,2024-03-03 17:12:27.552176,17.981,0.195,235.0,131.69407653808594,282.4188232421875,84.958251953125,45.0,65.0,51.0,0.0,-20.0
32,60,100,60,detecting_color,red,false,false,detecting_color,false,2024-03-03 17:12:28.245856,16.861,0.195,235.0,131.69407653808594,282.4188232421875,84.958251953125,45.0,65.0,51.0,0.0,-20.0
32,60,100,60,detecting_color,red,false,false,detecting_color,false,2024-03-03 17:12:29.627235,16.367,0.16,235.0,131.69407653808594,282.4188232421875,84.958251953125,45.0,65.0,51.0,0.0,-20.0
32,60,100,60,detecting_color,red,false,false,detecting_color,false,2024-03-03 17:12:30.328903,16.405,0.16,235.0,131.69407653808594,282.4188232421875,84.958251953125,45.0,65.0,51.0,0.0,-20.0
32,60,100,60,go_to_color_detect_down,red,true,false,joint 3 +,false,2024-03-03 17:12:31.317591,16.405,0.16,235.0,129.83819580078125,278.4388732910156,49.296165466308594,45.0,65.0,51.0,14.760001182556152,-20.0
32,60,100,60,go_to_color_detect_down,red,true,false,joint 3 +,false,2024-03-03 17:12:32.700765,16.367,0.159,235.0,111.95939636230469,240.09768676757812,-22.504074096679688,45.0,65.0,51.0,47.2400016784668,-20.0
32,60,100,60,go_to_color_detect_up_from_color_detect_down,red,true,false,joint 3 -,true,2024-03-03 17:12:33.388473,16.367,0.159,235.0,126.37590026855469,271.01397705078125,25.449378967285156,45.0,65.0,51.0,23.159990310668945,-20.0
32,60,100,60,go_to_green_up,green,true,false,joint 1 +,true,2024-03-03 17:12:34.777209,22.785,0.159,235.0,130.50990295410156,282.968017578125,84.958251953125,45.24000549316406,65.40000915527344,51.0,0.0,-20.0
32,60,100,60,go_to_green_up,green,true,false,joint 1 +,true,2024-03-03 17:12:35.465103,22.424,0.213,235.0,-34.303218841552734,309.7208557128906,84.958251953125,76.3200454711914,97.04004669189453,51.0,0.0,-20.0
32,60,100,60,go_to_pick_up_from_green,green,true,false,joint 1 -,false,2024-03-03 17:12:36.157353,22.424,0.213,235.0,-24.77427864074707,310.6283264160156,84.958251953125,74.55998992919922,93.8399887084961,51.0,0.0,-20.0
32,60,100,60,go_to_pick_up_from_green,green,true,false,joint 1 -,false,2024-03-03 17:12:37.789304,16.519,0.163,235.0,175.6931915283203,257.36285400390625,84.958251953125,35.67992401123047,54.959922790527344,51.0,0.0,-20.0
32,60,100,60,go_to_pick_up_from_green,green,true,false,joint 1 -,false,2024-03-03 17:12:38.488964,16.519,0.163,235.0,288.4648742675781,117.86328125,84.958251953125,2.224334716796875,21.822113037109375,51.0,0.0,-20.0
32,60,100,60,moving_belt,green,false,true,joint 1 -,false,2024-03-03 17:12:39.178475,16.424,0.163,235.0,292.8220520019531,106.5785140991211,84.958251953125,0.0,20.0,51.0,0.0,-20.0
32,60,100,60,moving_belt,green,false,true,joint 1 -,false,2024-03-03 17:12:40.558448,16.31,0.159,235.0,292.8220520019531,106.5785140991211,84.958251953125,0.0,20.0,51.0,0.0,-20.0
32,60,100,60,moving_belt,green,false,true,joint 1 -,false,2024-03-03 17:12:41.355905,16.462,0.159,235.0,292.8220520019531,106.5785140991211,84.958251953125,0.0,20.0,51.0,0.0,-20.0
32,60,100,60,moving_belt,green,false,true,joint 1 -,false,2024-03-03 17:12:42.740683,16.386,0.161,235.0,292.8220520019531,106.5785140991211,84.958251953125,0.0,20.0,51.0,0.0,-20.0
32,60,100,60,go_to_pick_down,green,true,false,joint 3 +,false,2024-03-03 17:12:43.435952,16.386,0.161,235.0,292.54339599609375,106.47708892822266,75.62562561035156,0.0,20.0,51.0,4.19999885559082,-20.0
32,60,100,60,go_to_pick_up_from_pick_down,green,true,false,joint 3 -,true,2024-03-03 17:12:44.414980,16.405,0.159,235.0,284.0235595703125,103.3761215209961,33.33361053466797,0.0,20.0,51.0,20.199996948242188,-20.0
32,60,100,60,go_to_color_detect_up_from_pick_up,green,true,false,joint 1 +,true,2024-03-03 17:12:45.161628,17.563,0.159,236.8,292.07086181640625,108.62020111083984,84.958251953125,0.40000152587890625,20.60000228881836,51.0,0.0,-20.0
32,60,100,60,go_to_color_detect_up_from_pick_up,green,true,false,joint 1 +,true,2024-03-03 17:12:46.366414,22.652,0.216,236.8,175.87229919433594,257.240478515625,84.958251953125,35.640037536621094,56.36003875732422,51.0,0.0,-20.0
32,60,100,60,go_to_color_detect_down,green,true,false,joint 3 +,true,2024-03-03 17:12:47.751847,22.026,0.216,235.0,130.80224609375,280.5063171386719,60.13973617553711,45.0,65.0,51.0,10.4399995803833,-20.0
32,60,100,60,go_to_color_detect_down,green,true,false,joint 3 +,true,2024-03-03 17:12:48.442665,22.026,0.208,235.0,114.26811981201172,245.04876708984375,-17.131919860839844,45.0,65.0,51.0,44.53333282470703,-20.0
32,60,100,60,go_to_color_detect_up_from_color_detect_down,green,true,false,joint 3 -,false,2024-03-03 17:12:49.133889,21.912,0.208,235.0,124.32007598876953,266.6052551269531,15.493316650390625,45.0,65.0,51.0,27.4799861907959,-20.0
32,60,100,60,detecting_color,green,false,false,detecting_color,false,2024-03-03 17:12:50.517055,19.804,0.163,235.0,131.69407653808594,282.4188232421875,84.9582748413086,45.0,65.0,51.0,0.0,-20.0
32,60,100,60,detecting_color,green,false,false,detecting_color,false,2024-03-03 17:12:51.210727,17.032,0.163,235.0,131.69407653808594,282.4188232421875,84.958251953125,45.0,65.0,51.0,0.0,-20.0
32,60,100,60,go_to_color_detect_down,green,true,false,joint 3 +,false,2024-03-03 17:12:52.593111,16.367,0.156,235.0,131.4142608642578,281.81878662109375,71.02216339111328,45.0,65.0,51.0,6.119998931884766,-20.0
32,60,100,60,go_to_color_detect_down,green,true,false,joint 3 +,false,2024-03-03 17:12:53.293951,16.386,0.156,235.0,117.18748474121094,251.3093719482422,-9.452880859375,45.0,65.0,51.0,40.68000030517578,-20.0
32,60,100,60,go_to_color_detect_up_from_color_detect_down,green,true,false,joint 3 -,true,2024-03-03 17:12:54.678661,16.614,0.162,235.0,121.95314025878906,261.5293273925781,5.931976318359375,45.0,65.0,51.0,31.79998207092285,-20.0
32,60,100,60,go_to_color_detect_up_from_color_detect_down,green,true,false,joint 3 -,true,2024-03-03 17:12:55.370451,23.032,0.162,235.0,131.6885986328125,282.4071044921875,83.0084457397461,45.0,65.0,51.0,0.5333254337310791,-20.0
32,60,100,60,go_to_blue_up,blue,true,false,joint 1 +,true,2024-03-03 17:12:56.753422,22.443,0.209,235.0,32.885013580322266,309.8746643066406,84.958251953125,63.942237854003906,84.21334838867188,51.0,0.0,-20.0
32,60,100,60,go_to_pick_up_from_blue,blue,true,false,joint 1 -,false,2024-03-03 17:12:57.441308,22.007,0.209,235.0,155.0532989501953,270.3002014160156,84.958251953125,40.15996551513672,59.439964294433594,51.0,0.0,-20.0
32,60,100,60,go_to_pick_up_from_blue,blue,true,false,joint 1 -,false,2024-03-03 17:12:58.829403,16.481,0.161,235.0,280.95654296875,134.78558349609375,84.958251953125,5.628812789916992,24.97770118713379,51.0,0.0,-20.0
32,60,100,60,moving_belt,blue,false,true,joint 1 -,false,2024-03-03 17:12:59.520257,16.481,0.161,235.0,292.8220520019531,106.5785140991211,84.958251953125,0.0,20.0,51.0,0.0,-20.0
32,60,100,60,moving_belt,blue,false,true,joint 1 -,false,2024-03-03 17:13:00.227977,16.5,0.161,235.0,292.8220520019531,106.5785140991211,84.958251953125,0.0,20.0,51.0,0.0,-20.0
32,60,100,60,moving_belt,blue,false,true,joint 1 -,false,2024-03-03 17:13:01.632277,16.424,0.16,235.0,292.8220520019531,106.5785140991211,84.958251953125,0.0,20.0,51.0,0.0,-20.0
32,60,100,60,moving_belt,blue,false,true,joint 1 -,false,2024-03-03 17:13:02.322184,16.12,0.16,235.0,292.8220520019531,106.5785140991211,84.958251953125,0.0,20.0,51.0,0.0,-20.0
32,60,100,60,go_to_pick_down,blue,true,false,joint 3 +,false,2024-03-03 17:13:03.720093,16.462,0.16,235.0,292.795654296875,106.56890869140625,82.08492279052734,0.0,20.0,51.0,1.4399995803833008,-20.0
32,60,100,60,go_to_pick_up_from_pick_down,blue,true,false,joint 3 -,true,2024-03-03 17:13:04.417318,16.462,0.16,235.0,282.979248046875,102.99602508544922,30.462482452392578,0.0,20.0,51.0,21.599998474121094,-20.0
32,60,100,60,go_to_color_detect_up_from_pick_up,blue,true,false,joint 1 +,true,2024-03-03 17:13:05.111642,16.424,0.16,235.0,291.6899108886719,109.63904571533203,84.958251953125,0.6000022888183594,20.840002059936523,51.0,0.0,-20.0
32,60,100,60,go_to_color_detect_up_from_pick_up,blue,true,false,joint 1 +,true,2024-03-03 17:13:06.608807,22.045,0.218,235.0,191.67755126953125,245.6897430419922,84.958251953125,32.04003143310547,52.760032653808594,51.0,0.0,-20.0
32,60,100,60,go_to_color_detect_down,blue,true,false,joint 3 +,true,2024-03-03 17:13:07.299326,22.045,0.218,235.0,131.2519073486328,281.4706115722656,67.45097351074219,45.0,65.0,51.0,7.559998512268066,-20.0
32,60,100,60,go_to_color_detect_down,blue,true,false,joint 3 +,true,2024-03-03 17:13:08.683266,21.95,0.211,235.0,116.16975402832031,249.12681579589844,-12.254600524902344,45.0,65.0,51.0,42.106666564941406,-20.0
32,60,100,60,go_to_color_detect_up_from_color_detect_down,blue,true,false,joint 3 -,false,2024-03-03 17:13:09.373563,22.045,0.211,235.0,122.3686752319336,262.42047119140625,7.49578857421875,45.0,65.0,51.0,31.07998275756836,-20.0
32,60,100,60,go_to_color_detect_up_from_color_detect_down,blue,true,false,joint 3 -,false,2024-03-03 17:13:10.756549,16.823,0.198,236.8,131.69139099121094,282.4130859375,83.58995056152344,45.0,65.0,51.0,0.34665846824645996,-20.0
32,60,100,60,detecting_color,blue,false,false,detecting_color,false,2024-03-03 17:13:11.448228,16.823,0.198,236.8,131.69407653808594,282.4188232421875,84.958251953125,45.0,65.0,51.0,0.0,-20.0
32,60,100,60,go_to_color_detect_down,blue,true,false,joint 3 +,false,2024-03-03 17:13:12.827623,16.557,0.161,235.0,131.6822052001953,282.3934020996094,82.08492279052734,45.0,65.0,51.0,1.4399998188018799,-20.0
32,60,100,60,go_to_color_detect_down,blue,true,false,joint 3 +,false,2024-03-03 17:13:13.530392,16.557,0.161,235.0,118.65748596191406,254.46177673339844,-5.1390838623046875,45.0,65.0,51.0,38.519996643066406,-20.0
32,60,100,60,go_to_color_detect_up_from_color_detect_down,blue,true,false,joint 3 -,true,2024-03-03 17:13:14.223074,16.367,0.16,235.0,117.84929656982422,252.72862243652344,-7.5518341064453125,45.0,65.0,51.0,38.279991149902344,-20.0
32,60,100,60,go_to_color_detect_up_from_color_detect_down,blue,true,false,joint 3 -,true,2024-03-03 17:13:15.603905,22.823,0.16,235.0,131.4939727783203,281.9897155761719,73.16902160644531,45.0,65.0,51.0,4.013327121734619,-20.0
32,60,100,60,go_to_red_up,red,true,false,joint 1 +,true,2024-03-03 17:13:16.304092,22.709,0.214,235.0,28.24228858947754,310.3322448730469,84.958251953125,64.8000259399414,85.52002716064453,51.0,0.0,-20.0
32,60,100,60,go_to_red_up,red,true,false,joint 1 +,true,2024-03-03 17:13:17.723507,22.329,0.214,236.8,-152.65725708007812,271.6606140136719,84.958251953125,99.33341979980469,119.98675537109375,51.0,0.0,-20.0
32,60,100,60,go_to_pick_up_from_red,red,true,false,joint 1 -,false,2024-03-03 17:13:18.413708,22.329,0.212,236.8,-111.46954345703125,290.9953308105469,84.958251953125,90.9599838256836,110.23998260498047,51.0,0.0,-20.0
32,60,100,60,go_to_pick_up_from_red,red,true,false,joint 1 -,false,2024-03-03 17:13:19.824351,20.013,0.212,235.0,73.27412414550781,302.87725830078125,84.958251953125,56.399925231933594,75.67992401123047,51.0,0.0,-20.0
32,60,100,60,go_to_pick_up_from_red,red,true,false,joint 1 -,false,2024-03-03 17:13:20.512633,16.538,0.162,235.0,249.5201416015625,186.66397094726562,84.958251953125,16.79985809326172,36.079856872558594,51.0,0.0,-20.0
32,60,100,60,moving_belt,red,false,true,joint 1 -,false,2024-03-03 17:13:21.202326,16.614,0.162,235.0,292.8220520019531,106.5785140991211,84.958251953125,0.0,20.0,51.0,0.0,-20.0
32,60,100,60,moving_belt,red,false,true,joint 1 -,false,2024-03-03 17:13:22.583705,16.576,0.163,235.0,292.8220520019531,106.5785140991211,84.958251953125,0.0,20.0,51.0,0.0,-20.0
32,60,100,60,moving_belt,red,false,true,joint 1 -,false,2024-03-03 17:13:23.273979,16.576,0.163,235.0,292.8220520019531,106.5785140991211,84.958251953125,0.0,20.0,51.0,0.0,-20.0
32,60,100,60,moving_belt,red,false,true,joint 1 -,false,2024-03-03 17:13:24.660857,16.462,0.163,235.0,292.8220520019531,106.5785140991211,84.958251953125,0.0,20.0,51.0,0.0,-20.0
32,60,100,60,moving_belt,red,false,true,joint 1 -,false,2024-03-03 17:13:25.364635,16.443,0.16,235.0,292.8220520019531,106.5785140991211,84.958251953125,0.0,20.0,51.0,0.0,-20.0
32,60,100,60,go_to_pick_down,red,true,false,joint 3 +,false,2024-03-03 17:13:26.745936,16.12,0.16,235.0,283.4154052734375,103.15476989746094,31.639995574951172,0.0,20.0,51.0,21.488893508911133,-20.0
32,60,100,60,go_to_pick_up_from_pick_down,red,true,false,joint 3 -,true,2024-03-03 17:13:27.435237,16.975,0.159,235.0,292.7654724121094,106.55792236328125,80.7511978149414,0.0,20.0,51.0,1.2977728843688965,-20.0
32,60,100,60,go_to_color_detect_up_from_pick_up,red,true,false,joint 1 +,true,2024-03-03 17:13:28.813011,23.07,0.159,235.0,241.89602661132812,196.44349670410156,84.958251953125,19.08000946044922,39.800010681152344,51.0,0.0,-20.0
32,60,100,60,go_to_color_detect_down,red,true,false,joint 3 +,true,2024-03-03 17:13:29.776779,22.386,0.212,235.0,131.68740844726562,282.404541015625,82.8031997680664,45.0,65.0,51.0,1.119999885559082,-20.0
32,60,100,60,go_to_color_detect_down,red,true,false,joint 3 +,true,2024-03-03 17:13:30.476803,22.5,0.212,235.0,121.81277465820312,261.22833251953125,5.4134521484375,45.0,65.0,51.0,33.47998809814453,-20.0
32,60,100,60,go_to_color_detect_up_from_color_detect_down,red,true,false,joint 3 -,false,2024-03-03 17:13:31.167106,22.102,0.209,235.0,114.85627746582031,246.31007385253906,-15.670166015625,45.0,65.0,51.0,42.55999755859375,-20.0
32,60,100,60,go_to_color_detect_up_from_color_detect_down,red,true,false,joint 3 -,false,2024-03-03 17:13:32.559549,20.829,0.209,235.0,131.4939727783203,281.9897155761719,73.16902160644531,45.0,65.0,51.0,4.013327121734619,-20.0
32,60,100,60,detecting_color,red,false,false,detecting_color,false,2024-03-03 17:13:33.261712,17.089,0.209,235.0,131.69407653808594,282.4188232421875,84.958251953125,45.0,65.0,51.0,0.0,-20.0
32,60,100,60,detecting_color,red,false,false,detecting_color,false,2024-03-03 17:13:34.646090,16.443,0.164,235.0,131.69407653808594,282.4188232421875,84.958251953125,45.0,65.0,51.0,0.0,-20.0
32,60,100,60,detecting_color,red,false,false,detecting_color,false,2024-03-03 17:13:35.345742,16.443,0.164,235.0,131.69407653808594,282.4188232421875,84.958251953125,45.0,65.0,51.0,0.0,-20.0
32,60,100,60,detecting_color,red,false,false,detecting_color,false,2024-03-03 17:13:36.729114,16.462,0.16,235.0,131.69407653808594,282.4188232421875,84.958251953125,45.0,65.0,51.0,0.0,-20.0
32,60,100,60,go_to_color_detect_down,red,true,false,joint 3 +,false,2024-03-03 17:13:37.419812,16.462,0.16,235.0,130.92921447753906,280.7785949707031,61.96238708496094,45.0,65.0,51.0,9.719999313354492,-20.0
32,60,100,60,go_to_color_detect_down,red,true,false,joint 3 +,false,2024-03-03 17:13:38.804934,16.443,0.16,235.0,114.70755767822266,245.9911346435547,-16.043617248535156,45.0,65.0,51.0,43.98666763305664,-20.0
32,60,100,60,go_to_color_detect_up_from_color_detect_down,red,true,false,joint 3 -,true,2024-03-03 17:13:38.804934,16.443,0.16,235.0,123.94683837890625,265.8048400878906,13.870857238769531,45.0,65.0,51.0,28.19998550415039,-20.0
32,60,100,60,go_to_green_up,green,true,false,joint 1 +,true,2024-03-03 17:13:40.719240,23.374,0.219,235.0,131.69407653808594,282.4188232421875,84.88985443115234,45.0,65.0,51.0,-8.901581168174744e-06,-20.0
32,60,100,60,go_to_green_up,green,true,false,joint 1 +,true,2024-03-03 17:13:41.414117,22.823,0.219,235.0,-6.961185455322266,311.5369567871094,84.958251953125,71.28003692626953,92.00003814697266,51.0,0.0,-20.0
32,60,100,60,go_to_pick_up_from_green,green,true,false,joint 1 -,false,2024-03-03 17:13:42.801640,22.614,0.213,235.0,-32.57258605957031,309.90765380859375,84.958251953125,75.99999237060547,95.27999114990234,51.0,0.0,-20.0
32,60,100,60,go_to_pick_up_from_green,green,true,false,joint 1 -,false,2024-03-03 17:13:43.497252,20.469,0.213,235.0,148.97669982910156,273.6963195800781,84.958251953125,41.43993377685547,60.719932556152344,51.0,0.0,-20.0
32,60,100,60,go_to_pick_up_from_green,green,true,false,joint 1 -,false,2024-03-03 17:13:44.187309,16.481,0.213,235.0,277.9466857910156,140.8877716064453,84.958251953125,6.879890441894531,26.15989112854004,51.0,0.0,-20.0
32,60,100,60,moving_belt,green,false,true,joint 1 -,false,2024-03-03 17:13:45.593605,16.595,0.161,235.0,292.8220520019531,106.5785140991211,84.958251953125,0.0,20.0,51.0,0.0,-20.0
32,60,100,60,moving_belt,green,false,true,joint 1 -,false,2024-03-03 17:13:46.308792,16.595,0.161,235.0,292.8220520019531,106.5785140991211,84.958251953125,0.0,20.0,51.0,0.0,-20.0
32,60,100,60,moving_belt,green,false,true,joint 1 -,false,2024-03-03 17:13:47.703572,16.329,0.16,236.8,292.8220520019531,106.5785140991211,84.958251953125,0.0,20.0,51.0,0.0,-20.0
32,60,100,60,moving_belt,green,false,true,joint 1 -,false,2024-03-03 17:13:48.395262,16.329,0.16,236.8,292.8220520019531,106.5785140991211,84.958251953125,0.0,20.0,51.0,0.0,-20.0
32,60,100,60,go_to_pick_down,green,true,false,joint 3 +,false,2024-03-03 17:13:49.779410,16.386,0.16,235.0,292.795654296875,106.56890869140625,82.08492279052734,0.0,20.0,51.0,1.4399995803833008,-20.0
32,60,100,60,go_to_pick_up_from_pick_down,green,true,false,joint 3 -,true,2024-03-03 17:13:50.478072,16.291,0.16,235.0,282.979248046875,102.99602508544922,30.462482452392578,0.0,20.0,51.0,21.599998474121094,-20.0
32,60,100,60,go_to_color_detect_up_from_pick_up,green,true,false,joint 1 +,true,2024-03-03 17:13:51.182925,16.291,0.165,235.0,291.2281188964844,110.85991668701172,84.958251953125,0.8400020599365234,21.12000274658203,51.0,0.0,-20.0
32,60,100,60,go_to_color_detect_up_from_pick_up,green,true,false,joint 1 +,true,2024-03-03 17:13:52.581099,22.215,0.165,235.0,188.57505798339844,248.07896423339844,84.958251953125,32.760032653808594,53.48003387451172,51.0,0.0,-20.0
32,60,100,60,go_to_color_detect_down,green,true,false,joint 3 +,true,2024-03-03 17:13:53.273357,22.234,0.21,235.0,131.15406799316406,281.2607727050781,65.61829376220703,45.0,65.0,51.0,8.279998779296875,-20.0
32,60,100,60,go_to_color_detect_down,green,true,false,joint 3 +,true,2024-03-03 17:13:54.672208,21.76,0.21,235.0,113.1079330444336,242.56072998046875,-19.90155792236328,45.0,65.0,51.0,45.93333435058594,-20.0
32,60,100,60,go_to_color_detect_up_from_color_detect_down,green,true,false,joint 3 -,false,2024-03-03 17:13:55.375421,21.855,0.207,235.0,123.56502532958984,264.9860534667969,12.259620666503906,45.0,65.0,51.0,28.919984817504883,-20.0
32,60,100,60,detecting_color,green,false,false,detecting_color,false,2024-03-03 17:13:56.760780,16.804,0.207,235.0,131.69400024414062,282.4186706542969,84.71881103515625,45.0,65.0,51.0,0.026657968759536743,-20.0
32,60,100,60,detecting_color,green,false,false,detecting_color,false,2024-03-03 17:13:57.448480,16.557,0.16,235.0,131.69407653808594,282.4188232421875,84.958251953125,45.0,65.0,51.0,0.0,-20.0
32,60,100,60,go_to_color_detect_down,green,true,false,joint 3 +,false,2024-03-03 17:13:58.654454,16.557,0.16,235.0,131.69407653808594,282.4188232421875,84.958251953125,45.0,65.0,51.0,0.0,-20.0
32,60,100,60,go_to_color_detect_down,green,true,false,joint 3 +,false,2024-03-03 17:13:59.344735,16.234,0.16,235.0,124.19662475585938,266.34051513671875,14.951263427734375,45.0,65.0,51.0,29.159988403320312,-20.0
32,60,100,60,go_to_color_detect_up_from_color_detect_down,green,true,false,joint 3 -,true,2024-03-03 17:14:00.735673,16.196,0.16,235.0,112.28592681884766,240.7979278564453,-21.777687072753906,45.0,65.0,51.0,46.19999694824219,-20.0
32,60,100,60,go_to_color_detect_up_from_color_detect_down,green,true,false,joint 3 -,true,2024-03-03 17:14:01.473803,17.81,0.16,235.0,129.90078735351562,278.5731506347656,49.89384460449219,45.0,65.0,51.0,13.079995155334473,-20.0
32,60,100,60,go_to_blue_up,blue,true,false,joint 1 +,true,2024-03-03 17:14:02.174375,22.709,0.215,235.0,74.54173278808594,302.5677795410156,84.958251953125,56.160011291503906,76.88001251220703,51.0,0.0,-20.0
32,60,100,60,go_to_pick_up_from_blue,blue,true,false,joint 1 -,false,2024-03-03 17:14:02.986668,22.177,0.215,235.0,79.17997741699219,301.3872375488281,84.958251953125,55.279991149902344,74.55998992919922,51.0,0.0,-20.0
32,60,100,60,go_to_pick_up_from_blue,blue,true,false,joint 1 -,false,2024-03-03 17:14:04.212553,22.177,0.215,235.0,236.17510986328125,203.28562927246094,84.958251953125,20.719932556152344,39.99993133544922,51.0,0.0,-20.0
32,60,100,60,moving_belt,blue,false,true,joint 1 -,false,2024-03-03 17:14:05.609889,16.367,0.19,235.0,292.8220520019531,106.5785140991211,84.958251953125,0.0,20.0,51.0,0.0,-20.0
32,60,100,60,moving_belt,blue,false,true,joint 1 -,false,2024-03-03 17:14:06.304556,16.595,0.16,235.0,292.8220520019531,106.5785140991211,84.958251953125,0.0,20.0,51.0,0.0,-20.0
32,60,100,60,moving_belt,blue,false,true,joint 1 -,false,2024-03-03 17:14:07.258365,16.595,0.16,235.0,292.8220520019531,106.5785140991211,84.958251953125,0.0,20.0,51.0,0.0,-20.0
32,60,100,60,moving_belt,blue,false,true,joint 1 -,false,2024-03-03 17:14:08.647727,16.234,0.161,235.0,292.8220520019531,106.5785140991211,84.958251953125,0.0,20.0,51.0,0.0,-20.0
32,60,100,60,moving_belt,blue,false,true,joint 1 -,false,2024-03-03 17:14:09.339413,16.557,0.161,235.0,292.8220520019531,106.5785140991211,84.958251953125,0.0,20.0,51.0,0.0,-20.0
32,60,100,60,go_to_pick_down,blue,true,false,joint 3 +,false,2024-03-03 17:14:10.735583,16.215,0.161,235.0,286.0247802734375,104.1045150756836,39.41347885131836,0.0,20.0,51.0,18.59111213684082,-20.0
32,60,100,60,go_to_pick_up_from_pick_down,blue,true,false,joint 3 -,true,2024-03-03 17:14:11.438816,16.253,0.161,235.0,292.69635009765625,106.53276824951172,78.68861389160156,0.0,20.0,51.0,2.0222175121307373,-20.0
32,60,100,60,go_to_color_detect_up_from_pick_up,blue,true,false,joint 1 +,true,2024-03-03 17:14:12.825178,23.051,0.21,235.0,244.345458984375,193.38829040527344,84.958251953125,18.360008239746094,39.08000946044922,51.0,0.0,-20.0
32,60,100,60,go_to_color_detect_down,blue,true,false,joint 3 +,true,2024-03-03 17:14:13.516469,22.083,0.21,235.0,131.69407653808594,282.4188232421875,84.958251953125,45.0,65.0,51.0,0.0,-20.0
32,60,100,60,go_to_color_detect_down,blue,true,false,joint 3 +,true,2024-03-03 17:14:14.489207,22.064,0.21,235.0,122.64108276367188,263.004638671875,8.545135498046875,45.0,65.0,51.0,32.03998565673828,-20.0
32,60,100,60,go_to_color_detect_up_from_color_detect_down,blue,true,false,joint 3 -,false,2024-03-03 17:14:15.295517,21.703,0.206,235.0,113.59001922607422,243.59457397460938,-18.768508911132812,45.0,65.0,51.0,44.3599967956543,-20.0
32,60,100,60,go_to_color_detect_up_from_color_detect_down,blue,true,false,joint 3 -,false,2024-03-03 17:14:16.722619,21.589,0.206,235.0,130.56915283203125,280.0064392089844,57.1108512878418,45.0,65.0,51.0,10.199994087219238,-20.0
32,60,100,60,detecting_color,blue,false,false,detecting_color,false,2024-03-03 17:14:17.680415,16.842,0.164,235.0,131.69407653808594,282.4188232421875,84.958251953125,45.0,65.0,51.0,0.0,-20.0
32,60,100,60,go_to_color_detect_down,blue,true,false,joint 3 +,false,2024-03-03 17:14:18.398009,16.348,0.164,235.0,131.6935272216797,282.41766357421875,84.34249877929688,45.0,65.0,51.0,0.3999999761581421,-20.0
32,60,100,60,go_to_color_detect_down,blue,true,false,joint 3 +,false,2024-03-03 17:14:19.849750,16.215,0.159,235.0,123.04268646240234,263.8658752441406,10.129188537597656,45.0,65.0,51.0,31.31998634338379,-20.0
32,60,100,60,go_to_color_detect_up_from_color_detect_down,blue,true,false,joint 3 -,true,2024-03-03 17:14:20.674981,16.215,0.159,235.0,113.59001922607422,243.59457397460938,-18.768508911132812,45.0,65.0,51.0,44.3599967956543,-20.0
32,60,100,60,go_to_color_detect_up_from_color_detect_down,blue,true,false,joint 3 -,true,2024-03-03 17:14:21.439218,16.234,0.218,235.0,131.28236389160156,281.5359191894531,68.06250762939453,45.0,65.0,51.0,5.893326759338379,-20.0
32,60,100,60,go_to_red_up,red,true,false,joint 1 +,true,2024-03-03 17:14:22.722102,22.956,0.218,235.0,63.084896087646484,305.1623229980469,84.958251953125,58.32001495361328,79.0400161743164,51.0,0.0,-20.0
32,60,100,60,go_to_red_up,red,true,false,joint 1 +,true,2024-03-03 17:14:23.761858,22.405,0.209,235.0,-121.15689849853516,287.09710693359375,84.958251953125,92.88007354736328,113.6000747680664,51.0,0.0,-20.0
32,60,100,60,go_to_pick_up_from_red,red,true,false,joint 1 -,false,2024-03-03 17:14:24.453626,22.196,0.209,235.0,-122.35800170898438,286.5872497558594,84.958251953125,93.11998748779297,112.39998626708984,51.0,0.0,-20.0
32,60,100,60,go_to_pick_up_from_red,red,true,false,joint 1 -,false,2024-03-03 17:14:25.838805,16.386,0.159,235.0,61.80656433105469,305.42376708984375,84.958251953125,58.55992889404297,77.83992767333984,51.0,0.0,-20.0
32,60,100,60,go_to_pick_up_from_red,red,true,false,joint 1 -,false,2024-03-03 17:14:26.755905,16.386,0.159,235.0,224.1573486328125,216.46527099609375,84.958251953125,23.99987030029297,43.279869079589844,51.0,0.0,-20.0
32,60,100,60,moving_belt,red,false,true,joint 1 -,false,2024-03-03 17:14:27.451750,16.405,0.159,235.0,292.8220520019531,106.5785140991211,84.958251953125,0.0,20.0,51.0,0.0,-20.0
32,60,100,60,moving_belt,red,false,true,joint 1 -,false,2024-03-03 17:14:28.835650,16.519,0.16,235.0,292.8220520019531,106.5785140991211,84.958251953125,0.0,20.0,51.0,0.0,-20.0
32,60,100,60,moving_belt,red,false,true,joint 1 -,false,2024-03-03 17:14:29.849450,16.291,0.16,235.0,292.8220520019531,106.5785140991211,84.958251953125,0.0,20.0,51.0,0.0,-20.0
32,60,100,60,moving_belt,red,false,true,joint 1 -,false,2024-03-03 17:14:30.539087,16.633,0.159,235.0,292.8220520019531,106.5785140991211,84.958251953125,0.0,20.0,51.0,0.0,-20.0
32,60,100,60,moving_belt,red,false,true,joint 1 -,false,2024-03-03 17:14:31.229581,16.633,0.159,235.0,292.8220520019531,106.5785140991211,84.958251953125,0.0,20.0,51.0,0.0,-20.0
32,60,100,60,go_to_pick_down,red,true,false,joint 3 +,false,2024-03-03 17:14:32.664291,16.082,0.157,235.0,286.8953857421875,104.42137908935547,42.361427307128906,0.0,20.0,51.0,17.46666717529297,-20.0
32,60,100,60,go_to_pick_up_from_pick_down,red,true,false,joint 3 -,true,2024-03-03 17:14:33.415585,16.5,0.157,235.0,292.49371337890625,106.45901489257812,74.82919311523438,0.0,20.0,51.0,3.4088845252990723,-20.0
32,60,100,60,go_to_color_detect_up_from_pick_up,red,true,false,joint 1 +,true,2024-03-03 17:14:34.815498,23.127,0.211,235.0,251.46067810058594,184.04144287109375,84.958251953125,16.20000457763672,36.920005798339844,51.0,0.0,-20.0
32,60,100,60,go_to_color_detect_down,red,true,false,joint 3 +,true,2024-03-03 17:14:35.508864,23.127,0.211,235.0,131.7924041748047,282.37298583984375,84.958251953125,44.98004913330078,65.00004577636719,51.0,0.0,-20.0
32,60,100,60,go_to_color_detect_down,red,true,false,joint 3 +,true,2024-03-03 17:14:36.199755,22.234,0.211,235.0,123.82052612304688,265.5339660644531,13.332504272460938,45.0,65.0,51.0,29.879987716674805,-20.0
32,60,100,60,go_to_color_detect_up_from_color_detect_down,red,true,false,joint 3 -,false,2024-03-03 17:14:37.629737,21.912,0.207,235.0,112.5685043334961,241.4039306640625,-21.14051055908203,45.0,65.0,51.0,45.79999542236328,-20.0
32,60,100,60,go_to_color_detect_up_from_color_detect_down,red,true,false,joint 3 -,false,2024-03-03 17:14:38.318434,21.912,0.207,235.0,130.08224487304688,278.9622497558594,51.69050216674805,45.0,65.0,51.0,12.359994888305664,-20.0
32,60,100,60,detecting_color,red,false,false,detecting_color,false,2024-03-03 17:14:39.710204,16.728,0.163,235.0,131.69407653808594,282.4188232421875,84.958251953125,45.0,65.0,51.0,0.0,-20.0
32,60,100,60,detecting_color,red,false,false,detecting_color,false,2024-03-03 17:14:40.401905,16.557,0.163,235.0,131.69407653808594,282.4188232421875,84.958251953125,45.0,65.0,51.0,0.0,-20.0
32,60,100,60,detecting_color,red,false,false,detecting_color,false,2024-03-03 17:14:41.097682,16.348,0.16,235.0,131.69407653808594,282.4188232421875,84.958251953125,45.0,65.0,51.0,0.0,-20.0
32,60,100,60,detecting_color,red,false,false,detecting_color,false,2024-03-03 17:14:42.762123,16.348,0.16,235.0,131.69407653808594,282.4188232421875,84.958251953125,45.0,65.0,51.0,0.0,-20.0
32,60,100,60,go_to_color_detect_down,red,true,false,joint 3 +,false,2024-03-03 17:14:43.454805,16.348,0.161,235.0,128.02130126953125,274.54254150390625,35.16378402709961,45.0,65.0,51.0,20.519996643066406,-20.0
32,60,100,60,go_to_color_detect_up_from_color_detect_down,red,true,false,joint 3 -,true,2024-03-03 17:14:44.850302,16.424,0.161,235.0,111.33187866210938,238.75196838378906,-23.871063232421875,45.0,65.0,51.0,47.599998474121094,-20.0
32,60,100,60,go_to_color_detect_up_from_color_detect_down,red,true,false,joint 3 -,true,2024-03-03 17:14:45.602783,16.424,0.19,235.0,128.8512725830078,276.3224182128906,40.999263763427734,45.0,65.0,51.0,16.679996490478516,-20.0
32,60,100,60,go_to_green_up,green,true,false,joint 1 +,true,2024-03-03 17:14:46.300171,23.127,0.19,235.0,97.12145233154297,296.0931701660156,84.958251953125,51.840003967285156,72.56000518798828,51.0,0.0,-20.0
32,60,100,60,go_to_green_up,green,true,false,joint 1 +,true,2024-03-03 17:14:47.794780,22.424,0.211,235.0,-75.41016387939453,302.3525085449219,84.958251953125,84.00450134277344,104.2667236328125,51.0,0.0,-20.0
32,60,100,60,go_to_pick_up_from_green,green,true,false,joint 1 -,false,2024-03-03 17:14:48.484474,22.424,0.211,235.0,29.975360870361328,310.1696472167969,84.958251953125,64.47997283935547,83.75997161865234,51.0,0.0,-20.0
32,60,100,60,go_to_pick_up_from_green,green,true,false,joint 1 -,false,2024-03-03 17:14:49.868905,16.405,0.16,235.0,218.02574157714844,222.63986206054688,84.958251953125,25.59990692138672,44.879905700683594,51.0,0.0,-20.0
32,60,100,60,moving_belt,green,false,true,joint 1 -,false,2024-03-03 17:14:50.563582,16.405,0.16,235.0,292.8220520019531,106.5785140991211,84.958251953125,0.0,20.0,51.0,0.0,-20.0
32,60,100,60,moving_belt,green,false,true,joint 1 -,false,2024-03-03 17:14:51.259600,16.519,0.16,235.0,292.8220520019531,106.5785140991211,84.958251953125,0.0,20.0,51.0,0.0,-20.0
32,60,100,60,moving_belt,green,false,true,joint 1 -,false,2024-03-03 17:14:52.645490,16.367,0.162,235.0,292.8220520019531,106.5785140991211,84.958251953125,0.0,20.0,51.0,0.0,-20.0
32,60,100,60,moving_belt,green,false,true,joint 1 -,false,2024-03-03 17:14:53.338229,16.367,0.162,235.0,292.8220520019531,106.5785140991211,84.958251953125,0.0,20.0,51.0,0.0,-20.0
32,60,100,60,moving_belt,green,false,true,joint 1 -,false,2024-03-03 17:14:54.720065,16.291,0.16,235.0,292.8220520019531,106.5785140991211,84.958251953125,0.0,20.0,51.0,0.0,-20.0
32,60,100,60,go_to_pick_down,green,true,false,joint 3 +,false,2024-03-03 17:14:55.409758,16.291,0.16,235.0,290.2099914550781,105.62779998779297,56.50647735595703,0.0,20.0,51.0,11.879999160766602,-20.0
32,60,100,60,go_to_pick_up_from_pick_down,green,true,false,joint 3 -,true,2024-03-03 17:14:56.818851,16.291,0.159,235.0,291.2399597167969,106.00267791748047,62.773643493652344,0.0,20.0,51.0,7.959995746612549,-20.0
32,60,100,60,go_to_color_detect_up_from_pick_up,green,true,false,joint 1 +,true,2024-03-03 17:14:57.508406,23.013,0.159,235.0,266.6567077636719,161.23870849609375,84.958251953125,11.159997940063477,31.87999725341797,51.0,0.0,-20.0
32,60,100,60,go_to_color_detect_up_from_pick_up,green,true,false,joint 1 +,true,2024-03-03 17:14:58.888776,22.14,0.209,235.0,136.50486755371094,280.125244140625,84.958251953125,44.020050048828125,64.2800521850586,51.0,0.0,-20.0
32,60,100,60,go_to_color_detect_down,green,true,false,joint 3 +,true,2024-03-03 17:14:59.576179,22.14,0.209,235.0,125.6141586303711,269.38043212890625,21.534229278564453,45.0,65.0,51.0,26.279991149902344,-20.0
32,60,100,60,go_to_color_detect_up_from_color_detect_down,green,true,false,joint 3 -,false,2024-03-03 17:15:00.265165,21.741,0.209,235.0,111.33187866210938,238.75196838378906,-23.871063232421875,45.0,65.0,51.0,47.599998474121094,-20.0
32,60,100,60,go_to_color_detect_up_from_color_detect_down,green,true,false,joint 3 -,false,2024-03-03 17:15:01.662630,21.741,0.209,235.0,128.8512725830078,276.3224182128906,40.999263763427734,45.0,65.0,51.0,16.679996490478516,-20.0
32,60,100,60,detecting_color,green,false,false,detecting_color,false,2024-03-03 17:15:02.358606,16.671,0.209,235.0,131.69407653808594,282.4188232421875,84.958251953125,45.0,65.0,51.0,0.0,-20.0
32,60,100,60,detecting_color,green,false,false,detecting_color,false,2024-03-03 17:15:03.746482,16.557,0.16,235.0,131.69407653808594,282.4188232421875,84.958251953125,45.0,65.0,51.0,0.0,-20.0
32,60,100,60,go_to_color_detect_down,green,true,false,joint 3 +,false,2024-03-03 17:15:04.442082,16.291,0.16,235.0,129.22732543945312,277.1288757324219,43.946556091308594,45.0,65.0,51.0,16.920000076293945,-20.0
32,60,100,60,go_to_color_detect_up_from_color_detect_down,green,true,false,joint 3 -,true,2024-03-03 17:15:05.830670,16.12,0.154,235.0,111.13883972167969,238.33799743652344,-24.284042358398438,45.0,65.0,51.0,48.0,-20.0
32,60,100,60,go_to_color_detect_up_from_color_detect_down,green,true,false,joint 3 -,true,2024-03-03 17:15:06.523531,16.12,0.154,235.0,127.56777954101562,273.5699768066406,32.27817916870117,45.0,65.0,51.0,20.279993057250977,-20.0
32,60,100,60,go_to_blue_up,blue,true,false,joint 1 +,true,2024-03-03 17:15:07.212432,22.88,0.21,235.0,126.14859008789062,284.9390563964844,84.958251953125,46.12000274658203,66.44000244140625,51.0,0.0,-20.0
32,60,100,60,go_to_pick_up_from_blue,blue,true,false,joint 1 -,false,2024-03-03 17:15:08.607924,22.14,0.21,235.0,41.428707122802734,308.8485107421875,84.958251953125,62.35999298095703,81.87998962402344,51.0,0.0,-20.0
32,60,100,60,go_to_pick_up_from_blue,blue,true,false,joint 1 -,false,2024-03-03 17:15:09.302169,22.14,0.184,235.0,205.91148376464844,233.88926696777344,84.958251953125,28.63994598388672,47.919944763183594,51.0,0.0,-20.0
32,60,100,60,moving_belt,blue,false,true,joint 1 -,false,2024-03-03 17:15:10.008805,16.652,0.184,235.0,292.801513671875,106.63489532470703,84.958251953125,0.011030197143554688,19.999919891357422,51.0,0.0,-20.0
32,60,100,60,moving_belt,blue,false,true,joint 1 -,false,2024-03-03 17:15:11.685583,16.481,0.161,235.0,292.8220520019531,106.5785140991211,84.958251953125,0.0,20.0,51.0,0.0,-20.0
32,60,100,60,moving_belt,blue,false,true,joint 1 -,false,2024-03-03 17:15:12.384255,16.386,0.161,235.0,292.8220520019531,106.5785140991211,84.958251953125,0.0,20.0,51.0,0.0,-20.0
32,60,100,60,moving_belt,blue,false,true,joint 1 -,false,2024-03-03 17:15:13.782569,16.424,0.159,235.0,292.8220520019531,106.5785140991211,84.958251953125,0.0,20.0,51.0,0.0,-20.0
32,60,100,60,moving_belt,blue,false,true,joint 1 -,false,2024-03-03 17:15:14.477246,16.405,0.159,235.0,292.8220520019531,106.5785140991211,84.958251953125,0.0,20.0,51.0,0.0,-20.0
32,60,100,60,go_to_pick_down,blue,true,false,joint 3 +,false,2024-03-03 17:15:15.865098,16.329,0.155,235.0,289.4953308105469,105.36768341064453,52.891197204589844,0.0,20.0,51.0,13.319999694824219,-20.0
32,60,100,60,go_to_pick_up_from_pick_down,blue,true,false,joint 3 -,true,2024-03-03 17:15:16.563753,16.329,0.155,235.0,289.28167724609375,105.28992462158203,51.89045333862305,0.0,20.0,51.0,12.279996871948242,-20.0
32,60,100,60,go_to_color_detect_up_from_pick_up,blue,true,false,joint 1 +,true,2024-03-03 17:15:17.264417,18.855,0.155,235.0,264.6095275878906,164.57679748535156,84.958251953125,11.879997253417969,32.599998474121094,51.0,0.0,-20.0
32,60,100,60,go_to_color_detect_up_from_pick_up,blue,true,false,joint 1 +,true,2024-03-03 17:15:18.653762,22.234,0.209,235.0,136.50486755371094,280.125244140625,84.958251953125,44.020050048828125,64.2800521850586,51.0,0.0,-20.0
32,60,100,60,go_to_color_detect_down,blue,true,false,joint 3 +,true,2024-03-03 17:15:19.372887,22.234,0.209,235.0,127.4739990234375,273.3688659667969,31.703781127929688,45.0,65.0,51.0,21.95999526977539,-20.0
32,60,100,60,go_to_color_detect_up_from_color_detect_down,blue,true,false,joint 3 -,false,2024-03-03 17:15:20.762439,21.95,0.207,235.0,111.33187866210938,238.75196838378906,-23.871063232421875,45.0,65.0,51.0,47.599998474121094,-20.0
32,60,100,60,go_to_color_detect_up_from_color_detect_down,blue,true,false,joint 3 -,false,2024-03-03 17:15:21.453737,18.437,0.207,235.0,128.8512725830078,276.3224182128906,40.999263763427734,45.0,65.0,51.0,16.679996490478516,-20.0
32,60,100,60,detecting_color,blue,false,false,detecting_color,false,2024-03-03 17:15:22.856038,16.994,0.164,235.0,131.69407653808594,282.4188232421875,84.958251953125,45.0,65.0,51.0,0.0,-20.0
32,60,100,60,detecting_color,blue,false,false,detecting_color,false,2024-03-03 17:15:23.634436,16.994,0.164,235.0,131.69407653808594,282.4188232421875,84.958251953125,45.0,65.0,51.0,0.0,-20.0
32,60,100,60,go_to_color_detect_down,blue,true,false,joint 3 +,false,2024-03-03 17:15:24.325577,16.329,0.164,235.0,129.22732543945312,277.1288757324219,43.946556091308594,45.0,65.0,51.0,16.920000076293945,-20.0
32,60,100,60,go_to_color_detect_down,blue,true,false,joint 3 +,true,2024-03-03 17:15:25.711724,16.443,0.16,235.0,111.13883972167969,238.33799743652344,-24.284042358398438,45.0,65.0,51.0,48.0,-20.0
32,60,100,60,go_to_color_detect_up_from_color_detect_down,blue,true,false,joint 3 -,true,2024-03-03 17:15:26.410207,18.0,0.16,235.0,127.56777954101562,273.5699768066406,32.27817916870117,45.0,65.0,51.0,20.279993057250977,-20.0
32,60,100,60,go_to_red_up,red,true,false,joint 1 +,true,2024-03-03 17:15:27.800158,22.842,0.213,235.0,126.14859008789062,284.9390563964844,84.958251953125,46.12000274658203,66.44000244140625,51.0,0.0,-20.0
32,60,100,60,go_to_red_up,red,true,false,joint 1 +,true,2024-03-03 17:15:28.491618,22.253,0.213,235.0,-69.0381088256836,303.8708190917969,84.958251953125,82.80005645751953,103.52005767822266,51.0,0.0,-20.0
32,60,100,60,go_to_pick_up_from_red,red,true,false,joint 1 -,false,2024-03-03 17:15:29.871219,22.253,0.209,235.0,-174.9734649658203,257.8526916503906,84.958251953125,104.15999603271484,123.87999725341797,51.0,0.0,-20.0
32,60,100,60,go_to_pick_up_from_red,red,true,false,joint 1 -,false,2024-03-03 17:15:30.560913,22.386,0.209,235.0,-12.179353713989258,311.3766174316406,84.958251953125,72.23995208740234,91.51995086669922,51.0,0.0,-20.0
32,60,100,60,go_to_pick_up_from_red,red,true,false,joint 1 -,false,2024-03-03 17:15:31.253218,16.424,0.16,235.0,185.967529296875,250.03961181640625,84.958251953125,33.359886169433594,52.63988494873047,51.0,0.0,-20.0
32,60,100,60,go_to_pick_up_from_red,red,true,false,joint 1 -,false,2024-03-03 17:15:32.674260,16.443,0.16,235.0,290.7745361328125,112.04423522949219,84.958251953125,1.0731849670410156,20.799850463867188,51.0,0.0,-20.0
32,60,100,60,moving_belt,red,false,true,joint 1 -,false,2024-03-03 17:15:33.377516,16.443,0.161,235.0,292.8220520019531,106.5785140991211,84.958251953125,0.0,20.0,51.0,0.0,-20.0
32,60,100,60,moving_belt,red,false,true,joint 1 -,false,2024-03-03 17:15:34.760639,16.5,0.161,235.0,292.8220520019531,106.5785140991211,84.958251953125,0.0,20.0,51.0,0.0,-20.0
32,60,100,60,moving_belt,red,false,true,joint 1 -,false,2024-03-03 17:15:35.749932,16.5,0.161,235.0,292.8220520019531,106.5785140991211,84.958251953125,0.0,20.0,51.0,0.0,-20.0
32,60,100,60,moving_belt,red,false,true,joint 1 -,false,2024-03-03 17:15:35.749932,16.5,0.161,235.0,292.8220520019531,106.5785140991211,84.958251953125,0.0,20.0,51.0,0.0,-20.0
32,60,100,60,go_to_pick_down,red,true,false,joint 3 +,false,2024-03-03 17:15:37.791720,16.519,0.161,235.0,291.621337890625,106.14148712158203,65.61829376220703,0.0,20.0,51.0,8.279997825622559,-20.0
32,60,100,60,go_to_pick_up_from_pick_down,red,true,false,joint 3 -,true,2024-03-03 17:15:37.791720,16.519,0.161,235.0,286.6444396972656,104.33004760742188,41.48917770385742,0.0,20.0,51.0,16.55999755859375,-20.0
32,60,100,60,go_to_color_detect_up_from_pick_up,red,true,false,joint 1 +,true,2024-03-03 17:15:39.746168,23.127,0.218,235.0,286.58721923828125,122.35808563232422,84.958251953125,3.1200027465820312,23.640003204345703,51.0,0.0,-20.0
32,60,100,60,go_to_color_detect_up_from_pick_up,red,true,false,joint 1 +,true,2024-03-03 17:15:40.458353,22.064,0.218,235.0,169.3522491455078,261.57891845703125,84.958251953125,37.080039978027344,57.80004119873047,51.0,0.0,-20.0
32,60,100,60,go_to_color_detect_down,red,true,false,joint 3 +,true,2024-03-03 17:15:41.155598,22.064,0.218,235.0,129.44041442871094,277.5858459472656,45.72365188598633,45.0,65.0,51.0,16.200000762939453,-20.0
32,60,100,60,go_to_color_detect_down,red,true,false,joint 3 +,true,2024-03-03 17:15:42.829817,21.741,0.208,235.0,111.56678771972656,239.2557373046875,-23.363731384277344,45.0,65.0,51.0,47.65333557128906,-20.0
32,60,100,60,go_to_color_detect_up_from_color_detect_down,red,true,false,joint 3 -,false,2024-03-03 17:15:43.526612,21.893,0.208,235.0,127.28341674804688,272.9601745605469,30.557819366455078,45.0,65.0,51.0,20.99999237060547,-20.0
32,60,100,60,detecting_color,red,false,false,detecting_color,false,2024-03-03 17:15:44.909227,16.956,0.171,235.0,131.69407653808594,282.4188232421875,84.958251953125,45.0,65.0,51.0,0.0,-20.0
32,60,100,60,detecting_color,red,false,false,detecting_color,false,2024-03-03 17:15:45.601926,16.31,0.171,235.0,131.69407653808594,282.4188232421875,84.958251953125,45.0,65.0,51.0,0.0,-20.0
32,60,100,60,detecting_color,red,false,false,detecting_color,false,2024-03-03 17:15:46.292622,16.31,0.159,235.0,131.69407653808594,282.4188232421875,84.958251953125,45.0,65.0,51.0,0.0,-20.0
32,60,100,60,detecting_color,red,false,false,detecting_color,false,2024-03-03 17:15:47.677988,16.367,0.159,235.0,131.69407653808594,282.4188232421875,84.958251953125,45.0,65.0,51.0,0.0,-20.0
32,60,100,60,go_to_color_detect_down,red,true,false,joint 3 +,false,2024-03-03 17:15:48.761365,16.367,0.16,235.0,127.75225067138672,273.965576171875,33.42971420288086,45.0,65.0,51.0,21.2399959564209,-20.0
32,60,100,60,go_to_color_detect_up_from_color_detect_down,red,true,false,joint 3 -,true,2024-03-03 17:15:49.587022,16.253,0.16,235.0,111.13883972167969,238.33799743652344,-24.284042358398438,45.0,65.0,51.0,48.0,-20.0
32,60,100,60,go_to_color_detect_up_from_color_detect_down,red,true,false,joint 3 -,true,2024-03-03 17:15:50.303807,16.253,0.169,235.0,126.9899673461914,272.3308410644531,28.846054077148438,45.0,65.0,51.0,21.71999168395996,-20.0
32,60,100,60,go_to_green_up,green,true,false,joint 1 +,true,2024-03-03 17:15:51.126690,20.051,0.169,235.0,120.75553894042969,287.2661437988281,84.958251953125,47.20000457763672,67.64000701904297,51.0,0.0,-20.0
32,60,100,60,go_to_green_up,green,true,false,joint 1 +,true,2024-03-03 17:15:52.768598,21.855,0.208,235.0,-56.60929870605469,306.42962646484375,84.958251953125,80.46672058105469,101.04894256591797,51.0,0.0,-20.0
32,60,100,60,go_to_pick_up_from_green,green,true,false,joint 1 -,false,2024-03-03 17:15:53.456880,22.102,0.208,236.8,-1.3052197694778442,311.61199951171875,84.958251953125,70.23998260498047,89.51998138427734,51.0,0.0,-20.0
32,60,100,60,go_to_pick_up_from_green,green,true,false,joint 1 -,false,2024-03-03 17:15:54.891837,16.5,0.159,236.8,194.58038330078125,243.397216796875,84.958251953125,31.35991668701172,50.639915466308594,51.0,0.0,-20.0
32,60,100,60,go_to_pick_up_from_green,green,true,false,joint 1 -,false,2024-03-03 17:15:55.583308,16.424,0.159,236.8,292.04998779296875,108.67626190185547,84.958251953125,0.41100120544433594,20.248779296875,51.0,0.0,-20.0
32,60,100,60,moving_belt,green,false,true,joint 1 -,false,2024-03-03 17:15:56.289944,16.424,0.159,236.8,292.8220520019531,106.5785140991211,84.958251953125,0.0,20.0,51.0,0.0,-20.0
32,60,100,60,moving_belt,green,false,true,joint 1 -,false,2024-03-03 17:15:57.682872,16.557,0.161,236.8,292.8220520019531,106.5785140991211,84.958251953125,0.0,20.0,51.0,0.0,-20.0
32,60,100,60,moving_belt,green,false,true,joint 1 -,false,2024-03-03 17:15:58.377378,16.291,0.161,236.8,292.8220520019531,106.5785140991211,84.958251953125,0.0,20.0,51.0,0.0,-20.0
32,60,100,60,moving_belt,green,false,true,joint 1 -,false,2024-03-03 17:15:59.781145,16.424,0.161,236.8,292.8220520019531,106.5785140991211,84.958251953125,0.0,20.0,51.0,0.0,-20.0
32,60,100,60,go_to_pick_down,green,true,false,joint 3 +,false,2024-03-03 17:16:00.479390,16.253,0.161,235.0,290.8390808105469,105.85677337646484,60.139739990234375,0.0,20.0,51.0,10.439998626708984,-20.0
32,60,100,60,go_to_pick_up_from_pick_down,green,true,false,joint 3 -,true,2024-03-03 17:16:01.867332,16.367,0.158,235.0,288.0148620605469,104.82884216308594,46.51548767089844,0.0,20.0,51.0,14.439997673034668,-20.0
32,60,100,60,go_to_color_detect_up_from_pick_up,green,true,false,joint 1 +,true,2024-03-03 17:16:02.563007,22.804,0.158,236.8,282.8768005371094,130.70745849609375,84.958251953125,4.8000030517578125,25.44000244140625,51.0,0.0,-20.0
32,60,100,60,go_to_color_detect_up_from_pick_up,green,true,false,joint 1 +,true,2024-03-03 17:16:03.262416,22.804,0.158,236.8,141.46990966796875,277.6508483886719,84.958251953125,43.00004577636719,63.38004684448242,51.0,0.0,-20.0
32,60,100,60,go_to_color_detect_down,green,true,false,joint 3 +,true,2024-03-03 17:16:04.655347,21.893,0.209,236.8,128.53167724609375,275.6370544433594,38.655235290527344,45.0,65.0,51.0,19.079998016357422,-20.0
32,60,100,60,go_to_color_detect_up_from_color_detect_down,green,true,false,joint 3 -,false,2024-03-03 17:16:05.348624,21.893,0.209,236.8,111.21400451660156,238.4991912841797,-24.12366485595703,45.0,65.0,51.0,47.97333526611328,-20.0
32,60,100,60,go_to_color_detect_up_from_color_detect_down,green,true,false,joint 3 -,false,2024-03-03 17:16:06.733932,20.013,0.206,236.8,128.3656768798828,275.28106689453125,37.48807144165039,45.0,65.0,51.0,18.1199951171875,-20.0
32,60,100,60,detecting_color,green,false,false,detecting_color,false,2024-03-03 17:16:07.429162,20.013,0.206,236.8,131.69407653808594,282.4188232421875,84.958251953125,45.0,65.0,51.0,0.0,-20.0
32,60,100,60,detecting_color,green,false,false,detecting_color,false,2024-03-03 17:16:08.821497,16.367,0.165,236.8,131.69407653808594,282.4188232421875,84.958251953125,45.0,65.0,51.0,0.0,-20.0
32,60,100,60,go_to_color_detect_down,green,true,false,joint 3 +,false,2024-03-03 17:16:09.523791,16.367,0.165,236.8,129.22732543945312,277.1288757324219,43.946556091308594,45.0,65.0,51.0,16.920000076293945,-20.0
32,60,100,60,go_to_color_detect_down,green,true,false,joint 3 +,false,2024-03-03 17:16:10.904945,16.253,0.159,235.0,111.56678771972656,239.2557373046875,-23.363731384277344,45.0,65.0,51.0,47.65333557128906,-20.0
32,60,100,60,go_to_color_detect_up_from_color_detect_down,green,true,false,joint 3 -,true,2024-03-03 17:16:11.619181,16.671,0.159,235.0,125.38764953613281,268.8946533203125,20.425498962402344,45.0,65.0,51.0,25.319988250732422,-20.0
32,60,100,60,go_to_blue_up,blue,true,false,joint 1 +,true,2024-03-03 17:16:12.314386,22.766,0.216,235.0,127.53956604003906,284.31915283203125,84.958251953125,45.840003967285156,66.12000274658203,51.0,0.0,-20.0
32,60,100,60,go_to_pick_up_from_blue,blue,true,false,joint 1 -,false,2024-03-03 17:16:13.706979,22.215,0.216,236.8,31.70705795288086,309.9974060058594,84.958251953125,64.15999603271484,83.87999725341797,51.0,0.0,-20.0
32,60,100,60,go_to_pick_up_from_blue,blue,true,false,joint 1 -,false,2024-03-03 17:16:14.398284,21.836,0.204,236.8,190.81910705566406,246.3570556640625,84.958251953125,32.239952087402344,51.51995086669922,51.0,0.0,-20.0
32,60,100,60,moving_belt,blue,false,true,joint 1 -,false,2024-03-03 17:16:15.778434,16.481,0.204,236.8,292.82220458984375,106.5781021118164,84.958251953125,-8.0108642578125e-05,20.0,51.0,0.0,-20.0
32,60,100,60,moving_belt,blue,false,true,joint 1 -,false,2024-03-03 17:16:16.469687,16.424,0.16,236.8,292.8220520019531,106.5785140991211,84.958251953125,0.0,20.0,51.0,0.0,-20.0
32,60,100,60,moving_belt,blue,false,true,joint 1 -,false,2024-03-03 17:16:17.864612,16.538,0.16,236.8,292.8220520019531,106.5785140991211,84.958251953125,0.0,20.0,51.0,0.0,-20.0
32,60,100,60,moving_belt,blue,false,true,joint 1 -,false,2024-03-03 17:16:18.581693,16.538,0.158,236.8,292.8220520019531,106.5785140991211,84.958251953125,0.0,20.0,51.0,0.0,-20.0
32,60,100,60,moving_belt,blue,false,true,joint 1 -,false,2024-03-03 17:16:19.504951,16.405,0.158,236.8,292.8220520019531,106.5785140991211,84.958251953125,0.0,20.0,51.0,0.0,-20.0
32,60,100,60,go_to_pick_down,blue,true,false,joint 3 +,false,2024-03-03 17:16:20.905235,16.462,0.16,236.8,290.8390808105469,105.85677337646484,60.139739990234375,0.0,20.0,51.0,10.439998626708984,-20.0
32,60,100,60,go_to_pick_up_from_pick_down,blue,true,false,joint 3 -,true,2024-03-03 17:16:21.598462,16.367,0.16,236.8,290.6729431152344,105.79631042480469,59.12883758544922,0.0,20.0,51.0,9.399995803833008,-20.0
32,60,100,60,go_to_color_detect_up_from_pick_up,blue,true,false,joint 1 +,true,2024-03-03 17:16:22.298255,16.367,0.16,236.8,272.54437255859375,151.07382202148438,84.958251953125,9.0,29.719999313354492,51.0,0.0,-20.0
32,60,100,60,go_to_color_detect_up_from_pick_up,blue,true,false,joint 1 +,true,2024-03-03 17:16:23.679176,22.823,0.215,236.8,143.5013885498047,276.6063537597656,84.958251953125,42.58004379272461,63.00004577636719,51.0,0.0,-20.0
32,60,100,60,go_to_color_detect_down,blue,true,false,joint 3 +,true,2024-03-03 17:16:24.372476,22.956,0.215,236.8,127.18661499023438,272.7525634765625,29.98625946044922,45.0,65.0,51.0,22.679994583129883,-20.0
32,60,100,60,go_to_color_detect_up_from_color_detect_down,blue,true,false,joint 3 -,false,2024-03-03 17:16:25.757793,22.785,0.213,236.8,111.13883972167969,238.33799743652344,-24.284042358398438,45.0,65.0,51.0,47.959999084472656,-20.0
32,60,100,60,go_to_color_detect_up_from_color_detect_down,blue,true,false,joint 3 -,false,2024-03-03 17:16:26.455646,22.007,0.213,236.8,128.1089324951172,274.7304992675781,35.74357604980469,45.0,65.0,51.0,18.839994430541992,-20.0
32,60,100,60,detecting_color,blue,false,false,detecting_color,false,2024-03-03 17:16:27.270109,16.88,0.164,236.8,131.69407653808594,282.4188232421875,84.958251953125,45.0,65.0,51.0,0.0,-20.0
32,60,100,60,detecting_color,blue,false,false,detecting_color,false,2024-03-03 17:16:28.771623,16.5,0.164,236.8,131.69407653808594,282.4188232421875,84.958251953125,45.0,65.0,51.0,0.0,-20.0
32,60,100,60,go_to_color_detect_down,blue,true,false,joint 3 +,false,2024-03-03 17:16:29.462929,16.5,0.16,236.8,127.4739990234375,273.3688659667969,31.703781127929688,45.0,65.0,51.0,21.95999526977539,-20.0
32,60,100,60,go_to_color_detect_up_from_color_detect_down,blue,true,false,joint 3 -,true,2024-03-03 17:16:30.846823,16.424,0.16,236.8,111.33187866210938,238.75196838378906,-23.871063232421875,45.0,65.0,51.0,47.599998474121094,-20.0
32,60,100,60,go_to_color_detect_up_from_color_detect_down,blue,true,false,joint 3 -,true,2024-03-03 17:16:31.537060,16.424,0.198,236.8,128.8512725830078,276.3224182128906,40.999263763427734,45.0,65.0,51.0,16.679996490478516,-20.0
32,60,100,60,go_to_red_up,red,true,false,joint 1 +,true,2024-03-03 17:16:32.335998,23.355,0.198,236.8,116.12750244140625,289.1679992675781,84.958251953125,48.12001037597656,68.64000701904297,51.0,0.0,-20.0
32,60,100,60,go_to_red_up,red,true,false,joint 1 +,true,2024-03-03 17:16:33.738105,22.272,0.21,236.8,-87.98212432861328,298.9362487792969,84.958251953125,86.40006256103516,107.12006378173828,51.0,0.0,-20.0
32,60,100,60,go_to_pick_up_from_red,red,true,false,joint 1 -,false,2024-03-03 17:16:34.842188,22.405,0.21,236.8,-170.62876892089844,260.748046875,84.958251953125,103.19999694824219,122.79999542236328,51.0,0.0,-20.0
32,60,100,60,go_to_pick_up_from_red,red,true,false,joint 1 -,false,2024-03-03 17:16:35.531836,17.07,0.21,236.8,23.03936195373535,310.7618408203125,84.958251953125,65.75994110107422,85.0399398803711,51.0,0.0,-20.0
32,60,100,60,go_to_pick_up_from_red,red,true,false,joint 1 -,false,2024-03-03 17:16:36.925363,16.329,0.161,236.8,195.25946044921875,242.852783203125,84.958251953125,31.19988250732422,50.479881286621094,51.0,0.0,-20.0
32,60,100,60,go_to_pick_up_from_red,red,true,false,joint 1 -,false,2024-03-03 17:16:37.670470,16.329,0.161,236.8,292.1216735839844,108.48346710205078,84.958251953125,0.3731822967529297,20.2198486328125,51.0,0.0,-20.0
32,60,100,60,moving_belt,red,false,true,joint 1 -,false,2024-03-03 17:16:38.361161,16.557,0.161,236.8,292.8220520019531,106.5785140991211,84.958251953125,0.0,20.0,51.0,0.0,-20.0
32,60,100,60,moving_belt,red,false,true,joint 1 -,false,2024-03-03 17:16:39.826697,16.538,0.161,236.8,292.8220520019531,106.5785140991211,84.958251953125,0.0,20.0,51.0,0.0,-20.0
32,60,100,60,moving_belt,red,false,true,joint 1 -,false,2024-03-03 17:16:40.519691,16.272,0.157,236.8,292.8220520019531,106.5785140991211,84.958251953125,0.0,20.0,51.0,0.0,-20.0
32,60,100,60,moving_belt,red,false,true,joint 1 -,false,2024-03-03 17:16:41.211392,16.272,0.157,236.8,292.8220520019531,106.5785140991211,84.958251953125,0.0,20.0,51.0,0.0,-20.0
32,60,100,60,go_to_pick_down,red,true,false,joint 3 +,false,2024-03-03 17:16:42.814665,16.386,0.158,236.8,291.1213684082031,105.95951843261719,61.96238708496094,0.0,20.0,51.0,9.719998359680176,-20.0
32,60,100,60,go_to_pick_up_from_pick_down,red,true,false,joint 3 -,true,2024-03-03 17:16:43.506342,16.386,0.158,236.8,287.09246826171875,104.49311828613281,43.060420989990234,0.0,20.0,51.0,15.879997253417969,-20.0
32,60,100,60,go_to_color_detect_up_from_pick_up,red,true,false,joint 1 +,true,2024-03-03 17:16:44.888299,19.937,0.218,236.8,278.0447082519531,140.69422912597656,84.958251953125,6.840002059936523,27.560001373291016,51.0,0.0,-20.0
32,60,100,60,go_to_color_detect_up_from_pick_up,red,true,false,joint 1 +,true,2024-03-03 17:16:45.580163,22.557,0.218,236.8,148.11558532714844,274.16326904296875,84.958251953125,41.62004470825195,62.12004470825195,51.0,0.0,-20.0
32,60,100,60,go_to_color_detect_down,red,true,false,joint 3 +,true,2024-03-03 17:16:46.269456,22.367,0.218,236.8,129.00482177734375,276.6517028808594,42.175933837890625,45.0,65.0,51.0,17.639999389648438,-20.0
32,60,100,60,go_to_color_detect_down,red,true,false,joint 3 +,false,2024-03-03 17:16:47.650658,22.14,0.209,236.8,111.41741943359375,238.9354248046875,-23.686920166015625,45.0,65.0,51.0,47.80000305175781,-20.0
32,60,100,60,go_to_color_detect_up_from_color_detect_down,red,true,false,joint 3 -,false,2024-03-03 17:16:48.370854,22.14,0.209,236.8,127.28341674804688,272.9601745605469,30.557819366455078,45.0,65.0,51.0,20.99999237060547,-20.0
32,60,100,60,detecting_color,red,false,false,detecting_color,false,2024-03-03 17:16:49.759210,18.361,0.168,236.8,131.69407653808594,282.4188232421875,84.958251953125,45.0,65.0,51.0,0.0,-20.0
32,60,100,60,detecting_color,red,false,false,detecting_color,false,2024-03-03 17:16:50.448895,16.994,0.168,236.8,131.69407653808594,282.4188232421875,84.958251953125,45.0,65.0,51.0,0.0,-20.0
32,60,100,60,detecting_color,red,false,false,detecting_color,false,2024-03-03 17:16:51.831271,16.519,0.16,236.8,131.69407653808594,282.4188232421875,84.958251953125,45.0,65.0,51.0,0.0,-20.0
32,60,100,60,detecting_color,red,false,false,detecting_color,false,2024-03-03 17:16:52.529943,16.576,0.16,236.8,131.69407653808594,282.4188232421875,84.958251953125,45.0,65.0,51.0,0.0,-20.0
32,60,100,60,detecting_color,red,false,false,detecting_color,false,2024-03-03 17:16:53.915301,16.557,0.16,236.8,131.69407653808594,282.4188232421875,84.958251953125,45.0,65.0,51.0,0.0,-20.0
32,60,100,60,detecting_color,red,false,false,detecting_color,false,2024-03-03 17:16:54.604114,16.557,0.16,236.8,131.69407653808594,282.4188232421875,84.958251953125,45.0,65.0,51.0,0.0,-20.0
32,60,100,60,go_to_color_detect_down,red,true,false,joint 3 +,false,2024-03-03 17:16:55.295794,16.538,0.161,236.8,130.51931762695312,279.8995666503906,56.50647735595703,45.0,65.0,51.0,11.880000114440918,-20.0
32,60,100,60,go_to_color_detect_down,red,true,false,joint 3 +,false,2024-03-03 17:16:56.691926,16.443,0.161,236.8,113.4674301147461,243.33168029785156,-19.058982849121094,45.0,65.0,51.0,45.50666809082031,-20.0
32,60,100,60,go_to_color_detect_up_from_color_detect_down,red,true,false,joint 3 -,true,2024-03-03 17:16:57.380817,16.633,0.161,236.8,125.38764953613281,268.8946533203125,20.425498962402344,45.0,65.0,51.0,25.319988250732422,-20.0
32,60,100,60,go_to_green_up,green,true,false,joint 1 +,true,2024-03-03 17:16:58.762795,23.336,0.174,236.8,131.69407653808594,282.4188232421875,84.958251953125,45.0,65.04000091552734,51.0,0.0,-20.0
32,60,100,60,go_to_green_up,green,true,false,joint 1 +,true,2024-03-03 17:16:59.456465,22.785,0.174,236.8,-18.698122024536133,311.05322265625,84.958251953125,73.4400405883789,94.16004180908203,51.0,0.0,-20.0
32,60,100,60,go_to_pick_up_from_green,green,true,false,joint 1 -,false,2024-03-03 17:17:00.837854,22.386,0.21,236.8,-16.960323333740234,311.15283203125,84.958251953125,73.11998748779297,92.39998626708984,51.0,0.0,-20.0
32,60,100,60,go_to_pick_up_from_green,green,true,false,joint 1 -,false,2024-03-03 17:17:01.526282,19.918,0.21,236.8,162.54022216796875,265.8653869628906,84.958251953125,38.55992889404297,57.839927673339844,51.0,0.0,-20.0
32,60,100,60,go_to_pick_up_from_green,green,true,false,joint 1 -,false,2024-03-03 17:17:02.935892,16.652,0.161,236.8,284.15594482421875,127.90283966064453,84.958251953125,4.233222961425781,23.671001434326172,51.0,0.0,-20.0
32,60,100,60,moving_belt,green,false,true,joint 1 -,false,2024-03-03 17:17:03.633229,16.557,0.161,236.8,292.8220520019531,106.5785140991211,84.958251953125,0.0,20.0,51.0,0.0,-20.0
32,60,100,60,moving_belt,green,false,true,joint 1 -,false,2024-03-03 17:17:04.326108,16.557,0.163,236.8,292.8220520019531,106.5785140991211,84.958251953125,0.0,20.0,51.0,0.0,-20.0
32,60,100,60,moving_belt,green,false,true,joint 1 -,false,2024-03-03 17:17:05.722062,16.5,0.163,236.8,292.8220520019531,106.5785140991211,84.958251953125,0.0,20.0,51.0,0.0,-20.0
32,60,100,60,moving_belt,green,false,true,joint 1 -,false,2024-03-03 17:17:06.411755,16.443,0.158,236.8,292.8220520019531,106.5785140991211,84.958251953125,0.0,20.0,51.0,0.0,-20.0
32,60,100,60,go_to_pick_down,green,true,false,joint 3 +,false,2024-03-03 17:17:07.790532,16.177,0.158,236.8,292.6754455566406,106.52515411376953,78.1873779296875,0.0,20.0,51.0,3.1199989318847656,-20.0
32,60,100,60,go_to_pick_up_from_pick_down,green,true,false,joint 3 -,true,2024-03-03 17:17:08.481214,16.386,0.159,236.8,284.0235595703125,103.3761215209961,33.33361053466797,0.0,20.0,51.0,20.199996948242188,-20.0
32,60,100,60,go_to_color_detect_up_from_pick_up,green,true,false,joint 1 +,true,2024-03-03 17:17:09.866589,22.671,0.159,236.8,285.4649353027344,124.95398712158203,84.958251953125,3.640003204345703,24.200002670288086,51.0,0.0,-20.0
32,60,100,60,go_to_color_detect_up_from_pick_up,green,true,false,joint 1 +,true,2024-03-03 17:17:10.557278,22.121,0.209,236.8,166.0518798828125,263.6863708496094,84.958251953125,37.80004119873047,58.520042419433594,51.0,0.0,-20.0
32,60,100,60,go_to_color_detect_down,green,true,false,joint 3 +,true,2024-03-03 17:17:11.945939,22.253,0.209,236.8,129.22732543945312,277.1288757324219,43.946556091308594,45.0,65.0,51.0,16.920000076293945,-20.0
32,60,100,60,go_to_color_detect_down,green,true,false,joint 3 +,true,2024-03-03 17:17:12.637626,21.874,0.205,236.8,111.56678771972656,239.2557373046875,-23.363731384277344,45.0,65.0,51.0,47.65333557128906,-20.0
32,60,100,60,go_to_color_detect_up_from_color_detect_down,green,true,false,joint 3 -,false,2024-03-03 17:17:13.445302,22.007,0.205,236.8,125.38764953613281,268.8946533203125,20.425498962402344,45.0,65.0,51.0,25.319988250732422,-20.0
32,60,100,60,detecting_color,green,false,false,detecting_color,false,2024-03-03 17:17:14.827286,16.823,0.165,236.8,131.69407653808594,282.4188232421875,84.958251953125,45.0,65.0,51.0,0.0,-20.0
32,60,100,60,detecting_color,green,false,false,detecting_color,false,2024-03-03 17:17:15.515598,16.69,0.165,236.8,131.69407653808594,282.4188232421875,84.958251953125,45.0,65.0,51.0,0.0,-20.0
32,60,100,60,go_to_color_detect_down,green,true,false,joint 3 +,false,2024-03-03 17:17:16.933881,16.367,0.165,236.8,128.77293395996094,276.1544189453125,40.41206741333008,45.0,65.0,51.0,18.35999870300293,-20.0
32,60,100,60,go_to_color_detect_down,green,true,false,joint 3 +,false,2024-03-03 17:17:17.624165,16.367,0.158,236.8,111.29975128173828,238.68307495117188,-23.940032958984375,45.0,65.0,51.0,47.90666961669922,-20.0
32,60,100,60,go_to_color_detect_up_from_color_detect_down,green,true,false,joint 3 -,true,2024-03-03 17:17:18.325939,16.31,0.158,236.8,126.37590026855469,271.01397705078125,25.449378967285156,45.0,65.0,51.0,23.159990310668945,-20.0
32,60,100,60,go_to_blue_up,blue,true,false,joint 1 +,true,2024-03-03 17:17:19.704525,22.652,0.213,236.8,129.7191619873047,283.3313903808594,84.958251953125,45.40000915527344,65.60000610351562,51.0,0.0,-20.0
32,60,100,60,go_to_pick_up_from_blue,blue,true,false,joint 1 -,false,2024-03-03 17:17:20.518895,22.652,0.213,236.8,36.89640426635742,309.42266845703125,84.958251953125,63.19999694824219,82.79999542236328,51.0,0.0,-20.0
32,60,100,60,go_to_pick_up_from_blue,blue,true,false,joint 1 -,false,2024-03-03 17:17:21.905808,16.614,0.17,236.8,199.96878051757812,238.989990234375,84.958251953125,30.07994842529297,49.359947204589844,51.0,0.0,-20.0
32,60,100,60,moving_belt,blue,false,true,joint 1 -,false,2024-03-03 17:17:22.593185,16.614,0.17,236.8,292.53594970703125,107.36136627197266,84.958251953125,0.15325355529785156,20.06214141845703,51.0,0.0,-20.0
32,60,100,60,moving_belt,blue,false,true,joint 1 -,false,2024-03-03 17:17:23.979108,16.367,0.162,236.8,292.8220520019531,106.5785140991211,84.958251953125,0.0,20.0,51.0,0.0,-20.0
32,60,100,60,moving_belt,blue,false,true,joint 1 -,false,2024-03-03 17:17:24.667393,16.5,0.162,236.8,292.8220520019531,106.5785140991211,84.958251953125,0.0,20.0,51.0,0.0,-20.0
32,60,100,60,moving_belt,blue,false,true,joint 1 -,false,2024-03-03 17:17:25.356186,16.5,0.162,236.8,292.8220520019531,106.5785140991211,84.958251953125,0.0,20.0,51.0,0.0,-20.0
32,60,100,60,moving_belt,blue,false,true,joint 1 -,false,2024-03-03 17:17:26.733100,16.443,0.16,236.8,292.8220520019531,106.5785140991211,84.958251953125,0.0,20.0,51.0,0.0,-20.0
32,60,100,60,go_to_pick_down,blue,true,false,joint 3 +,false,2024-03-03 17:17:27.432761,16.443,0.16,236.8,290.5352783203125,105.7461929321289,58.321006774902344,0.0,20.0,51.0,11.159998893737793,-20.0
32,60,100,60,go_to_pick_up_from_pick_down,blue,true,false,joint 3 -,true,2024-03-03 17:17:28.807966,16.576,0.158,236.8,290.6729431152344,105.79631042480469,59.12883758544922,0.0,20.0,51.0,9.399995803833008,-20.0
32,60,100,60,go_to_color_detect_up_from_pick_up,blue,true,false,joint 1 +,true,2024-03-03 17:17:29.500769,20.279,0.158,236.8,270.6244201660156,154.4866943359375,84.958251953125,9.719999313354492,30.439998626708984,51.0,0.0,-20.0
32,60,100,60,go_to_color_detect_up_from_pick_up,blue,true,false,joint 1 +,true,2024-03-03 17:17:30.886859,22.31,0.208,236.8,141.46990966796875,277.6508483886719,84.958251953125,43.00004577636719,63.38004684448242,51.0,0.0,-20.0
32,60,100,60,go_to_color_detect_down,blue,true,false,joint 3 +,true,2024-03-03 17:17:31.585956,22.31,0.208,236.8,126.89012908935547,272.11676025390625,28.277416229248047,45.0,65.0,51.0,23.399993896484375,-20.0
32,60,100,60,go_to_color_detect_up_from_color_detect_down,blue,true,false,joint 3 -,false,2024-03-03 17:17:32.306362,21.722,0.208,236.8,111.13883972167969,238.33799743652344,-24.284042358398438,45.0,65.0,51.0,47.959999084472656,-20.0
32,60,100,60,go_to_color_detect_up_from_color_detect_down,blue,true,false,joint 3 -,false,2024-03-03 17:17:33.731345,17.393,0.205,236.8,128.1089324951172,274.7304992675781,35.74357604980469,45.0,65.0,51.0,18.839994430541992,-20.0
32,60,100,60,detecting_color,blue,false,false,detecting_color,false,2024-03-03 17:17:34.424028,17.393,0.164,236.8,131.69407653808594,282.4188232421875,84.958251953125,45.0,65.0,51.0,0.0,-20.0
32,60,100,60,detecting_color,blue,false,false,detecting_color,false,2024-03-03 17:17:35.816362,16.823,0.164,236.8,131.69407653808594,282.4188232421875,84.958251953125,45.0,65.0,51.0,0.0,-20.0
32,60,100,60,go_to_color_detect_down,blue,true,false,joint 3 +,false,2024-03-03 17:17:36.508586,16.272,0.164,236.8,127.4739990234375,273.3688659667969,31.703781127929688,45.0,65.0,51.0,21.95999526977539,-20.0
32,60,100,60,go_to_color_detect_up_from_color_detect_down,blue,true,false,joint 3 -,true,2024-03-03 17:17:37.419127,16.272,0.159,236.8,111.33187866210938,238.75196838378906,-23.871063232421875,45.0,65.0,51.0,47.599998474121094,-20.0
32,60,100,60,go_to_color_detect_up_from_color_detect_down,blue,true,false,joint 3 -,true,2024-03-03 17:17:38.799800,21.627,0.159,236.8,128.8512725830078,276.3224182128906,40.999263763427734,45.0,65.0,51.0,16.679996490478516,-20.0
32,60,100,60,go_to_red_up,red,true,false,joint 1 +,true,2024-03-03 17:17:39.491392,22.614,0.215,236.8,116.12750244140625,289.1679992675781,84.958251953125,48.12001037597656,68.64000701904297,51.0,0.0,-20.0
32,60,100,60,go_to_red_up,red,true,false,joint 1 +,true,2024-03-03 17:17:40.876536,21.912,0.215,236.8,-87.98212432861328,298.9362487792969,84.958251953125,86.40006256103516,107.12006378173828,51.0,0.0,-20.0
32,60,100,60,go_to_pick_up_from_red,red,true,false,joint 1 -,false,2024-03-03 17:17:41.567822,22.234,0.208,236.8,-170.62876892089844,260.748046875,84.958251953125,103.19999694824219,122.79999542236328,51.0,0.0,-20.0
32,60,100,60,go_to_pick_up_from_red,red,true,false,joint 1 -,false,2024-03-03 17:17:42.331407,20.45,0.208,236.8,23.03936195373535,310.7618408203125,84.958251953125,65.75994110107422,85.0399398803711,51.0,0.0,-20.0
32,60,100,60,go_to_pick_up_from_red,red,true,false,joint 1 -,false,2024-03-03 17:17:43.714182,16.31,0.159,236.8,195.25946044921875,242.852783203125,84.958251953125,31.19988250732422,50.479881286621094,51.0,0.0,-20.0
32,60,100,60,go_to_pick_up_from_red,red,true,false,joint 1 -,false,2024-03-03 17:17:44.412834,16.31,0.159,236.8,292.1216735839844,108.48346710205078,84.958251953125,0.3731822967529297,20.2198486328125,51.0,0.0,-20.0
32,60,100,60,moving_belt,red,false,true,joint 1 -,false,2024-03-03 17:17:45.794593,16.557,0.16,236.8,292.8220520019531,106.5785140991211,84.958251953125,0.0,20.0,51.0,0.0,-20.0
32,60,100,60,moving_belt,red,false,true,joint 1 -,false,2024-03-03 17:17:46.482884,16.614,0.16,236.8,292.8220520019531,106.5785140991211,84.958251953125,0.0,20.0,51.0,0.0,-20.0
32,60,100,60,moving_belt,red,false,true,joint 1 -,false,2024-03-03 17:17:47.863257,16.481,0.161,236.8,292.8220520019531,106.5785140991211,84.958251953125,0.0,20.0,51.0,0.0,-20.0
32,60,100,60,moving_belt,red,false,true,joint 1 -,false,2024-03-03 17:17:48.584017,16.31,0.161,236.8,292.8220520019531,106.5785140991211,84.958251953125,0.0,20.0,51.0,0.0,-20.0
32,60,100,60,go_to_pick_down,red,true,false,joint 3 +,false,2024-03-03 17:17:49.306465,16.31,0.161,236.8,290.5352783203125,105.7461929321289,58.321006774902344,0.0,20.0,51.0,11.159998893737793,-20.0
32,60,100,60,go_to_pick_up_from_pick_down,red,true,false,joint 3 -,true,2024-03-03 17:17:50.692537,16.595,0.16,236.8,288.8805847167969,105.14393615722656,50.093196868896484,0.0,20.0,51.0,12.99999713897705,-20.0
32,60,100,60,go_to_color_detect_up_from_pick_up,red,true,false,joint 1 +,true,2024-03-03 17:17:51.385814,16.918,0.16,236.8,268.6617736816406,157.8751678466797,84.958251953125,10.439998626708984,31.159997940063477,51.0,0.0,-20.0
32,60,100,60,go_to_color_detect_up_from_pick_up,red,true,false,joint 1 +,true,2024-03-03 17:17:52.773395,22.291,0.209,236.8,139.62533569335938,278.5830078125,84.958251953125,43.38004684448242,63.72004699707031,51.0,0.0,-20.0
32,60,100,60,go_to_color_detect_down,red,true,false,joint 3 +,true,2024-03-03 17:17:53.461086,22.291,0.209,236.8,127.75225067138672,273.965576171875,33.42971420288086,45.0,65.0,51.0,21.2399959564209,-20.0
32,60,100,60,go_to_color_detect_up_from_color_detect_down,red,true,false,joint 3 -,false,2024-03-03 17:17:54.851606,21.931,0.205,236.8,111.33187866210938,238.75196838378906,-23.871063232421875,45.0,65.0,51.0,47.599998474121094,-20.0
32,60,100,60,go_to_color_detect_up_from_color_detect_down,red,true,false,joint 3 -,false,2024-03-03 17:17:55.542337,19.975,0.205,236.8,128.8512725830078,276.3224182128906,40.999263763427734,45.0,65.0,51.0,16.679996490478516,-20.0
32,60,100,60,detecting_color,red,false,false,detecting_color,false,2024-03-03 17:17:56.770779,19.975,0.164,236.8,131.69407653808594,282.4188232421875,84.958251953125,45.0,65.0,51.0,0.0,-20.0
32,60,100,60,detecting_color,red,false,false,detecting_color,false,2024-03-03 17:17:57.460472,17.013,0.164,236.8,131.69407653808594,282.4188232421875,84.958251953125,45.0,65.0,51.0,0.0,-20.0
32,60,100,60,detecting_color,red,false,false,detecting_color,false,2024-03-03 17:17:58.861786,16.386,0.16,236.8,131.69407653808594,282.4188232421875,84.958251953125,45.0,65.0,51.0,0.0,-20.0
32,60,100,60,detecting_color,red,false,false,detecting_color,false,2024-03-03 17:17:59.552467,16.443,0.16,236.8,131.69407653808594,282.4188232421875,84.958251953125,45.0,65.0,51.0,0.0,-20.0
32,60,100,60,detecting_color,red,false,false,detecting_color,false,2024-03-03 17:18:00.254130,16.443,0.16,236.8,131.69407653808594,282.4188232421875,84.958251953125,45.0,65.0,51.0,0.0,-20.0
32,60,100,60,detecting_color,red,false,false,detecting_color,false,2024-03-03 17:18:01.752119,16.481,0.159,236.8,131.69407653808594,282.4188232421875,84.958251953125,45.0,65.0,51.0,0.0,-20.0
32,60,100,60,go_to_color_detect_down,red,true,false,joint 3 +,false,2024-03-03 17:18:02.443440,16.481,0.159,236.8,128.77293395996094,276.1544189453125,40.41206741333008,45.0,65.0,51.0,18.35999870300293,-20.0
32,60,100,60,go_to_color_detect_down,red,true,false,joint 3 +,false,2024-03-03 17:18:03.951300,16.386,0.159,236.8,111.41741943359375,238.9354248046875,-23.686920166015625,45.0,65.0,51.0,47.80000305175781,-20.0
32,60,100,60,go_to_color_detect_up_from_color_detect_down,red,true,false,joint 3 -,true,2024-03-03 17:18:03.951300,16.386,0.159,236.8,125.72594451904297,269.6201477050781,22.090282440185547,45.0,65.0,51.0,24.59998893737793,-20.0
32,60,100,60,go_to_green_up,green,true,false,joint 1 +,true,2024-03-03 17:18:05.953519,22.747,0.216,235.0,124.55525970458984,285.6391296386719,84.958251953125,46.44000244140625,66.80000305175781,51.0,0.0,-20.0
32,60,100,60,go_to_green_up,green,true,false,joint 1 +,true,2024-03-03 17:18:06.651438,22.747,0.216,235.0,-49.72617721557617,307.62158203125,84.958251953125,79.1822738647461,99.84449768066406,51.0,0.0,-20.0
32,60,100,60,go_to_pick_up_from_green,green,true,false,joint 1 -,false,2024-03-03 17:18:07.341731,22.481,0.209,235.0,-9.135656356811523,311.48077392578125,84.958251953125,71.67998504638672,90.9599838256836,51.0,0.0,-20.0
32,60,100,60,go_to_pick_up_from_green,green,true,false,joint 1 -,false,2024-03-03 17:18:08.731075,21.437,0.209,236.8,188.40231323242188,248.21017456054688,84.958251953125,32.79991912841797,52.079917907714844,51.0,0.0,-20.0
32,60,100,60,go_to_pick_up_from_green,green,true,false,joint 1 -,false,2024-03-03 17:18:09.420777,16.481,0.16,236.8,291.1982116699219,110.93840789794922,84.958251953125,0.8554458618164062,20.613224029541016,51.0,0.0,-20.0
32,60,100,60,moving_belt,green,false,true,joint 1 -,false,2024-03-03 17:18:10.114247,16.481,0.16,235.0,292.8220520019531,106.5785140991211,84.958251953125,0.0,20.0,51.0,0.0,-20.0
32,60,100,60,moving_belt,green,false,true,joint 1 -,false,2024-03-03 17:18:11.379599,16.576,0.16,235.0,292.8220520019531,106.5785140991211,84.958251953125,0.0,20.0,51.0,0.0,-20.0
32,60,100,60,moving_belt,green,false,true,joint 1 -,false,2024-03-03 17:18:12.068295,16.557,0.159,235.0,292.8220520019531,106.5785140991211,84.958251953125,0.0,20.0,51.0,0.0,-20.0
32,60,100,60,moving_belt,green,false,true,joint 1 -,false,2024-03-03 17:18:13.097019,16.576,0.159,236.8,292.8220520019531,106.5785140991211,84.958251953125,0.0,20.0,51.0,0.0,-20.0
32,60,100,60,go_to_pick_down,green,true,false,joint 3 +,false,2024-03-03 17:18:14.375870,16.405,0.159,236.8,291.621337890625,106.14148712158203,65.61829376220703,0.0,20.0,51.0,8.279997825622559,-20.0
32,60,100,60,go_to_pick_up_from_pick_down,green,true,false,joint 3 -,true,2024-03-03 17:18:15.757830,16.5,0.159,236.8,287.09246826171875,104.49311828613281,43.060420989990234,0.0,20.0,51.0,15.879997253417969,-20.0
32,60,100,60,go_to_color_detect_up_from_pick_up,green,true,false,joint 1 +,true,2024-03-03 17:18:16.456092,20.677,0.166,236.8,285.4649353027344,124.95398712158203,84.958251953125,3.640003204345703,24.200002670288086,51.0,0.0,-20.0
32,60,100,60,go_to_color_detect_up_from_pick_up,green,true,false,joint 1 +,true,2024-03-03 17:18:17.149346,22.386,0.166,236.8,148.11558532714844,274.16326904296875,84.958251953125,41.62004470825195,62.12004470825195,51.0,0.0,-20.0
32,60,100,60,go_to_color_detect_down,green,true,false,joint 3 +,true,2024-03-03 17:18:18.816553,22.443,0.21,236.8,129.00482177734375,276.6517028808594,42.175933837890625,45.0,65.0,51.0,17.639999389648438,-20.0
