demetriskallis/dobot_magician_pick_and_place_and_color_sorting/Sampling/WholeSystemExperiments_training_data/payload_32g/joint_measurements__armv_100_arma_90_belts_60_cube_32g_v1_green_failed.csv
cube/weight,arm/velocity_ratio,arm/acceleration_ratio,belt/speed,dobot/operation,dobot/color,dobot/moving_arm,dobot/moving_belt,dobot/operation2,dobot/suction,meross/sample_timestamp,meross/power,meross/current,meross/voltage,dobot/pose_x,dobot/pose_y,dobot/pose_z,dobot/pose_rHead,dobot/pose_joint1Angle,dobot/pose_joint2Angle,dobot/pose_joint3Angle,dobot/pose_joint4Angle
32,100,90,60,homing,,,,homing,,,,,,188.7973022,67.58844757,55.30834961,-0.3028965,19.29710388,7.083612919,32.35139465,-20
32,100,90,60,homing,,,,homing,,,,,,200.5305481,0.339888781,55.30834961,-19.90288734,-0.302886724,7.083612919,32.35139465,-20
32,100,90,60,homing,,,,homing,,,,,,189.4880981,-65.62680054,55.30834961,-39.10287857,-19.50287819,7.083612919,32.35139465,-20
32,100,90,60,homing,,,,homing,,54:01.2,16.443,0.152,236.8,152.0227051,-130.7735443,55.30834961,-60.70289993,-41.10290146,7.083612919,32.35139465,-20
32,100,90,60,homing,,,,homing,,54:01.9,16.443,0.152,236.8,100.5593414,-173.4947662,55.30834961,-79.90296936,-60.3029747,7.083612919,32.35139465,-20
32,100,90,60,homing,,,,homing,,54:03.3,16.348,0.156,236.8,37.90900803,-196.9150238,55.30834961,-99.1030426,-79.50304413,7.083612919,32.35139465,-20
32,100,90,60,homing,,,,homing,,54:04.0,16.386,0.156,236.8,-37.24266052,-197.0421295,55.30834961,-120.703125,-101.1031265,7.083612919,32.35139465,-20
32,100,90,60,homing,,,,homing,,54:05.4,16.272,0.156,236.8,-99.97189331,-173.8339233,55.30834961,-139.9031982,-120.3031998,7.083612919,32.35139465,-20
32,100,90,60,homing,,,,homing,,54:06.1,16.329,0.156,236.8,-145.6599121,-137.8252716,55.30834961,-156.5830688,-136.5630646,7.083612919,32.35139465,-20
32,100,90,60,homing,,,,homing,,54:07.5,16.31,0.155,236.8,-143.035675,-140.5468445,55.30834961,-155.5028381,-135.4828339,7.083612919,32.35139465,-20
32,100,90,60,homing,,,,homing,,54:08.2,16.31,0.155,236.8,-125.423996,-158.6952362,54.20027161,-147.727829,-127.9129105,8.109863281,32.74753189,-19.37098122
32,100,90,60,homing,,,,homing,,54:08.9,16.329,0.156,236.8,-40.75384521,-206.7124786,48.24539185,-117.6420898,-100.5529633,12.95307636,34.6170311,-16.40243912
32,100,90,60,homing,,,,homing,,54:10.3,16.595,0.156,236.8,82.396698,-211.9161072,32.90850067,-79.04819489,-68.15304565,23.15176392,38.55375671,-10.15137482
32,100,90,60,homing,,,,homing,,54:11.0,16.785,0.159,236.8,184.8750763,-154.8710022,15.22769165,-44.38723755,-39.3531189,32.63663864,42.21495056,-4.337826252
32,100,90,60,homing,,,,homing,,54:12.3,16.747,0.159,236.8,243.2407227,-49.0405426,3.579177856,-12.40318584,-10.88172054,38.14946747,44.3429184,-0.958855271
32,100,90,60,homing,,,,homing,,54:13.0,16.747,0.159,236.8,250.0453949,-0.033015653,0.001907349,-0.007565256,-0.00094978,39.71549988,44.94527435,0
32,100,90,60,homing,,,,homing,,54:14.4,16.538,0.158,236.8,249.9999847,0.00017966,-7.63E-06,4.12E-05,4.12E-05,39.71385956,44.94676971,0
32,100,90,60,homing,,,,homing,,54:15.1,16.329,0.158,236.8,249.9999847,0.00017966,-7.63E-06,4.12E-05,4.12E-05,39.71385956,44.94676971,0
32,100,90,60,homing,,,,homing,,54:16.5,16.31,0.155,236.8,249.9999847,0.00017966,-7.63E-06,4.12E-05,4.12E-05,39.71385956,44.94676971,0
32,100,90,60,homing,,,,homing,,54:17.2,16.5,0.155,236.8,249.9999847,0.00017966,-7.63E-06,4.12E-05,4.12E-05,39.71385956,44.94676971,0
32,100,90,60,homing,,,,homing,,54:17.9,16.5,0.156,236.8,249.9999847,0.00017966,-7.63E-06,4.12E-05,4.12E-05,39.71385956,44.94676971,0
32,100,90,60,homing,,,,homing,,54:19.3,16.443,0.156,236.8,249.9999847,0.00017966,-7.63E-06,4.12E-05,4.12E-05,39.71385956,44.94676971,0
32,100,90,60,homing,,,,homing,,54:20.0,16.405,0.156,236.8,249.9999847,0.00017966,-7.63E-06,4.12E-05,4.12E-05,39.71385956,44.94676971,0
32,100,90,60,homing,,,,homing,,54:21.4,16.462,0.156,236.8,249.9999847,0.00017966,-7.63E-06,4.12E-05,4.12E-05,39.71385956,44.94676971,0
32,100,90,60,homing,,,,homing,,54:22.0,16.424,0.156,236.8,249.9999847,0.00017966,-7.63E-06,4.12E-05,4.12E-05,39.71385956,44.94676971,0
32,100,90,60,homing,,,,homing,,54:23.4,16.443,0.156,236.8,249.9999847,0.00017966,-7.63E-06,4.12E-05,4.12E-05,39.71385956,44.94676971,0
32,100,90,60,homing,,,,homing,,54:24.1,16.443,0.156,236.8,249.9999847,0.00017966,-7.63E-06,4.12E-05,4.12E-05,39.71385956,44.94676971,0
32,100,90,60,homing,,,,homing,,54:25.5,16.405,0.155,236.8,254.4548492,17.89868736,11.30560303,4.10E-05,4.351555347,37.94517899,39.85995102,-4.351514339
32,100,90,60,homing,,,,homing,,54:25.5,16.405,0.155,236.8,274.1890869,99.64098358,62.88062668,4.20E-05,20.07261658,41.90401077,14.6647501,-20.07257462
32,100,90,60,go_to_pick_up_from_homing,nothing,,,go_to_pick_up_from_homing,,54:26.8,16.481,0.155,236.8,292.1529236,106.4913788,83.97672272,5.72E-06,20.01945305,50.68764877,0.49704811,-20.01944733
32,100,90,60,moving_belt,nothing,FALSE,TRUE,go_to_pick_up_from_homing,,54:27.9,17.07,0.162,236.8,292.822052,106.5785141,84.95825195,0,20,51,0,-20
32,100,90,60,moving_belt,nothing,FALSE,TRUE,go_to_pick_up_from_homing,,54:28.8,16.804,0.162,236.8,292.822052,106.5785141,84.95825195,0,20,51,0,-20
32,100,90,60,moving_belt,nothing,FALSE,TRUE,go_to_pick_up_from_homing,,54:30.5,16.291,0.158,236.8,292.822052,106.5785141,84.95825195,0,20,51,0,-20
32,100,90,60,moving_belt,nothing,FALSE,TRUE,go_to_pick_up_from_homing,,54:31.4,16.576,0.155,236.8,292.822052,106.5785141,84.95825195,0,20,51,0,-20
32,100,90,60,go_to_pick_down,nothing,TRUE,FALSE,joint 3 +,,54:32.1,16.405,0.155,236.8,292.0255127,106.2885971,69.19458008,0,20,51,6.803999424,-20
32,100,90,60,go_to_pick_up_from_pick_down,nothing,TRUE,FALSE,joint 3 -,TRUE,54:33.5,16.329,0.155,236.8,287.1612549,104.518158,43.30739212,0,20,51,15.84399891,-20
32,100,90,60,go_to_color_detect_up_from_pick_up,nothing,TRUE,FALSE,joint 1 +,TRUE,54:34.2,23.791,0.155,236.8,289.3661804,115.6327972,84.95825195,1.782001495,22.13840103,51,0,-20
32,100,90,60,go_to_color_detect_up_from_pick_up,nothing,TRUE,FALSE,joint 1 +,TRUE,54:34.9,22.481,0.155,236.8,151.8721924,272.1002808,84.95825195,40.83201599,61.33536911,51,0,-20
32,100,90,60,go_to_color_detect_down,nothing,TRUE,FALSE,joint 3 +,TRUE,54:36.3,22.576,0.205,236.8,127.7931824,274.0533447,33.68930054,45,65,51,21.57839966,-20
32,100,90,60,go_to_color_detect_up_from_color_detect_down,nothing,TRUE,FALSE,joint 3 -,FALSE,54:37.0,22.291,0.205,236.8,111.2952499,238.6734161,-23.94969177,45,65,51,47.6760025,-20
32,100,90,60,go_to_color_detect_up_from_color_detect_down,nothing,TRUE,FALSE,joint 3 -,FALSE,54:38.4,22.386,0.202,236.8,130.4762726,279.807251,55.99478149,45,65,51,10.52160645,-20
32,100,90,60,detecting_color,nothing,FALSE,FALSE,detecting_color,FALSE,54:39.1,17.26,0.202,236.8,131.6940765,282.4188232,84.95825195,45,65,51,0,-20
32,100,90,60,go_to_color_detect_down,nothing,TRUE,FALSE,joint 3 +,FALSE,54:40.5,16.443,0.158,236.8,131.6940765,282.4188232,84.95825195,45,65,51,0.032400001,-20
32,100,90,60,go_to_color_detect_down,nothing,TRUE,FALSE,joint 3 +,FALSE,54:41.2,16.443,0.158,236.8,117.2922897,251.5341187,-9.156105042,45,65,51,40.52140045,-20
32,100,90,60,go_to_color_detect_up_from_color_detect_down,nothing,TRUE,FALSE,joint 3 -,TRUE,54:41.9,16.139,0.156,236.8,118.3367691,253.7740021,-6.10900116,45,65,51,37.47000122,-20
32,100,90,60,go_to_red_up,red,TRUE,FALSE,joint 1 +,TRUE,54:43.5,23.678,0.156,236.8,131.6930542,282.4166565,84.11367798,45,65,51,0.200235501,-20
32,100,90,60,go_to_red_up,red,TRUE,FALSE,joint 1 +,TRUE,54:44.2,22.5,0.204,236.8,-58.96661758,305.9847412,84.95825195,80.90779877,102.1411438,51,0,-20
32,100,90,60,go_to_pick_up_from_red,red,TRUE,FALSE,joint 1 -,FALSE,54:44.9,22.5,0.204,236.8,-176.5633087,256.7666931,84.95825195,104.5139999,124.319603,51,0,-20
32,100,90,60,go_to_pick_up_from_red,red,TRUE,FALSE,joint 1 -,FALSE,54:46.3,17.886,0.168,236.8,61.40312958,305.5051575,84.95825195,58.63559723,76.88599396,51,0,-20
32,100,90,60,go_to_pick_up_from_red,red,TRUE,FALSE,joint 1 -,FALSE,54:47.0,17.886,0.168,236.8,291.5895691,109.9056931,84.95825195,0.652385712,20.46268272,51,0,-20
32,100,90,60,moving_belt,red,FALSE,TRUE,joint 1 -,FALSE,54:48.4,16.443,0.158,236.8,292.822052,106.5785141,84.95825195,0,20,51,0,-20
32,100,90,60,moving_belt,red,FALSE,TRUE,joint 1 -,FALSE,54:49.1,16.804,0.158,236.8,292.822052,106.5785141,84.95825195,0,20,51,0,-20
32,100,90,60,moving_belt,red,FALSE,TRUE,joint 1 -,FALSE,54:50.5,16.234,0.158,236.8,292.822052,106.5785141,84.95825195,0,20,51,0,-20
32,100,90,60,moving_belt,red,FALSE,TRUE,joint 1 -,FALSE,54:51.2,16.462,0.158,236.8,292.822052,106.5785141,84.95825195,0,20,51,0,-20
32,100,90,60,go_to_pick_down,red,TRUE,FALSE,joint 3 +,FALSE,54:51.9,16.462,0.158,236.8,292.5041199,106.4627991,74.99072266,0,20,51,4.406399727,-20
32,100,90,60,go_to_pick_up_from_pick_down,red,TRUE,FALSE,joint 3 -,TRUE,54:53.3,16.5,0.158,236.8,285.6086121,103.9530334,38.07609558,0,20,51,18.11199951,-20
32,100,90,60,go_to_color_detect_up_from_pick_up,red,TRUE,FALSE,joint 1 +,TRUE,54:54.0,16.519,0.158,236.8,290.5918579,112.5171585,84.95825195,1.166402817,21.45800209,51,0,-20
32,100,90,60,go_to_color_detect_up_from_pick_up,red,TRUE,FALSE,joint 1 +,TRUE,54:55.4,22.842,0.209,236.8,154.4098663,270.6682739,84.95825195,40.29626083,60.83201599,51,0,-20
32,100,90,60,go_to_color_detect_down,red,TRUE,FALSE,joint 3 +,TRUE,54:56.1,22.785,0.209,236.8,128.2105865,274.9484863,36.42591095,45,65,51,20.41200066,-20
32,100,90,60,go_to_color_detect_up_from_color_detect_down,red,TRUE,FALSE,joint 3 -,FALSE,54:57.5,22.709,0.2,236.8,111.2171173,238.5058594,-24.11702728,45,65,51,47.80560303,-20
32,100,90,60,go_to_color_detect_up_from_color_detect_down,red,TRUE,FALSE,joint 3 -,FALSE,54:58.2,19.69,0.2,236.8,130.4762726,279.807251,55.99478149,45,65,51,10.52160645,-20
32,100,90,60,detecting_color,red,FALSE,FALSE,detecting_color,FALSE,54:58.9,19.69,0.2,236.8,131.6940765,282.4188232,84.95825195,45,65,51,0,-20
32,100,90,60,detecting_color,red,FALSE,FALSE,detecting_color,FALSE,55:00.3,17.165,0.162,236.8,131.6940765,282.4188232,84.95825195,45,65,51,0,-20
32,100,90,60,detecting_color,red,FALSE,FALSE,detecting_color,FALSE,55:01.0,16.386,0.162,236.8,131.6940765,282.4188232,84.95825195,45,65,51,0,-20
32,100,90,60,detecting_color,red,FALSE,FALSE,detecting_color,FALSE,55:02.5,16.405,0.157,236.8,131.6940765,282.4188232,84.95825195,45,65,51,0,-20
32,100,90,60,detecting_color,red,FALSE,FALSE,detecting_color,FALSE,55:03.2,16.5,0.157,236.8,131.6940765,282.4188232,84.95825195,45,65,51,0,-20
32,100,90,60,go_to_color_detect_down,red,TRUE,FALSE,joint 3 +,FALSE,55:03.9,16.5,0.156,236.8,125.7634735,269.7006226,22.27828217,45,65,51,26.43710327,-20
32,100,90,60,go_to_color_detect_up_from_color_detect_down,red,TRUE,FALSE,joint 3 -,TRUE,55:05.3,16.538,0.156,236.8,111.6841507,239.507431,-23.10830688,45,65,51,47.09280396,-20
32,100,90,60,go_to_color_detect_up_from_color_detect_down,red,TRUE,FALSE,joint 3 -,TRUE,55:06.0,16.538,0.173,236.8,131.551239,282.1125183,74.99565125,45,65,51,3.400720835,-20
32,100,90,60,go_to_green_up,green,TRUE,FALSE,joint 1 +,TRUE,55:07.3,23.07,0.173,236.8,53.75776291,306.9427185,84.95825195,60.06600189,81.07040405,51,0,-20
32,100,90,60,go_to_pick_up_from_green,green,TRUE,FALSE,joint 1 -,FALSE,55:08.0,22.823,0.206,236.8,-78.94849396,301.4479675,84.95825195,84.6760025,104.5139999,51,0,-20
32,100,90,60,go_to_pick_up_from_green,green,TRUE,FALSE,joint 1 -,FALSE,55:09.5,18.684,0.206,236.8,194.9266968,243.1199646,84.95825195,31.27834702,49.87091064,51,0,-20
32,100,90,60,moving_belt,green,FALSE,TRUE,joint 1 -,FALSE,55:10.1,18.684,0.158,236.8,292.822052,106.5785141,84.95825195,0,20,51,0,-20
32,100,90,60,moving_belt,green,FALSE,TRUE,joint 1 -,FALSE,55:11.5,16.5,0.158,236.8,292.822052,106.5785141,84.95825195,0,20,51,0,-20
32,100,90,60,moving_belt,green,FALSE,TRUE,joint 1 -,FALSE,55:12.3,16.5,0.157,236.8,292.822052,106.5785141,84.95825195,0,20,51,0,-20
32,100,90,60,moving_belt,green,FALSE,TRUE,joint 1 -,FALSE,55:13.0,16.424,0.157,236.8,292.822052,106.5785141,84.95825195,0,20,51,0,-20
32,100,90,60,moving_belt,green,FALSE,TRUE,joint 1 -,FALSE,55:14.4,16.272,0.157,236.8,292.822052,106.5785141,84.95825195,0,20,51,0,-20
32,100,90,60,go_to_pick_down,green,TRUE,FALSE,joint 3 +,FALSE,55:15.1,16.272,0.157,236.8,290.4957886,105.7318268,58.09395599,0,20,51,11.37239933,-20
32,100,90,60,go_to_pick_up_from_pick_down,green,TRUE,FALSE,joint 3 -,TRUE,55:16.5,17.317,0.157,236.8,289.661499,105.4281693,53.6929245,0,20,51,11.46999836,-20
32,100,90,60,go_to_color_detect_up_from_pick_up,green,TRUE,FALSE,joint 1 +,TRUE,55:17.2,17.317,0.186,236.8,283.7680359,128.7611237,84.95825195,4.406400681,24.957201,51,0,-20
32,100,90,60,go_to_color_detect_up_from_pick_up,green,TRUE,FALSE,joint 1 +,TRUE,55:17.9,23.165,0.186,236.8,139.6929779,278.5491028,84.95825195,43.36613846,63.67509079,51,0,-20
32,100,90,60,go_to_color_detect_down,green,TRUE,FALSE,joint 3 +,TRUE,55:19.2,22.538,0.186,236.8,125.1972809,268.4864197,19.51163483,45,65,51,27.60285568,-20
32,100,90,60,go_to_color_detect_up_from_color_detect_down,green,TRUE,FALSE,joint 3 -,FALSE,55:20.6,22.31,0.205,236.8,112.300087,240.8283081,-21.74593353,45,65,51,46.21800232,-20
32,100,90,60,go_to_color_detect_up_from_color_detect_down,green,TRUE,FALSE,joint 3 -,FALSE,55:21.2,18.38,0.183,236.8,131.3363647,281.6517334,69.20609283,45,65,51,5.536533833,-20
32,100,90,60,detecting_color,green,FALSE,FALSE,detecting_color,FALSE,55:21.9,18.38,0.183,236.8,131.6940765,282.4188232,84.95825195,45,65,51,0,-20
32,100,90,60,detecting_color,green,FALSE,FALSE,detecting_color,FALSE,55:23.3,16.88,0.156,236.8,131.6940765,282.4188232,84.95825195,45,65,51,0,-20
32,100,90,60,go_to_color_detect_down,green,TRUE,FALSE,joint 3 +,FALSE,55:24.0,16.405,0.156,236.8,125.7634735,269.7006226,22.27828217,45,65,51,26.43710327,-20
32,100,90,60,go_to_color_detect_up_from_color_detect_down,green,TRUE,FALSE,joint 3 -,TRUE,55:25.4,16.348,0.157,236.8,111.8646088,239.8944244,-22.71299744,45,65,51,46.83360291,-20
32,100,90,60,go_to_color_detect_up_from_color_detect_down,green,TRUE,FALSE,joint 3 -,TRUE,55:26.1,18.95,0.157,236.8,131.2572021,281.4819641,67.55582428,45,65,51,6.151486874,-20
32,100,90,60,go_to_blue_up,blue,TRUE,FALSE,joint 1 +,TRUE,55:26.8,23.393,0.157,236.8,56.04169083,306.5339661,84.95825195,59.63938904,80.21255493,51,0,-20
32,100,90,60,go_to_pick_up_from_blue,blue,TRUE,FALSE,joint 1 -,FALSE,55:28.3,22.31,0.203,236.8,83.43260956,300.237793,84.95825195,54.47000122,73.62760162,51,0,-20
32,100,90,60,go_to_pick_up_from_blue,blue,TRUE,FALSE,joint 1 -,FALSE,55:29.0,19.234,0.203,236.8,284.2513733,127.6905518,84.95825195,4.190423965,23.68561172,51,0,-20
32,100,90,60,moving_belt,blue,FALSE,TRUE,joint 1 -,FALSE,55:30.4,16.671,0.158,236.8,292.822052,106.5785141,84.95825195,0,20,51,0,-20
32,100,90,60,moving_belt,blue,FALSE,TRUE,joint 1 -,FALSE,55:31.1,16.5,0.158,236.8,292.822052,106.5785141,84.95825195,0,20,51,0,-20
32,100,90,60,moving_belt,blue,FALSE,TRUE,joint 1 -,FALSE,55:32.5,16.196,0.156,236.8,292.822052,106.5785141,84.95825195,0,20,51,0,-20
32,100,90,60,moving_belt,blue,FALSE,TRUE,joint 1 -,FALSE,55:33.2,16.196,0.156,236.8,292.822052,106.5785141,84.95825195,0,20,51,0,-20
32,100,90,60,go_to_pick_down,blue,TRUE,FALSE,joint 3 +,FALSE,55:33.9,16.386,0.156,236.8,292.7773438,106.5622406,81.21796417,0,20,51,1.781999946,-20
32,100,90,60,go_to_pick_up_from_pick_down,blue,TRUE,FALSE,joint 3 -,TRUE,55:35.3,16.386,0.156,236.8,282.7928467,102.9281845,29.96816254,0,20,51,21.90279961,-20
32,100,90,60,go_to_color_detect_up_from_pick_up,blue,TRUE,FALSE,joint 1 +,TRUE,55:36.0,18.779,0.199,236.8,292.822052,106.5785141,84.95825195,0,20.03240013,51,0,-20
32,100,90,60,go_to_color_detect_up_from_pick_up,blue,TRUE,FALSE,joint 1 +,TRUE,55:36.9,18.779,0.199,236.8,183.0899963,252.1542816,84.95825195,34.01648331,54.84383774,51,0,-20
32,100,90,60,go_to_color_detect_down,blue,TRUE,FALSE,joint 3 +,TRUE,55:38.3,22.652,0.205,236.8,131.3358307,281.6506042,69.19458008,45,65,51,6.803999424,-20
32,100,90,60,go_to_color_detect_down,blue,TRUE,FALSE,joint 3 +,TRUE,55:39.0,22.329,0.205,236.8,111.2223282,238.5170288,-24.10586548,45,65,51,47.96046448,-20
32,100,90,60,go_to_color_detect_up_from_color_detect_down,blue,TRUE,FALSE,joint 3 -,FALSE,55:40.4,22.462,0.174,236.8,128.9495392,276.5331726,41.74835205,45,65,51,16.05812645,-20
32,100,90,60,detecting_color,blue,FALSE,FALSE,detecting_color,FALSE,55:41.1,16.937,0.174,236.8,131.6940765,282.4188232,84.95825195,45,65,51,0,-20
32,100,90,60,detecting_color,blue,FALSE,FALSE,detecting_color,FALSE,55:42.5,16.5,0.157,236.8,131.6940765,282.4188232,84.95825195,45,65,51,0,-20
32,100,90,60,go_to_color_detect_down,blue,TRUE,FALSE,joint 3 +,FALSE,55:43.2,16.481,0.157,236.8,123.4589767,264.758606,11.82035828,45,65,51,30.90571594,-20
32,100,90,60,go_to_color_detect_up_from_color_detect_down,blue,TRUE,FALSE,joint 3 -,TRUE,55:43.9,16.481,0.157,236.8,113.1341171,242.6168823,-19.84064484,45,65,51,45.05160141,-20
32,100,90,60,go_to_color_detect_up_from_color_detect_down,blue,TRUE,FALSE,joint 3 -,TRUE,55:45.3,23.526,0.169,236.8,131.6639862,282.3543091,80.38367462,45,65,51,1.459954739,-20
32,100,90,60,go_to_red_up,red,TRUE,FALSE,joint 1 +,TRUE,55:46.1,22.766,0.169,236.8,18.59801292,311.0592346,84.95825195,66.57839966,87.77719879,51,0,-20
32,100,90,60,go_to_pick_up_from_red,red,TRUE,FALSE,joint 1 -,FALSE,55:47.4,22.538,0.205,236.8,-178.2726593,255.5828247,84.95825195,104.8963242,124.9632721,51,0,-20
32,100,90,60,go_to_pick_up_from_red,red,TRUE,FALSE,joint 1 -,FALSE,55:48.1,22.443,0.205,236.8,16.86478424,311.15802,84.95825195,66.89759827,85.30999756,51,0,-20
32,100,90,60,go_to_pick_up_from_red,red,TRUE,FALSE,joint 1 -,FALSE,55:48.9,22.443,0.205,236.8,282.6997375,131.0899963,84.95825195,4.877510071,24.33140755,51,0,-20
32,100,90,60,moving_belt,red,FALSE,TRUE,joint 1 -,FALSE,55:49.7,16.519,0.156,236.8,292.822052,106.5785141,84.95825195,0,20,51,0,-20
32,100,90,60,moving_belt,red,FALSE,TRUE,joint 1 -,FALSE,55:51.4,16.538,0.155,236.8,292.822052,106.5785141,84.95825195,0,20,51,0,-20
32,100,90,60,moving_belt,red,FALSE,TRUE,joint 1 -,FALSE,55:52.2,16.386,0.155,236.8,292.822052,106.5785141,84.95825195,0,20,51,0,-20
32,100,90,60,moving_belt,red,FALSE,TRUE,joint 1 -,FALSE,55:53.6,16.424,0.155,236.8,292.822052,106.5785141,84.95825195,0,20,51,0,-20
32,100,90,60,go_to_pick_down,red,TRUE,FALSE,joint 3 +,FALSE,55:54.3,16.424,0.155,236.8,292.7934265,106.5681,81.96590424,0,20,51,1.457999945,-20
32,100,90,60,go_to_pick_up_from_pick_down,red,TRUE,FALSE,joint 3 -,TRUE,55:55.0,16.424,0.155,236.8,282.7636108,102.9175491,29.89107895,0,20,51,21.96759987,-20
32,100,90,60,go_to_color_detect_up_from_pick_up,red,TRUE,FALSE,joint 1 +,TRUE,55:56.4,23.184,0.154,236.8,292.8211365,106.5781784,84.42074585,0,20,51,0.108552426,-20
32,100,90,60,go_to_color_detect_up_from_pick_up,red,TRUE,FALSE,joint 1 +,TRUE,55:57.1,23.184,0.154,236.8,190.7132111,246.4390411,84.95825195,32.26457596,53.15673065,51,0,-20
32,100,90,60,go_to_color_detect_down,red,TRUE,FALSE,joint 3 +,TRUE,55:58.5,22.766,0.204,236.8,131.510437,282.0250244,73.66418457,45,65,51,4.957199574,-20
32,100,90,60,go_to_color_detect_down,red,TRUE,FALSE,joint 3 +,TRUE,55:59.2,22.291,0.204,236.8,113.13414,242.6169434,-19.84059143,45,65,51,45.8609314,-20
32,100,90,60,go_to_color_detect_up_from_color_detect_down,red,TRUE,FALSE,joint 3 -,FALSE,56:00.6,22.253,0.2,236.8,126.8561859,272.0439453,28.08560181,45,65,51,21.56289291,-20
32,100,90,60,detecting_color,red,FALSE,FALSE,detecting_color,FALSE,56:01.3,16.956,0.2,236.8,131.6940765,282.4188232,84.95825195,45,65,51,0,-20
32,100,90,60,detecting_color,red,FALSE,FALSE,detecting_color,FALSE,56:02.0,16.956,0.2,236.8,131.6940765,282.4188232,84.95825195,45,65,51,0,-20
32,100,90,60,detecting_color,red,FALSE,FALSE,detecting_color,FALSE,56:03.4,16.272,0.155,236.8,131.6940765,282.4188232,84.95825195,45,65,51,0,-20
32,100,90,60,go_to_color_detect_down,red,TRUE,FALSE,joint 3 +,FALSE,56:04.1,16.272,0.155,236.8,131.510437,282.0250244,73.66418457,45,65,51,4.957199574,-20
32,100,90,60,go_to_color_detect_down,red,TRUE,FALSE,joint 3 +,FALSE,56:05.5,16.462,0.156,236.8,111.6872711,239.5141144,-23.10150146,45,65,51,47.50945282,-20
32,100,90,60,go_to_color_detect_up_from_color_detect_down,red,TRUE,FALSE,joint 3 -,TRUE,56:06.2,16.348,0.156,236.8,126.3268051,270.9086914,25.1876564,45,65,51,22.76104546,-20
32,100,90,60,go_to_green_up,green,TRUE,FALSE,joint 1 +,TRUE,56:07.6,23.507,0.208,236.8,128.3310852,283.9627686,84.95825195,45.68039703,65.90719604,51,0,-20
32,100,90,60,go_to_green_up,green,TRUE,FALSE,joint 1 +,TRUE,56:08.2,22.5,0.208,236.8,-72.49648285,303.0643311,84.95825195,83.45300293,103.7534409,51,0,-20
32,100,90,60,go_to_pick_up_from_green,green,TRUE,FALSE,joint 1 -,FALSE,56:08.9,22.633,0.205,236.8,23.24514389,310.746521,84.95825195,65.72200012,84.58799744,51,0,-20
32,100,90,60,go_to_pick_up_from_green,green,TRUE,FALSE,joint 1 -,FALSE,56:10.3,16.804,0.205,236.8,279.0146179,138.7608185,84.95825195,6.44228363,25.8124485,51,0,-20
32,100,90,60,moving_belt,green,FALSE,TRUE,joint 1 -,FALSE,56:11.0,16.462,0.156,236.8,292.822052,106.5785141,84.95825195,0,20,51,0,-20
32,100,90,60,moving_belt,green,FALSE,TRUE,joint 1 -,FALSE,56:12.4,16.576,0.156,236.8,292.822052,106.5785141,84.95825195,0,20,51,0,-20
32,100,90,60,moving_belt,green,FALSE,TRUE,joint 1 -,FALSE,56:13.1,16.576,0.156,236.8,292.822052,106.5785141,84.95825195,0,20,51,0,-20
32,100,90,60,moving_belt,green,FALSE,TRUE,joint 1 -,FALSE,56:14.5,16.158,0.156,236.8,292.822052,106.5785141,84.95825195,0,20,51,0,-20
32,100,90,60,go_to_pick_down,green,TRUE,FALSE,joint 3 +,FALSE,56:15.2,16.405,0.156,236.8,292.8123169,106.5749741,83.21263885,0,20,51,0.907199979,-20
32,100,90,60,go_to_pick_up_from_pick_down,green,TRUE,FALSE,joint 3 -,TRUE,56:16.6,16.215,0.156,236.8,282.938446,102.9811783,30.35384369,0,20,51,21.67599869,-20
32,100,90,60,go_to_color_detect_up_from_pick_up,green,TRUE,FALSE,joint 1 +,TRUE,56:17.3,19.139,0.209,236.8,292.822052,106.5785141,84.94836426,0,20,51,0.000102948,-20
32,100,90,60,go_to_color_detect_up_from_pick_up,green,TRUE,FALSE,joint 1 +,TRUE,56:18.0,22.671,0.209,236.8,202.8167572,236.5778809,84.95825195,29.3937149,50.38306808,51,0,-20
32,100,90,60,go_to_color_detect_down,green,TRUE,FALSE,joint 3 +,TRUE,56:18.7,22.671,0.209,236.8,131.256546,281.4805603,67.54267883,45,65,51,7.484399319,-20
32,100,90,60,go_to_color_detect_down,green,TRUE,FALSE,joint 3 +,TRUE,56:20.6,22.045,0.203,236.8,112.0720901,240.3393555,-22.25456238,45,65,51,47.0895462,-20
32,100,90,60,go_to_color_detect_up_from_color_detect_down,green,TRUE,FALSE,joint 3 -,FALSE,56:21.3,22.045,0.203,236.8,127.7988052,274.0653992,33.72503662,45,65,51,19.26378822,-20
32,100,90,60,detecting_color,green,FALSE,FALSE,detecting_color,FALSE,56:22.0,16.88,0.159,236.8,131.6940765,282.4188232,84.95825195,45,65,51,0,-20
32,100,90,60,detecting_color,green,FALSE,FALSE,detecting_color,FALSE,56:23.4,16.519,0.159,236.8,131.6940765,282.4188232,84.95825195,45,65,51,0,-20
32,100,90,60,go_to_color_detect_down,green,TRUE,FALSE,joint 3 +,FALSE,56:24.1,16.519,0.154,236.8,127.7931824,274.0533447,33.68930054,45,65,51,21.57839966,-20
32,100,90,60,go_to_color_detect_up_from_color_detect_down,green,TRUE,FALSE,joint 3 -,TRUE,56:25.6,16.519,0.154,236.8,111.2952499,238.6734161,-23.94969177,45,65,51,47.6760025,-20
32,100,90,60,go_to_color_detect_up_from_color_detect_down,green,TRUE,FALSE,joint 3 -,TRUE,56:26.4,16.519,0.187,236.8,131.3363647,281.6517334,69.20609283,45,65,51,5.536533833,-20
32,100,90,60,go_to_blue_up,blue,TRUE,FALSE,joint 1 +,TRUE,56:27.3,23.393,0.187,236.8,77.91692352,301.7162476,84.95825195,55.51997375,76.28754425,51,0,-20
32,100,90,60,go_to_pick_up_from_blue,blue,TRUE,FALSE,joint 1 -,FALSE,56:28.0,22.595,0.187,236.8,67.36290741,304.246582,84.95825195,57.51560211,76.80280304,51,0,-20
32,100,90,60,go_to_pick_up_from_blue,blue,TRUE,FALSE,joint 1 -,FALSE,56:29.4,16.519,0.202,236.8,286.3878174,122.8240814,84.95825195,3.213199615,22.77318764,51,0,-20
32,100,90,60,moving_belt,blue,FALSE,TRUE,joint 1 -,FALSE,56:30.1,16.519,0.202,236.8,292.822052,106.5785141,84.95825195,0,20,51,0,-20
32,100,90,60,moving_belt,blue,FALSE,TRUE,joint 1 -,FALSE,56:31.5,16.443,0.154,236.8,292.822052,106.5785141,84.95825195,0,20,51,0,-20
32,100,90,60,moving_belt,blue,FALSE,TRUE,joint 1 -,FALSE,56:32.2,16.5,0.154,236.8,292.822052,106.5785141,84.95825195,0,20,51,0,-20
32,100,90,60,moving_belt,blue,FALSE,TRUE,joint 1 -,FALSE,56:33.6,16.424,0.155,236.8,292.822052,106.5785141,84.95825195,0,20,51,0,-20
32,100,90,60,go_to_pick_down,blue,TRUE,FALSE,joint 3 +,FALSE,56:34.3,16.253,0.155,236.8,292.8198242,106.577713,84.12699127,0,20,51,0.486000001,-20
32,100,90,60,go_to_pick_up_from_pick_down,blue,TRUE,FALSE,joint 3 -,TRUE,56:35.0,16.253,0.155,236.8,282.8511963,102.9494247,30.12238693,0,20,51,21.80559921,-20
32,100,90,60,go_to_pick_up_from_pick_down,blue,TRUE,FALSE,joint 3 -,TRUE,56:36.3,16.291,0.155,236.8,292.822052,106.5785141,84.94836426,0,20,51,0.000102948,-20
32,100,90,60,go_to_color_detect_up_from_pick_up,blue,TRUE,FALSE,joint 1 +,TRUE,56:37.0,23.545,0.206,236.8,198.7016296,240.0445862,84.95825195,30.38306808,51.34002304,51,0,-20
32,100,90,60,go_to_color_detect_down,blue,TRUE,FALSE,joint 3 +,TRUE,56:38.4,22.424,0.206,236.8,131.1647949,281.283783,65.81058502,45,65,51,8.197198868,-20
32,100,90,60,go_to_color_detect_down,blue,TRUE,FALSE,joint 3 +,TRUE,56:39.1,22.424,0.199,236.8,111.8671875,239.8999481,-22.70730591,45,65,51,47.31570053,-20
32,100,90,60,go_to_color_detect_up_from_color_detect_down,blue,TRUE,FALSE,joint 3 -,FALSE,56:40.5,21.551,0.199,236.8,125.7709427,269.7166443,22.31577682,45,65,51,23.99159813,-20
32,100,90,60,detecting_color,blue,FALSE,FALSE,detecting_color,FALSE,56:41.2,21.551,0.162,236.8,131.6940765,282.4188232,84.95825195,45,65,51,0,-20
32,100,90,60,detecting_color,blue,FALSE,FALSE,detecting_color,FALSE,56:42.6,16.272,0.162,236.8,131.6940765,282.4188232,84.95825195,45,65,51,0,-20
32,100,90,60,go_to_color_detect_down,blue,TRUE,FALSE,joint 3 +,FALSE,56:43.3,16.272,0.162,236.8,127.340065,273.0816345,30.89547348,45,65,51,22.77719879,-20
32,100,90,60,go_to_color_detect_up_from_color_detect_down,blue,TRUE,FALSE,joint 3 -,TRUE,56:44.0,16.272,0.155,236.8,112.5544128,241.373703,-21.17247009,45,65,51,45.86160278,-20
32,100,90,60,go_to_color_detect_up_from_color_detect_down,blue,TRUE,FALSE,joint 3 -,TRUE,56:45.0,16.272,0.155,236.8,131.4042511,281.7973328,70.77562714,45,65,51,4.953980446,-20
32,100,90,60,go_to_red_up,red,TRUE,FALSE,joint 1 +,TRUE,56:46.3,23.279,0.211,236.8,37.02384186,309.4074707,84.95825195,63.17639923,84.27799988,51,0,-20
32,100,90,60,go_to_red_up,red,TRUE,FALSE,joint 1 +,TRUE,56:47.0,22.329,0.211,236.8,-177.2404175,256.2997437,84.95825195,104.6652298,124.7969742,51,0,-20
32,100,90,60,go_to_pick_up_from_red,red,TRUE,FALSE,joint 1 -,FALSE,56:48.4,22.69,0.202,236.8,-45.69379044,308.2463379,84.95825195,78.43199921,97.10359955,51,0,-20
32,100,90,60,go_to_pick_up_from_red,red,TRUE,FALSE,joint 1 -,FALSE,56:49.1,16.652,0.202,236.8,268.736908,157.7472687,84.95825195,10.41272926,29.6074276,51,0,-20
32,100,90,60,moving_belt,red,FALSE,TRUE,joint 1 -,FALSE,56:49.8,16.652,0.202,236.8,292.822052,106.5785141,84.95825195,0,20,51,0,-20
32,100,90,60,moving_belt,red,FALSE,TRUE,joint 1 -,FALSE,56:51.5,16.785,0.155,236.8,292.822052,106.5785141,84.95825195,0,20,51,0,-20
32,100,90,60,moving_belt,red,FALSE,TRUE,joint 1 -,FALSE,56:52.2,16.785,0.155,236.8,292.822052,106.5785141,84.95825195,0,20,51,0,-20
32,100,90,60,moving_belt,red,FALSE,TRUE,joint 1 -,FALSE,56:53.6,16.367,0.155,236.8,292.822052,106.5785141,84.95825195,0,20,51,0,-20
32,100,90,60,go_to_pick_down,red,TRUE,FALSE,joint 3 +,FALSE,56:54.3,16.367,0.155,236.8,292.822052,106.5785141,84.95825195,0,20,51,0.032400001,-20
32,100,90,60,go_to_pick_down,red,TRUE,FALSE,joint 3 +,TRUE,56:55.0,16.386,0.155,236.8,282.7636108,102.9175491,29.89107895,0,20,51,22,-20
32,100,90,60,go_to_pick_up_from_pick_down,red,TRUE,FALSE,joint 3 -,TRUE,56:56.4,17.26,0.209,236.8,292.8165894,106.5765305,83.65338135,0,20,51,0.342852116,-20
32,100,90,60,go_to_color_detect_up_from_pick_up,red,TRUE,FALSE,joint 1 +,TRUE,56:57.1,23.146,0.209,236.8,219.9125671,220.7763214,84.95825195,25.11230087,46.23125458,51,0,-20
32,100,90,60,go_to_color_detect_down,red,TRUE,FALSE,joint 3 +,TRUE,56:58.5,22.614,0.204,236.8,131.6739655,282.3757019,81.21796417,45,65,51,1.781999946,-20
32,100,90,60,go_to_color_detect_down,red,TRUE,FALSE,joint 3 +,TRUE,56:59.2,22.291,0.204,236.8,113.4580612,243.3115692,-19.08113861,45,65,51,45.47277832,-20
32,100,90,60,go_to_color_detect_up_from_color_detect_down,red,TRUE,FALSE,joint 3 -,FALSE,57:00.5,22.272,0.204,236.8,122.2944946,262.2613831,7.213356018,45,65,51,30.89279747,-20
32,100,90,60,detecting_color,red,FALSE,FALSE,detecting_color,FALSE,57:01.2,18.19,0.162,236.8,131.6940765,282.4188232,84.95825195,45,65,51,0,-20
32,100,90,60,detecting_color,red,FALSE,FALSE,detecting_color,FALSE,57:02.2,16.937,0.162,236.8,131.6940765,282.4188232,84.95825195,45,65,51,0,-20
32,100,90,60,detecting_color,red,FALSE,FALSE,detecting_color,FALSE,57:03.6,16.462,0.156,236.8,131.6940765,282.4188232,84.95825195,45,65,51,0,-20
32,100,90,60,go_to_color_detect_down,red,TRUE,FALSE,joint 3 +,FALSE,57:04.3,16.31,0.156,236.8,128.9454346,276.524353,41.71667099,45,65,51,18.17639923,-20
32,100,90,60,go_to_color_detect_up_from_color_detect_down,red,TRUE,FALSE,joint 3 -,TRUE,57:05.0,16.31,0.156,236.8,111.1388397,238.3379974,-24.28404236,45,65,51,47.96760178,-20
32,100,90,60,go_to_color_detect_up_from_color_detect_down,red,TRUE,FALSE,joint 3 -,TRUE,57:06.4,16.614,0.156,236.8,130.0664825,278.9284668,51.53040314,45,65,51,12.23751259,-20
32,100,90,60,go_to_green_up,green,TRUE,FALSE,joint 1 +,TRUE,57:07.1,23.469,0.156,236.8,82.12180328,300.5989685,84.95825195,54.72000122,75.52999878,51,0,-20
32,100,90,60,go_to_pick_up_from_green,green,TRUE,FALSE,joint 1 -,FALSE,57:08.5,22.519,0.206,236.8,-80.65180969,300.9967041,84.95825195,85,105,51,0,-20
32,100,90,60,go_to_pick_up_from_green,green,TRUE,FALSE,joint 1 -,FALSE,57:09.2,22.519,0.206,236.8,114.4459991,289.837616,84.95825195,48.45279694,66.89759827,51,0,-20
32,100,90,60,go_to_pick_up_from_green,green,TRUE,FALSE,joint 1 -,FALSE,57:10.5,16.5,0.163,236.8,292.7926636,106.6592407,84.95825195,0.015796661,20.00156021,51,0,-20
32,100,90,60,moving_belt,green,FALSE,TRUE,joint 1 -,FALSE,57:11.3,16.5,0.163,236.8,292.822052,106.5785141,84.95825195,0,20,51,0,-20
32,100,90,60,moving_belt,green,FALSE,TRUE,joint 1 -,FALSE,57:12.6,16.728,0.158,236.8,292.822052,106.5785141,84.95825195,0,20,51,0,-20
32,100,90,60,moving_belt,green,FALSE,TRUE,joint 1 -,FALSE,57:13.3,16.405,0.158,236.8,292.822052,106.5785141,84.95825195,0,20,51,0,-20
32,100,90,60,moving_belt,green,FALSE,TRUE,joint 1 -,FALSE,57:14.0,16.405,0.155,236.8,292.822052,106.5785141,84.95825195,0,20,51,0,-20
32,100,90,60,go_to_pick_down,green,TRUE,FALSE,joint 3 +,FALSE,57:15.4,16.386,0.155,236.8,292.1767273,106.3436356,70.7657547,0,20,51,6.15599966,-20
32,100,90,60,go_to_pick_up_from_pick_down,green,TRUE,FALSE,joint 3 -,TRUE,57:16.1,16.386,0.155,236.8,287.1612549,104.518158,43.30739212,0,20,51,15.84399891,-20
32,100,90,60,go_to_color_detect_up_from_pick_up,green,TRUE,FALSE,joint 1 +,TRUE,57:17.5,22.918,0.155,236.8,289.3661804,115.6327972,84.95825195,1.782001495,22.13840103,51,0,-20
32,100,90,60,go_to_color_detect_up_from_pick_up,green,TRUE,FALSE,joint 1 +,TRUE,57:18.2,22.918,0.2,236.8,151.8721924,272.1002808,84.95825195,40.83201599,61.33536911,51,0,-20
32,100,90,60,go_to_color_detect_down,green,TRUE,FALSE,joint 3 +,TRUE,57:19.1,22.31,0.2,236.8,128.2105865,274.9484863,36.42591095,45,65,51,20.41200066,-20
32,100,90,60,go_to_color_detect_up_from_color_detect_down,green,TRUE,FALSE,joint 3 -,FALSE,57:20.1,22.121,0.2,236.8,111.2952499,238.6734161,-23.94969177,45,65,51,47.6760025,-20
32,100,90,60,go_to_color_detect_up_from_color_detect_down,green,TRUE,FALSE,joint 3 -,FALSE,57:21.5,17.639,0.2,236.8,130.6495209,280.178772,58.11512375,45,65,51,9.712253571,-20
32,100,90,60,detecting_color,green,FALSE,FALSE,detecting_color,FALSE,57:22.2,17.639,0.2,236.8,131.6940765,282.4188232,84.95825195,45,65,51,0,-20
32,100,90,60,detecting_color,green,FALSE,FALSE,detecting_color,FALSE,57:23.0,16.728,0.158,236.8,131.6940765,282.4188232,84.95825195,45,65,51,0,-20
32,100,90,60,go_to_color_detect_down,green,TRUE,FALSE,joint 3 +,FALSE,57:24.4,16.31,0.158,236.8,124.6230469,267.2549744,16.84724426,45,65,51,28.73620796,-20
32,100,90,60,go_to_color_detect_up_from_color_detect_down,green,TRUE,FALSE,joint 3 -,TRUE,57:25.1,16.481,0.155,236.8,114.1736526,244.8461761,-17.36302948,45,65,51,43.59360123,-20
32,100,90,60,go_to_color_detect_up_from_color_detect_down,green,TRUE,FALSE,joint 3 -,TRUE,57:26.6,23.013,0.155,236.8,131.584671,282.1842346,76.2383728,45,65,51,2.947767735,-20
32,100,90,60,go_to_blue_up,blue,TRUE,FALSE,joint 1 +,TRUE,57:27.5,23.07,0.208,236.8,38.13190079,309.2728577,84.95825195,62.97116852,83.3175354,51,0,-20
32,100,90,60,go_to_pick_up_from_blue,blue,TRUE,FALSE,joint 1 -,FALSE,57:28.1,22.272,0.208,236.8,122.6401138,286.4666443,84.95825195,46.82360077,65.72200012,51,0,-20
32,100,90,60,go_to_pick_up_from_blue,blue,TRUE,FALSE,joint 1 -,FALSE,57:29.5,16.633,0.156,236.8,290.802002,111.9728622,84.95825195,1.059122086,20.81350899,51,0,-20
32,100,90,60,moving_belt,blue,FALSE,TRUE,joint 1 -,FALSE,57:30.2,16.31,0.156,236.8,292.822052,106.5785141,84.95825195,0,20,51,0,-20
32,100,90,60,moving_belt,blue,FALSE,TRUE,joint 1 -,FALSE,57:31.6,16.348,0.155,236.8,292.822052,106.5785141,84.95825195,0,20,51,0,-20
32,100,90,60,moving_belt,blue,FALSE,TRUE,joint 1 -,FALSE,57:32.3,16.348,0.155,236.8,292.822052,106.5785141,84.95825195,0,20,51,0,-20
32,100,90,60,moving_belt,blue,FALSE,TRUE,joint 1 -,FALSE,57:33.0,16.5,0.155,236.8,292.822052,106.5785141,84.95825195,0,20,51,0,-20
32,100,90,60,go_to_pick_down,blue,TRUE,FALSE,joint 3 +,FALSE,57:34.4,16.367,0.154,236.8,292.4137573,106.4299011,73.66418457,0,20,51,4.957199574,-20
32,100,90,60,go_to_pick_up_from_pick_down,blue,TRUE,FALSE,joint 3 -,TRUE,57:35.1,16.063,0.154,236.8,283.7904053,103.2912674,32.67695618,0,20,51,20.54199791,-20
32,100,90,60,go_to_color_detect_up_from_pick_up,blue,TRUE,FALSE,joint 1 +,TRUE,57:36.5,22.975,0.157,236.8,292.7617493,106.7440796,84.95825195,0.032400131,20.09720039,51,0,-20
32,100,90,60,go_to_color_detect_up_from_pick_up,blue,TRUE,FALSE,joint 1 +,TRUE,57:37.2,22.177,0.157,236.8,159.8983917,267.4625854,84.95825195,39.12755585,59.72810745,51,0,-20
32,100,90,60,go_to_color_detect_down,blue,TRUE,FALSE,joint 3 +,TRUE,57:38.7,22.291,0.202,236.8,130.4743347,279.8031006,55.97203827,45,65,51,12.24719906,-20
32,100,90,60,go_to_color_detect_up_from_color_detect_down,blue,TRUE,FALSE,joint 3 -,FALSE,57:39.4,21.95,0.202,236.8,111.299942,238.6834869,-23.93961334,45,65,51,47.89631271,-20
32,100,90,60,go_to_color_detect_up_from_color_detect_down,blue,TRUE,FALSE,joint 3 -,FALSE,57:40.0,21.931,0.199,236.8,129.8268585,278.4145813,49.18910217,45,65,51,13.14406586,-20
32,100,90,60,detecting_color,blue,FALSE,FALSE,detecting_color,FALSE,57:41.4,16.804,0.199,236.8,131.6940765,282.4188232,84.95825195,45,65,51,0,-20
32,100,90,60,detecting_color,blue,FALSE,FALSE,detecting_color,FALSE,57:42.1,16.804,0.154,236.8,131.6940765,282.4188232,84.95825195,45,65,51,0,-20
32,100,90,60,go_to_color_detect_down,blue,TRUE,FALSE,joint 3 +,FALSE,57:43.5,16.101,0.154,236.8,122.8731918,263.5024109,9.455101013,45,65,51,31.94186974,-20
32,100,90,60,go_to_color_detect_up_from_color_detect_down,blue,TRUE,FALSE,joint 3 -,TRUE,57:44.2,16.101,0.154,236.8,113.1341171,242.6168823,-19.84064484,45,65,51,45.05160141,-20
32,100,90,60,go_to_color_detect_up_from_color_detect_down,blue,TRUE,FALSE,joint 3 -,TRUE,57:45.6,23.108,0.153,236.8,131.6639862,282.3543091,80.38367462,45,65,51,1.459954739,-20
32,100,90,60,go_to_red_up,red,TRUE,FALSE,joint 1 +,TRUE,57:46.4,23.108,0.197,236.8,24.92610741,310.6161804,84.95825195,65.41200256,86.57839966,51,0,-20
32,100,90,60,go_to_pick_up_from_red,red,TRUE,FALSE,joint 1 -,FALSE,57:47.1,22.064,0.197,236.8,-178.2726593,255.5828247,84.95825195,104.8963242,124.9632721,51,0,-20
32,100,90,60,go_to_pick_up_from_red,red,TRUE,FALSE,joint 1 -,FALSE,57:48.5,17.582,0.197,236.8,8.413771629,311.5010986,84.95825195,68.45279694,86.89759827,51,0,-20
32,100,90,60,go_to_pick_up_from_red,red,TRUE,FALSE,joint 1 -,FALSE,57:49.3,17.582,0.154,236.8,281.3617554,133.9376221,84.95825195,5.456012726,24.87751007,51,0,-20
32,100,90,60,moving_belt,red,FALSE,TRUE,joint 1 -,FALSE,57:50.6,16.405,0.154,236.8,292.822052,106.5785141,84.95825195,0,20,51,0,-20
32,100,90,60,moving_belt,red,FALSE,TRUE,joint 1 -,FALSE,57:51.4,16.614,0.16,236.8,292.822052,106.5785141,84.95825195,0,20,51,0,-20
32,100,90,60,moving_belt,red,FALSE,TRUE,joint 1 -,FALSE,57:52.1,16.614,0.16,236.8,292.822052,106.5785141,84.95825195,0,20,51,0,-20
32,100,90,60,moving_belt,red,FALSE,TRUE,joint 1 -,FALSE,57:53.4,16.329,0.156,236.8,292.822052,106.5785141,84.95825195,0,20,51,0,-20
32,100,90,60,go_to_pick_down,red,TRUE,FALSE,joint 3 +,FALSE,57:54.2,16.329,0.156,235,292.8123169,106.5749741,83.21263885,0,20,51,0.907199979,-20
32,100,90,60,go_to_pick_up_from_pick_down,red,TRUE,FALSE,joint 3 -,TRUE,57:55.6,16.519,0.156,235,282.7636108,102.9175491,29.89107895,0,20,51,21.96759987,-20
32,100,90,60,go_to_color_detect_up_from_pick_up,red,TRUE,FALSE,joint 1 +,TRUE,57:56.3,16.424,0.156,235,292.822052,106.5785141,84.95825195,0,20,51,0,-20
32,100,90,60,go_to_color_detect_up_from_pick_up,red,TRUE,FALSE,joint 1 +,TRUE,57:57.7,22.272,0.202,235,190.7132111,246.4390411,84.95825195,32.26457596,53.15673065,51,0,-20
32,100,90,60,go_to_color_detect_down,red,TRUE,FALSE,joint 3 +,TRUE,57:58.4,22.272,0.202,236.8,131.510437,282.0250244,73.66418457,45,65,51,4.957199574,-20
32,100,90,60,go_to_color_detect_down,red,TRUE,FALSE,joint 3 +,TRUE,57:59.1,22.196,0.202,236.8,111.6872711,239.5141144,-23.10150146,45,65,51,47.50945282,-20
32,100,90,60,go_to_color_detect_up_from_color_detect_down,red,TRUE,FALSE,joint 3 -,FALSE,58:00.5,18.76,0.202,236.8,125.7709427,269.7166443,22.31577682,45,65,51,23.99159813,-20
32,100,90,60,detecting_color,red,FALSE,FALSE,detecting_color,FALSE,58:01.2,18.76,0.202,236.8,131.6940765,282.4188232,84.95825195,45,65,51,0,-20
32,100,90,60,detecting_color,red,FALSE,FALSE,detecting_color,FALSE,58:02.6,16.861,0.159,236.8,131.6940765,282.4188232,84.95825195,45,65,51,0,-20
32,100,90,60,detecting_color,red,FALSE,FALSE,detecting_color,FALSE,58:03.3,16.481,0.159,236.8,131.6940765,282.4188232,84.95825195,45,65,51,0,-20
32,100,90,60,detecting_color,red,FALSE,FALSE,detecting_color,FALSE,58:04.0,16.481,0.155,236.8,131.6940765,282.4188232,84.95825195,45,65,51,0,-20
32,100,90,60,detecting_color,red,FALSE,FALSE,detecting_color,FALSE,58:05.4,16.291,0.155,236.8,131.6940765,282.4188232,84.95825195,45,65,51,0,-20
32,100,90,60,go_to_color_detect_down,red,TRUE,FALSE,joint 3 +,FALSE,58:06.1,16.291,0.156,236.8,131.6896973,282.4094543,83.21263885,45,65,51,0.907199979,-20
32,100,90,60,go_to_color_detect_down,red,TRUE,FALSE,joint 3 +,FALSE,58:07.0,16.443,0.156,236.8,117.2922897,251.5341187,-9.156105042,45,65,51,40.52140045,-20
32,100,90,60,go_to_color_detect_up_from_color_detect_down,red,TRUE,FALSE,joint 3 -,TRUE,58:08.4,16.253,0.156,236.8,117.8099594,252.6442719,-7.666648865,45,65,51,38.28000259,-20
32,100,90,60,go_to_green_up,green,TRUE,FALSE,joint 1 +,TRUE,58:09.1,23.279,0.156,236.8,131.6940765,282.4188232,84.95825195,45,65,51,0,-20
32,100,90,60,go_to_green_up,green,TRUE,FALSE,joint 1 +,TRUE,58:10.5,22.747,0.202,236.8,-31.7332859,309.9947205,84.95825195,75.844841,96.59888458,51,0,-20
32,100,90,60,go_to_pick_up_from_green,green,TRUE,FALSE,joint 1 -,FALSE,58:11.2,22.386,0.202,236.8,-40.75804138,308.9377136,84.95825195,77.51560211,96.80280304,51,0,-20
32,100,90,60,go_to_pick_up_from_green,green,TRUE,FALSE,joint 1 -,FALSE,58:12.6,19.975,0.202,236.8,264.9584045,164.0145416,84.95825195,11.75833321,30.90169716,51,0,-20
32,100,90,60,moving_belt,green,FALSE,TRUE,joint 1 -,FALSE,58:13.3,16.424,0.156,236.8,292.822052,106.5785141,84.95825195,0,20,51,0,-20
32,100,90,60,moving_belt,green,FALSE,TRUE,joint 1 -,FALSE,58:14.7,16.557,0.156,236.8,292.822052,106.5785141,84.95825195,0,20,51,0,-20
32,100,90,60,moving_belt,green,FALSE,TRUE,joint 1 -,FALSE,58:15.4,16.386,0.156,236.8,292.822052,106.5785141,84.95825195,0,20,51,0,-20
32,100,90,60,moving_belt,green,FALSE,TRUE,joint 1 -,FALSE,58:16.1,16.386,0.156,236.8,292.822052,106.5785141,84.95825195,0,20,51,0,-20
32,100,90,60,go_to_pick_down,green,TRUE,FALSE,joint 3 +,FALSE,58:17.5,16.367,0.156,236.8,292.822052,106.5785141,84.95825195,0,20,51,0,-20
32,100,90,60,go_to_pick_down,green,TRUE,FALSE,joint 3 +,FALSE,58:18.3,16.538,0.156,236.8,282.8614197,102.9531403,30.14941025,0,20,51,21.95999527,-20
32,100,90,60,go_to_pick_up_from_pick_down,green,TRUE,FALSE,joint 3 -,TRUE,58:19.0,16.728,0.156,236.8,292.7749939,106.5613861,81.121521,0,20,51,1.200251341,-20
32,100,90,60,go_to_color_detect_up_from_pick_up,green,TRUE,FALSE,joint 1 +,TRUE,58:19.7,16.728,0.199,236.8,241.2157898,197.278183,84.95825195,19.27799606,40.41199493,51,0,-20
32,100,90,60,go_to_color_detect_down,green,TRUE,FALSE,joint 3 +,TRUE,58:21.6,22.329,0.202,236.8,131.6118317,282.2424927,77.39707184,45,65,51,3.401999712,-20
32,100,90,60,go_to_color_detect_down,green,TRUE,FALSE,joint 3 +,TRUE,58:22.3,22.083,0.202,236.8,114.1721954,244.8430481,-17.36656952,45,65,51,44.59926987,-20
32,100,90,60,go_to_color_detect_up_from_color_detect_down,green,TRUE,FALSE,joint 3 -,FALSE,58:23.0,22.215,0.202,236.8,121.710434,261.0088501,5.038383484,45,65,51,31.92959785,-20
32,100,90,60,detecting_color,green,FALSE,FALSE,detecting_color,FALSE,58:24.4,18.475,0.175,236.8,131.6940765,282.4188232,84.95825195,45,65,51,0,-20
32,100,90,60,detecting_color,green,FALSE,FALSE,detecting_color,FALSE,58:25.2,16.804,0.175,236.8,131.6940765,282.4188232,84.95825195,45,65,51,0,-20
32,100,90,60,go_to_color_detect_down,green,TRUE,FALSE,joint 3 +,FALSE,58:26.5,16.5,0.157,236.8,131.6940613,282.4187927,84.87512207,45,65,51,0.097200006,-20
32,100,90,60,go_to_color_detect_down,green,TRUE,FALSE,joint 3 +,FALSE,58:27.3,16.424,0.157,236.8,116.7942505,250.4660645,-10.55236053,45,65,51,41.2011528,-20
32,100,90,60,go_to_color_detect_up_from_color_detect_down,green,TRUE,FALSE,joint 3 -,TRUE,58:28.5,16.424,0.157,236.8,118.3367691,253.7740021,-6.10900116,45,65,51,37.47000122,-20
32,100,90,60,go_to_color_detect_up_from_color_detect_down,green,TRUE,FALSE,joint 3 -,TRUE,58:29.2,17.582,0.156,236.8,131.6930542,282.4166565,84.11367798,45,65,51,0.200235501,-20
32,100,90,60,go_to_blue_up,blue,TRUE,FALSE,joint 1 +,TRUE,58:30.6,22.121,0.2,236.8,28.05327797,310.3493958,84.95825195,64.83492279,84.92208862,51,0,-20
32,100,90,60,go_to_pick_up_from_blue,blue,TRUE,FALSE,joint 1 -,FALSE,58:31.3,20.469,0.2,236.8,169.2447052,261.6485291,84.95825195,37.10359573,55.74279404,51,0,-20
32,100,90,60,moving_belt,blue,FALSE,TRUE,joint 1 -,FALSE,58:32.7,16.538,0.156,236.8,292.819397,106.5857697,84.95825195,0.001420975,20,51,0,-20
32,100,90,60,moving_belt,blue,FALSE,TRUE,joint 1 -,FALSE,58:32.7,16.538,0.156,236.8,292.822052,106.5785141,84.95825195,0,20,51,0,-20
32,100,90,60,moving_belt,blue,FALSE,TRUE,joint 1 -,FALSE,58:34.4,16.69,0.156,236.8,292.822052,106.5785141,84.95825195,0,20,51,0,-20
32,100,90,60,moving_belt,blue,FALSE,TRUE,joint 1 -,FALSE,58:35.1,16.424,0.156,236.8,292.822052,106.5785141,84.95825195,0,20,51,0,-20
32,100,90,60,moving_belt,blue,FALSE,TRUE,joint 1 -,FALSE,58:36.5,16.481,0.156,236.8,292.822052,106.5785141,84.95825195,0,20,51,0,-20
32,100,90,60,go_to_pick_down,blue,TRUE,FALSE,joint 3 +,FALSE,58:37.2,16.481,0.155,236.8,289.7094727,105.4456253,53.92823792,0,20,51,12.96749973,-20
32,100,90,60,go_to_pick_up_from_pick_down,blue,TRUE,FALSE,joint 3 -,TRUE,58:38.6,18,0.155,236.8,287.5741272,104.6684265,44.82444382,0,20,51,15.19599915,-20
32,100,90,60,go_to_color_detect_up_from_pick_up,blue,TRUE,FALSE,joint 1 +,TRUE,58:39.3,18,0.209,236.8,279.7044678,137.364975,84.95825195,6.156002045,26.80400276,51,0,-20
32,100,90,60,go_to_color_detect_up_from_pick_up,blue,TRUE,FALSE,joint 1 +,TRUE,58:40.7,22.291,0.209,236.8,135.6449432,280.5426636,84.95825195,44.19580078,64.40755463,51,0,-20
32,100,90,60,go_to_color_detect_down,blue,TRUE,FALSE,joint 3 +,TRUE,58:41.4,21.988,0.199,236.8,122.8731918,263.5024109,9.455101013,45,65,51,31.94186974,-20
32,100,90,60,go_to_color_detect_up_from_color_detect_down,blue,TRUE,FALSE,joint 3 -,FALSE,58:42.1,21.988,0.199,236.8,113.4585342,243.3126068,-19.08000946,45,65,51,44.59799957,-20
32,100,90,60,go_to_color_detect_up_from_color_detect_down,blue,TRUE,FALSE,joint 3 -,FALSE,58:43.5,17.032,0.159,236.8,131.551239,282.1125183,74.99565125,45,65,51,3.400720835,-20
32,100,90,60,detecting_color,blue,FALSE,FALSE,detecting_color,FALSE,58:44.2,17.032,0.159,236.8,131.6940765,282.4188232,84.95825195,45,65,51,0,-20
32,100,90,60,go_to_color_detect_down,blue,TRUE,FALSE,joint 3 +,FALSE,58:45.7,16.424,0.156,236.8,131.6118317,282.2424927,77.39707184,45,65,51,3.401999712,-20
32,100,90,60,go_to_color_detect_down,blue,TRUE,FALSE,joint 3 +,FALSE,58:46.4,16.5,0.156,236.8,114.1721954,244.8430481,-17.36656952,45,65,51,44.59926987,-20
32,100,90,60,go_to_color_detect_up_from_color_detect_down,blue,TRUE,FALSE,joint 3 -,TRUE,58:47.1,16.462,0.156,236.8,125.2047653,268.5024719,19.54725647,45,65,51,25.22279739,-20
32,100,90,60,go_to_red_up,red,TRUE,FALSE,joint 1 +,TRUE,58:48.5,23.317,0.197,236.8,130.0949554,283.1590271,84.95825195,45.3239975,65.48600006,51,0,-20
32,100,90,60,go_to_red_up,red,TRUE,FALSE,joint 1 +,TRUE,58:49.2,22.595,0.197,236.8,-89.80898285,298.3924866,84.95825195,86.75053406,107.8218842,51,0,-20
32,100,90,60,go_to_pick_up_from_red,red,TRUE,FALSE,joint 1 -,FALSE,58:50.6,22.595,0.202,236.8,-161.0153198,266.7916565,84.95825195,101.1119995,120.5935974,51,0,-20
32,100,90,60,go_to_pick_up_from_red,red,TRUE,FALSE,joint 1 -,FALSE,58:51.3,22.253,0.202,236.8,142.8108826,276.963501,84.95825195,42.7229805,61.07527924,51,0,-20
32,100,90,60,moving_belt,red,FALSE,TRUE,joint 1 -,FALSE,58:52.0,16.424,0.156,236.8,292.4848938,107.5003433,84.95825195,0.180477142,20.08797455,51,0,-20
32,100,90,60,moving_belt,red,FALSE,TRUE,joint 1 -,FALSE,58:53.4,16.481,0.156,236.8,292.822052,106.5785141,84.95825195,0,20,51,0,-20
32,100,90,60,moving_belt,red,FALSE,TRUE,joint 1 -,FALSE,58:54.1,16.481,0.157,236.8,292.822052,106.5785141,84.95825195,0,20,51,0,-20
32,100,90,60,moving_belt,red,FALSE,TRUE,joint 1 -,FALSE,58:55.6,16.405,0.157,236.8,292.822052,106.5785141,84.95825195,0,20,51,0,-20
32,100,90,60,moving_belt,red,FALSE,TRUE,joint 1 -,FALSE,58:56.3,16.405,0.156,236.8,292.822052,106.5785141,84.95825195,0,20,51,0,-20
32,100,90,60,go_to_pick_down,red,TRUE,FALSE,joint 3 +,FALSE,58:57.7,16.595,0.156,236.8,290.4957886,105.7318268,58.09395599,0,20,51,11.37239933,-20
32,100,90,60,go_to_pick_up_from_pick_down,red,TRUE,FALSE,joint 3 -,TRUE,58:58.4,16.272,0.156,236.8,289.2503662,105.2785263,51.74647141,0,20,51,12.27999878,-20
32,100,90,60,go_to_color_detect_up_from_pick_up,red,TRUE,FALSE,joint 1 +,TRUE,58:59.1,23.317,0.155,236.8,283.7680359,128.7611237,84.95825195,4.406400681,24.957201,51,0,-20
32,100,90,60,go_to_color_detect_up_from_pick_up,red,TRUE,FALSE,joint 1 +,TRUE,59:00.1,23.317,0.155,236.8,139.6929779,278.5491028,84.95825195,43.36613846,63.67509079,51,0,-20
32,100,90,60,go_to_color_detect_down,red,TRUE,FALSE,joint 3 +,TRUE,59:01.6,22.367,0.202,236.8,126.849411,272.0294189,28.04738998,45,65,51,24.00839806,-20
32,100,90,60,go_to_color_detect_up_from_color_detect_down,red,TRUE,FALSE,joint 3 -,FALSE,59:02.3,21.912,0.202,236.8,113.1341171,242.6168823,-19.84064484,45,65,51,45.05160141,-20
32,100,90,60,go_to_color_detect_up_from_color_detect_down,red,TRUE,FALSE,joint 3 -,FALSE,59:03.7,21.969,0.194,236.8,131.5106659,282.0255127,73.67076111,45,65,51,3.886074066,-20
32,100,90,60,detecting_color,red,FALSE,FALSE,detecting_color,FALSE,59:04.4,17.165,0.194,236.8,131.6940765,282.4188232,84.95825195,45,65,51,0,-20
32,100,90,60,detecting_color,red,FALSE,FALSE,detecting_color,FALSE,59:05.1,16.234,0.154,236.8,131.6940765,282.4188232,84.95825195,45,65,51,0,-20
32,100,90,60,go_to_color_detect_down,red,TRUE,FALSE,joint 3 +,FALSE,59:06.5,16.405,0.154,236.8,131.6862793,282.4021301,82.63080597,45,65,51,1.166399956,-20
32,100,90,60,go_to_color_detect_down,red,TRUE,FALSE,joint 3 +,FALSE,59:07.2,16.405,0.154,236.8,114.1721954,244.8430481,-17.36656952,45,65,51,44.59926987,-20
32,100,90,60,go_to_color_detect_up_from_color_detect_down,red,TRUE,FALSE,joint 3 -,TRUE,59:08.6,16.348,0.154,236.8,121.710434,261.0088501,5.038383484,45,65,51,31.92959785,-20
32,100,90,60,go_to_green_up,green,TRUE,FALSE,joint 1 +,TRUE,59:09.3,21.608,0.205,236.8,131.6940765,282.4188232,84.95825195,45,65,51,0,-20
32,100,90,60,go_to_green_up,green,TRUE,FALSE,joint 1 +,TRUE,59:10.7,22.045,0.205,236.8,-53.48498917,306.9903564,84.95825195,79.88308716,100.4427261,51,0,-20
32,100,90,60,go_to_pick_up_from_green,green,TRUE,FALSE,joint 1 -,FALSE,59:11.4,22.045,0.205,236.8,-19.71628571,310.9903564,84.95825195,73.62760162,92.75279999,51,0,-20
32,100,90,60,go_to_pick_up_from_green,green,TRUE,FALSE,joint 1 -,FALSE,59:12.1,22.121,0.192,236.8,262.3816528,168.1059113,84.95825195,12.64736938,31.75833321,51,0,-20
32,100,90,60,moving_belt,green,FALSE,TRUE,joint 1 -,FALSE,59:13.5,16.386,0.192,236.8,292.822052,106.5785141,84.95825195,0,20,51,0,-20
32,100,90,60,moving_belt,green,FALSE,TRUE,joint 1 -,FALSE,59:14.2,16.462,0.154,236.8,292.822052,106.5785141,84.95825195,0,20,51,0,-20
32,100,90,60,moving_belt,green,FALSE,TRUE,joint 1 -,FALSE,59:15.5,16.424,0.154,236.8,292.822052,106.5785141,84.95825195,0,20,51,0,-20
32,100,90,60,moving_belt,green,FALSE,TRUE,joint 1 -,FALSE,59:16.2,16.424,0.155,236.8,292.822052,106.5785141,84.95825195,0,20,51,0,-20
32,100,90,60,go_to_pick_down,green,TRUE,FALSE,joint 3 +,FALSE,59:17.6,16.31,0.155,236.8,292.822052,106.5785141,84.95825195,0,20,51,0,-20
32,100,90,60,go_to_pick_down,green,TRUE,FALSE,joint 3 +,FALSE,59:18.3,16.31,0.155,236.8,283.3921509,103.1463089,31.57646942,0,20,51,21.49139404,-20
32,100,90,60,go_to_pick_up_from_pick_down,green,TRUE,FALSE,joint 3 -,TRUE,59:19.7,23.374,0.155,236.8,292.8035889,106.5717926,82.55358887,0,20,51,0.706751704,-20
32,100,90,60,go_to_color_detect_up_from_pick_up,green,TRUE,FALSE,joint 1 +,TRUE,59:20.5,23.374,0.202,236.8,228.7252655,211.6328888,84.95825195,22.77719498,43.96094894,51,0,-20
32,100,90,60,go_to_color_detect_down,green,TRUE,FALSE,joint 3 +,TRUE,59:21.2,22.196,0.202,236.8,131.6118317,282.2424927,77.39707184,45,65,51,3.401999712,-20
32,100,90,60,go_to_color_detect_down,green,TRUE,FALSE,joint 3 +,TRUE,59:22.6,22.026,0.199,236.8,114.1721954,244.8430481,-17.36656952,45,65,51,44.59926987,-20
32,100,90,60,go_to_color_detect_up_from_color_detect_down,green,TRUE,FALSE,joint 3 -,FALSE,59:23.3,22.026,0.199,236.8,121.710434,261.0088501,5.038383484,45,65,51,31.92959785,-20
32,100,90,60,detecting_color,green,FALSE,FALSE,detecting_color,FALSE,59:24.7,17.336,0.162,236.8,131.6940765,282.4188232,84.95825195,45,65,51,0,-20
32,100,90,60,detecting_color,green,FALSE,FALSE,detecting_color,FALSE,59:25.4,17.336,0.162,236.8,131.6940765,282.4188232,84.95825195,45,65,51,0,-20
32,100,90,60,go_to_color_detect_down,green,TRUE,FALSE,joint 3 +,FALSE,59:26.1,16.253,0.162,236.8,131.6918335,282.4140625,83.71137238,45,65,51,0.680400014,-20
32,100,90,60,go_to_color_detect_down,green,TRUE,FALSE,joint 3 +,FALSE,59:27.5,16.234,0.155,236.8,117.8051147,252.6338654,-7.680778503,45,65,51,39.80924606,-20
32,100,90,60,go_to_color_detect_up_from_color_detect_down,green,TRUE,FALSE,joint 3 -,TRUE,59:27.5,16.234,0.155,236.8,119.986351,257.311554,-0.932289124,45,65,51,34.84560013,-20
32,100,90,60,go_to_blue_up,blue,TRUE,FALSE,joint 1 +,TRUE,59:29.7,23.26,0.206,236.8,131.6940765,282.4188232,84.93830109,45,65,51,0,-20
32,100,90,60,go_to_blue_up,blue,TRUE,FALSE,joint 1 +,TRUE,59:30.4,22.064,0.206,236.8,29.52375412,310.2129517,84.95825195,64.56338501,84.71535492,51,0,-20
32,100,90,60,go_to_pick_up_from_blue,blue,TRUE,FALSE,joint 1 -,FALSE,59:31.1,21.969,0.199,236.8,194.0715942,243.8030853,84.95825195,31.47958374,50.06756973,51,0,-20
32,100,90,60,moving_belt,blue,FALSE,TRUE,joint 1 -,FALSE,59:32.5,16.519,0.199,236.8,292.822052,106.5785141,84.95825195,0,20,51,0,-20
32,100,90,60,moving_belt,blue,FALSE,TRUE,joint 1 -,FALSE,59:33.2,16.519,0.155,236.8,292.822052,106.5785141,84.95825195,0,20,51,0,-20
32,100,90,60,moving_belt,blue,FALSE,TRUE,joint 1 -,FALSE,59:34.6,16.709,0.155,236.8,292.822052,106.5785141,84.95825195,0,20,51,0,-20
32,100,90,60,moving_belt,blue,FALSE,TRUE,joint 1 -,FALSE,59:35.3,16.215,0.155,236.8,292.822052,106.5785141,84.95825195,0,20,51,0,-20
32,100,90,60,moving_belt,blue,FALSE,TRUE,joint 1 -,FALSE,59:36.7,16.576,0.156,236.8,292.822052,106.5785141,84.95825195,0,20,51,0,-20
32,100,90,60,go_to_pick_down,blue,TRUE,FALSE,joint 3 +,FALSE,59:37.4,16.386,0.156,236.8,288.0418396,104.8386612,46.62161255,0,20,51,15.76889896,-20
32,100,90,60,go_to_pick_up_from_pick_down,blue,TRUE,FALSE,joint 3 -,TRUE,59:38.2,16.386,0.156,236.8,289.661499,105.4281693,53.6929245,0,20,51,11.46999836,-20
32,100,90,60,go_to_color_detect_up_from_pick_up,blue,TRUE,FALSE,joint 1 +,TRUE,59:39.6,23.051,0.156,236.8,281.1641846,134.3518982,84.95825195,5.540401459,26.15600204,51,0,-20
32,100,90,60,go_to_color_detect_up_from_pick_up,blue,TRUE,FALSE,joint 1 +,TRUE,59:40.3,22.424,0.202,236.8,136.8392181,279.9620667,84.95825195,43.9516449,64.19580078,51,0,-20
32,100,90,60,go_to_color_detect_down,blue,TRUE,FALSE,joint 3 +,TRUE,59:41.7,22.234,0.202,236.8,124.042923,266.0108948,14.28392792,45,65,51,29.83716202,-20
32,100,90,60,go_to_color_detect_up_from_color_detect_down,blue,TRUE,FALSE,joint 3 -,FALSE,59:42.7,22.177,0.199,236.8,112.300087,240.8283081,-21.74593353,45,65,51,46.21800232,-20
32,100,90,60,go_to_color_detect_up_from_color_detect_down,blue,TRUE,FALSE,joint 3 -,FALSE,59:43.4,18.855,0.199,236.8,131.3363647,281.6517334,69.20609283,45,65,51,5.536533833,-20
32,100,90,60,detecting_color,blue,FALSE,FALSE,detecting_color,FALSE,59:43.4,18.855,0.199,236.8,131.6940765,282.4188232,84.95825195,45,65,51,0,-20
32,100,90,60,go_to_color_detect_down,blue,TRUE,FALSE,joint 3 +,FALSE,59:45.7,16.386,0.162,236.8,131.6811981,282.3912354,81.96590424,45,65,51,1.457999945,-20
32,100,90,60,go_to_color_detect_down,blue,TRUE,FALSE,joint 3 +,FALSE,59:46.4,16.386,0.155,236.8,113.8042755,244.0540314,-18.25691223,45,65,51,45.05222321,-20
32,100,90,60,go_to_color_detect_up_from_color_detect_down,blue,TRUE,FALSE,joint 3 -,TRUE,59:47.7,16.424,0.155,236.8,121.710434,261.0088501,5.038383484,45,65,51,31.92959785,-20
32,100,90,60,go_to_red_up,red,TRUE,FALSE,joint 1 +,TRUE,59:48.4,23.127,0.21,236.8,131.6940765,282.4188232,84.95825195,45,65,51,0,-20
32,100,90,60,go_to_red_up,red,TRUE,FALSE,joint 1 +,TRUE,59:49.1,23.051,0.21,236.8,-95.37246704,296.6611328,84.95825195,87.82188416,108.8608322,51,0,-20
32,100,90,60,go_to_pick_up_from_red,red,TRUE,FALSE,joint 1 -,FALSE,59:50.5,22.576,0.204,236.8,-167.3057098,262.8926086,84.95825195,102.4728012,122.0515976,51,0,-20
32,100,90,60,go_to_pick_up_from_red,red,TRUE,FALSE,joint 1 -,FALSE,59:51.5,22.576,0.204,236.8,126.1706009,284.9293213,84.95825195,46.11558533,64.4030838,51,0,-20
32,100,90,60,go_to_pick_up_from_red,red,TRUE,FALSE,joint 1 -,FALSE,59:52.2,16.424,0.204,236.8,292.822052,106.5785141,84.95825195,0,20,51,0,-20
32,100,90,60,moving_belt,red,FALSE,TRUE,joint 1 -,FALSE,59:53.6,16.462,0.156,236.8,292.822052,106.5785141,84.95825195,0,20,51,0,-20
32,100,90,60,moving_belt,red,FALSE,TRUE,joint 1 -,FALSE,59:54.3,16.481,0.156,236.8,292.822052,106.5785141,84.95825195,0,20,51,0,-20
32,100,90,60,moving_belt,red,FALSE,TRUE,joint 1 -,FALSE,59:55.7,16.405,0.155,236.8,292.822052,106.5785141,84.95825195,0,20,51,0,-20
32,100,90,60,moving_belt,red,FALSE,TRUE,joint 1 -,FALSE,59:56.4,16.405,0.155,236.8,292.822052,106.5785141,84.95825195,0,20,51,0,-20
32,100,90,60,go_to_pick_down,red,TRUE,FALSE,joint 3 +,FALSE,59:57.1,16.177,0.155,236.8,291.4107666,106.0648499,63.998909,0,20,51,8.942399025,-20
32,100,90,60,go_to_pick_up_from_pick_down,red,TRUE,FALSE,joint 3 -,TRUE,59:58.5,16.367,0.155,236.8,285.9775696,104.087326,39.259552,0,20,51,17.59359932,-20
32,100,90,60,go_to_color_detect_up_from_pick_up,red,TRUE,FALSE,joint 1 +,TRUE,59:59.2,20.184,0.155,236.8,286.9523926,121.4991989,84.95825195,2.948400497,23.40200043,51,0,-20
32,100,90,60,go_to_color_detect_up_from_pick_up,red,TRUE,FALSE,joint 1 +,TRUE,00:00.6,22.937,0.21,236.8,145.1169891,275.762207,84.95825195,42.24487686,62.65103149,51,0,-20
32,100,90,60,go_to_color_detect_down,red,TRUE,FALSE,joint 3 +,TRUE,00:01.3,22.709,0.21,236.8,128.5940857,275.770874,39.10253906,45,65,51,19.27799988,-20
32,100,90,60,go_to_color_detect_up_from_color_detect_down,red,TRUE,FALSE,joint 3 -,FALSE,00:02.7,22.348,0.202,236.8,112.0700226,240.3349304,-22.25914001,45,65,51,46.54200363,-20
32,100,90,60,go_to_color_detect_up_from_color_detect_down,red,TRUE,FALSE,joint 3 -,FALSE,00:03.3,22.348,0.202,236.8,131.2572021,281.4819641,67.55582428,45,65,51,6.151486874,-20
32,100,90,60,detecting_color,red,FALSE,FALSE,detecting_color,FALSE,00:04.7,16.576,0.16,236.8,131.6940765,282.4188232,84.95825195,45,65,51,0,-20
32,100,90,60,detecting_color,red,FALSE,FALSE,detecting_color,FALSE,00:05.4,16.576,0.16,236.8,131.6940765,282.4188232,84.95825195,45,65,51,0,-20
32,100,90,60,detecting_color,red,FALSE,FALSE,detecting_color,FALSE,00:06.1,16.595,0.155,236.8,131.6940765,282.4188232,84.95825195,45,65,51,0,-20
32,100,90,60,detecting_color,red,FALSE,FALSE,detecting_color,FALSE,00:07.5,16.405,0.155,236.8,131.6940765,282.4188232,84.95825195,45,65,51,0,-20
32,100,90,60,detecting_color,red,FALSE,FALSE,detecting_color,FALSE,00:08.2,16.405,0.155,236.8,131.6940765,282.4188232,84.95825195,45,65,51,0,-20
32,100,90,60,detecting_color,red,FALSE,FALSE,detecting_color,FALSE,00:09.6,16.462,0.155,236.8,131.6940765,282.4188232,84.95825195,45,65,51,0,-20
32,100,90,60,go_to_color_detect_down,red,TRUE,FALSE,joint 3 +,FALSE,00:10.3,16.462,0.155,236.8,130.6478577,280.1752319,58.09395599,45,65,51,11.37239933,-20
32,100,90,60,go_to_color_detect_up_from_color_detect_down,red,TRUE,FALSE,joint 3 -,TRUE,00:11.7,16.272,0.155,236.8,111.1388397,238.3379974,-24.28404236,45,65,51,48,-20
32,100,90,60,go_to_color_detect_up_from_color_detect_down,red,TRUE,FALSE,joint 3 -,TRUE,00:12.4,17.563,0.155,236.8,129.8268585,278.4145813,49.18910217,45,65,51,13.14406586,-20
