demetriskallis/dobot_magician_pick_and_place_and_color_sorting/Sampling/WholeSystemExperiments_training_data/payload_32g/joint_measurements__armv_100_arma_70_belts_60_cube_32g.csv
cube/weight,arm/velocity_ratio,arm/acceleration_ratio,belt/speed,dobot/operation,dobot/color,dobot/moving_arm,dobot/moving_belt,dobot/operation2,dobot/suction,meross/sample_timestamp,meross/power,meross/current,meross/voltage,dobot/pose_x,dobot/pose_y,dobot/pose_z,dobot/pose_rHead,dobot/pose_joint1Angle,dobot/pose_joint2Angle,dobot/pose_joint3Angle,dobot/pose_joint4Angle
32,100,70,60,homing,,,,homing,,,,,,168.6437073,60.46147919,83.22057343,-0.276426315,19.32357407,-7.920176506,20.0890789,-20
32,100,70,60,homing,,,,homing,,,,,,179.1468811,1.637135386,83.22057343,-19.47641754,0.123583436,-7.920176506,20.0890789,-20
32,100,70,60,homing,,,,homing,,,,,,169.7205048,-57.36934662,83.22057343,-38.67640686,-19.07640839,-7.920176506,20.0890789,-20
32,100,70,60,homing,,,,homing,,22:57.3,16.576,0.154,236.8,136.6830139,-115.8190002,83.22057343,-60.27642822,-40.67642975,-7.920176506,20.0890789,-20
32,100,70,60,homing,,,,homing,,22:57.9,16.367,0.154,236.8,92.06619263,-153.6883392,83.22057343,-79.07649994,-59.47650146,-7.920176506,20.0890789,-20
32,100,70,60,homing,,,,homing,,22:59.1,16.386,0.158,236.8,36.40194702,-175.4171906,83.22057343,-98.27657318,-78.67657471,-7.920176506,20.0890789,-20
32,100,70,60,homing,,,,homing,,22:59.8,16.386,0.158,236.8,-30.72995567,-176.499176,83.22057343,-119.8766556,-100.2766571,-7.920176506,20.0890789,-20
32,100,70,60,homing,,,,homing,,23:01.2,16.481,0.157,236.8,-87.06555176,-156.57547,83.22057343,-139.0767212,-119.4767303,-7.920176506,20.0890789,-20
32,100,70,60,homing,,,,homing,,23:01.9,16.481,0.157,236.8,-129.903595,-123.3748245,83.22057343,-156.476593,-136.4565887,-7.920176506,20.0890789,-20
32,100,70,60,homing,,,,homing,,23:03.3,16.462,0.156,236.8,-127.8178482,-125.5344086,83.22057343,-155.5163879,-135.4963837,-7.920176506,20.0890789,-20
32,100,70,60,homing,,,,homing,,23:04.0,16.405,0.156,236.8,-111.8044815,-143.5524139,81.78218842,-147.2838898,-127.4929123,-6.333917141,20.9168644,-19.33398056
32,100,70,60,homing,,,,homing,,23:04.7,16.405,0.156,236.8,-23.8770237,-195.7910156,72.2530365,-112.8130798,-96.35297394,2.163898945,25.35142708,-15.76602077
32,100,70,60,homing,,,,homing,,23:05.9,16.538,0.158,236.8,81.89517212,-204.266922,51.45285034,-78.30442047,-67.55304718,15.88126087,32.50979614,-10.00654221
32,100,70,60,homing,,,,homing,,23:06.7,16.88,0.158,236.8,185.019577,-151.7234192,24.02110291,-43.69094467,-38.75312042,29.60928154,39.67372894,-4.242587566
32,100,70,60,homing,,,,homing,,23:07.9,16.709,0.158,236.8,245.6899872,-36.61529541,4.327194214,-9.223384857,-8.03137207,38.02821732,44.06712723,-0.70774591
32,100,70,60,homing,,,,homing,,23:09.3,16.69,0.158,236.8,252.6313324,-0.706219316,-0.216743469,-0.160167307,-0.134158358,40.43600082,44.44524002,0
32,100,70,60,homing,,,,homing,,23:10.0,16.386,0.156,236.8,249.9999847,0,-7.63E-06,0,0,39.71385956,44.94676971,0
32,100,70,60,homing,,,,homing,,23:11.3,16.386,0.156,236.8,249.9999847,0,-7.63E-06,0,0,39.71385956,44.94676971,0
32,100,70,60,homing,,,,homing,,23:12.0,16.386,0.156,236.8,249.9999847,0.00017966,-7.63E-06,4.12E-05,4.12E-05,39.71385956,44.94676971,0
32,100,70,60,homing,,,,homing,,23:12.7,16.31,0.156,236.8,249.9999847,0.00017966,-7.63E-06,4.12E-05,4.12E-05,39.71385956,44.94676971,0
32,100,70,60,homing,,,,homing,,23:14.1,16.424,0.155,236.8,249.9999847,0.00017966,-7.63E-06,4.12E-05,4.12E-05,39.71385956,44.94676971,0
32,100,70,60,homing,,,,homing,,23:14.8,16.405,0.155,236.8,249.9999847,0.00017966,-7.63E-06,4.12E-05,4.12E-05,39.71385956,44.94676971,0
32,100,70,60,homing,,,,homing,,23:15.5,16.405,0.155,236.8,249.9999847,0.00017966,-7.63E-06,4.12E-05,4.12E-05,39.71385956,44.94676971,0
32,100,70,60,homing,,,,homing,,23:16.7,16.063,0.155,236.8,249.9999847,0.00017966,-7.63E-06,4.12E-05,4.12E-05,39.71385956,44.94676971,0
32,100,70,60,homing,,,,homing,,23:18.1,16.329,0.154,236.8,249.9999847,0.00017966,-7.63E-06,4.12E-05,4.12E-05,39.71385956,44.94676971,0
32,100,70,60,homing,,,,homing,,23:18.8,16.31,0.154,236.8,251.7523041,7.094484329,4.355331421,4.11E-05,1.802525282,38.90820313,42.95409393,-1.802484155
32,100,70,60,homing,,,,homing,,23:20.2,16.5,0.154,236.8,270.3509521,83.82080841,52.87226868,4.20E-05,17.45951843,39.544487,20.05174255,-17.45947647
32,100,70,60,go_to_pick_up_from_homing,nothing,,,go_to_pick_up_from_homing,,23:20.9,16.956,0.161,236.8,281.4014893,104.4966278,71.13090515,2.86E-05,20.35604858,45.28174591,9.099481583,-20.35602188
32,100,70,60,moving_belt,nothing,FALSE,TRUE,go_to_pick_up_from_homing,,23:22.3,16.766,0.161,236.8,292.822052,106.5785141,84.95825195,0,20,51,-2.33E-10,-20
32,100,70,60,moving_belt,nothing,FALSE,TRUE,go_to_pick_up_from_homing,,23:23.0,16.766,0.159,236.8,292.822052,106.5785141,84.95825195,0,20,51,-2.33E-10,-20
32,100,70,60,moving_belt,nothing,FALSE,TRUE,go_to_pick_up_from_homing,,23:23.9,16.652,0.159,236.8,292.822052,106.5785141,84.95825195,0,20,51,-2.33E-10,-20
32,100,70,60,moving_belt,nothing,FALSE,TRUE,go_to_pick_up_from_homing,,23:25.3,16.481,0.158,236.8,292.822052,106.5785141,84.95825195,0,20,51,-2.33E-10,-20
32,100,70,60,moving_belt,nothing,FALSE,TRUE,go_to_pick_up_from_homing,,23:26.0,16.557,0.158,236.8,292.822052,106.5785141,84.95825195,0,20,51,-2.33E-10,-20
32,100,70,60,go_to_pick_down,nothing,TRUE,FALSE,joint 3 +,,23:26.7,16.557,0.158,236.8,287.3960876,104.6036301,44.16279984,0,20,51,16.58276749,-20
32,100,70,60,go_to_pick_up_from_pick_down,nothing,TRUE,FALSE,joint 3 -,TRUE,23:28.1,16.633,0.153,236.8,286.1473999,104.149147,39.81588745,0,20,51,17.47240067,-20
32,100,70,60,go_to_color_detect_up_from_pick_up,nothing,TRUE,FALSE,joint 1 +,TRUE,23:28.8,16.652,0.153,236.8,292.4557495,107.5795822,84.95825195,0.195999146,20.29399872,51,0,-20
32,100,70,60,go_to_color_detect_up_from_pick_up,nothing,TRUE,FALSE,joint 1 +,TRUE,23:30.2,22.158,0.203,236.8,214.1054535,226.4124298,84.95825195,26.60028076,47.43977737,51,0,-20
32,100,70,60,go_to_color_detect_down,nothing,TRUE,FALSE,joint 3 +,TRUE,23:30.9,22.14,0.203,236.8,131.6939392,282.4185486,84.65653229,45,65,51,0.19600001,-20
32,100,70,60,go_to_color_detect_down,nothing,TRUE,FALSE,joint 3 +,TRUE,23:32.3,22.064,0.198,236.8,122.7420502,263.2211609,8.939178467,45,65,51,31.94346809,-20
32,100,70,60,go_to_color_detect_up_from_color_detect_down,nothing,TRUE,FALSE,joint 3 -,FALSE,23:33.1,21.893,0.198,236.8,111.2335205,238.5410461,-24.08192444,45,65,51,47.80400085,-20
32,100,70,60,go_to_color_detect_up_from_color_detect_down,nothing,TRUE,FALSE,joint 3 -,FALSE,23:34.1,20.582,0.19,236.8,127.1338272,272.6393433,29.67750931,45,65,51,21.16911316,-20
32,100,70,60,detecting_color,nothing,FALSE,FALSE,detecting_color,FALSE,23:34.8,20.582,0.19,236.8,131.6940765,282.4188232,84.95825195,45,65,51,0,-20
32,100,70,60,detecting_color,nothing,FALSE,FALSE,detecting_color,FALSE,23:36.2,16.291,0.155,236.8,131.6940765,282.4188232,84.95825195,45,65,51,0,-20
32,100,70,60,go_to_color_detect_down,nothing,TRUE,FALSE,joint 3 +,FALSE,23:36.9,16.291,0.155,236.8,131.2467804,281.4596252,67.35009766,45,65,51,7.408800602,-20
32,100,70,60,go_to_color_detect_down,nothing,TRUE,FALSE,joint 3 +,FALSE,23:38.3,16.367,0.154,236.8,113.7634888,243.9665833,-18.35470581,45,65,51,45.00511932,-20
32,100,70,60,go_to_color_detect_up_from_color_detect_down,nothing,TRUE,FALSE,joint 3 -,TRUE,23:39.0,16.234,0.154,236.8,116.3696747,249.5555573,-11.71537781,45,65,51,40.59121323,-20
32,100,70,60,go_to_color_detect_up_from_color_detect_down,nothing,TRUE,FALSE,joint 3 -,TRUE,23:40.3,23.184,0.207,236.8,131.588089,282.1915588,76.3754425,45,65,51,2.994903564,-20
32,100,70,60,go_to_red_up,red,TRUE,FALSE,joint 1 +,TRUE,23:41.0,22.709,0.207,236.8,94.17745972,297.0426636,84.95825195,52.4087677,72.95756531,51,0,-20
32,100,70,60,go_to_red_up,red,TRUE,FALSE,joint 1 +,TRUE,23:41.7,21.855,0.207,236.8,-121.1834183,287.085907,84.95825195,92.88535309,113.564621,51,0,-20
32,100,70,60,go_to_pick_up_from_red,red,TRUE,FALSE,joint 1 -,FALSE,23:43.1,22.291,0.202,236.8,-166.6702881,263.2958984,84.95825195,102.3344116,122.0012131,51,0,-20
32,100,70,60,go_to_pick_up_from_red,red,TRUE,FALSE,joint 1 -,FALSE,23:43.9,22.121,0.202,236.8,31.31738472,310.0370178,84.95825195,64.23201752,82.95801544,51,0,-20
32,100,70,60,go_to_pick_up_from_red,red,TRUE,FALSE,joint 1 -,FALSE,23:45.3,16.12,0.154,236.8,266.394928,161.6708832,84.95825195,11.25290298,30.59855652,51,0,-20
32,100,70,60,moving_belt,red,FALSE,TRUE,joint 1 -,FALSE,23:46.0,16.082,0.154,236.8,292.822052,106.5785141,84.95825195,0,20,51,0,-20
32,100,70,60,moving_belt,red,FALSE,TRUE,joint 1 -,FALSE,23:46.7,16.082,0.156,236.8,292.822052,106.5785141,84.95825195,0,20,51,0,-20
32,100,70,60,moving_belt,red,FALSE,TRUE,joint 1 -,FALSE,23:48.1,16.747,0.156,236.8,292.822052,106.5785141,84.95825195,0,20,51,0,-20
32,100,70,60,moving_belt,red,FALSE,TRUE,joint 1 -,FALSE,23:48.8,16.31,0.156,236.8,292.822052,106.5785141,84.95825195,0,20,51,0,-20
32,100,70,60,moving_belt,red,FALSE,TRUE,joint 1 -,FALSE,23:50.2,16.652,0.156,236.8,292.822052,106.5785141,84.95825195,0,20,51,0,-20
32,100,70,60,go_to_pick_down,red,TRUE,FALSE,joint 3 +,FALSE,23:50.8,16.557,0.156,236.8,288.3718567,104.9587708,47.9460144,0,20,51,15.11241817,-20
32,100,70,60,go_to_pick_up_from_pick_down,red,TRUE,FALSE,joint 3 -,TRUE,23:52.2,16.348,0.156,236.8,286.7571411,104.3710709,41.87853622,0,20,51,16.5904007,-20
32,100,70,60,go_to_color_detect_up_from_pick_up,red,TRUE,FALSE,joint 1 +,TRUE,23:52.9,23.564,0.156,236.8,292.822052,106.5785141,84.95825195,0,20.01959991,51,0,-20
32,100,70,60,go_to_color_detect_up_from_pick_up,red,TRUE,FALSE,joint 1 +,TRUE,23:54.4,23.184,0.209,236.8,227.7287903,212.7048187,84.95825195,23.04629517,43.96419144,51,0,-20
32,100,70,60,go_to_color_detect_down,red,TRUE,FALSE,joint 3 +,TRUE,23:55.1,23.222,0.209,236.8,131.6937103,282.4180603,84.45539093,45,65,51,0.294,-20
32,100,70,60,go_to_color_detect_down,red,TRUE,FALSE,joint 3 +,TRUE,23:55.8,23.032,0.204,236.8,125.8872528,269.9660645,22.90337372,45,65,51,25.91019249,-20
32,100,70,60,go_to_color_detect_up_from_color_detect_down,red,TRUE,FALSE,joint 3 -,FALSE,23:57.2,22.861,0.204,236.8,111.2335205,238.5410461,-24.08192444,45,65,51,47.80400085,-20
32,100,70,60,go_to_color_detect_up_from_color_detect_down,red,TRUE,FALSE,joint 3 -,FALSE,23:57.8,23.013,0.204,236.8,127.1338272,272.6393433,29.67750931,45,65,51,21.16911316,-20
32,100,70,60,detecting_color,red,FALSE,FALSE,detecting_color,FALSE,23:59.3,16.899,0.204,236.8,131.6940765,282.4188232,84.95825195,45,65,51,0,-20
32,100,70,60,detecting_color,red,FALSE,FALSE,detecting_color,FALSE,24:00.0,16.823,0.157,236.8,131.6940765,282.4188232,84.95825195,45,65,51,0,-20
32,100,70,60,detecting_color,red,FALSE,FALSE,detecting_color,FALSE,24:01.4,16.443,0.157,236.8,131.6940765,282.4188232,84.95825195,45,65,51,0,-20
32,100,70,60,detecting_color,red,FALSE,FALSE,detecting_color,FALSE,24:02.1,16.481,0.156,236.8,131.6940765,282.4188232,84.95825195,45,65,51,0,-20
32,100,70,60,go_to_color_detect_down,red,TRUE,FALSE,joint 3 +,FALSE,24:02.8,16.481,0.156,236.8,131.4173889,281.82547,71.09980774,45,65,51,5.880000114,-20
32,100,70,60,go_to_color_detect_down,red,TRUE,FALSE,joint 3 +,FALSE,24:04.1,16.443,0.156,236.8,114.6491623,245.8659058,-16.18952179,45,65,51,43.88942337,-20
32,100,70,60,go_to_color_detect_up_from_color_detect_down,red,TRUE,FALSE,joint 3 -,TRUE,24:04.8,16.386,0.156,236.8,116.0044479,248.7723236,-12.6964798,45,65,51,41.12041473,-20
32,100,70,60,go_to_color_detect_up_from_color_detect_down,red,TRUE,FALSE,joint 3 -,TRUE,24:06.2,22.234,0.21,236.8,131.3114777,281.5983582,68.66900635,45,65,51,5.872581959,-20
32,100,70,60,go_to_green_up,green,TRUE,FALSE,joint 1 +,TRUE,24:06.9,23.716,0.21,236.8,99.54719543,295.2864685,84.95825195,51.36997223,71.87957001,51,0,-20
32,100,70,60,go_to_green_up,green,TRUE,FALSE,joint 1 +,TRUE,24:08.4,23.298,0.207,236.8,-65.94143677,304.5578003,84.95825195,82.21683502,102.5373077,51,0,-20
32,100,70,60,go_to_pick_up_from_green,green,TRUE,FALSE,joint 1 -,FALSE,24:09.1,22.861,0.207,236.8,-41.16576767,308.883667,84.95825195,77.5912323,97.04243469,51,0,-20
32,100,70,60,go_to_pick_up_from_green,green,TRUE,FALSE,joint 1 -,FALSE,24:09.8,22.861,0.207,236.8,221.4800415,219.2038422,84.95825195,24.7040596,43.72978592,51,0,-20
32,100,70,60,moving_belt,green,FALSE,TRUE,joint 1 -,FALSE,24:11.1,16.367,0.155,236.8,292.7330933,106.82267,84.95825195,0.047780991,20.01430893,51,0,-20
32,100,70,60,moving_belt,green,FALSE,TRUE,joint 1 -,FALSE,24:11.8,16.253,0.155,236.8,292.822052,106.5785141,84.95825195,0,20,51,0,-20
32,100,70,60,moving_belt,green,FALSE,TRUE,joint 1 -,FALSE,24:13.2,16.557,0.156,236.8,292.822052,106.5785141,84.95825195,0,20,51,0,-20
32,100,70,60,moving_belt,green,FALSE,TRUE,joint 1 -,FALSE,24:13.9,16.424,0.156,236.8,292.822052,106.5785141,84.95825195,0,20,51,0,-20
32,100,70,60,moving_belt,green,FALSE,TRUE,joint 1 -,FALSE,24:15.3,16.386,0.154,236.8,292.822052,106.5785141,84.95825195,0,20,51,0,-20
32,100,70,60,go_to_pick_down,green,TRUE,FALSE,joint 3 +,FALSE,24:16.0,16.386,0.154,236.8,292.0952759,106.3139954,69.89878845,0,20,51,6.370000362,-20
32,100,70,60,go_to_pick_up_from_pick_down,green,TRUE,FALSE,joint 3 -,TRUE,24:17.3,16.538,0.155,236.8,282.8166504,102.9368439,30.03098679,0,20,51,21.88240051,-20
32,100,70,60,go_to_pick_up_from_pick_down,green,TRUE,FALSE,joint 3 -,TRUE,24:18.0,16.937,0.155,236.8,292.6718445,106.5238419,78.10428619,0,20,51,2.35870409,-20
32,100,70,60,go_to_color_detect_up_from_pick_up,green,TRUE,FALSE,joint 1 +,TRUE,24:18.7,22.823,0.155,236.8,265.2338257,163.5688019,84.95825195,11.66199493,32.34799576,51,0,-20
32,100,70,60,go_to_color_detect_up_from_pick_up,green,TRUE,FALSE,joint 1 +,TRUE,24:20.1,22.102,0.198,236.8,140.2125702,278.2879028,84.95825195,43.25920868,63.51070404,51,0,-20
32,100,70,60,go_to_color_detect_down,green,TRUE,FALSE,joint 3 +,TRUE,24:20.8,22.14,0.198,236.8,130.6834564,280.2515564,58.55114365,45,65,51,10.99560165,-20
32,100,70,60,go_to_color_detect_down,green,TRUE,FALSE,joint 3 +,TRUE,24:22.4,21.988,0.196,236.8,112.3546829,240.9453735,-21.62337494,45,65,51,46.70729065,-20
32,100,70,60,go_to_color_detect_up_from_color_detect_down,green,TRUE,FALSE,joint 3 -,FALSE,24:23.1,21.988,0.196,236.8,119.1814499,255.5854187,-3.517578125,45,65,51,36.33800507,-20
32,100,70,60,go_to_color_detect_up_from_color_detect_down,green,TRUE,FALSE,joint 3 -,FALSE,24:23.8,20.507,0.196,236.8,131.6092224,282.2368774,77.27792358,45,65,51,2.66220665,-20
32,100,70,60,detecting_color,green,FALSE,FALSE,detecting_color,FALSE,24:25.1,17.222,0.159,236.8,131.6940765,282.4188232,84.95825195,45,65,51,0,-20
32,100,70,60,detecting_color,green,FALSE,FALSE,detecting_color,FALSE,24:25.8,16.576,0.159,236.8,131.6940765,282.4188232,84.95825195,45,65,51,0,-20
32,100,70,60,detecting_color,green,FALSE,FALSE,detecting_color,FALSE,24:27.2,16.595,0.156,236.8,131.6940765,282.4188232,84.95825195,45,65,51,0,-20
32,100,70,60,go_to_color_detect_down,green,TRUE,FALSE,joint 3 +,FALSE,24:28.0,16.595,0.156,236.8,129.708847,278.161499,48.09376907,45,65,51,15.28800011,-20
32,100,70,60,go_to_color_detect_down,green,TRUE,FALSE,joint 3 +,FALSE,24:28.7,16.538,0.156,236.8,112.3546829,240.9453735,-21.62337494,45,65,51,46.70729065,-20
32,100,70,60,go_to_color_detect_up_from_color_detect_down,green,TRUE,FALSE,joint 3 -,TRUE,24:30.1,16.443,0.156,236.8,119.1814499,255.5854187,-3.517578125,45,65,51,36.33800507,-20
32,100,70,60,go_to_color_detect_up_from_color_detect_down,green,TRUE,FALSE,joint 3 -,TRUE,24:30.8,21.684,0.208,236.8,131.6782532,282.3849182,81.64188385,45,65,51,1.077625036,-20
32,100,70,60,go_to_blue_up,blue,TRUE,FALSE,joint 1 +,TRUE,24:32.2,22.253,0.208,236.8,72.54529572,303.0526428,84.95825195,56.53775787,77.10395813,51,0,-20
32,100,70,60,go_to_pick_up_from_blue,blue,TRUE,FALSE,joint 1 -,FALSE,24:32.9,22.253,0.198,236.8,39.87562943,309.0528564,84.95825195,62.64801025,82.33441162,51,0,-20
32,100,70,60,go_to_pick_up_from_blue,blue,TRUE,FALSE,joint 1 -,FALSE,24:34.3,16.329,0.198,236.8,237.13974,202.1595306,84.95825195,20.44729614,39.56186295,51,0,-20
32,100,70,60,moving_belt,blue,FALSE,TRUE,joint 1 -,FALSE,24:35.0,16.329,0.156,236.8,292.822052,106.5785141,84.95825195,0,20,51,0,-20
32,100,70,60,moving_belt,blue,FALSE,TRUE,joint 1 -,FALSE,24:36.3,16.481,0.156,236.8,292.822052,106.5785141,84.95825195,0,20,51,0,-20
32,100,70,60,moving_belt,blue,FALSE,TRUE,joint 1 -,FALSE,24:37.1,16.747,0.156,236.8,292.822052,106.5785141,84.95825195,0,20,51,0,-20
32,100,70,60,moving_belt,blue,FALSE,TRUE,joint 1 -,FALSE,24:37.8,16.747,0.156,236.8,292.822052,106.5785141,84.95825195,0,20,51,0,-20
32,100,70,60,moving_belt,blue,FALSE,TRUE,joint 1 -,FALSE,24:39.2,16.614,0.156,236.8,292.822052,106.5785141,84.95825195,0,20,51,0,-20
32,100,70,60,go_to_pick_down,blue,TRUE,FALSE,joint 3 +,FALSE,24:39.9,16.614,0.156,236.8,291.6688232,106.1587753,66.0029068,0,20,51,7.957600594,-20
32,100,70,60,go_to_pick_up_from_pick_down,blue,TRUE,FALSE,joint 3 -,TRUE,24:41.3,16.709,0.155,236.8,283.0274658,103.0135727,30.59116745,0,20,51,21.58840179,-20
32,100,70,60,go_to_pick_up_from_pick_down,blue,TRUE,FALSE,joint 3 -,TRUE,24:42.0,16.443,0.155,236.8,292.7546692,106.5539856,80.36633301,0,20,51,1.535154581,-20
32,100,70,60,go_to_color_detect_up_from_pick_up,blue,TRUE,FALSE,joint 1 +,TRUE,24:43.4,22.14,0.198,236.8,259.0111084,173.2540588,84.95825195,13.77879715,34.52359772,51,0,-20
32,100,70,60,go_to_color_detect_up_from_pick_up,blue,TRUE,FALSE,joint 1 +,TRUE,24:44.0,22.14,0.198,236.8,136.8233185,279.9698486,84.95825195,43.95489502,64.14759064,51,0,-20
32,100,70,60,go_to_color_detect_down,blue,TRUE,FALSE,joint 3 +,TRUE,24:44.7,22.5,0.198,236.8,129.495636,277.7042847,46.1986084,45,65,51,16.0720005,-20
32,100,70,60,go_to_color_detect_down,blue,TRUE,FALSE,joint 3 +,TRUE,24:46.1,22.083,0.197,236.8,112.1698151,240.5489197,-22.03717804,45,65,51,46.92238617,-20
32,100,70,60,go_to_color_detect_up_from_color_detect_down,blue,TRUE,FALSE,joint 3 -,FALSE,24:46.8,22.083,0.197,236.8,119.6129761,256.5108337,-2.146255493,45,65,51,35.65200424,-20
32,100,70,60,go_to_color_detect_up_from_color_detect_down,blue,TRUE,FALSE,joint 3 -,FALSE,24:48.2,17.07,0.158,236.8,131.6830902,282.3952637,82.1936264,45,65,51,0.882128119,-20
32,100,70,60,detecting_color,blue,FALSE,FALSE,detecting_color,FALSE,24:48.9,17.07,0.158,236.8,131.6940765,282.4188232,84.95825195,45,65,51,0,-20
32,100,70,60,go_to_color_detect_down,blue,TRUE,FALSE,joint 3 +,FALSE,24:50.3,16.557,0.156,236.8,131.6090088,282.2363892,77.26794434,45,65,51,3.35160017,-20
32,100,70,60,go_to_color_detect_down,blue,TRUE,FALSE,joint 3 +,FALSE,24:51.0,16.5,0.156,236.8,119.1736603,255.5687256,-3.542053223,45,65,51,37.66264725,-20
32,100,70,60,go_to_color_detect_up_from_color_detect_down,blue,TRUE,FALSE,joint 3 -,TRUE,24:52.3,16.481,0.156,236.8,112.3557816,240.9477234,-21.6209259,45,65,51,46.21640778,-20
32,100,70,60,go_to_color_detect_up_from_color_detect_down,blue,TRUE,FALSE,joint 3 -,TRUE,24:53.0,22.937,0.156,236.8,129.7127686,278.1699219,48.12968826,45,65,51,13.76484299,-20
32,100,70,60,go_to_red_up,red,TRUE,FALSE,joint 1 +,TRUE,24:53.7,22.994,0.156,236.8,122.8400955,286.3809204,84.95825195,46.78359222,67.05799103,51,0,-20
32,100,70,60,go_to_red_up,red,TRUE,FALSE,joint 1 +,TRUE,24:55.1,22.177,0.2,236.8,-61.15352249,305.5552063,84.95825195,81.31759644,102.2712708,51,0,-20
32,100,70,60,go_to_pick_up_from_red,red,TRUE,FALSE,joint 1 -,FALSE,24:55.8,22.443,0.2,236.8,-178.6676331,255.3068848,84.95825195,104.9849091,124.9977798,51,0,-20
32,100,70,60,go_to_pick_up_from_red,red,TRUE,FALSE,joint 1 -,FALSE,24:57.2,22.424,0.2,236.8,-54.16521454,306.8710938,84.95825195,80.01005554,99.01045227,51,0,-20
32,100,70,60,go_to_pick_up_from_red,red,TRUE,FALSE,joint 1 -,FALSE,24:57.9,16.405,0.2,236.8,229.8502808,210.4105377,84.95825195,22.47174454,41.54299927,51,0,-20
32,100,70,60,moving_belt,red,FALSE,TRUE,joint 1 -,FALSE,24:59.3,16.633,0.156,236.8,292.8206787,106.5822525,84.95825195,0.000732422,20,51,0,-20
32,100,70,60,moving_belt,red,FALSE,TRUE,joint 1 -,FALSE,25:00.0,16.633,0.156,236.8,292.822052,106.5785141,84.95825195,0,20,51,0,-20
32,100,70,60,moving_belt,red,FALSE,TRUE,joint 1 -,FALSE,25:01.3,16.557,0.156,236.8,292.822052,106.5785141,84.95825195,0,20,51,0,-20
32,100,70,60,moving_belt,red,FALSE,TRUE,joint 1 -,FALSE,25:02.0,16.557,0.156,236.8,292.822052,106.5785141,84.95825195,0,20,51,0,-20
32,100,70,60,moving_belt,red,FALSE,TRUE,joint 1 -,FALSE,25:02.7,16.69,0.156,236.8,292.822052,106.5785141,84.95825195,0,20,51,0,-20
32,100,70,60,go_to_pick_down,red,TRUE,FALSE,joint 3 +,FALSE,25:04.2,16.633,0.157,236.8,291.8274841,106.2165222,67.35009766,0,20,51,7.408800602,-20
32,100,70,60,go_to_pick_up_from_pick_down,red,TRUE,FALSE,joint 3 -,TRUE,25:04.9,16.633,0.157,236.8,282.8695679,102.9561005,30.17094421,0,20,51,21.80400085,-20
32,100,70,60,go_to_pick_up_from_pick_down,red,TRUE,FALSE,joint 3 -,TRUE,25:06.2,22.937,0.155,236.8,292.805481,106.5724792,82.68004608,0,20,51,0.711488962,-20
32,100,70,60,go_to_color_detect_up_from_pick_up,red,TRUE,FALSE,joint 1 +,TRUE,25:06.9,22.842,0.155,236.8,263.2564392,166.7326355,84.95825195,12.34799576,33.0535965,51,0,-20
32,100,70,60,go_to_color_detect_up_from_pick_up,red,TRUE,FALSE,joint 1 +,TRUE,25:08.3,22.88,0.203,236.8,138.9897003,278.9006958,84.95825195,43.51070404,63.74259949,51,0,-20
32,100,70,60,go_to_color_detect_down,red,TRUE,FALSE,joint 3 +,TRUE,25:09.3,22.671,0.203,236.8,129.495636,277.7042847,46.1986084,45,65,51,16.0720005,-20
32,100,70,60,go_to_color_detect_down,red,TRUE,FALSE,joint 3 +,TRUE,25:10.0,22.519,0.202,236.8,111.9997635,240.1842499,-22.41484833,45,65,51,47.11788177,-20
32,100,70,60,go_to_color_detect_up_from_color_detect_down,red,TRUE,FALSE,joint 3 -,FALSE,25:11.4,22.538,0.202,236.8,119.6129761,256.5108337,-2.146255493,45,65,51,35.65200424,-20
32,100,70,60,go_to_color_detect_up_from_color_detect_down,red,TRUE,FALSE,joint 3 -,FALSE,25:12.1,17.411,0.158,236.8,131.641861,282.3068848,78.9329834,45,65,51,2.055612803,-20
32,100,70,60,detecting_color,red,FALSE,FALSE,detecting_color,FALSE,25:12.8,17.032,0.158,236.8,131.6940765,282.4188232,84.95825195,45,65,51,0,-20
32,100,70,60,detecting_color,red,FALSE,FALSE,detecting_color,FALSE,25:14.2,16.519,0.156,236.8,131.6940765,282.4188232,84.95825195,45,65,51,0,-20
32,100,70,60,go_to_color_detect_down,red,TRUE,FALSE,joint 3 +,FALSE,25:14.9,16.519,0.156,236.8,131.6830902,282.3952637,82.19265747,45,65,51,1.293600082,-20
32,100,70,60,go_to_color_detect_down,red,TRUE,FALSE,joint 3 +,FALSE,25:16.3,16.462,0.155,236.8,121.8321457,261.2698669,5.484710693,45,65,51,33.4908638,-20
32,100,70,60,go_to_color_detect_up_from_color_detect_down,red,TRUE,FALSE,joint 3 -,TRUE,25:16.9,16.31,0.155,236.8,112.0000687,240.1849213,-22.41416931,45,65,51,46.70640564,-20
32,100,70,60,go_to_color_detect_up_from_color_detect_down,red,TRUE,FALSE,joint 3 -,TRUE,25:18.3,17.582,0.155,236.8,129.0238342,276.6924744,42.32413483,45,65,51,16.05653381,-20
32,100,70,60,go_to_green_up,green,TRUE,FALSE,joint 1 +,TRUE,25:19.0,23.26,0.208,236.8,131.114151,282.6885376,84.95825195,45.11759949,65.19599915,51,0,-20
32,100,70,60,go_to_green_up,green,TRUE,FALSE,joint 1 +,TRUE,25:20.4,22.614,0.208,236.8,-27.47181892,310.4013977,84.95825195,75.05773163,95.67221069,51,0,-20
32,100,70,60,go_to_pick_up_from_green,green,TRUE,FALSE,joint 1 -,FALSE,25:21.1,22.69,0.204,236.8,-72.59272766,303.0413208,84.95825195,83.47120667,103.2164078,51,0,-20
32,100,70,60,go_to_pick_up_from_green,green,TRUE,FALSE,joint 1 -,FALSE,25:21.8,22.69,0.204,236.8,111.002037,291.1739807,84.95825195,49.1320343,67.93643188,51,0,-20
32,100,70,60,go_to_pick_up_from_green,green,TRUE,FALSE,joint 1 -,FALSE,25:23.2,16.386,0.155,236.8,287.0509949,121.2661057,84.95825195,2.901866913,22.57439423,51,0,-20
32,100,70,60,moving_belt,green,FALSE,TRUE,joint 1 -,FALSE,25:23.9,16.443,0.155,236.8,292.822052,106.5785141,84.95825195,0,20,51,0,-20
32,100,70,60,moving_belt,green,FALSE,TRUE,joint 1 -,FALSE,25:25.3,16.69,0.158,236.8,292.822052,106.5785141,84.95825195,0,20,51,0,-20
32,100,70,60,moving_belt,green,FALSE,TRUE,joint 1 -,FALSE,25:26.0,16.69,0.158,236.8,292.822052,106.5785141,84.95825195,0,20,51,0,-20
32,100,70,60,moving_belt,green,FALSE,TRUE,joint 1 -,FALSE,25:27.4,16.443,0.155,236.8,292.822052,106.5785141,84.95825195,0,20,51,0,-20
32,100,70,60,go_to_pick_down,green,TRUE,FALSE,joint 3 +,FALSE,25:28.1,16.443,0.155,236.8,292.8212585,106.5782242,84.45539093,0,20,51,0.294,-20
32,100,70,60,go_to_pick_down,green,TRUE,FALSE,joint 3 +,FALSE,25:28.8,16.633,0.155,236.8,284.784729,103.6531677,35.54706573,0,20,51,19.93541718,-20
32,100,70,60,go_to_pick_up_from_pick_down,green,TRUE,FALSE,joint 3 -,TRUE,25:30.2,16.424,0.155,236.8,291.0748901,105.9426041,61.65214157,0,20,51,8.534334183,-20
32,100,70,60,go_to_color_detect_up_from_pick_up,green,TRUE,FALSE,joint 1 +,TRUE,25:30.8,23.184,0.155,236.8,288.8058167,117.0253296,84.95825195,2.05799675,22.35199738,51,0,-20
32,100,70,60,go_to_color_detect_up_from_pick_up,green,TRUE,FALSE,joint 1 +,TRUE,25:32.2,22.329,0.199,236.8,182.6638641,252.4631348,84.95825195,34.11325073,54.7567482,51,0,-20
32,100,70,60,go_to_color_detect_down,green,TRUE,FALSE,joint 3 +,TRUE,25:32.9,22.196,0.199,236.8,131.5878143,282.1909485,76.36417389,45,65,51,3.724000216,-20
32,100,70,60,go_to_color_detect_down,green,TRUE,FALSE,joint 3 +,TRUE,25:34.3,21.988,0.197,236.8,118.7486115,254.6572113,-4.860389709,45,65,51,38.28934479,-20
32,100,70,60,go_to_color_detect_up_from_color_detect_down,green,TRUE,FALSE,joint 3 -,FALSE,25:35.0,21.988,0.197,236.8,112.7699585,241.8359528,-20.6812973,45,65,51,45.64801025,-20
32,100,70,60,go_to_color_detect_up_from_color_detect_down,green,TRUE,FALSE,joint 3 -,FALSE,25:36.4,16.918,0.16,236.8,130.9115601,280.7407227,61.69998932,45,65,51,8.516066551,-20
32,100,70,60,detecting_color,green,FALSE,FALSE,detecting_color,FALSE,25:37.1,16.918,0.16,236.8,131.6940765,282.4188232,84.95825195,45,65,51,0,-20
32,100,70,60,detecting_color,green,FALSE,FALSE,detecting_color,FALSE,25:37.8,16.652,0.16,236.8,131.6940765,282.4188232,84.95825195,45,65,51,0,-20
32,100,70,60,go_to_color_detect_down,green,TRUE,FALSE,joint 3 +,FALSE,25:39.2,16.443,0.157,236.8,127.4945602,273.4129639,31.82910538,45,65,51,22.10880089,-20
32,100,70,60,go_to_color_detect_down,green,TRUE,FALSE,joint 3 +,FALSE,25:39.9,16.443,0.157,236.8,111.2986526,238.6807098,-23.94238281,45,65,51,47.8792572,-20
32,100,70,60,go_to_color_detect_up_from_color_detect_down,green,TRUE,FALSE,joint 3 -,TRUE,25:41.3,20.317,0.156,236.8,125.0149155,268.0953369,18.65084839,45,65,51,25.89120102,-20
32,100,70,60,go_to_color_detect_up_from_color_detect_down,green,TRUE,FALSE,joint 3 -,TRUE,25:42.0,22.956,0.156,236.8,131.6936951,282.4180298,84.4486084,45,65,51,0.120746776,-20
32,100,70,60,go_to_blue_up,blue,TRUE,FALSE,joint 1 +,TRUE,25:43.3,22.121,0.204,235,58.53630066,306.0673828,84.95825195,59.17276001,79.64096069,51,0,-20
32,100,70,60,go_to_pick_up_from_blue,blue,TRUE,FALSE,joint 1 -,FALSE,25:44.0,21.931,0.204,235,66.96123505,304.3352356,84.95825195,57.5912323,77.04243469,51,0,-20
32,100,70,60,go_to_pick_up_from_blue,blue,TRUE,FALSE,joint 1 -,FALSE,25:45.4,16.614,0.159,235,253.9153595,180.63974,84.95825195,15.42869568,34.66086197,51,0,-20
32,100,70,60,moving_belt,blue,FALSE,TRUE,joint 1 -,FALSE,25:46.1,16.348,0.159,236.8,292.822052,106.5785141,84.95825195,0,20,51,0,-20
32,100,70,60,moving_belt,blue,FALSE,TRUE,joint 1 -,FALSE,25:46.8,16.348,0.159,236.8,292.822052,106.5785141,84.95825195,0,20,51,0,-20
32,100,70,60,moving_belt,blue,FALSE,TRUE,joint 1 -,FALSE,25:48.2,16.633,0.157,236.8,292.822052,106.5785141,84.95825195,0,20,51,0,-20
32,100,70,60,moving_belt,blue,FALSE,TRUE,joint 1 -,FALSE,25:48.9,16.576,0.157,236.8,292.822052,106.5785141,84.95825195,0,20,51,0,-20
32,100,70,60,moving_belt,blue,FALSE,TRUE,joint 1 -,FALSE,25:50.3,16.424,0.157,236.8,292.822052,106.5785141,84.95825195,0,20,51,0,-20
32,100,70,60,go_to_pick_down,blue,TRUE,FALSE,joint 3 +,FALSE,25:51.0,16.443,0.157,236.8,290.5749207,105.7606277,58.55114365,0,20,51,10.99560165,-20
32,100,70,60,go_to_pick_up_from_pick_down,blue,TRUE,FALSE,joint 3 -,TRUE,25:52.4,16.443,0.155,236.8,283.3911438,103.1459427,31.57369995,0,20,51,21.11800385,-20
32,100,70,60,go_to_pick_up_from_pick_down,blue,TRUE,FALSE,joint 3 -,TRUE,25:53.1,16.443,0.155,236.8,292.8211975,106.5782013,84.44147491,0,20,51,0.122906834,-20
32,100,70,60,go_to_color_detect_up_from_pick_up,blue,TRUE,FALSE,joint 1 +,TRUE,25:54.0,23.317,0.204,236.8,254.3582001,180.0156708,84.95825195,15.2879982,36.0719986,51,0,-20
32,100,70,60,go_to_color_detect_up_from_pick_up,blue,TRUE,FALSE,joint 1 +,TRUE,25:55.4,22.291,0.204,236.8,135.0331421,280.8376465,84.95825195,44.32068634,64.47418213,51,0,-20
32,100,70,60,go_to_color_detect_down,blue,TRUE,FALSE,joint 3 +,TRUE,25:56.0,22.083,0.198,236.8,128.1653442,274.8514709,36.12088013,45,65,51,20.28600121,-20
32,100,70,60,go_to_color_detect_down,blue,TRUE,FALSE,joint 3 +,TRUE,25:57.4,21.931,0.198,236.8,111.4707413,239.0497589,-23.57180023,45,65,51,47.70386505,-20
32,100,70,60,go_to_color_detect_up_from_color_detect_down,blue,TRUE,FALSE,joint 3 -,FALSE,25:58.1,22.026,0.198,236.8,121.8409042,261.2886658,5.51701355,45,65,51,31.9280014,-20
32,100,70,60,go_to_color_detect_up_from_color_detect_down,blue,TRUE,FALSE,joint 3 -,FALSE,25:58.8,22.026,0.198,236.8,131.6830902,282.3952637,82.1936264,45,65,51,0.882128119,-20
32,100,70,60,detecting_color,blue,FALSE,FALSE,detecting_color,FALSE,26:00.3,16.576,0.158,236.8,131.6940765,282.4188232,84.95825195,45,65,51,0,-20
32,100,70,60,go_to_color_detect_down,blue,TRUE,FALSE,joint 3 +,FALSE,26:01.0,16.576,0.158,236.8,131.6268463,282.2746887,78.12176514,45,65,51,2.998800039,-20
32,100,70,60,go_to_color_detect_down,blue,TRUE,FALSE,joint 3 +,FALSE,26:02.4,16.481,0.155,236.8,117.1234665,251.1720734,-9.633369446,45,65,51,40.6001358,-20
32,100,70,60,go_to_color_detect_up_from_color_detect_down,blue,TRUE,FALSE,joint 3 -,TRUE,26:03.1,16.557,0.155,236.8,113.2409668,242.8460388,-19.59135437,45,65,51,45.00121307,-20
32,100,70,60,go_to_color_detect_up_from_color_detect_down,blue,TRUE,FALSE,joint 3 -,TRUE,26:03.8,20.715,0.155,236.8,130.4143677,279.6744995,55.27527618,45,65,51,10.98365402,-20
32,100,70,60,go_to_red_up,red,TRUE,FALSE,joint 1 +,TRUE,26:05.3,22.994,0.205,236.8,118.4172516,288.2378845,84.95825195,47.66558838,67.99878693,51,0,-20
32,100,70,60,go_to_red_up,red,TRUE,FALSE,joint 1 +,TRUE,26:06.0,22.234,0.205,236.8,-80.72895813,300.9760132,84.95825195,85.01467896,105.889946,51,0,-20
32,100,70,60,go_to_pick_up_from_red,red,TRUE,FALSE,joint 1 -,FALSE,26:07.4,22.519,0.199,236.8,-178.7348633,255.2598114,84.95825195,105,124.9804001,51,0,-20
32,100,70,60,go_to_pick_up_from_red,red,TRUE,FALSE,joint 1 -,FALSE,26:08.1,22.519,0.199,236.8,-64.52482605,304.861084,84.95825195,81.95046234,100.9900589,51,0,-20
32,100,70,60,go_to_pick_up_from_red,red,TRUE,FALSE,joint 1 -,FALSE,26:08.8,16.557,0.156,236.8,242.5995483,195.5740051,84.95825195,18.87436295,38.02401733,51,0,-20
32,100,70,60,moving_belt,red,FALSE,TRUE,joint 1 -,FALSE,26:10.2,16.538,0.156,236.8,292.822052,106.5785141,84.95825195,0,20,51,0,-20
32,100,70,60,moving_belt,red,FALSE,TRUE,joint 1 -,FALSE,26:10.9,16.538,0.157,236.8,292.822052,106.5785141,84.95825195,0,20,51,0,-20
32,100,70,60,moving_belt,red,FALSE,TRUE,joint 1 -,FALSE,26:12.3,16.671,0.157,236.8,292.822052,106.5785141,84.95825195,0,20,51,0,-20
32,100,70,60,moving_belt,red,FALSE,TRUE,joint 1 -,FALSE,26:13.0,16.671,0.156,236.8,292.822052,106.5785141,84.95825195,0,20,51,0,-20
32,100,70,60,moving_belt,red,FALSE,TRUE,joint 1 -,FALSE,26:14.3,16.519,0.156,236.8,292.822052,106.5785141,84.95825195,0,20,51,0,-20
32,100,70,60,go_to_pick_down,red,TRUE,FALSE,joint 3 +,FALSE,26:15.0,16.633,0.156,236.8,291.078125,105.943779,61.67354584,0,20,51,9.721601486,-20
32,100,70,60,go_to_pick_up_from_pick_down,red,TRUE,FALSE,joint 3 -,TRUE,26:16.4,16.424,0.156,236.8,283.3911438,103.1459427,31.57369995,0,20,51,21.11800385,-20
32,100,70,60,go_to_pick_up_from_pick_down,red,TRUE,FALSE,joint 3 -,TRUE,26:17.1,20.639,0.156,236.8,292.7973328,106.569519,82.17695618,0,20,51,0.888005435,-20
32,100,70,60,go_to_color_detect_up_from_pick_up,red,TRUE,FALSE,joint 1 +,TRUE,26:17.8,22.519,0.206,236.8,251.8712311,183.479187,84.95825195,16.0719986,36.87559891,51,0,-20
32,100,70,60,go_to_color_detect_up_from_pick_up,red,TRUE,FALSE,joint 1 +,TRUE,26:19.2,22.121,0.206,236.8,134.280304,281.1983643,84.95825195,44.47418213,64.608078,51,0,-20
32,100,70,60,go_to_color_detect_down,red,TRUE,FALSE,joint 3 +,TRUE,26:19.9,22.196,0.199,236.8,129.708847,278.161499,48.09376907,45,65,51,15.28800011,-20
32,100,70,60,go_to_color_detect_down,red,TRUE,FALSE,joint 3 +,TRUE,26:21.3,22.083,0.199,236.8,111.4707413,239.0497589,-23.57180023,45,65,51,47.70386505,-20
32,100,70,60,go_to_color_detect_up_from_color_detect_down,red,TRUE,FALSE,joint 3 -,FALSE,26:22.0,22.083,0.198,236.8,121.8409042,261.2886658,5.51701355,45,65,51,31.9280014,-20
32,100,70,60,go_to_color_detect_up_from_color_detect_down,red,TRUE,FALSE,joint 3 -,FALSE,26:22.7,17.506,0.198,236.8,131.6830902,282.3952637,82.1936264,45,65,51,0.882128119,-20
32,100,70,60,detecting_color,red,FALSE,FALSE,detecting_color,FALSE,26:23.8,17.506,0.198,236.8,131.6940765,282.4188232,84.95825195,45,65,51,0,-20
32,100,70,60,detecting_color,red,FALSE,FALSE,detecting_color,FALSE,26:25.2,16.5,0.16,236.8,131.6940765,282.4188232,84.95825195,45,65,51,0,-20
32,100,70,60,go_to_color_detect_down,red,TRUE,FALSE,joint 3 +,FALSE,26:26.0,16.5,0.157,236.8,131.6893616,282.4087524,83.14798737,45,65,51,0.882000029,-20
32,100,70,60,go_to_color_detect_down,red,TRUE,FALSE,joint 3 +,FALSE,26:26.9,16.481,0.157,236.8,122.7420502,263.2211609,8.939178467,45,65,51,31.94346809,-20
32,100,70,60,go_to_color_detect_up_from_color_detect_down,red,TRUE,FALSE,joint 3 -,TRUE,26:28.3,16.5,0.154,236.8,111.2965393,238.676178,-23.94692993,45,65,51,47.70600128,-20
32,100,70,60,go_to_color_detect_up_from_color_detect_down,red,TRUE,FALSE,joint 3 -,TRUE,26:29.0,16.443,0.154,236.8,129.0238342,276.6924744,42.32413483,45,65,51,16.05653381,-20
32,100,70,60,go_to_green_up,green,TRUE,FALSE,joint 1 +,TRUE,26:30.4,22.633,0.203,236.8,130.7271881,282.8676758,84.95825195,45.19599915,65.29399872,51,0,-20
32,100,70,60,go_to_green_up,green,TRUE,FALSE,joint 1 +,TRUE,26:31.1,22.633,0.203,236.8,-27.47181892,310.4013977,84.95825195,75.05773163,95.67221069,51,0,-20
32,100,70,60,go_to_pick_up_from_green,green,TRUE,FALSE,joint 1 -,FALSE,26:31.8,22.121,0.203,236.8,-72.59272766,303.0413208,84.95825195,83.47120667,103.2164078,51,0,-20
32,100,70,60,go_to_pick_up_from_green,green,TRUE,FALSE,joint 1 -,FALSE,26:33.4,16.5,0.198,236.8,111.002037,291.1739807,84.95825195,49.1320343,67.93643188,51,0,-20
32,100,70,60,go_to_pick_up_from_green,green,TRUE,FALSE,joint 1 -,FALSE,26:34.1,16.5,0.198,236.8,287.0509949,121.2661057,84.95825195,2.901866913,22.57439423,51,0,-20
32,100,70,60,moving_belt,green,FALSE,TRUE,joint 1 -,FALSE,26:34.8,16.671,0.157,236.8,292.822052,106.5785141,84.95825195,0,20,51,0,-20
32,100,70,60,moving_belt,green,FALSE,TRUE,joint 1 -,FALSE,26:36.2,16.785,0.157,236.8,292.822052,106.5785141,84.95825195,0,20,51,0,-20
32,100,70,60,moving_belt,green,FALSE,TRUE,joint 1 -,FALSE,26:36.9,16.291,0.155,236.8,292.822052,106.5785141,84.95825195,0,20,51,0,-20
32,100,70,60,moving_belt,green,FALSE,TRUE,joint 1 -,FALSE,26:38.2,16.633,0.155,236.8,292.822052,106.5785141,84.95825195,0,20,51,0,-20
32,100,70,60,go_to_pick_down,green,TRUE,FALSE,joint 3 +,FALSE,26:38.9,16.633,0.157,236.8,292.821991,106.5784912,84.80739594,0,20,51,0.117600001,-20
32,100,70,60,go_to_pick_down,green,TRUE,FALSE,joint 3 +,FALSE,26:40.4,16.5,0.157,236.8,283.7197266,103.2655334,32.47969055,0,20,51,21.11200142,-20
32,100,70,60,go_to_pick_up_from_pick_down,green,TRUE,FALSE,joint 3 -,TRUE,26:41.1,16.424,0.169,236.8,290.2821045,105.6540527,56.89824677,0,20,51,10.35748386,-20
32,100,70,60,go_to_color_detect_up_from_pick_up,green,TRUE,FALSE,joint 1 +,TRUE,26:41.8,23.07,0.169,236.8,287.5486145,120.0813675,84.95825195,2.665597916,22.99879837,51,0,-20
32,100,70,60,go_to_color_detect_up_from_pick_up,green,TRUE,FALSE,joint 1 +,TRUE,26:43.2,22.234,0.198,236.8,177.03508,256.4416199,84.95825195,35.38064575,55.98494339,51,0,-20
32,100,70,60,go_to_color_detect_down,green,TRUE,FALSE,joint 3 +,TRUE,26:43.9,22.234,0.198,236.8,131.654007,282.3328857,79.67931366,45,65,51,2.351999998,-20
32,100,70,60,go_to_color_detect_down,green,TRUE,FALSE,joint 3 +,TRUE,26:45.3,21.988,0.198,236.8,117.9198761,252.8799744,-7.345222473,45,65,51,39.48394012,-20
32,100,70,60,go_to_color_detect_up_from_color_detect_down,green,TRUE,FALSE,joint 3 -,FALSE,26:46.0,21.988,0.198,236.8,112.9984894,242.3260345,-20.15538025,45,65,51,45.33441162,-20
32,100,70,60,go_to_color_detect_up_from_color_detect_down,green,TRUE,FALSE,joint 3 -,FALSE,26:47.3,16.861,0.198,236.8,130.2599335,279.3433228,53.55493164,45,65,51,11.64955139,-20
32,100,70,60,detecting_color,green,FALSE,FALSE,detecting_color,FALSE,26:48.0,16.861,0.16,236.8,131.6940765,282.4188232,84.95825195,45,65,51,0,-20
32,100,70,60,detecting_color,green,FALSE,FALSE,detecting_color,FALSE,26:48.7,16.747,0.16,236.8,131.6940765,282.4188232,84.95825195,45,65,51,0,-20
32,100,70,60,go_to_color_detect_down,green,TRUE,FALSE,joint 3 +,FALSE,26:50.3,16.633,0.155,236.8,128.7535706,276.112915,40.26831818,45,65,51,18.54160118,-20
32,100,70,60,go_to_color_detect_down,green,TRUE,FALSE,joint 3 +,FALSE,26:51.0,16.481,0.155,236.8,111.7047348,239.5515594,-23.06336975,45,65,51,47.45007324,-20
32,100,70,60,go_to_color_detect_up_from_color_detect_down,green,TRUE,FALSE,joint 3 -,TRUE,26:52.4,18.684,0.169,236.8,120.9385452,259.3535461,2.287002563,45,65,51,33.47640228,-20
32,100,70,60,go_to_color_detect_up_from_color_detect_down,green,TRUE,FALSE,joint 3 -,TRUE,26:53.0,22.88,0.169,236.8,131.6912079,282.4126892,83.54734039,45,65,51,0.413237393,-20
32,100,70,60,go_to_blue_up,blue,TRUE,FALSE,joint 1 +,TRUE,26:53.7,22.88,0.169,236.8,61.13990784,305.5579224,84.95825195,58.68495941,79.17276001,51,0,-20
32,100,70,60,go_to_pick_up_from_blue,blue,TRUE,FALSE,joint 1 -,FALSE,26:55.2,22.102,0.198,236.8,47.26400757,308.009491,84.95825195,61.27601624,80.88401794,51,0,-20
32,100,70,60,go_to_pick_up_from_blue,blue,TRUE,FALSE,joint 1 -,FALSE,26:55.9,16.861,0.198,236.8,248.7907257,187.635025,84.95825195,17.02316284,36.2161293,51,0,-20
32,100,70,60,moving_belt,blue,FALSE,TRUE,joint 1 -,FALSE,26:57.3,16.557,0.155,236.8,292.822052,106.5785141,84.95825195,0,20,51,0,-20
32,100,70,60,moving_belt,blue,FALSE,TRUE,joint 1 -,FALSE,26:58.0,16.557,0.155,236.8,292.822052,106.5785141,84.95825195,0,20,51,0,-20
32,100,70,60,moving_belt,blue,FALSE,TRUE,joint 1 -,FALSE,26:59.4,16.937,0.156,236.8,292.822052,106.5785141,84.95825195,0,20,51,0,-20
32,100,70,60,moving_belt,blue,FALSE,TRUE,joint 1 -,FALSE,27:00.2,16.5,0.156,236.8,292.822052,106.5785141,84.95825195,0,20,51,0,-20
32,100,70,60,moving_belt,blue,FALSE,TRUE,joint 1 -,FALSE,27:01.0,16.823,0.157,236.8,292.822052,106.5785141,84.95825195,0,20,51,0,-20
32,100,70,60,go_to_pick_down,blue,TRUE,FALSE,joint 3 +,FALSE,27:01.8,16.823,0.157,236.8,290.2861633,105.6555252,56.92040253,0,20,51,11.64251804,-20
32,100,70,60,go_to_pick_up_from_pick_down,blue,TRUE,FALSE,joint 3 -,TRUE,27:03.5,16.481,0.156,236.8,284.0985718,103.4034271,33.54697037,0,20,51,20.21640396,-20
32,100,70,60,go_to_pick_up_from_pick_down,blue,TRUE,FALSE,joint 3 -,TRUE,27:04.2,23.013,0.156,236.8,292.8183899,106.577179,83.88773346,0,20,51,0.299539626,-20
32,100,70,60,go_to_color_detect_up_from_pick_up,blue,TRUE,FALSE,joint 1 +,TRUE,27:04.9,23.013,0.156,236.8,240.7813568,197.8081818,84.95825195,19.40399933,40.2859993,51,0,-20
32,100,70,60,go_to_color_detect_up_from_pick_up,blue,TRUE,FALSE,joint 1 +,TRUE,27:06.3,22.291,0.198,236.8,132.2253418,282.1705017,84.95825195,44.89216614,64.94766235,51,0,-20
32,100,70,60,go_to_color_detect_down,blue,TRUE,FALSE,joint 3 +,TRUE,27:07.0,22.064,0.198,236.8,128.7535706,276.112915,40.26831818,45,65,51,18.54160118,-20
32,100,70,60,go_to_color_detect_down,blue,TRUE,FALSE,joint 3 +,TRUE,27:07.7,22.064,0.197,236.8,111.1891403,238.4458771,-24.1767807,45,65,51,47.97624969,-20
32,100,70,60,go_to_color_detect_up_from_color_detect_down,blue,TRUE,FALSE,joint 3 -,FALSE,27:08.9,22.026,0.197,236.8,123.2068863,264.2179871,10.7900238,45,65,51,29.45840073,-20
32,100,70,60,go_to_color_detect_up_from_color_detect_down,blue,TRUE,FALSE,joint 3 -,FALSE,27:10.4,16.804,0.158,236.8,131.6893463,282.4087219,83.14636993,45,65,51,0.549934328,-20
32,100,70,60,detecting_color,blue,FALSE,FALSE,detecting_color,FALSE,27:11.1,16.69,0.158,236.8,131.6940765,282.4188232,84.95825195,45,65,51,0,-20
32,100,70,60,go_to_color_detect_down,blue,TRUE,FALSE,joint 3 +,FALSE,27:12.5,16.633,0.156,236.8,131.5002136,282.0031128,73.35417175,45,65,51,4.958800316,-20
32,100,70,60,go_to_color_detect_down,blue,TRUE,FALSE,joint 3 +,FALSE,27:13.2,16.633,0.156,236.8,117.5173492,252.0167542,-8.513450623,45,65,51,40.05183792,-20
32,100,70,60,go_to_color_detect_up_from_color_detect_down,blue,TRUE,FALSE,joint 3 -,TRUE,27:13.9,16.614,0.156,236.8,114.6535721,245.8753662,-16.17852783,45,65,51,43.04122162,-20
32,100,70,60,go_to_color_detect_up_from_color_detect_down,blue,TRUE,FALSE,joint 3 -,TRUE,27:15.3,21.095,0.156,236.8,131.0091095,280.9499207,63.1894989,45,65,51,7.948169708,-20
32,100,70,60,go_to_red_up,red,TRUE,FALSE,joint 1 +,TRUE,27:16.0,22.861,0.156,236.8,119.993103,287.5854492,84.95825195,47.35198975,67.66558838,51,0,-20
32,100,70,60,go_to_red_up,red,TRUE,FALSE,joint 1 +,TRUE,27:17.3,22.196,0.202,236.8,-98.35136414,295.6869202,84.95825195,88.39814758,109.195015,51,0,-20
32,100,70,60,go_to_pick_up_from_red,red,TRUE,FALSE,joint 1 -,FALSE,27:18.0,22.196,0.202,236.8,-178.2105713,255.6261292,84.95825195,104.8824005,124.8040009,51,0,-20
32,100,70,60,go_to_pick_up_from_red,red,TRUE,FALSE,joint 1 -,FALSE,27:19.4,16.462,0.2,236.8,-48.80345154,307.7693176,84.95825195,79.01045227,97.99124908,51,0,-20
32,100,70,60,go_to_pick_up_from_red,red,TRUE,FALSE,joint 1 -,FALSE,27:20.1,16.462,0.2,236.8,250.8744202,184.8398132,84.95825195,16.38212585,35.59057999,51,0,-20
32,100,70,60,moving_belt,red,FALSE,TRUE,joint 1 -,FALSE,27:21.5,16.424,0.155,236.8,292.822052,106.5785141,84.95825195,0,20,51,0,-20
32,100,70,60,moving_belt,red,FALSE,TRUE,joint 1 -,FALSE,27:22.2,16.576,0.155,236.8,292.822052,106.5785141,84.95825195,0,20,51,0,-20
32,100,70,60,moving_belt,red,FALSE,TRUE,joint 1 -,FALSE,27:22.9,16.576,0.156,236.8,292.822052,106.5785141,84.95825195,0,20,51,0,-20
32,100,70,60,moving_belt,red,FALSE,TRUE,joint 1 -,FALSE,27:24.3,16.671,0.156,236.8,292.822052,106.5785141,84.95825195,0,20,51,0,-20
32,100,70,60,moving_belt,red,FALSE,TRUE,joint 1 -,FALSE,27:25.0,16.671,0.156,236.8,292.822052,106.5785141,84.95825195,0,20,51,0,-20
32,100,70,60,go_to_pick_down,red,TRUE,FALSE,joint 3 +,FALSE,27:26.4,16.538,0.156,236.8,290.2861633,105.6555252,56.92040253,0,20,51,11.64251804,-20
32,100,70,60,go_to_pick_up_from_pick_down,red,TRUE,FALSE,joint 3 -,TRUE,27:27.1,16.405,0.156,236.8,283.7144775,103.2636261,32.46502686,0,20,51,20.70640564,-20
32,100,70,60,go_to_pick_up_from_pick_down,red,TRUE,FALSE,joint 3 -,TRUE,27:28.4,20.62,0.156,236.8,292.8114014,106.5746384,83.13288116,0,20,51,0.554572463,-20
32,100,70,60,go_to_color_detect_up_from_pick_up,red,TRUE,FALSE,joint 1 +,TRUE,27:29.1,22.462,0.156,236.8,246.5608826,190.5556641,84.95825195,17.69879913,38.54159927,51,0,-20
32,100,70,60,go_to_color_detect_up_from_pick_up,red,TRUE,FALSE,joint 1 +,TRUE,27:30.5,22.102,0.199,236.8,133.0609894,281.7774048,84.95825195,44.72237396,64.81707001,51,0,-20
32,100,70,60,go_to_color_detect_down,red,TRUE,FALSE,joint 3 +,TRUE,27:31.2,22.102,0.199,236.8,129.2658997,277.2116089,44.26202393,45,65,51,16.87560081,-20
32,100,70,60,go_to_color_detect_down,red,TRUE,FALSE,joint 3 +,TRUE,27:31.9,21.969,0.196,236.8,111.2986526,238.6807098,-23.94238281,45,65,51,47.8792572,-20
32,100,70,60,go_to_color_detect_up_from_color_detect_down,red,TRUE,FALSE,joint 3 -,FALSE,27:33.3,22.177,0.196,236.8,122.2954102,262.2633362,7.216835022,45,65,51,31.12440109,-20
32,100,70,60,go_to_color_detect_up_from_color_detect_down,red,TRUE,FALSE,joint 3 -,FALSE,27:34.0,17.544,0.157,236.8,131.6830902,282.3952637,82.1936264,45,65,51,0.882128119,-20
32,100,70,60,detecting_color,red,FALSE,FALSE,detecting_color,FALSE,27:35.4,17.032,0.157,236.8,131.6940765,282.4188232,84.95825195,45,65,51,0,-20
32,100,70,60,detecting_color,red,FALSE,FALSE,detecting_color,FALSE,27:36.1,16.538,0.156,236.8,131.6940765,282.4188232,84.95825195,45,65,51,0,-20
32,100,70,60,go_to_color_detect_down,red,TRUE,FALSE,joint 3 +,FALSE,27:37.5,16.557,0.156,236.8,131.4615479,281.9201965,72.25166321,45,65,51,5.409600258,-20
32,100,70,60,go_to_color_detect_down,red,TRUE,FALSE,joint 3 +,FALSE,27:38.2,16.557,0.156,236.8,117.1234665,251.1720734,-9.633369446,45,65,51,40.6001358,-20
32,100,70,60,go_to_color_detect_up_from_color_detect_down,red,TRUE,FALSE,joint 3 -,TRUE,27:38.9,16.519,0.155,236.8,112.9984894,242.3260345,-20.15538025,45,65,51,45.33441162,-20
32,100,70,60,go_to_color_detect_up_from_color_detect_down,red,TRUE,FALSE,joint 3 -,TRUE,27:40.3,17.867,0.155,236.8,131.0091095,280.9499207,63.1894989,45,65,51,7.948169708,-20
32,100,70,60,go_to_green_up,green,TRUE,FALSE,joint 1 +,TRUE,27:41.0,22.88,0.205,236.8,118.4172516,288.2378845,84.95825195,47.66558838,67.99878693,51,0,-20
32,100,70,60,go_to_green_up,green,TRUE,FALSE,joint 1 +,TRUE,27:42.3,22.083,0.205,236.8,-43.01351547,308.6317749,84.95825195,77.93411255,98.45058441,51,0,-20
32,100,70,60,go_to_pick_up_from_green,green,TRUE,FALSE,joint 1 -,FALSE,27:43.0,22.083,0.198,236.8,-51.91622925,307.259552,84.95825195,79.59042358,99.12002563,51,0,-20
32,100,70,60,go_to_pick_up_from_green,green,TRUE,FALSE,joint 1 -,FALSE,27:44.4,16.348,0.198,236.8,181.5991364,253.2301025,84.95825195,34.35451889,53.20384598,51,0,-20
32,100,70,60,go_to_pick_up_from_green,green,TRUE,FALSE,joint 1 -,FALSE,27:45.1,16.348,0.154,236.8,290.4647522,112.8448639,84.95825195,1.23102951,21.02115631,51,0,-20
32,100,70,60,moving_belt,green,FALSE,TRUE,joint 1 -,FALSE,27:46.0,16.443,0.154,236.8,292.822052,106.5785141,84.95825195,0,20,51,0,-20
32,100,70,60,moving_belt,green,FALSE,TRUE,joint 1 -,FALSE,27:47.4,16.766,0.154,236.8,292.822052,106.5785141,84.95825195,0,20,51,0,-20
32,100,70,60,moving_belt,green,FALSE,TRUE,joint 1 -,FALSE,27:48.1,16.557,0.154,236.8,292.822052,106.5785141,84.95825195,0,20,51,0,-20
32,100,70,60,moving_belt,green,FALSE,TRUE,joint 1 -,FALSE,27:49.5,16.519,0.155,236.8,292.822052,106.5785141,84.95825195,0,20,51,0,-20
32,100,70,60,go_to_pick_down,green,TRUE,FALSE,joint 3 +,FALSE,27:50.2,16.519,0.155,236.8,292.6725769,106.5241089,78.12176514,0,20,51,2.998800039,-20
32,100,70,60,go_to_pick_down,green,TRUE,FALSE,joint 3 +,TRUE,27:50.9,16.785,0.155,236.8,282.8213196,102.9385452,30.04333115,0,20,51,21.97532845,-20
32,100,70,60,go_to_pick_up_from_pick_down,green,TRUE,FALSE,joint 3 -,TRUE,27:52.3,16.5,0.155,236.8,292.5848083,106.4921646,76.34610748,0,20,51,3.005736828,-20
32,100,70,60,go_to_color_detect_up_from_pick_up,green,TRUE,FALSE,joint 1 +,TRUE,27:52.9,23.032,0.155,236.8,277.9474182,140.8863525,84.95825195,6.879598618,27.40879822,51,0,-20
32,100,70,60,go_to_color_detect_up_from_pick_up,green,TRUE,FALSE,joint 1 +,TRUE,27:54.3,22.007,0.196,236.8,153.2493286,271.3270569,84.95825195,40.54162598,60.94992447,51,0,-20
32,100,70,60,go_to_color_detect_down,green,TRUE,FALSE,joint 3 +,TRUE,27:55.0,22.329,0.196,236.8,130.9097595,280.7368774,61.67354584,45,65,51,9.721601486,-20
32,100,70,60,go_to_color_detect_down,green,TRUE,FALSE,joint 3 +,TRUE,27:56.4,21.855,0.197,236.8,114.3412857,245.2056732,-16.95227051,45,65,51,44.28092194,-20
32,100,70,60,go_to_color_detect_up_from_color_detect_down,green,TRUE,FALSE,joint 3 -,FALSE,27:57.1,21.855,0.197,236.8,116.0044479,248.7723236,-12.6964798,45,65,51,41.12041473,-20
32,100,70,60,go_to_color_detect_up_from_color_detect_down,green,TRUE,FALSE,joint 3 -,FALSE,27:58.5,17.089,0.157,236.8,131.5632477,282.1382751,75.42311096,45,65,51,3.347200394,-20
32,100,70,60,detecting_color,green,FALSE,FALSE,detecting_color,FALSE,27:59.2,17.089,0.157,236.8,131.6940765,282.4188232,84.95825195,45,65,51,0,-20
32,100,70,60,go_to_color_detect_down,green,TRUE,FALSE,joint 3 +,FALSE,27:59.9,16.614,0.157,236.8,131.6940765,282.4188232,84.95825195,45,65,51,0,-20
32,100,70,60,go_to_color_detect_down,green,TRUE,FALSE,joint 3 +,FALSE,28:01.2,16.595,0.157,236.8,127.4945602,273.4129639,31.82910538,45,65,51,22.10880089,-20
32,100,70,60,go_to_color_detect_down,green,TRUE,FALSE,joint 3 +,FALSE,28:01.9,16.481,0.157,236.8,111.376915,238.8485413,-23.77420044,45,65,51,47.80136108,-20
32,100,70,60,go_to_color_detect_up_from_color_detect_down,green,TRUE,FALSE,joint 3 -,TRUE,28:03.3,19.519,0.156,236.8,124.5671082,267.1350098,16.59467316,45,65,51,26.81240082,-20
32,100,70,60,go_to_color_detect_up_from_color_detect_down,green,TRUE,FALSE,joint 3 -,TRUE,28:04.0,23.032,0.156,236.8,131.6936951,282.4180298,84.4486084,45,65,51,0.120746776,-20
32,100,70,60,go_to_blue_up,blue,TRUE,FALSE,joint 1 +,TRUE,28:05.4,22.234,0.203,236.8,58.53630066,306.0673828,84.95825195,59.17276001,79.64096069,51,0,-20
32,100,70,60,go_to_pick_up_from_blue,blue,TRUE,FALSE,joint 1 -,FALSE,28:06.1,22.291,0.203,236.8,66.96123505,304.3352356,84.95825195,57.5912323,77.04243469,51,0,-20
32,100,70,60,go_to_pick_up_from_blue,blue,TRUE,FALSE,joint 1 -,FALSE,28:07.5,16.747,0.165,236.8,253.9153595,180.63974,84.95825195,15.42869568,34.66086197,51,0,-20
32,100,70,60,moving_belt,blue,FALSE,TRUE,joint 1 -,FALSE,28:08.3,16.652,0.165,236.8,292.822052,106.5785141,84.95825195,0,20,51,0,-20
32,100,70,60,moving_belt,blue,FALSE,TRUE,joint 1 -,FALSE,28:09.0,16.652,0.157,236.8,292.822052,106.5785141,84.95825195,0,20,51,0,-20
32,100,70,60,moving_belt,blue,FALSE,TRUE,joint 1 -,FALSE,28:10.5,16.804,0.157,236.8,292.822052,106.5785141,84.95825195,0,20,51,0,-20
32,100,70,60,moving_belt,blue,FALSE,TRUE,joint 1 -,FALSE,28:11.2,16.576,0.157,236.8,292.822052,106.5785141,84.95825195,0,20,51,0,-20
32,100,70,60,moving_belt,blue,FALSE,TRUE,joint 1 -,FALSE,28:12.5,16.272,0.157,236.8,292.822052,106.5785141,84.95825195,0,20,51,0,-20
32,100,70,60,go_to_pick_down,blue,TRUE,FALSE,joint 3 +,FALSE,28:13.2,16.614,0.157,236.8,290.2861633,105.6555252,56.92040253,0,20,51,11.64251804,-20
32,100,70,60,go_to_pick_up_from_pick_down,blue,TRUE,FALSE,joint 3 -,TRUE,28:13.9,16.614,0.156,236.8,283.5449524,103.2019272,31.99562836,0,20,51,20.9220047,-20
32,100,70,60,go_to_pick_up_from_pick_down,blue,TRUE,FALSE,joint 3 -,TRUE,28:15.4,23.108,0.156,236.8,292.8114014,106.5746384,83.13288116,0,20,51,0.554572463,-20
32,100,70,60,go_to_color_detect_up_from_pick_up,blue,TRUE,FALSE,joint 1 +,TRUE,28:16.1,23.108,0.205,236.8,246.5608826,190.5556641,84.95825195,17.69879913,38.54159927,51,0,-20
32,100,70,60,go_to_color_detect_up_from_pick_up,blue,TRUE,FALSE,joint 1 +,TRUE,28:17.5,22.386,0.205,236.8,133.0609894,281.7774048,84.95825195,44.72237396,64.81707001,51,0,-20
32,100,70,60,go_to_color_detect_down,blue,TRUE,FALSE,joint 3 +,TRUE,28:18.2,22.14,0.2,236.8,129.495636,277.7042847,46.1986084,45,65,51,16.0720005,-20
32,100,70,60,go_to_color_detect_down,blue,TRUE,FALSE,joint 3 +,TRUE,28:19.5,22.196,0.2,236.8,111.376915,238.8485413,-23.77420044,45,65,51,47.80136108,-20
32,100,70,60,go_to_color_detect_up_from_color_detect_down,blue,TRUE,FALSE,joint 3 -,FALSE,28:20.2,22.272,0.199,236.8,121.8409042,261.2886658,5.51701355,45,65,51,31.9280014,-20
32,100,70,60,go_to_color_detect_up_from_color_detect_down,blue,TRUE,FALSE,joint 3 -,FALSE,28:20.9,16.861,0.199,236.8,131.6782532,282.3849182,81.64188385,45,65,51,1.077625036,-20
32,100,70,60,detecting_color,blue,FALSE,FALSE,detecting_color,FALSE,28:22.3,16.614,0.159,236.8,131.6940765,282.4188232,84.95825195,45,65,51,0,-20
32,100,70,60,go_to_color_detect_down,blue,TRUE,FALSE,joint 3 +,FALSE,28:23.0,16.614,0.159,236.8,131.6268463,282.2746887,78.12176514,45,65,51,2.998800039,-20
32,100,70,60,go_to_color_detect_down,blue,TRUE,FALSE,joint 3 +,FALSE,28:24.4,16.462,0.155,236.8,117.1234665,251.1720734,-9.633369446,45,65,51,40.6001358,-20
32,100,70,60,go_to_color_detect_up_from_color_detect_down,blue,TRUE,FALSE,joint 3 -,TRUE,28:25.4,16.291,0.155,236.8,112.9984894,242.3260345,-20.15538025,45,65,51,45.33441162,-20
32,100,70,60,go_to_color_detect_up_from_color_detect_down,blue,TRUE,FALSE,joint 3 -,TRUE,28:26.1,20.089,0.155,236.8,130.4143677,279.6744995,55.27527618,45,65,51,10.98365402,-20
32,100,70,60,go_to_red_up,red,TRUE,FALSE,joint 1 +,TRUE,28:27.4,22.443,0.207,236.8,118.4172516,288.2378845,84.95825195,47.66558838,67.99878693,51,0,-20
32,100,70,60,go_to_red_up,red,TRUE,FALSE,joint 1 +,TRUE,28:28.1,22.443,0.207,236.8,-76.0185318,302.2001343,84.95825195,84.11981201,105.014679,51,0,-20
32,100,70,60,go_to_pick_up_from_red,red,TRUE,FALSE,joint 1 -,FALSE,28:29.5,22.519,0.202,236.8,-178.7348633,255.2598114,84.95825195,105,125,51,0,-20
32,100,70,60,go_to_pick_up_from_red,red,TRUE,FALSE,joint 1 -,FALSE,28:30.3,17.089,0.202,236.8,-48.80345154,307.7693176,84.95825195,79.01045227,97.99124908,51,0,-20
32,100,70,60,go_to_pick_up_from_red,red,TRUE,FALSE,joint 1 -,FALSE,28:31.0,17.089,0.155,236.8,229.8502808,210.4105377,84.95825195,22.47174454,41.54299927,51,0,-20
32,100,70,60,moving_belt,red,FALSE,TRUE,joint 1 -,FALSE,28:32.4,16.519,0.155,236.8,292.822052,106.5785141,84.95825195,0,20,51,0,-20
32,100,70,60,moving_belt,red,FALSE,TRUE,joint 1 -,FALSE,28:33.1,16.424,0.155,236.8,292.822052,106.5785141,84.95825195,0,20,51,0,-20
32,100,70,60,moving_belt,red,FALSE,TRUE,joint 1 -,FALSE,28:34.5,16.747,0.155,236.8,292.822052,106.5785141,84.95825195,0,20,51,0,-20
32,100,70,60,moving_belt,red,FALSE,TRUE,joint 1 -,FALSE,28:35.1,16.747,0.156,236.8,292.822052,106.5785141,84.95825195,0,20,51,0,-20
32,100,70,60,moving_belt,red,FALSE,TRUE,joint 1 -,FALSE,28:35.8,16.614,0.156,236.8,292.822052,106.5785141,84.95825195,0,20,51,0,-20
32,100,70,60,go_to_pick_down,red,TRUE,FALSE,joint 3 +,FALSE,28:37.3,16.69,0.156,236.8,291.4919128,106.0943832,64.60753632,0,20,51,8.526000977,-20
32,100,70,60,go_to_pick_up_from_pick_down,red,TRUE,FALSE,joint 3 -,TRUE,28:38.0,16.424,0.156,236.8,283.1320496,103.0516357,30.87160873,0,20,51,21.45120239,-20
32,100,70,60,go_to_pick_up_from_pick_down,red,TRUE,FALSE,joint 3 -,TRUE,28:39.3,19.215,0.156,236.8,292.8183899,106.577179,83.88773346,0,20,51,0.299539626,-20
32,100,70,60,go_to_color_detect_up_from_pick_up,red,TRUE,FALSE,joint 1 +,TRUE,28:40.0,22.709,0.208,236.8,256.7371216,176.6062775,84.95825195,14.52359772,35.2879982,51,0,-20
32,100,70,60,go_to_color_detect_up_from_pick_up,red,TRUE,FALSE,joint 1 +,TRUE,28:41.4,22.102,0.208,236.8,135.0331421,280.8376465,84.95825195,44.32068634,64.47418213,51,0,-20
32,100,70,60,go_to_color_detect_down,red,TRUE,FALSE,joint 3 +,TRUE,28:42.1,22.121,0.2,236.8,128.4693604,275.503418,38.21326065,45,65,51,19.40400124,-20
32,100,70,60,go_to_color_detect_down,red,TRUE,FALSE,joint 3 +,TRUE,28:43.5,21.988,0.2,236.8,111.5800476,239.2841644,-23.33494568,45,65,51,47.5867691,-20
32,100,70,60,go_to_color_detect_up_from_color_detect_down,red,TRUE,FALSE,joint 3 -,FALSE,28:44.2,21.988,0.199,236.8,120.9385452,259.3535461,2.287002563,45,65,51,33.47640228,-20
32,100,70,60,go_to_color_detect_up_from_color_detect_down,red,TRUE,FALSE,joint 3 -,FALSE,28:45.6,18.247,0.199,236.8,131.6540985,282.3331299,79.68543243,45,65,51,1.78171587,-20
32,100,70,60,detecting_color,red,FALSE,FALSE,detecting_color,FALSE,28:46.3,17.108,0.156,236.8,131.6940765,282.4188232,84.95825195,45,65,51,0,-20
32,100,70,60,detecting_color,red,FALSE,FALSE,detecting_color,FALSE,28:46.9,16.538,0.156,236.8,131.6940765,282.4188232,84.95825195,45,65,51,0,-20
32,100,70,60,detecting_color,red,FALSE,FALSE,detecting_color,FALSE,28:48.4,16.405,0.154,236.8,131.6940765,282.4188232,84.95825195,45,65,51,0,-20
32,100,70,60,go_to_color_detect_down,red,TRUE,FALSE,joint 3 +,FALSE,28:49.1,16.405,0.154,236.8,131.6940765,282.4188232,84.95825195,45,65,51,0,-20
32,100,70,60,go_to_color_detect_down,red,TRUE,FALSE,joint 3 +,FALSE,28:50.3,16.443,0.154,236.8,125.4492798,269.0268555,20.72486877,45,65,51,26.83088875,-20
32,100,70,60,go_to_color_detect_up_from_color_detect_down,red,TRUE,FALSE,joint 3 -,TRUE,28:51.0,16.329,0.157,236.8,111.1388397,238.3379974,-24.28404236,45,65,51,48,-20
32,100,70,60,go_to_color_detect_up_from_color_detect_down,red,TRUE,FALSE,joint 3 -,TRUE,28:52.4,16.519,0.214,236.8,124.5671082,267.1350098,16.59467316,45,65,51,26.81240082,-20
32,100,70,60,go_to_green_up,green,TRUE,FALSE,joint 1 +,TRUE,28:53.1,22.975,0.214,236.8,131.6940765,282.4188232,84.95825195,45,65,51,0,-20
32,100,70,60,go_to_green_up,green,TRUE,FALSE,joint 1 +,TRUE,28:54.4,22.652,0.202,236.8,20.89510727,310.9133606,84.95825195,66.15518951,87.00486755,51,0,-20
32,100,70,60,go_to_pick_up_from_green,green,TRUE,FALSE,joint 1 -,FALSE,28:55.1,22.026,0.202,236.8,-80.65180969,300.9967041,84.95825195,85,105,51,0,-20
32,100,70,60,go_to_pick_up_from_green,green,TRUE,FALSE,joint 1 -,FALSE,28:56.5,16.462,0.202,236.8,75.94541168,302.2185059,84.95825195,55.8940506,74.81604767,51,0,-20
32,100,70,60,go_to_pick_up_from_green,green,TRUE,FALSE,joint 1 -,FALSE,28:57.2,16.462,0.155,236.8,274.2139893,148.0216827,84.95825195,8.360332489,27.79766083,51,0,-20
32,100,70,60,moving_belt,green,FALSE,TRUE,joint 1 -,FALSE,28:57.9,16.538,0.155,236.8,292.822052,106.5785141,84.95825195,0,20,51,0,-20
32,100,70,60,moving_belt,green,FALSE,TRUE,joint 1 -,FALSE,28:59.4,16.557,0.156,236.8,292.822052,106.5785141,84.95825195,0,20,51,0,-20
32,100,70,60,moving_belt,green,FALSE,TRUE,joint 1 -,FALSE,29:00.0,16.557,0.156,236.8,292.822052,106.5785141,84.95825195,0,20,51,0,-20
32,100,70,60,moving_belt,green,FALSE,TRUE,joint 1 -,FALSE,29:01.4,16.614,0.156,236.8,292.822052,106.5785141,84.95825195,0,20,51,0,-20
32,100,70,60,go_to_pick_down,green,TRUE,FALSE,joint 3 +,FALSE,29:02.1,16.614,0.156,236.8,292.822052,106.5785141,84.95825195,0,20,51,0,-20
32,100,70,60,go_to_pick_down,green,TRUE,FALSE,joint 3 +,FALSE,29:03.5,16.5,0.155,236.8,286.1528015,104.1511078,39.83367538,0,20,51,18.26883316,-20
32,100,70,60,go_to_pick_up_from_pick_down,green,TRUE,FALSE,joint 3 -,TRUE,29:04.2,16.329,0.155,236.8,287.0715637,104.4855042,42.98566055,0,20,51,16.12000084,-20
32,100,70,60,go_to_color_detect_up_from_pick_up,green,TRUE,FALSE,joint 1 +,TRUE,29:05.6,23.222,0.203,236.8,291.4873657,110.1764374,84.95825195,0.705596924,20.88199615,51,0,-20
32,100,70,60,go_to_color_detect_up_from_pick_up,green,TRUE,FALSE,joint 1 +,TRUE,29:06.3,22.253,0.203,236.8,200.9651184,238.1528015,84.95825195,29.84066772,50.60176468,51,0,-20
32,100,70,60,go_to_color_detect_down,green,TRUE,FALSE,joint 3 +,TRUE,29:07.0,22.177,0.203,236.8,131.6912231,282.4127197,83.55025482,45,65,51,0.705600023,-20
32,100,70,60,go_to_color_detect_down,green,TRUE,FALSE,joint 3 +,TRUE,29:08.4,21.912,0.199,236.8,120.9300385,259.3352966,2.257400513,45,65,51,34.95985794,-20
32,100,70,60,go_to_color_detect_up_from_color_detect_down,green,TRUE,FALSE,joint 3 -,FALSE,29:09.1,22.045,0.199,236.8,111.7042313,239.5504913,-23.06446075,45,65,51,47.11800385,-20
32,100,70,60,go_to_color_detect_up_from_color_detect_down,green,TRUE,FALSE,joint 3 -,FALSE,29:10.5,22.102,0.198,236.8,129.0238342,276.6924744,42.32413483,45,65,51,16.05653381,-20
32,100,70,60,detecting_color,green,FALSE,FALSE,detecting_color,FALSE,29:11.2,16.918,0.198,236.8,131.6940765,282.4188232,84.95825195,45,65,51,0,-20
32,100,70,60,detecting_color,green,FALSE,FALSE,detecting_color,FALSE,29:12.5,16.576,0.155,236.8,131.6940765,282.4188232,84.95825195,45,65,51,0,-20
32,100,70,60,go_to_color_detect_down,green,TRUE,FALSE,joint 3 +,FALSE,29:13.2,16.576,0.155,236.8,131.5338287,282.0751953,74.40718079,45,65,51,4.527600288,-20
32,100,70,60,go_to_color_detect_down,green,TRUE,FALSE,joint 3 +,FALSE,29:14.6,16.481,0.153,236.8,117.9198761,252.8799744,-7.345222473,45,65,51,39.48394012,-20
32,100,70,60,go_to_color_detect_up_from_color_detect_down,green,TRUE,FALSE,joint 3 -,TRUE,29:15.3,16.481,0.153,236.8,112.9984894,242.3260345,-20.15538025,45,65,51,45.33441162,-20
32,100,70,60,go_to_color_detect_up_from_color_detect_down,green,TRUE,FALSE,joint 3 -,TRUE,29:16.0,16.69,0.153,236.8,131.0091095,280.9499207,63.1894989,45,65,51,7.948169708,-20
32,100,70,60,go_to_blue_up,blue,TRUE,FALSE,joint 1 +,TRUE,29:17.4,22.519,0.206,236.8,118.4172516,288.2378845,84.95825195,47.66558838,67.99878693,51,0,-20
32,100,70,60,go_to_pick_up_from_blue,blue,TRUE,FALSE,joint 1 -,FALSE,29:18.1,22.519,0.206,236.8,27.15902901,310.4289246,84.95825195,65,85,51,0,-20
32,100,70,60,go_to_pick_up_from_blue,blue,TRUE,FALSE,joint 1 -,FALSE,29:18.8,22.177,0.199,236.8,137.5188141,279.6288757,84.95825195,43.81248093,62.89128113,51,0,-20
32,100,70,60,go_to_pick_up_from_blue,blue,TRUE,FALSE,joint 1 -,FALSE,29:20.4,16.481,0.199,236.8,288.693573,117.3019485,84.95825195,2.112884521,21.83505249,51,0,-20
32,100,70,60,moving_belt,blue,FALSE,TRUE,joint 1 -,FALSE,29:21.2,16.481,0.156,236.8,292.822052,106.5785141,84.95825195,0,20,51,0,-20
32,100,70,60,moving_belt,blue,FALSE,TRUE,joint 1 -,FALSE,29:22.0,16.671,0.156,236.8,292.822052,106.5785141,84.95825195,0,20,51,0,-20
32,100,70,60,moving_belt,blue,FALSE,TRUE,joint 1 -,FALSE,29:23.6,16.804,0.158,236.8,292.822052,106.5785141,84.95825195,0,20,51,0,-20
32,100,70,60,moving_belt,blue,FALSE,TRUE,joint 1 -,FALSE,29:24.4,16.747,0.158,236.8,292.822052,106.5785141,84.95825195,0,20,51,0,-20
32,100,70,60,go_to_pick_down,blue,TRUE,FALSE,joint 3 +,FALSE,29:25.1,16.747,0.157,236.8,292.8184814,106.5772171,83.90224457,0,20,51,0.548799992,-20
32,100,70,60,go_to_pick_down,blue,TRUE,FALSE,joint 3 +,FALSE,29:26.6,16.329,0.157,236.8,283.1370544,103.0534668,30.8850975,0,20,51,21.70046425,-20
32,100,70,60,go_to_pick_up_from_pick_down,blue,TRUE,FALSE,joint 3 -,TRUE,29:27.3,16.329,0.173,236.8,291.4891968,106.0933914,64.58665466,0,20,51,7.416901588,-20
32,100,70,60,go_to_color_detect_up_from_pick_up,blue,TRUE,FALSE,joint 1 +,TRUE,29:28.0,22.956,0.173,236.8,287.5486145,120.0813675,84.95825195,2.665597916,22.99879837,51,0,-20
32,100,70,60,go_to_color_detect_up_from_pick_up,blue,TRUE,FALSE,joint 1 +,TRUE,29:29.3,22.177,0.202,236.8,161.8319855,266.2970581,84.95825195,38.71243286,59.19913101,51,0,-20
32,100,70,60,go_to_color_detect_down,blue,TRUE,FALSE,joint 3 +,TRUE,29:30.3,22.177,0.202,236.8,131.5338287,282.0751953,74.40718079,45,65,51,4.527600288,-20
32,100,70,60,go_to_color_detect_down,blue,TRUE,FALSE,joint 3 +,TRUE,29:31.0,22.177,0.202,236.8,117.9198761,252.8799744,-7.345222473,45,65,51,39.48394012,-20
32,100,70,60,go_to_color_detect_up_from_color_detect_down,blue,TRUE,FALSE,joint 3 -,FALSE,29:32.3,21.988,0.2,236.8,114.6535721,245.8753662,-16.17852783,45,65,51,43.04122162,-20
32,100,70,60,go_to_color_detect_up_from_color_detect_down,blue,TRUE,FALSE,joint 3 -,FALSE,29:33.0,21.988,0.2,236.8,131.0091095,280.9499207,63.1894989,45,65,51,7.948169708,-20
32,100,70,60,detecting_color,blue,FALSE,FALSE,detecting_color,FALSE,29:34.4,16.823,0.162,236.8,131.6940765,282.4188232,84.95825195,45,65,51,0,-20
32,100,70,60,go_to_color_detect_down,blue,TRUE,FALSE,joint 3 +,FALSE,29:35.1,16.652,0.162,236.8,131.6940765,282.4188232,84.95825195,45,65,51,0,-20
32,100,70,60,go_to_color_detect_down,blue,TRUE,FALSE,joint 3 +,FALSE,29:36.5,16.443,0.157,236.8,127.4945602,273.4129639,31.82910538,45,65,51,22.10880089,-20
32,100,70,60,go_to_color_detect_down,blue,TRUE,FALSE,joint 3 +,TRUE,29:37.2,16.405,0.157,236.8,111.1388397,238.3379974,-24.28404236,45,65,51,48,-20
32,100,70,60,go_to_color_detect_up_from_color_detect_down,blue,TRUE,FALSE,joint 3 -,TRUE,29:38.6,18.19,0.169,236.8,125.0149155,268.0953369,18.65084839,45,65,51,25.89120102,-20
32,100,70,60,go_to_color_detect_up_from_color_detect_down,blue,TRUE,FALSE,joint 3 -,TRUE,29:39.2,22.861,0.169,236.8,131.6936951,282.4180298,84.4486084,45,65,51,0.120746776,-20
32,100,70,60,go_to_red_up,red,TRUE,FALSE,joint 1 +,TRUE,29:40.6,22.5,0.2,236.8,20.7196064,310.9251099,84.95825195,66.18752289,87.1087265,51,0,-20
32,100,70,60,go_to_red_up,red,TRUE,FALSE,joint 1 +,TRUE,29:41.3,22.121,0.2,236.8,-167.1545105,262.9887695,84.95825195,102.4398575,122.746727,51,0,-20
32,100,70,60,go_to_pick_up_from_red,red,TRUE,FALSE,joint 1 -,FALSE,29:42.0,22.424,0.2,236.8,-144.3275757,276.176178,84.95825195,97.5912323,117.0424347,51,0,-20
32,100,70,60,go_to_pick_up_from_red,red,TRUE,FALSE,joint 1 -,FALSE,29:43.4,17.753,0.2,236.8,149.8392029,273.2250671,84.95825195,41.25922394,59.99727631,51,0,-20
32,100,70,60,go_to_pick_up_from_red,red,TRUE,FALSE,joint 1 -,FALSE,29:44.1,16.652,0.2,236.8,287.2774658,120.728569,84.95825195,2.794616699,22.47347069,51,0,-20
32,100,70,60,moving_belt,red,FALSE,TRUE,joint 1 -,FALSE,29:45.5,16.424,0.156,236.8,292.822052,106.5785141,84.95825195,0,20,51,0,-20
32,100,70,60,moving_belt,red,FALSE,TRUE,joint 1 -,FALSE,29:46.2,16.424,0.156,236.8,292.822052,106.5785141,84.95825195,0,20,51,0,-20
32,100,70,60,moving_belt,red,FALSE,TRUE,joint 1 -,FALSE,29:47.6,16.595,0.157,236.8,292.822052,106.5785141,84.95825195,0,20,51,0,-20
32,100,70,60,moving_belt,red,FALSE,TRUE,joint 1 -,FALSE,29:48.3,16.595,0.157,236.8,292.822052,106.5785141,84.95825195,0,20,51,0,-20
32,100,70,60,go_to_pick_down,red,TRUE,FALSE,joint 3 +,FALSE,29:49.0,16.576,0.157,236.8,292.8056641,106.5725555,82.69544983,0,20,51,1.078000069,-20
32,100,70,60,go_to_pick_down,red,TRUE,FALSE,joint 3 +,FALSE,29:50.3,16.462,0.157,236.8,283.5501709,103.2038269,32.00999451,0,20,51,21.288517,-20
32,100,70,60,go_to_pick_up_from_pick_down,red,TRUE,FALSE,joint 3 -,TRUE,29:51.0,16.462,0.156,236.8,290.2821045,105.6540527,56.89824677,0,20,51,10.35748386,-20
32,100,70,60,go_to_color_detect_up_from_pick_up,red,TRUE,FALSE,joint 1 +,TRUE,29:52.4,22.462,0.156,236.8,287.5486145,120.0813675,84.95825195,2.665597916,22.99879837,51,0,-20
32,100,70,60,go_to_color_detect_up_from_pick_up,red,TRUE,FALSE,joint 1 +,TRUE,29:53.1,21.874,0.198,236.8,177.03508,256.4416199,84.95825195,35.38064575,55.98494339,51,0,-20
32,100,70,60,go_to_color_detect_down,red,TRUE,FALSE,joint 3 +,TRUE,29:54.5,22.026,0.198,236.8,131.654007,282.3328857,79.67931366,45,65,51,2.351999998,-20
32,100,70,60,go_to_color_detect_down,red,TRUE,FALSE,joint 3 +,TRUE,29:55.2,21.855,0.198,236.8,117.9198761,252.8799744,-7.345222473,45,65,51,39.48394012,-20
32,100,70,60,go_to_color_detect_up_from_color_detect_down,red,TRUE,FALSE,joint 3 -,FALSE,29:55.9,21.874,0.197,236.8,112.9984894,242.3260345,-20.15538025,45,65,51,45.33441162,-20
32,100,70,60,go_to_color_detect_up_from_color_detect_down,red,TRUE,FALSE,joint 3 -,FALSE,29:57.4,19.538,0.197,236.8,130.2599335,279.3433228,53.55493164,45,65,51,11.64955139,-20
32,100,70,60,detecting_color,red,FALSE,FALSE,detecting_color,FALSE,29:58.0,16.937,0.159,236.8,131.6940765,282.4188232,84.95825195,45,65,51,0,-20
32,100,70,60,detecting_color,red,FALSE,FALSE,detecting_color,FALSE,29:59.4,16.405,0.159,236.8,131.6940765,282.4188232,84.95825195,45,65,51,0,-20
32,100,70,60,detecting_color,red,FALSE,FALSE,detecting_color,FALSE,30:00.1,16.405,0.157,236.8,131.6940765,282.4188232,84.95825195,45,65,51,0,-20
32,100,70,60,detecting_color,red,FALSE,FALSE,detecting_color,FALSE,30:01.5,16.367,0.157,236.8,131.6940765,282.4188232,84.95825195,45,65,51,0,-20
32,100,70,60,go_to_color_detect_down,red,TRUE,FALSE,joint 3 +,FALSE,30:02.2,16.481,0.154,236.8,131.6867065,282.4030457,82.69544983,45,65,51,1.078000069,-20
32,100,70,60,go_to_color_detect_down,red,TRUE,FALSE,joint 3 +,FALSE,30:03.6,16.443,0.154,236.8,122.7420502,263.2211609,8.939178467,45,65,51,31.94346809,-20
32,100,70,60,go_to_color_detect_up_from_color_detect_down,red,TRUE,FALSE,joint 3 -,TRUE,30:04.3,16.367,0.154,236.8,111.1862106,238.4395905,-24.1830368,45,65,51,47.88240051,-20
32,100,70,60,go_to_color_detect_up_from_color_detect_down,red,TRUE,FALSE,joint 3 -,TRUE,30:05.0,16.367,0.154,236.8,129.0238342,276.6924744,42.32413483,45,65,51,16.05653381,-20
32,100,70,60,go_to_green_up,green,TRUE,FALSE,joint 1 +,TRUE,30:06.6,22.671,0.202,236.8,130.7271881,282.8676758,84.95825195,45.19599915,65.29399872,51,0,-20
32,100,70,60,go_to_green_up,green,TRUE,FALSE,joint 1 +,TRUE,30:07.3,21.893,0.202,236.8,-5.216857433,311.5710449,84.95825195,70.95925903,91.69133759,51,0,-20
32,100,70,60,go_to_pick_up_from_green,green,TRUE,FALSE,joint 1 -,FALSE,30:08.6,22.007,0.196,236.8,-72.59272766,303.0413208,84.95825195,83.47120667,103.2164078,51,0,-20
32,100,70,60,go_to_pick_up_from_green,green,TRUE,FALSE,joint 1 -,FALSE,30:09.3,18.817,0.196,236.8,111.002037,291.1739807,84.95825195,49.1320343,67.93643188,51,0,-20
32,100,70,60,go_to_pick_up_from_green,green,TRUE,FALSE,joint 1 -,FALSE,30:10.0,18.817,0.196,236.8,281.7758179,133.0643158,84.95825195,5.278301239,24.83322906,51,0,-20
32,100,70,60,moving_belt,green,FALSE,TRUE,joint 1 -,FALSE,30:11.5,16.386,0.155,236.8,292.822052,106.5785141,84.95825195,0,20,51,0,-20
32,100,70,60,moving_belt,green,FALSE,TRUE,joint 1 -,FALSE,30:12.2,16.386,0.155,236.8,292.822052,106.5785141,84.95825195,0,20,51,0,-20
32,100,70,60,moving_belt,green,FALSE,TRUE,joint 1 -,FALSE,30:13.6,16.576,0.156,236.8,292.822052,106.5785141,84.95825195,0,20,51,0,-20
32,100,70,60,moving_belt,green,FALSE,TRUE,joint 1 -,FALSE,30:14.3,16.747,0.156,236.8,292.822052,106.5785141,84.95825195,0,20,51,0,-20
32,100,70,60,go_to_pick_down,green,TRUE,FALSE,joint 3 +,FALSE,30:15.0,16.747,0.156,236.8,292.8212585,106.5782242,84.45539093,0,20,51,0.294,-20
32,100,70,60,go_to_pick_down,green,TRUE,FALSE,joint 3 +,FALSE,30:16.4,16.348,0.156,236.8,284.5446777,103.5657959,34.8370285,0,20,51,20.20993423,-20
32,100,70,60,go_to_pick_up_from_pick_down,green,TRUE,FALSE,joint 3 -,TRUE,30:17.1,16.348,0.156,236.8,290.571167,105.7592621,58.52923203,0,20,51,9.730167389,-20
32,100,70,60,go_to_color_detect_up_from_pick_up,green,TRUE,FALSE,joint 1 +,TRUE,30:18.5,22.576,0.167,236.8,289.3629761,115.6408386,84.95825195,1.783596039,22.05799675,51,0,-20
32,100,70,60,go_to_color_detect_up_from_pick_up,green,TRUE,FALSE,joint 1 +,TRUE,30:19.2,22.576,0.167,236.8,185.5733643,250.3322906,84.95825195,33.45015335,54.11325073,51,0,-20
32,100,70,60,go_to_color_detect_down,green,TRUE,FALSE,joint 3 +,TRUE,30:20.6,22.14,0.2,236.8,131.6268463,282.2746887,78.12176514,45,65,51,2.998800039,-20
32,100,70,60,go_to_color_detect_down,green,TRUE,FALSE,joint 3 +,TRUE,30:21.2,21.779,0.2,236.8,119.6049805,256.4936829,-2.171981812,45,65,51,37.01634979,-20
32,100,70,60,go_to_color_detect_up_from_color_detect_down,green,TRUE,FALSE,joint 3 -,FALSE,30:22.6,21.855,0.198,236.8,112.0000687,240.1849213,-22.41416931,45,65,51,46.70640564,-20
32,100,70,60,go_to_color_detect_up_from_color_detect_down,green,TRUE,FALSE,joint 3 -,FALSE,30:23.3,17.677,0.198,236.8,130.4143677,279.6744995,55.27527618,45,65,51,10.98365402,-20
32,100,70,60,detecting_color,green,FALSE,FALSE,detecting_color,FALSE,30:24.0,17.677,0.161,236.8,131.6940765,282.4188232,84.95825195,45,65,51,0,-20
32,100,70,60,detecting_color,green,FALSE,FALSE,detecting_color,FALSE,30:25.4,17.165,0.161,236.8,131.6940765,282.4188232,84.95825195,45,65,51,0,-20
32,100,70,60,go_to_color_detect_down,green,TRUE,FALSE,joint 3 +,FALSE,30:26.1,16.557,0.157,236.8,131.0958557,281.1359558,64.60753632,45,65,51,8.526000977,-20
32,100,70,60,go_to_color_detect_down,green,TRUE,FALSE,joint 3 +,FALSE,30:27.5,16.424,0.157,236.8,114.969223,246.5522766,-15.38483429,45,65,51,43.47832489,-20
32,100,70,60,go_to_color_detect_up_from_color_detect_down,green,TRUE,FALSE,joint 3 -,TRUE,30:28.2,16.5,0.157,236.8,117.130043,246.5624237,-15.37283325,45,65,51,42.59041977,-20
32,100,70,60,go_to_color_detect_up_from_color_detect_down,green,TRUE,FALSE,joint 3 -,TRUE,30:29.6,23.051,0.157,236.8,131.4621582,281.9214783,72.26805115,45,65,51,4.521691322,-20
32,100,70,60,go_to_blue_up,blue,TRUE,FALSE,joint 1 +,TRUE,30:30.3,22.804,0.203,236.8,106.7891235,292.7453308,84.95825195,49.95877838,70.40957642,51,0,-20
32,100,70,60,go_to_pick_up_from_blue,blue,TRUE,FALSE,joint 1 -,FALSE,30:31.7,21.779,0.203,236.8,31.93428421,309.9740906,84.95825195,64.11800385,83.9220047,51,0,-20
32,100,70,60,go_to_pick_up_from_blue,blue,TRUE,FALSE,joint 1 -,FALSE,30:32.4,22.026,0.156,236.8,189.2616577,247.5555573,84.95825195,32.60128784,51.48065567,51,0,-20
32,100,70,60,go_to_pick_up_from_blue,blue,TRUE,FALSE,joint 1 -,FALSE,30:33.1,16.5,0.156,236.8,291.0735779,111.2650146,84.95825195,0.919723511,20.73989105,51,0,-20
32,100,70,60,moving_belt,blue,FALSE,TRUE,joint 1 -,FALSE,30:34.4,16.481,0.156,236.8,292.822052,106.5785141,84.95825195,0,20,51,0,-20
32,100,70,60,moving_belt,blue,FALSE,TRUE,joint 1 -,FALSE,30:35.1,16.481,0.161,236.8,292.822052,106.5785141,84.95825195,0,20,51,0,-20
32,100,70,60,moving_belt,blue,FALSE,TRUE,joint 1 -,FALSE,30:36.5,16.709,0.161,236.8,292.822052,106.5785141,84.95825195,0,20,51,0,-20
32,100,70,60,moving_belt,blue,FALSE,TRUE,joint 1 -,FALSE,30:37.2,16.709,0.157,236.8,292.822052,106.5785141,84.95825195,0,20,51,0,-20
32,100,70,60,go_to_pick_down,blue,TRUE,FALSE,joint 3 +,FALSE,30:38.6,16.5,0.157,236.8,292.7056885,106.5361557,78.92557526,0,20,51,2.665600061,-20
32,100,70,60,go_to_pick_down,blue,TRUE,FALSE,joint 3 +,FALSE,30:39.3,16.5,0.157,236.8,282.8743286,102.9578323,30.18357468,0,20,51,21.93601227,-20
32,100,70,60,go_to_pick_up_from_pick_down,blue,TRUE,FALSE,joint 3 -,TRUE,30:40.6,18.608,0.157,236.8,291.8251648,106.215683,67.32975769,0,20,51,6.377868652,-20
32,100,70,60,go_to_color_detect_up_from_pick_up,blue,TRUE,FALSE,joint 1 +,TRUE,30:41.3,22.595,0.202,236.8,280.3629456,136.0160065,84.95825195,5.879999161,26.36999893,51,0,-20
32,100,70,60,go_to_color_detect_up_from_pick_up,blue,TRUE,FALSE,joint 1 +,TRUE,30:42.0,22.064,0.202,236.8,157.3767853,268.9540405,84.95825195,39.66622925,60.11372757,51,0,-20
32,100,70,60,go_to_color_detect_down,blue,TRUE,FALSE,joint 3 +,TRUE,30:43.5,22.215,0.199,236.8,131.175415,281.3065796,66.0029068,45,65,51,7.957600594,-20
32,100,70,60,go_to_color_detect_down,blue,TRUE,FALSE,joint 3 +,TRUE,30:44.2,21.893,0.199,236.8,115.3010941,247.2639771,-14.53746796,45,65,51,43.0476265,-20
32,100,70,60,go_to_color_detect_up_from_color_detect_down,blue,TRUE,FALSE,joint 3 -,FALSE,30:45.6,21.855,0.196,236.8,114.6535721,245.8753662,-16.17852783,45,65,51,43.04122162,-20
32,100,70,60,go_to_color_detect_up_from_color_detect_down,blue,TRUE,FALSE,joint 3 -,FALSE,30:46.3,19.006,0.196,236.8,131.4180756,281.8269653,71.11746979,45,65,51,4.952388287,-20
32,100,70,60,detecting_color,blue,FALSE,FALSE,detecting_color,FALSE,30:47.7,16.88,0.156,236.8,131.6940765,282.4188232,84.95825195,45,65,51,0,-20
32,100,70,60,go_to_color_detect_down,blue,TRUE,FALSE,joint 3 +,FALSE,30:48.4,16.576,0.156,236.8,131.6940765,282.4188232,84.95825195,45,65,51,0,-20
32,100,70,60,go_to_color_detect_down,blue,TRUE,FALSE,joint 3 +,FALSE,30:49.0,16.576,0.156,236.8,125.0058746,268.0759583,18.60852814,45,65,51,27.73198509,-20
32,100,70,60,go_to_color_detect_up_from_color_detect_down,blue,TRUE,FALSE,joint 3 -,TRUE,30:50.4,16.348,0.155,236.8,111.1388397,238.3379974,-24.28404236,45,65,51,48,-20
32,100,70,60,go_to_color_detect_up_from_color_detect_down,blue,TRUE,FALSE,joint 3 -,TRUE,30:51.1,16.519,0.155,236.8,124.5671082,267.1350098,16.59467316,45,65,51,26.81240082,-20
32,100,70,60,go_to_red_up,red,TRUE,FALSE,joint 1 +,TRUE,30:52.5,22.633,0.205,236.8,131.6940765,282.4188232,84.95825195,45,65,51,0,-20
32,100,70,60,go_to_red_up,red,TRUE,FALSE,joint 1 +,TRUE,30:53.2,22.633,0.205,236.8,25.60955238,310.5606079,84.95825195,65.28591919,86.18752289,51,0,-20
32,100,70,60,go_to_red_up,red,TRUE,FALSE,joint 1 +,TRUE,30:54.6,22.405,0.2,236.8,-165.6533661,263.9368896,84.95825195,102.1133881,122.4398575,51,0,-20
32,100,70,60,go_to_pick_up_from_red,red,TRUE,FALSE,joint 1 -,FALSE,30:55.3,22.177,0.2,236.8,-126.7672653,284.6643677,84.95825195,94.00444794,113.3380508,51,0,-20
32,100,70,60,go_to_pick_up_from_red,red,TRUE,FALSE,joint 1 -,FALSE,30:56.7,16.386,0.156,236.8,149.8392029,273.2250671,84.95825195,41.25922394,59.99727631,51,0,-20
32,100,70,60,go_to_pick_up_from_red,red,TRUE,FALSE,joint 1 -,FALSE,30:57.4,16.386,0.156,236.8,290.6010132,112.493515,84.95825195,1.161739349,20.95819283,51,0,-20
32,100,70,60,moving_belt,red,FALSE,TRUE,joint 1 -,FALSE,30:58.6,16.405,0.156,236.8,292.822052,106.5785141,84.95825195,0,20,51,0,-20
32,100,70,60,moving_belt,red,FALSE,TRUE,joint 1 -,FALSE,30:59.3,16.747,0.158,236.8,292.822052,106.5785141,84.95825195,0,20,51,0,-20
32,100,70,60,moving_belt,red,FALSE,TRUE,joint 1 -,FALSE,31:00.6,16.462,0.158,236.8,292.822052,106.5785141,84.95825195,0,20,51,0,-20
32,100,70,60,moving_belt,red,FALSE,TRUE,joint 1 -,FALSE,31:01.3,16.424,0.158,236.8,292.822052,106.5785141,84.95825195,0,20,51,0,-20
32,100,70,60,go_to_pick_down,red,TRUE,FALSE,joint 3 +,FALSE,31:02.0,16.424,0.158,236.8,292.7976074,106.5696182,82.19265747,0,20,51,1.293600082,-20
32,100,70,60,go_to_pick_down,red,TRUE,FALSE,joint 3 +,FALSE,31:02.7,16.671,0.158,236.8,283.3963013,103.1478195,31.58776474,0,20,51,21.44543266,-20
32,100,70,60,go_to_pick_up_from_pick_down,red,TRUE,FALSE,joint 3 -,TRUE,31:03.9,16.671,0.156,236.8,292.0933533,106.3132935,69.87900543,0,20,51,5.417235374,-20
32,100,70,60,go_to_color_detect_up_from_pick_up,red,TRUE,FALSE,joint 1 +,TRUE,31:05.3,16.481,0.156,236.8,284.4170227,127.3212051,84.95825195,4.115999222,24.52759933,51,0,-20
32,100,70,60,go_to_color_detect_up_from_pick_up,red,TRUE,FALSE,joint 1 +,TRUE,31:06.7,22.481,0.205,236.8,166.60289,263.338562,84.95825195,37.68023682,58.2061348,51,0,-20
32,100,70,60,go_to_color_detect_down,red,TRUE,FALSE,joint 3 +,TRUE,31:07.4,22.481,0.202,236.8,131.367218,281.7178955,69.89878845,45,65,51,6.370000362,-20
32,100,70,60,go_to_color_detect_down,red,TRUE,FALSE,joint 3 +,TRUE,31:08.4,22.215,0.202,236.8,116.363678,249.5426941,-11.73165131,45,65,51,41.63793182,-20
32,100,70,60,go_to_color_detect_up_from_color_detect_down,red,TRUE,FALSE,joint 3 -,FALSE,31:09.1,22.121,0.202,236.8,113.7668457,243.9737701,-18.34664917,45,65,51,44.27601624,-20
32,100,70,60,go_to_color_detect_up_from_color_detect_down,red,TRUE,FALSE,joint 3 -,FALSE,31:10.5,22.064,0.2,236.8,131.3114777,281.5983582,68.66900635,45,65,51,5.872581959,-20
32,100,70,60,detecting_color,red,FALSE,FALSE,detecting_color,FALSE,31:11.2,16.842,0.2,236.8,131.6940765,282.4188232,84.95825195,45,65,51,0,-20
32,100,70,60,detecting_color,red,FALSE,FALSE,detecting_color,FALSE,31:12.5,16.557,0.158,236.8,131.6940765,282.4188232,84.95825195,45,65,51,0,-20
32,100,70,60,detecting_color,red,FALSE,FALSE,detecting_color,FALSE,31:13.2,16.367,0.158,236.8,131.6940765,282.4188232,84.95825195,45,65,51,0,-20
32,100,70,60,detecting_color,red,FALSE,FALSE,detecting_color,FALSE,31:14.7,16.481,0.157,236.8,131.6940765,282.4188232,84.95825195,45,65,51,0,-20
32,100,70,60,detecting_color,red,FALSE,FALSE,detecting_color,FALSE,31:15.4,16.481,0.157,236.8,131.6940765,282.4188232,84.95825195,45,65,51,0,-20
32,100,70,60,detecting_color,red,FALSE,FALSE,detecting_color,FALSE,31:16.1,16.481,0.157,236.8,131.6940765,282.4188232,84.95825195,45,65,51,0,-20
32,100,70,60,go_to_color_detect_down,red,TRUE,FALSE,joint 3 +,FALSE,31:17.2,16.5,0.157,236.8,131.5338287,282.0751953,74.40718079,45,65,51,4.527600288,-20
32,100,70,60,go_to_color_detect_down,red,TRUE,FALSE,joint 3 +,FALSE,31:18.6,16.424,0.155,236.8,117.9198761,252.8799744,-7.345222473,45,65,51,39.48394012,-20
32,100,70,60,go_to_color_detect_up_from_color_detect_down,red,TRUE,FALSE,joint 3 -,TRUE,31:19.4,16.557,0.155,236.8,112.9984894,242.3260345,-20.15538025,45,65,51,45.33441162,-20
32,100,70,60,go_to_color_detect_up_from_color_detect_down,red,TRUE,FALSE,joint 3 -,TRUE,31:20.1,23.184,0.155,236.8,131.0091095,280.9499207,63.1894989,45,65,51,7.948169708,-20
