demetriskallis/dobot_magician_pick_and_place_and_color_sorting/Sampling/WholeSystemExperiments_training_data/payload_32g/joint_measurements__armv_100_arma_30_belts_60_cube_32g.csv
cube/weight,arm/velocity_ratio,arm/acceleration_ratio,belt/speed,dobot/operation,dobot/color,dobot/moving_arm,dobot/moving_belt,dobot/operation2,dobot/suction,meross/sample_timestamp,meross/power,meross/current,meross/voltage,dobot/pose_x,dobot/pose_y,dobot/pose_z,dobot/pose_rHead,dobot/pose_joint1Angle,dobot/pose_joint2Angle,dobot/pose_joint3Angle,dobot/pose_joint4Angle
32,100,30,60,homing,,,,homing,,,,,,164.84274291992188,66.2468490600586,64.66045379638672,1.8941612243652344,21.49416160583496,-4.836973190307617,28.37430763244629,-20.0
32,100,30,60,homing,,,,homing,,,,,,177.45997619628906,8.350711822509766,64.66045379638672,-17.305828094482422,2.294172763824463,-4.836973190307617,28.37430763244629,-20.0
32,100,30,60,homing,,,,homing,,,,,,169.978759765625,-51.662357330322266,64.66045379638672,-36.90582275390625,-17.30582046508789,-4.836973190307617,28.37430763244629,-20.0
32,100,30,60,homing,,,,homing,,2024-03-04 12:22:40.007054,16.291,0.151,236.8,139.0240478515625,-110.60782623291016,64.66045379638672,-58.50583267211914,-38.90583419799805,-4.836973190307617,28.37430763244629,-20.0
32,100,30,60,homing,,,,homing,,2024-03-04 12:22:41.418607,16.405,0.151,236.8,94.91558074951172,-150.17591857910156,64.66045379638672,-77.70590209960938,-58.10590744018555,-4.836973190307617,28.37430763244629,-20.0
32,100,30,60,homing,,,,homing,,2024-03-04 12:22:42.112670,16.386,0.151,236.8,40.24799346923828,-173.03721618652344,64.66045379638672,-96.90597534179688,-77.30597686767578,-4.836973190307617,28.37430763244629,-20.0
32,100,30,60,homing,,,,homing,,2024-03-04 12:22:42.808866,16.386,0.152,236.8,-25.05059242248535,-175.88133239746094,64.66045379638672,-118.1060562133789,-98.50605773925781,-4.836973190307617,28.37430763244629,-20.0
32,100,30,60,homing,,,,homing,,2024-03-04 12:22:44.187227,16.291,0.152,236.8,-81.49890899658203,-157.85975646972656,64.66045379638672,-137.30612182617188,-117.70613098144531,-4.836973190307617,28.37430763244629,-20.0
32,100,30,60,homing,,,,homing,,2024-03-04 12:22:44.881499,16.291,0.152,236.8,-128.8375701904297,-122.32194519042969,64.66045379638672,-156.4860382080078,-136.46603393554688,-4.836973190307617,28.37430763244629,-20.0
32,100,30,60,homing,,,,homing,,2024-03-04 12:22:46.263221,16.424,0.152,236.8,-126.50857543945312,-124.72911834716797,64.66045379638672,-155.4058074951172,-135.38580322265625,-4.836973190307617,28.37430763244629,-20.0
32,100,30,60,homing,,,,homing,,2024-03-04 12:22:46.951926,16.367,0.151,236.8,-105.6795883178711,-147.10711669921875,63.41876983642578,-144.86831665039062,-125.21290588378906,-2.9059574604034424,29.092626571655273,-19.13311767578125
32,100,30,60,homing,,,,homing,,2024-03-04 12:22:48.346251,16.633,0.151,236.8,-25.574359893798828,-192.8782958984375,57.33667755126953,-113.50611114501953,-96.95297241210938,4.3848042488098145,31.804716110229492,-15.860109329223633
32,100,30,60,homing,,,,homing,,2024-03-04 12:22:49.043162,16.633,0.154,236.8,92.52003479003906,-199.8015594482422,39.139190673828125,-74.58623504638672,-64.55305480957031,19.01446533203125,37.24680709838867,-9.292484283447266
32,100,30,60,homing,,,,homing,,2024-03-04 12:22:50.422740,16.652,0.154,236.8,192.56544494628906,-141.7284698486328,17.748252868652344,-40.2253303527832,-35.75312805175781,31.288738250732422,41.81270980834961,-3.7822513580322266
32,100,30,60,homing,,,,homing,,2024-03-04 12:22:51.113492,16.576,0.154,236.8,245.35430908203125,-36.565269470214844,3.59075927734375,-9.223384857177734,-8.0313720703125,38.137325286865234,44.36031723022461,-0.7077459096908569
32,100,30,60,homing,,,,homing,,2024-03-04 12:22:51.947702,16.576,0.153,236.8,249.99974060058594,-0.0010425301734358072,-0.00286865234375,-0.00023893057368695736,0.0,39.71385955810547,44.94676971435547,0.0
32,100,30,60,homing,,,,homing,,2024-03-04 12:22:53.330614,16.348,0.153,236.8,249.99998474121094,0.0,-7.62939453125e-06,0.0,0.0,39.71385955810547,44.94676971435547,0.0
32,100,30,60,homing,,,,homing,,2024-03-04 12:22:54.024890,16.348,0.151,236.8,249.99998474121094,0.0,-7.62939453125e-06,0.0,0.0,39.71385955810547,44.94676971435547,0.0
32,100,30,60,homing,,,,homing,,2024-03-04 12:22:55.421399,16.234,0.151,236.8,249.99998474121094,0.0,-7.62939453125e-06,0.0,0.0,39.71385955810547,44.94676971435547,0.0
32,100,30,60,homing,,,,homing,,2024-03-04 12:22:56.116084,16.253,0.151,236.8,249.99998474121094,0.0,-7.62939453125e-06,0.0,0.0,39.71385955810547,44.94676971435547,0.0
32,100,30,60,homing,,,,homing,,2024-03-04 12:22:56.808333,16.196,0.151,236.8,249.99998474121094,0.00017966009909287095,-7.62939453125e-06,4.117506250622682e-05,4.117506250622682e-05,39.71385955810547,44.94676971435547,0.0
32,100,30,60,homing,,,,homing,,2024-03-04 12:22:58.188510,16.196,0.151,236.8,249.99998474121094,0.00017966009909287095,-7.62939453125e-06,4.117506250622682e-05,4.117506250622682e-05,39.71385955810547,44.94676971435547,0.0
32,100,30,60,homing,,,,homing,,2024-03-04 12:22:58.882511,16.196,0.151,236.8,249.99998474121094,0.00017966009909287095,-7.62939453125e-06,4.117506250622682e-05,4.117506250622682e-05,39.71385955810547,44.94676971435547,0.0
32,100,30,60,homing,,,,homing,,2024-03-04 12:23:00.265210,16.063,0.15,236.8,249.99998474121094,0.00017966009909287095,-7.62939453125e-06,4.117506250622682e-05,4.117506250622682e-05,39.71385955810547,44.94676971435547,0.0
32,100,30,60,homing,,,,homing,,2024-03-04 12:23:00.955512,16.31,0.15,236.8,249.99998474121094,0.00017966009909287095,-7.62939453125e-06,4.117506250622682e-05,4.117506250622682e-05,39.71385955810547,44.94676971435547,0.0
32,100,30,60,homing,,,,homing,,2024-03-04 12:23:02.338765,16.253,0.15,236.8,249.99998474121094,0.00017966009909287095,-7.62939453125e-06,4.117506250622682e-05,4.117506250622682e-05,39.71385955810547,44.94676971435547,0.0
32,100,30,60,homing,,,,homing,,2024-03-04 12:23:03.031278,16.253,0.151,236.8,249.99998474121094,0.00017966009909287095,-7.62939453125e-06,4.117506250622682e-05,4.117506250622682e-05,39.71385955810547,44.94676971435547,0.0
32,100,30,60,homing,,,,homing,,2024-03-04 12:23:04.415604,16.329,0.151,236.8,251.44847106933594,5.488933086395264,3.4746856689453125,4.112720489501953e-05,1.3586015701293945,39.09257888793945,43.3997917175293,-1.3585604429244995
32,100,30,60,homing,,,,homing,,2024-03-04 12:23:05.112816,16.329,0.152,236.8,262.39971923828125,50.830806732177734,32.083465576171875,4.100799560546875e-05,11.24959659576416,37.154014587402344,30.50126075744629,-11.249555587768555
32,100,30,60,homing,,,,homing,,2024-03-04 12:23:05.801344,16.652,0.152,236.8,273.6815185546875,97.54103088378906,61.55562973022461,4.1961669921875e-05,19.693605422973633,41.494842529296875,15.495802879333496,-19.69356346130371
32,100,30,60,go_to_pick_up_from_homing,nothing,,,go_to_pick_up_from_homing,,2024-03-04 12:23:07.214989,16.69,0.153,236.8,277.2118835449219,103.53478240966797,67.03184509277344,3.814697265625e-05,20.476016998291016,43.355018615722656,12.165481567382812,-20.47597885131836
32,100,30,60,go_to_pick_up_from_homing,nothing,,,go_to_pick_up_from_homing,,2024-03-04 12:23:07.907289,16.69,0.153,236.8,288.5194091796875,105.9216079711914,79.12176513671875,1.1444091796875e-05,20.152631759643555,48.54867935180664,3.9008047580718994,-20.15262222290039
32,100,30,60,moving_belt,nothing,false,true,go_to_pick_up_from_homing,,2024-03-04 12:23:09.295585,16.367,0.153,236.8,292.8212890625,106.57840728759766,84.95709228515625,0.0,20.0,51.0,0.0,-20.0
32,100,30,60,moving_belt,nothing,false,true,go_to_pick_up_from_homing,,2024-03-04 12:23:09.986107,16.367,0.152,236.8,292.8220520019531,106.5785140991211,84.958251953125,0.0,20.0,51.0,0.0,-20.0
32,100,30,60,moving_belt,nothing,false,true,go_to_pick_up_from_homing,,2024-03-04 12:23:10.681180,16.804,0.152,236.8,292.8220520019531,106.5785140991211,84.958251953125,0.0,20.0,51.0,0.0,-20.0
32,100,30,60,moving_belt,nothing,false,true,go_to_pick_up_from_homing,,2024-03-04 12:23:12.150191,16.557,0.153,236.8,292.8220520019531,106.5785140991211,84.958251953125,0.0,20.0,51.0,0.0,-20.0
32,100,30,60,moving_belt,nothing,false,true,go_to_pick_up_from_homing,,2024-03-04 12:23:12.865797,16.557,0.153,236.8,292.8220520019531,106.5785140991211,84.958251953125,0.0,20.0,51.0,0.0,-20.0
32,100,30,60,go_to_pick_down,nothing,true,false,joint 3 +,,2024-03-04 12:23:14.261412,16.614,0.153,236.8,292.7831115722656,106.56433868408203,81.4672622680664,0.0,20.0,51.0,1.4616001844406128,-20.0
32,100,30,60,go_to_pick_down,nothing,true,false,joint 3 +,,2024-03-04 12:23:14.955745,16.614,0.153,236.8,290.61322021484375,105.77456665039062,58.77530288696289,0.0,20.0,51.0,10.533599853515625,-20.0
32,100,30,60,go_to_pick_down,nothing,true,false,joint 3 +,,2024-03-04 12:23:16.341766,16.272,0.152,236.8,283.9024658203125,103.33204650878906,32.9913444519043,0.0,20.0,51.0,20.797393798828125,-20.0
32,100,30,60,go_to_pick_up_from_pick_down,nothing,true,false,joint 3 -,true,2024-03-04 12:23:17.034907,16.367,0.152,236.8,283.255126953125,103.096435546875,31.203857421875,0.0,20.0,51.0,21.384401321411133,-20.0
32,100,30,60,go_to_pick_up_from_pick_down,nothing,true,false,joint 3 -,true,2024-03-04 12:23:18.411680,22.899,0.202,236.8,288.5551452636719,105.0254898071289,48.7040901184082,0.0,20.0,51.0,14.040401458740234,-20.0
32,100,30,60,go_to_pick_up_from_pick_down,nothing,true,false,joint 3 -,true,2024-03-04 12:23:19.139389,22.652,0.202,236.8,292.7095031738281,106.53754425048828,79.02527618408203,0.0,20.0,51.0,2.185856580734253,-20.0
32,100,30,60,go_to_color_detect_up_from_pick_up,nothing,true,false,joint 1 +,true,2024-03-04 12:23:19.827810,22.348,0.202,236.8,292.51953125,107.40601348876953,84.958251953125,0.16199874877929688,20.197998046875,51.0,0.0,-20.0
32,100,30,60,go_to_color_detect_up_from_pick_up,nothing,true,false,joint 1 +,true,2024-03-04 12:23:21.225311,22.291,0.197,236.8,280.68121337890625,135.35797119140625,84.958251953125,5.745597839355469,25.95079803466797,51.0,0.0,-20.0
32,100,30,60,go_to_color_detect_up_from_pick_up,nothing,true,false,joint 1 +,true,2024-03-04 12:23:21.918743,22.14,0.197,236.8,231.6549072265625,208.42201232910156,84.958251953125,21.97800064086914,42.377601623535156,51.0,0.0,-20.0
32,100,30,60,go_to_color_detect_up_from_pick_up,nothing,true,false,joint 1 +,true,2024-03-04 12:23:23.301121,22.102,0.195,236.8,166.96023559570312,263.1121520996094,84.958251953125,37.602455139160156,57.83143997192383,51.0,0.0,-20.0
32,100,30,60,go_to_color_detect_up_from_pick_up,nothing,true,false,joint 1 +,true,2024-03-04 12:23:24.005994,22.102,0.195,236.8,133.99197387695312,281.33587646484375,84.958251953125,44.53291320800781,64.58909606933594,51.0,0.0,-20.0
32,100,30,60,go_to_color_detect_down,nothing,true,false,joint 3 +,true,2024-03-04 12:23:25.388713,21.969,0.195,236.8,131.65066528320312,282.32574462890625,79.46394348144531,45.0,65.0,51.0,2.268000364303589,-20.0
32,100,30,60,go_to_color_detect_down,nothing,true,false,joint 3 +,true,2024-03-04 12:23:26.079536,22.026,0.195,236.8,130.27938842773438,279.385009765625,53.76612854003906,45.0,65.0,51.0,12.549601554870605,-20.0
32,100,30,60,go_to_color_detect_down,nothing,true,false,joint 3 +,true,2024-03-04 12:23:26.769899,22.234,0.196,236.8,123.65200805664062,265.1725769042969,12.622489929199219,45.0,65.0,51.0,29.84076690673828,-20.0
32,100,30,60,go_to_color_detect_down,nothing,true,false,joint 3 +,true,2024-03-04 12:23:28.152717,22.272,0.196,236.8,114.29682922363281,245.11033630371094,-17.06151580810547,45.0,65.0,51.0,44.117523193359375,-20.0
32,100,30,60,go_to_color_detect_up_from_color_detect_down,nothing,true,false,joint 3 -,false,2024-03-04 12:23:28.870888,22.253,0.195,236.8,111.13883972167969,238.33799743652344,-24.284042358398438,45.0,65.0,51.0,48.0,-20.0
32,100,30,60,go_to_color_detect_up_from_color_detect_down,nothing,true,false,joint 3 -,false,2024-03-04 12:23:30.252054,22.083,0.195,236.8,114.05119323730469,244.58355712890625,-17.661048889160156,45.0,65.0,51.0,44.108402252197266,-20.0
32,100,30,60,go_to_color_detect_up_from_color_detect_down,nothing,true,false,joint 3 -,false,2024-03-04 12:23:30.945918,16.272,0.153,236.8,123.27306365966797,264.35992431640625,11.058670043945312,45.0,65.0,51.0,29.81999969482422,-20.0
32,100,30,60,go_to_color_detect_up_from_color_detect_down,nothing,true,false,joint 3 -,false,2024-03-04 12:23:32.328427,16.519,0.153,236.8,130.21383666992188,279.2444763183594,53.06022644042969,45.0,65.0,51.0,12.233915328979492,-20.0
32,100,30,60,go_to_color_detect_up_from_color_detect_down,nothing,true,false,joint 3 -,false,2024-03-04 12:23:33.048008,16.519,0.155,236.8,131.64569091796875,282.3150939941406,79.15821838378906,45.0,65.0,51.0,2.135465145111084,-20.0
32,100,30,60,detecting_color,nothing,false,false,detecting_color,false,2024-03-04 12:23:34.439987,16.519,0.155,236.8,131.69407653808594,282.4188232421875,84.958251953125,45.0,65.0,51.0,0.0,-20.0
32,100,30,60,detecting_color,nothing,false,false,detecting_color,false,2024-03-04 12:23:35.131674,16.519,0.155,236.8,131.69407653808594,282.4188232421875,84.958251953125,45.0,65.0,51.0,0.0,-20.0
32,100,30,60,go_to_color_detect_down,nothing,true,false,joint 3 +,false,2024-03-04 12:23:35.819104,16.424,0.152,236.8,131.61163330078125,282.2420349121094,77.38784790039062,45.0,65.0,51.0,3.099600315093994,-20.0
32,100,30,60,go_to_color_detect_down,nothing,true,false,joint 3 +,false,2024-03-04 12:23:37.206988,16.405,0.152,236.8,129.82301330566406,278.4063415527344,49.15281677246094,45.0,65.0,51.0,14.418001174926758,-20.0
32,100,30,60,go_to_color_detect_down,nothing,true,false,joint 3 +,false,2024-03-04 12:23:37.919726,16.405,0.152,236.8,122.28538513183594,262.2418518066406,7.178802490234375,45.0,65.0,51.0,32.28365707397461,-20.0
32,100,30,60,go_to_color_detect_down,nothing,true,false,joint 3 +,false,2024-03-04 12:23:39.308906,16.215,0.152,236.8,113.45528411865234,243.30563354492188,-19.087684631347656,45.0,65.0,51.0,45.199615478515625,-20.0
32,100,30,60,go_to_color_detect_up_from_color_detect_down,nothing,true,false,joint 3 -,true,2024-03-04 12:23:40.000174,16.405,0.152,236.8,111.18234252929688,238.43128967285156,-24.19129180908203,45.0,65.0,51.0,47.924400329589844,-20.0
32,100,30,60,go_to_color_detect_up_from_color_detect_down,nothing,true,false,joint 3 -,true,2024-03-04 12:23:41.386526,17.108,0.152,236.8,115.11639404296875,246.86788940429688,-15.010711669921875,45.0,65.0,51.0,42.65400314331055,-20.0
32,100,30,60,go_to_color_detect_up_from_color_detect_down,nothing,true,false,joint 3 -,true,2024-03-04 12:23:42.089795,22.633,0.198,236.8,124.82447814941406,267.6869201660156,17.766677856445312,45.0,65.0,51.0,26.810400009155273,-20.0
32,100,30,60,go_to_color_detect_up_from_color_detect_down,nothing,true,false,joint 3 -,true,2024-03-04 12:23:42.782469,22.443,0.198,236.8,130.70364379882812,280.29486083984375,58.81412124633789,45.0,65.0,51.0,9.97484016418457,-20.0
32,100,30,60,go_to_color_detect_up_from_color_detect_down,nothing,true,false,joint 3 -,true,2024-03-04 12:23:44.164795,22.443,0.197,236.8,131.67909240722656,282.3866882324219,81.72891998291016,45.0,65.0,51.0,1.165405511856079,-20.0
32,100,30,60,go_to_red_up,red,true,false,joint 1 +,true,2024-03-04 12:23:44.922910,22.443,0.197,236.8,125.89994049072266,285.04901123046875,84.958251953125,46.16999816894531,66.26359558105469,51.0,0.0,-20.0
32,100,30,60,go_to_red_up,red,true,false,joint 1 +,true,2024-03-04 12:23:46.306305,22.045,0.194,236.8,83.48082733154297,300.2243957519531,84.958251953125,54.46080017089844,74.72360229492188,51.0,0.0,-20.0
32,100,30,60,go_to_red_up,red,true,false,joint 1 +,true,2024-03-04 12:23:47.001899,22.158,0.194,236.8,-6.1779961585998535,311.553466796875,84.958251953125,71.13600158691406,91.57160186767578,51.0,0.0,-20.0
32,100,30,60,go_to_red_up,red,true,false,joint 1 +,true,2024-03-04 12:23:48.382083,22.121,0.196,236.8,-118.69803619384766,288.12237548828125,84.958251953125,92.39022827148438,112.68974304199219,51.0,0.0,-20.0
32,100,30,60,go_to_red_up,red,true,false,joint 1 +,true,2024-03-04 12:23:49.077382,22.234,0.196,236.8,-168.375244140625,262.2088928222656,84.958251953125,102.7061996459961,122.83291625976562,51.0,0.0,-20.0
32,100,30,60,go_to_pick_up_from_red,red,true,false,joint 1 -,false,2024-03-04 12:23:50.460137,22.026,0.19,236.8,-178.01243591308594,255.76414489746094,84.958251953125,104.83799743652344,124.80199432373047,51.0,0.0,-20.0
32,100,30,60,go_to_pick_up_from_red,red,true,false,joint 1 -,false,2024-03-04 12:23:51.150456,19.462,0.19,236.8,-145.0557861328125,275.7944030761719,84.958251953125,97.74240112304688,117.51200103759766,51.0,0.0,-20.0
32,100,30,60,go_to_pick_up_from_red,red,true,false,joint 1 -,false,2024-03-04 12:23:51.844586,19.462,0.19,236.8,-68.09562683105469,304.08343505859375,84.958251953125,82.62240600585938,102.21920776367188,51.0,0.0,-20.0
32,100,30,60,go_to_pick_up_from_red,red,true,false,joint 1 -,false,2024-03-04 12:23:53.223984,16.424,0.151,236.8,58.348018646240234,306.10333251953125,84.958251953125,59.20800018310547,78.63200378417969,51.0,0.0,-20.0
32,100,30,60,go_to_pick_up_from_red,red,true,false,joint 1 -,false,2024-03-04 12:23:53.911368,16.424,0.151,236.8,202.289306640625,237.02903747558594,84.958251953125,29.52133560180664,49.062103271484375,51.0,0.0,-20.0
32,100,30,60,go_to_pick_up_from_red,red,true,false,joint 1 -,false,2024-03-04 12:23:55.300012,16.291,0.152,236.8,265.5845947265625,162.9985809326172,84.958251953125,11.538898468017578,31.252464294433594,51.0,0.0,-20.0
32,100,30,60,go_to_pick_up_from_red,red,true,false,joint 1 -,false,2024-03-04 12:23:55.992973,16.234,0.152,236.8,289.22698974609375,115.98048400878906,84.958251953125,1.8508625030517578,21.737228393554688,51.0,0.0,-20.0
32,100,30,60,moving_belt,red,false,true,joint 1 -,false,2024-03-04 12:23:57.389542,16.177,0.151,236.8,292.8220520019531,106.5785140991211,84.958251953125,0.0,20.0,51.0,0.0,-20.0
32,100,30,60,moving_belt,red,false,true,joint 1 -,false,2024-03-04 12:23:58.078238,16.177,0.151,236.8,292.8220520019531,106.5785140991211,84.958251953125,0.0,20.0,51.0,0.0,-20.0
32,100,30,60,moving_belt,red,false,true,joint 1 -,false,2024-03-04 12:23:59.460620,16.5,0.153,236.8,292.8220520019531,106.5785140991211,84.958251953125,0.0,20.0,51.0,0.0,-20.0
32,100,30,60,moving_belt,red,false,true,joint 1 -,false,2024-03-04 12:24:00.148918,16.5,0.153,236.8,292.8220520019531,106.5785140991211,84.958251953125,0.0,20.0,51.0,0.0,-20.0
32,100,30,60,go_to_pick_down,red,true,false,joint 3 +,false,2024-03-04 12:24:00.841702,16.557,0.153,236.8,292.8220520019531,106.5785140991211,84.958251953125,0.0,20.0,51.0,0.0,-20.0
32,100,30,60,go_to_pick_down,red,true,false,joint 3 +,false,2024-03-04 12:24:02.221507,16.633,0.152,236.8,292.5549011230469,106.48127746582031,75.82022857666016,0.0,20.0,51.0,3.7260003089904785,-20.0
32,100,30,60,go_to_pick_down,red,true,false,joint 3 +,false,2024-03-04 12:24:02.946083,16.633,0.152,236.8,287.4864807128906,104.63652801513672,44.49728012084961,0.0,20.0,51.0,16.183046340942383,-20.0
32,100,30,60,go_to_pick_down,red,true,false,joint 3 +,false,2024-03-04 12:24:04.385269,16.234,0.15,236.8,282.92071533203125,102.97472381591797,30.30669403076172,0.0,20.0,51.0,21.859041213989258,-20.0
32,100,30,60,go_to_pick_up_from_pick_down,red,true,false,joint 3 -,true,2024-03-04 12:24:05.089222,16.234,0.15,236.8,285.14483642578125,103.58891296386719,35.0237922668457,0.0,20.0,51.0,19.73200225830078,-20.0
32,100,30,60,go_to_pick_up_from_pick_down,red,true,false,joint 3 -,true,2024-03-04 12:24:05.779912,23.051,0.15,236.8,291.3800964355469,106.0536880493164,63.77367401123047,0.0,20.0,51.0,8.04345417022705,-20.0
32,100,30,60,go_to_pick_up_from_pick_down,red,true,false,joint 3 -,true,2024-03-04 12:24:07.447800,22.899,0.2,236.8,292.81146240234375,106.57466125488281,83.13898468017578,0.0,20.0,51.0,0.6394582390785217,-20.0
32,100,30,60,go_to_color_detect_up_from_pick_up,red,true,false,joint 1 +,true,2024-03-04 12:24:08.144557,22.652,0.2,236.8,290.58477783203125,112.535400390625,84.958251953125,1.1699981689453125,21.26359748840332,51.0,0.0,-20.0
32,100,30,60,go_to_color_detect_up_from_pick_up,red,true,false,joint 1 +,true,2024-03-04 12:24:08.840502,22.652,0.2,236.8,266.0469665527344,162.2428436279297,84.958251953125,11.375999450683594,31.663999557495117,51.0,0.0,-20.0
32,100,30,60,go_to_color_detect_up_from_pick_up,red,true,false,joint 1 +,true,2024-03-04 12:24:10.222878,22.633,0.2,236.8,206.9942626953125,232.93154907226562,84.958251953125,28.37415313720703,48.71833801269531,51.0,0.0,-20.0
32,100,30,60,go_to_color_detect_up_from_pick_up,red,true,false,joint 1 +,true,2024-03-04 12:24:10.910875,22.576,0.199,236.8,151.04722595214844,272.5591125488281,84.958251953125,41.00558853149414,61.17337417602539,51.0,0.0,-20.0
32,100,30,60,go_to_color_detect_down,red,true,false,joint 3 +,true,2024-03-04 12:24:12.296824,22.519,0.199,236.8,131.69407653808594,282.4188232421875,84.90283203125,45.0,65.0,51.0,0.036000002175569534,-20.0
32,100,30,60,go_to_color_detect_down,red,true,false,joint 3 +,true,2024-03-04 12:24:12.987496,22.557,0.198,236.8,131.47857666015625,281.95672607421875,72.72510528564453,45.0,65.0,51.0,4.960800647735596,-20.0
32,100,30,60,go_to_color_detect_down,red,true,false,joint 3 +,true,2024-03-04 12:24:14.374265,22.557,0.198,236.8,128.71348571777344,276.0269470214844,39.97218704223633,45.0,65.0,51.0,18.180002212524414,-20.0
32,100,30,60,go_to_color_detect_down,red,true,false,joint 3 +,true,2024-03-04 12:24:15.067601,22.557,0.198,236.8,119.05023193359375,255.3040313720703,-3.9280548095703125,45.0,65.0,51.0,37.48199462890625,-20.0
32,100,30,60,go_to_color_detect_down,red,true,false,joint 3 +,true,2024-03-04 12:24:16.453299,22.633,0.198,236.8,112.29879760742188,240.82553100585938,-21.748825073242188,45.0,65.0,51.0,46.64422607421875,-20.0
32,100,30,60,go_to_color_detect_up_from_color_detect_down,red,true,false,joint 3 -,false,2024-03-04 12:24:17.150169,22.443,0.198,236.8,111.48576354980469,239.0819854736328,-23.539321899414062,45.0,65.0,51.0,47.51040267944336,-20.0
32,100,30,60,go_to_color_detect_up_from_color_detect_down,red,true,false,joint 3 -,false,2024-03-04 12:24:17.842139,22.443,0.198,236.8,116.6382064819336,250.1314239501953,-10.982666015625,45.0,65.0,51.0,40.512001037597656,-20.0
32,100,30,60,go_to_color_detect_up_from_color_detect_down,red,true,false,joint 3 -,false,2024-03-04 12:24:19.222606,16.386,0.153,236.8,126.68572235107422,271.6783752441406,27.133625030517578,45.0,65.0,51.0,22.7574462890625,-20.0
32,100,30,60,go_to_color_detect_up_from_color_detect_down,red,true,false,joint 3 -,false,2024-03-04 12:24:19.952060,16.5,0.153,236.8,131.13262939453125,281.2148132324219,65.23995971679688,45.0,65.0,51.0,7.474996089935303,-20.0
32,100,30,60,go_to_color_detect_up_from_color_detect_down,red,true,false,joint 3 -,false,2024-03-04 12:24:21.336697,16.424,0.153,236.8,131.6912384033203,282.4127502441406,83.55248260498047,45.0,65.0,51.0,0.4869459867477417,-20.0
32,100,30,60,detecting_color,red,false,false,detecting_color,false,2024-03-04 12:24:22.029957,16.348,0.153,236.8,131.69407653808594,282.4188232421875,84.958251953125,45.0,65.0,51.0,0.0,-20.0
32,100,30,60,detecting_color,red,false,false,detecting_color,false,2024-03-04 12:24:23.408860,16.158,0.151,236.8,131.69407653808594,282.4188232421875,84.958251953125,45.0,65.0,51.0,0.0,-20.0
32,100,30,60,detecting_color,red,false,false,detecting_color,false,2024-03-04 12:24:24.118947,16.158,0.151,236.8,131.69407653808594,282.4188232421875,84.958251953125,45.0,65.0,51.0,0.0,-20.0
32,100,30,60,detecting_color,red,false,false,detecting_color,false,2024-03-04 12:24:24.814631,16.405,0.151,236.8,131.69407653808594,282.4188232421875,84.958251953125,45.0,65.0,51.0,0.0,-20.0
32,100,30,60,go_to_color_detect_down,red,true,false,joint 3 +,false,2024-03-04 12:24:26.193472,16.31,0.152,236.8,131.69049072265625,282.4111328125,83.37887573242188,45.0,65.0,51.0,0.6840000748634338,-20.0
32,100,30,60,go_to_color_detect_down,red,true,false,joint 3 +,false,2024-03-04 12:24:26.883165,16.158,0.152,236.8,130.84906005859375,280.6067199707031,60.79545211791992,45.0,65.0,51.0,9.723600387573242,-20.0
32,100,30,60,go_to_color_detect_down,red,true,false,joint 3 +,false,2024-03-04 12:24:28.283457,16.272,0.151,236.8,125.38529968261719,268.8896179199219,20.41412353515625,45.0,65.0,51.0,26.440706253051758,-20.0
32,100,30,60,go_to_color_detect_down,red,true,false,joint 3 +,false,2024-03-04 12:24:28.995127,16.272,0.151,236.8,116.46839904785156,249.76727294921875,-11.447128295898438,45.0,65.0,51.0,41.20475769042969,-20.0
32,100,30,60,go_to_color_detect_down,red,true,false,joint 3 +,false,2024-03-04 12:24:30.372528,16.215,0.151,236.8,111.24241638183594,238.56011962890625,-24.06287384033203,45.0,65.0,51.0,47.8999137878418,-20.0
32,100,30,60,go_to_color_detect_up_from_color_detect_down,red,true,false,joint 3 -,true,2024-03-04 12:24:31.068211,16.519,0.151,236.8,113.03382873535156,242.4018096923828,-20.07354736328125,45.0,65.0,51.0,45.469200134277344,-20.0
32,100,30,60,go_to_color_detect_up_from_color_detect_down,red,true,false,joint 3 -,true,2024-03-04 12:24:32.047082,23.013,0.151,236.8,120.36669158935547,258.127197265625,0.33174896240234375,45.0,65.0,51.0,34.842002868652344,-20.0
32,100,30,60,go_to_color_detect_up_from_color_detect_down,red,true,false,joint 3 -,true,2024-03-04 12:24:33.428323,23.07,0.2,236.8,129.46876525878906,277.6466369628906,45.96662139892578,45.0,65.0,51.0,15.050774574279785,-20.0
32,100,30,60,go_to_color_detect_up_from_color_detect_down,red,true,false,joint 3 -,true,2024-03-04 12:24:34.123808,23.07,0.202,236.8,131.5745086669922,282.1624450683594,75.84248352050781,45.0,65.0,51.0,3.3971242904663086,-20.0
32,100,30,60,go_to_green_up,green,true,false,joint 1 +,true,2024-03-04 12:24:34.816652,22.823,0.202,236.8,131.69407653808594,282.4188232421875,84.958251953125,45.0,65.00360107421875,51.0,0.0,-20.0
32,100,30,60,go_to_green_up,green,true,false,joint 1 +,true,2024-03-04 12:24:36.198646,22.462,0.198,236.8,104.80825805664062,293.4603271484375,84.958251953125,50.34600067138672,70.54399871826172,51.0,0.0,-20.0
32,100,30,60,go_to_green_up,green,true,false,joint 1 +,true,2024-03-04 12:24:36.892316,22.481,0.198,236.8,35.040199279785156,309.63836669921875,84.958251953125,63.54359436035156,83.91079711914062,51.0,0.0,-20.0
32,100,30,60,go_to_green_up,green,true,false,joint 1 +,true,2024-03-04 12:24:38.274981,22.557,0.198,236.8,-45.79391860961914,308.2314758300781,84.958251953125,78.45060729980469,98.66595458984375,51.0,0.0,-20.0
32,100,30,60,go_to_green_up,green,true,false,joint 1 +,true,2024-03-04 12:24:38.966279,22.633,0.198,236.8,-80.27205657958984,301.0982360839844,84.958251953125,84.92771911621094,104.94866943359375,51.0,0.0,-20.0
32,100,30,60,go_to_pick_up_from_green,green,true,false,joint 1 -,false,2024-03-04 12:24:40.355261,22.443,0.155,236.8,-66.5555648803711,304.4241943359375,84.958251953125,82.33240509033203,102.19200134277344,51.0,0.0,-20.0
32,100,30,60,go_to_pick_up_from_green,green,true,false,joint 1 -,false,2024-03-04 12:24:41.044538,16.139,0.155,236.8,2.179776191711426,311.6070861816406,84.958251953125,69.59920501708984,89.264404296875,51.0,0.0,-20.0
32,100,30,60,go_to_pick_up_from_green,green,true,false,joint 1 -,false,2024-03-04 12:24:41.741345,16.139,0.155,236.8,109.29276275634766,291.8198547363281,84.958251953125,49.46800231933594,68.96040344238281,51.0,0.0,-20.0
32,100,30,60,go_to_pick_up_from_green,green,true,false,joint 1 -,false,2024-03-04 12:24:43.248430,16.101,0.15,236.8,218.7534942626953,221.9248504638672,84.958251953125,25.41231918334961,44.98637390136719,51.0,0.0,-20.0
32,100,30,60,go_to_pick_up_from_green,green,true,false,joint 1 -,false,2024-03-04 12:24:43.943411,16.101,0.15,236.8,276.2475891113281,144.19085693359375,84.958251953125,7.5628662109375,27.331321716308594,51.0,0.0,-20.0
32,100,30,60,go_to_pick_up_from_green,green,true,false,joint 1 -,false,2024-03-04 12:24:45.333301,16.12,0.151,236.8,291.8627624511719,109.17811584472656,84.958251953125,0.5094890594482422,20.450742721557617,51.0,0.0,-20.0
32,100,30,60,moving_belt,green,false,true,joint 1 -,false,2024-03-04 12:24:46.030177,16.234,0.151,236.8,292.8220520019531,106.5785140991211,84.958251953125,0.0,20.0,51.0,0.0,-20.0
32,100,30,60,moving_belt,green,false,true,joint 1 -,false,2024-03-04 12:24:47.416885,16.69,0.152,236.8,292.8220520019531,106.5785140991211,84.958251953125,0.0,20.0,51.0,0.0,-20.0
32,100,30,60,moving_belt,green,false,true,joint 1 -,false,2024-03-04 12:24:48.115582,16.69,0.152,236.8,292.8220520019531,106.5785140991211,84.958251953125,0.0,20.0,51.0,0.0,-20.0
32,100,30,60,moving_belt,green,false,true,joint 1 -,false,2024-03-04 12:24:49.504811,16.367,0.154,236.8,292.8220520019531,106.5785140991211,84.958251953125,0.0,20.0,51.0,0.0,-20.0
32,100,30,60,go_to_pick_down,green,true,false,joint 3 +,false,2024-03-04 12:24:50.196787,16.367,0.154,236.8,292.8212585449219,106.5782241821289,84.45025634765625,0.0,20.0,51.0,0.23759999871253967,-20.0
32,100,30,60,go_to_pick_down,green,true,false,joint 3 +,false,2024-03-04 12:24:50.891917,16.5,0.154,236.8,292.02459716796875,106.28826141357422,69.18539428710938,0.0,20.0,51.0,6.372000694274902,-20.0
32,100,30,60,go_to_pick_down,green,true,false,joint 3 +,false,2024-03-04 12:24:52.275616,16.063,0.149,236.8,286.4089050292969,104.24431610107422,40.687469482421875,0.0,20.0,51.0,17.705045700073242,-20.0
32,100,30,60,go_to_pick_up_from_pick_down,green,true,false,joint 3 -,true,2024-03-04 12:24:52.968252,16.063,0.149,236.8,282.7668762207031,102.9187240600586,29.899646759033203,0.0,20.0,51.0,21.989200592041016,-20.0
32,100,30,60,go_to_pick_up_from_pick_down,green,true,false,joint 3 -,true,2024-03-04 12:24:54.355013,22.614,0.161,236.8,286.36334228515625,104.22773742675781,40.53432846069336,0.0,20.0,51.0,17.410001754760742,-20.0
32,100,30,60,go_to_pick_up_from_pick_down,green,true,false,joint 3 -,true,2024-03-04 12:24:55.083252,22.614,0.161,236.8,292.00537109375,106.2812728881836,68.99701690673828,0.0,20.0,51.0,6.023404598236084,-20.0
32,100,30,60,go_to_pick_up_from_pick_down,green,true,false,joint 3 -,true,2024-03-04 12:24:56.462548,21.893,0.194,236.8,292.822021484375,106.57849884033203,84.84957122802734,0.0,20.0,51.0,0.02670985646545887,-20.0
32,100,30,60,go_to_color_detect_up_from_pick_up,green,true,false,joint 1 +,true,2024-03-04 12:24:57.159844,21.646,0.194,236.8,286.94476318359375,121.51721954345703,84.958251953125,2.951997756958008,23.099597930908203,51.0,0.0,-20.0
32,100,30,60,go_to_color_detect_up_from_pick_up,green,true,false,joint 1 +,true,2024-03-04 12:24:57.849524,21.646,0.194,236.8,258.0430908203125,174.69253540039062,84.958251953125,14.097599029541016,34.417999267578125,51.0,0.0,-20.0
32,100,30,60,go_to_color_detect_up_from_pick_up,green,true,false,joint 1 +,true,2024-03-04 12:24:59.243767,21.646,0.191,236.8,186.84341430664062,249.38577270507812,84.958251953125,33.15892028808594,53.44910430908203,51.0,0.0,-20.0
32,100,30,60,go_to_color_detect_up_from_pick_up,green,true,false,joint 1 +,true,2024-03-04 12:24:59.940055,21.532,0.191,236.8,141.33941650390625,277.71728515625,84.958251953125,43.02696990966797,63.14435577392578,51.0,0.0,-20.0
32,100,30,60,go_to_color_detect_down,green,true,false,joint 3 +,true,2024-03-04 12:25:01.324392,21.665,0.192,236.8,131.6930694580078,282.41668701171875,84.11775207519531,45.0,65.0,51.0,0.37800002098083496,-20.0
32,100,30,60,go_to_color_detect_down,green,true,false,joint 3 +,true,2024-03-04 12:25:02.300115,21.57,0.192,236.8,131.25607299804688,281.47955322265625,67.53350830078125,45.0,65.0,51.0,7.030800819396973,-20.0
32,100,30,60,go_to_color_detect_down,green,true,false,joint 3 +,true,2024-03-04 12:25:02.997302,21.513,0.192,236.8,126.31780242919922,270.8893737792969,25.139835357666016,45.0,65.0,51.0,24.425785064697266,-20.0
32,100,30,60,go_to_color_detect_down,green,true,false,joint 3 +,true,2024-03-04 12:25:04.375814,21.589,0.191,236.8,117.28978729248047,251.52874755859375,-9.1632080078125,45.0,65.0,51.0,40.053836822509766,-20.0
32,100,30,60,go_to_color_detect_down,green,true,false,joint 3 +,true,2024-03-04 12:25:05.068471,21.684,0.191,236.8,111.68439483642578,239.50794982910156,-23.10778045654297,45.0,65.0,51.0,47.38748550415039,-20.0
32,100,30,60,go_to_color_detect_up_from_color_detect_down,green,true,false,joint 3 -,false,2024-03-04 12:25:06.447913,21.703,0.191,236.8,112.64732360839844,241.5729522705078,-20.961341857910156,45.0,65.0,51.0,45.98040008544922,-20.0
32,100,30,60,go_to_color_detect_up_from_color_detect_down,green,true,false,joint 3 -,false,2024-03-04 12:25:07.143278,18.019,0.153,236.8,119.80095672607422,256.9139709472656,-1.5383224487304688,45.0,65.0,51.0,35.749202728271484,-20.0
32,100,30,60,go_to_color_detect_up_from_color_detect_down,green,true,false,joint 3 -,false,2024-03-04 12:25:07.834478,16.196,0.153,236.8,128.4759063720703,275.5174560546875,38.259437561035156,45.0,65.0,51.0,18.15923309326172,-20.0
32,100,30,60,go_to_color_detect_up_from_color_detect_down,green,true,false,joint 3 -,false,2024-03-04 12:25:09.221615,16.5,0.152,236.8,131.53883361816406,282.0859069824219,74.57234191894531,45.0,65.0,51.0,3.882477283477783,-20.0
32,100,30,60,detecting_color,green,false,false,detecting_color,false,2024-03-04 12:25:09.910930,16.5,0.152,236.8,131.69407653808594,282.4188232421875,84.958251953125,45.0,65.0,51.0,0.0,-20.0
32,100,30,60,detecting_color,green,false,false,detecting_color,false,2024-03-04 12:25:11.343455,16.386,0.15,236.8,131.69407653808594,282.4188232421875,84.958251953125,45.0,65.0,51.0,0.0,-20.0
32,100,30,60,go_to_color_detect_down,green,true,false,joint 3 +,false,2024-03-04 12:25:12.041119,16.253,0.15,236.8,131.6886749267578,282.4072570800781,83.01869201660156,45.0,65.0,51.0,0.8316001296043396,-20.0
32,100,30,60,go_to_color_detect_down,green,true,false,joint 3 +,false,2024-03-04 12:25:13.428072,16.12,0.15,236.8,131.2269287109375,281.41705322265625,66.96502685546875,45.0,65.0,51.0,7.257600784301758,-20.0
32,100,30,60,go_to_color_detect_down,green,true,false,joint 3 +,false,2024-03-04 12:25:14.124374,16.139,0.15,236.8,125.76181030273438,269.6970520019531,22.26992416381836,45.0,65.0,51.0,25.645538330078125,-20.0
32,100,30,60,go_to_color_detect_down,green,true,false,joint 3 +,false,2024-03-04 12:25:15.511241,16.196,0.15,236.8,116.79170989990234,250.4606170654297,-10.55938720703125,45.0,65.0,51.0,40.75518798828125,-20.0
32,100,30,60,go_to_color_detect_down,green,true,false,joint 3 +,false,2024-03-04 12:25:16.206914,16.196,0.15,236.8,111.29705047607422,238.6772918701172,-23.945816040039062,45.0,65.0,51.0,47.83914566040039,-20.0
32,100,30,60,go_to_color_detect_up_from_color_detect_down,green,true,false,joint 3 -,true,2024-03-04 12:25:16.898811,16.082,0.15,236.8,112.83537292480469,241.97622680664062,-20.53130340576172,45.0,65.0,51.0,45.73200225830078,-20.0
32,100,30,60,go_to_color_detect_up_from_color_detect_down,green,true,false,joint 3 -,true,2024-03-04 12:25:18.296864,22.538,0.196,236.8,120.17723083496094,257.72088623046875,-0.30145263671875,45.0,65.0,51.0,35.14800262451172,-20.0
32,100,30,60,go_to_color_detect_up_from_color_detect_down,green,true,false,joint 3 -,true,2024-03-04 12:25:18.987211,21.855,0.196,236.8,129.3715057373047,277.4380798339844,45.13962173461914,45.0,65.0,51.0,15.381758689880371,-20.0
32,100,30,60,go_to_color_detect_up_from_color_detect_down,green,true,false,joint 3 -,true,2024-03-04 12:25:20.375384,22.045,0.194,236.8,131.56338500976562,282.1385803222656,75.42823791503906,45.0,65.0,51.0,3.5553085803985596,-20.0
32,100,30,60,go_to_blue_up,blue,true,false,joint 1 +,true,2024-03-04 12:25:21.098973,22.045,0.194,236.8,131.69407653808594,282.4188232421875,84.958251953125,45.0,65.00360107421875,51.0,0.0,-20.0
32,100,30,60,go_to_blue_up,blue,true,false,joint 1 +,true,2024-03-04 12:25:22.484131,21.646,0.191,236.8,104.80825805664062,293.4603271484375,84.958251953125,50.34600067138672,70.54399871826172,51.0,0.0,-20.0
32,100,30,60,go_to_blue_up,blue,true,false,joint 1 +,true,2024-03-04 12:25:23.378399,21.646,0.191,236.8,48.23377990722656,307.859130859375,84.958251953125,61.0955810546875,81.26143646240234,51.0,0.0,-20.0
32,100,30,60,go_to_pick_up_from_blue,blue,true,false,joint 1 -,false,2024-03-04 12:25:24.068071,21.684,0.191,236.8,27.159029006958008,310.4289245605469,84.958251953125,65.0,85.0,51.0,0.0,-20.0
32,100,30,60,go_to_pick_up_from_blue,blue,true,false,joint 1 -,false,2024-03-04 12:25:25.450986,18.608,0.191,236.8,52.89826583862305,307.0920104980469,84.958251953125,60.226402282714844,80.03919982910156,51.0,0.0,-20.0
32,100,30,60,go_to_pick_up_from_blue,blue,true,false,joint 1 -,false,2024-03-04 12:25:26.138106,18.608,0.191,236.8,120.85579681396484,287.2239685058594,84.958251953125,47.18000793457031,66.82000732421875,51.0,0.0,-20.0
32,100,30,60,go_to_pick_up_from_blue,blue,true,false,joint 1 -,false,2024-03-04 12:25:27.520600,15.987,0.148,236.8,214.660400390625,225.8863525390625,84.958251953125,26.459686279296875,46.02501678466797,51.0,0.0,-20.0
32,100,30,60,go_to_pick_up_from_blue,blue,true,false,joint 1 -,false,2024-03-04 12:25:28.212666,16.006,0.148,236.8,274.7835693359375,146.96157836914062,84.958251953125,8.139057159423828,27.898786544799805,51.0,0.0,-20.0
32,100,30,60,go_to_pick_up_from_blue,blue,true,false,joint 1 -,false,2024-03-04 12:25:28.903236,16.006,0.15,236.8,291.5617980957031,109.97930908203125,84.958251953125,0.6668529510498047,20.599382400512695,51.0,0.0,-20.0
32,100,30,60,moving_belt,blue,false,true,joint 1 -,false,2024-03-04 12:25:30.280991,15.892,0.15,236.8,292.8220520019531,106.5785140991211,84.958251953125,0.0,20.0,51.0,0.0,-20.0
32,100,30,60,moving_belt,blue,false,true,joint 1 -,false,2024-03-04 12:25:30.981258,15.892,0.154,236.8,292.8220520019531,106.5785140991211,84.958251953125,0.0,20.0,51.0,0.0,-20.0
32,100,30,60,moving_belt,blue,false,true,joint 1 -,false,2024-03-04 12:25:32.371855,16.557,0.154,236.8,292.8220520019531,106.5785140991211,84.958251953125,0.0,20.0,51.0,0.0,-20.0
32,100,30,60,moving_belt,blue,false,true,joint 1 -,false,2024-03-04 12:25:33.061129,16.614,0.154,236.8,292.8220520019531,106.5785140991211,84.958251953125,0.0,20.0,51.0,0.0,-20.0
32,100,30,60,go_to_pick_down,blue,true,false,joint 3 +,false,2024-03-04 12:25:34.451589,16.405,0.152,236.8,292.8215026855469,106.57831573486328,84.54261779785156,0.0,20.0,51.0,0.1979999989271164,-20.0
32,100,30,60,go_to_pick_down,blue,true,false,joint 3 +,false,2024-03-04 12:25:35.144124,16.367,0.152,236.8,292.1280822753906,106.32593536376953,70.24183654785156,0.0,20.0,51.0,5.950800895690918,-20.0
32,100,30,60,go_to_pick_down,blue,true,false,joint 3 +,false,2024-03-04 12:25:35.831808,16.367,0.15,236.8,286.6719970703125,104.34008026123047,41.58403778076172,0.0,20.0,51.0,17.346145629882812,-20.0
32,100,30,60,go_to_pick_up_from_pick_down,blue,true,false,joint 3 -,true,2024-03-04 12:25:37.232165,16.367,0.15,236.8,282.76361083984375,102.91754913330078,29.89107894897461,0.0,20.0,51.0,21.996400833129883,-20.0
32,100,30,60,go_to_pick_up_from_pick_down,blue,true,false,joint 3 -,true,2024-03-04 12:25:37.924021,16.215,0.151,236.8,286.10650634765625,104.13424682617188,39.681129455566406,0.0,20.0,51.0,17.766401290893555,-20.0
32,100,30,60,go_to_pick_up_from_pick_down,blue,true,false,joint 3 -,true,2024-03-04 12:25:39.305977,22.747,0.151,236.8,291.8887023925781,106.23880004882812,67.89848327636719,0.0,20.0,51.0,6.447104454040527,-20.0
32,100,30,60,go_to_pick_up_from_pick_down,blue,true,false,joint 3 -,true,2024-03-04 12:25:39.994807,22.253,0.195,236.8,292.82177734375,106.57842254638672,84.67369842529297,0.0,20.0,51.0,0.08445952832698822,-20.0
32,100,30,60,go_to_color_detect_up_from_pick_up,blue,true,false,joint 1 +,true,2024-03-04 12:25:41.435465,21.817,0.195,236.8,287.830322265625,119.40452575683594,84.958251953125,2.5307979583740234,22.667598724365234,51.0,0.0,-20.0
32,100,30,60,go_to_color_detect_up_from_pick_up,blue,true,false,joint 1 +,true,2024-03-04 12:25:42.129343,21.893,0.193,236.8,255.0425262451172,179.0447998046875,84.958251953125,15.069599151611328,35.40079879760742,51.0,0.0,-20.0
32,100,30,60,go_to_color_detect_up_from_pick_up,blue,true,false,joint 1 +,true,2024-03-04 12:25:43.532687,22.026,0.193,236.8,190.70379638671875,246.44631958007812,84.958251953125,32.26676559448242,52.5677490234375,51.0,0.0,-20.0
32,100,30,60,go_to_color_detect_up_from_pick_up,blue,true,false,joint 1 +,true,2024-03-04 12:25:44.223386,21.836,0.194,236.8,143.14801025390625,276.7893981933594,84.958251953125,42.65321731567383,62.781402587890625,51.0,0.0,-20.0
32,100,30,60,go_to_color_detect_down,blue,true,false,joint 3 +,true,2024-03-04 12:25:44.916167,21.836,0.194,236.8,131.6923065185547,282.4150390625,83.84990692138672,45.0,65.0,51.0,0.4896000027656555,-20.0
32,100,30,60,go_to_color_detect_down,blue,true,false,joint 3 +,true,2024-03-04 12:25:46.331858,21.912,0.193,236.8,131.1963348388672,281.3514404296875,66.38765716552734,45.0,65.0,51.0,7.488000869750977,-20.0
32,100,30,60,go_to_color_detect_down,blue,true,false,joint 3 +,true,2024-03-04 12:25:47.023761,21.798,0.193,236.8,127.01576232910156,272.38616943359375,28.994037628173828,45.0,65.0,51.0,22.78080177307129,-20.0
32,100,30,60,go_to_color_detect_down,blue,true,false,joint 3 +,true,2024-03-04 12:25:48.458275,21.798,0.195,236.8,116.9560317993164,250.81300354003906,-10.102668762207031,45.0,65.0,51.0,40.52500534057617,-20.0
32,100,30,60,go_to_color_detect_down,blue,true,false,joint 3 +,true,2024-03-04 12:25:49.158330,21.798,0.195,236.8,111.57846069335938,239.28076171875,-23.338409423828125,45.0,65.0,51.0,47.51305389404297,-20.0
32,100,30,60,go_to_color_detect_up_from_color_detect_down,blue,true,false,joint 3 -,false,2024-03-04 12:25:50.536590,21.798,0.176,236.8,112.30292510986328,240.83438110351562,-21.739578247070312,45.0,65.0,51.0,46.43400192260742,-20.0
32,100,30,60,go_to_color_detect_up_from_color_detect_down,blue,true,false,joint 3 -,false,2024-03-04 12:25:51.527236,17.26,0.176,236.8,119.98863983154297,257.3164367675781,-0.9247970581054688,45.0,65.0,51.0,35.450401306152344,-20.0
32,100,30,60,go_to_color_detect_up_from_color_detect_down,blue,true,false,joint 3 -,false,2024-03-04 12:25:52.216757,16.405,0.176,236.8,128.59988403320312,275.7833251953125,39.144386291503906,45.0,65.0,51.0,17.799448013305664,-20.0
32,100,30,60,go_to_color_detect_up_from_color_detect_down,blue,true,false,joint 3 -,false,2024-03-04 12:25:52.911117,16.405,0.153,236.8,131.4441680908203,281.8829040527344,71.78610229492188,45.0,65.0,51.0,4.95038366317749,-20.0
32,100,30,60,detecting_color,blue,false,false,detecting_color,false,2024-03-04 12:25:54.290999,16.443,0.153,236.8,131.69407653808594,282.4188232421875,84.958251953125,45.0,65.0,51.0,0.0,-20.0
32,100,30,60,detecting_color,blue,false,false,detecting_color,false,2024-03-04 12:25:54.987891,16.443,0.151,236.8,131.69407653808594,282.4188232421875,84.958251953125,45.0,65.0,51.0,0.0,-20.0
32,100,30,60,go_to_color_detect_down,blue,true,false,joint 3 +,false,2024-03-04 12:25:55.675907,16.291,0.151,236.8,131.6847381591797,282.3988037109375,82.40916442871094,45.0,65.0,51.0,1.0800001621246338,-20.0
32,100,30,60,go_to_color_detect_down,blue,true,false,joint 3 +,false,2024-03-04 12:25:57.363808,16.31,0.15,236.8,130.8946533203125,280.7044677734375,61.45166015625,45.0,65.0,51.0,9.460800170898438,-20.0
32,100,30,60,go_to_color_detect_down,blue,true,false,joint 3 +,false,2024-03-04 12:25:58.053129,16.234,0.15,236.8,125.5740737915039,269.2944641113281,21.33629608154297,45.0,65.0,51.0,26.044921875,-20.0
32,100,30,60,go_to_color_detect_down,blue,true,false,joint 3 +,false,2024-03-04 12:25:59.445105,16.348,0.151,236.8,115.69290924072266,248.10423278808594,-13.519622802734375,45.0,65.0,51.0,42.26567840576172,-20.0
32,100,30,60,go_to_color_detect_down,blue,true,false,joint 3 +,false,2024-03-04 12:26:00.136791,16.348,0.151,236.8,111.26830291748047,238.61563110351562,-24.007469177246094,45.0,65.0,51.0,47.87133026123047,-20.0
32,100,30,60,go_to_color_detect_up_from_color_detect_down,blue,true,false,joint 3 -,true,2024-03-04 12:26:01.520652,22.861,0.202,236.8,113.03382873535156,242.4018096923828,-20.07354736328125,45.0,65.0,51.0,45.469200134277344,-20.0
32,100,30,60,go_to_color_detect_up_from_color_detect_down,blue,true,false,joint 3 -,true,2024-03-04 12:26:02.216262,22.861,0.202,236.8,121.51860046386719,260.59747314453125,4.34197998046875,45.0,65.0,51.0,32.93040084838867,-20.0
32,100,30,60,go_to_color_detect_up_from_color_detect_down,blue,true,false,joint 3 -,true,2024-03-04 12:26:02.905439,22.007,0.202,236.8,129.46876525878906,277.6466369628906,45.96662139892578,45.0,65.0,51.0,15.050774574279785,-20.0
32,100,30,60,go_to_color_detect_up_from_color_detect_down,blue,true,false,joint 3 -,true,2024-03-04 12:26:04.284009,22.253,0.197,236.8,131.5745086669922,282.1624450683594,75.84248352050781,45.0,65.0,51.0,3.3971242904663086,-20.0
32,100,30,60,go_to_red_up,red,true,false,joint 1 +,true,2024-03-04 12:26:04.974690,22.253,0.197,236.8,131.19700622558594,282.65008544921875,84.958251953125,45.100799560546875,65.12960052490234,51.0,0.0,-20.0
32,100,30,60,go_to_red_up,red,true,false,joint 1 +,true,2024-03-04 12:26:06.349893,21.798,0.194,236.8,103.79354858398438,293.82073974609375,84.958251953125,50.54399871826172,70.74559783935547,51.0,0.0,-20.0
32,100,30,60,go_to_red_up,red,true,false,joint 1 +,true,2024-03-04 12:26:07.037622,21.798,0.194,236.8,33.0550422668457,309.8565673828125,84.958251953125,63.910797119140625,84.28160095214844,51.0,0.0,-20.0
32,100,30,60,go_to_red_up,red,true,false,joint 1 +,true,2024-03-04 12:26:08.419753,22.102,0.194,236.8,-87.89485168457031,298.9619445800781,84.958251953125,86.38333892822266,106.7476577758789,51.0,0.0,-20.0
32,100,30,60,go_to_red_up,red,true,false,joint 1 +,true,2024-03-04 12:26:09.110452,22.083,0.194,236.8,-154.91024780273438,270.3822021484375,84.958251953125,99.80970764160156,120.001220703125,51.0,0.0,-20.0
32,100,30,60,go_to_red_up,red,true,false,joint 1 +,true,2024-03-04 12:26:10.492922,21.874,0.194,236.8,-178.73475646972656,255.2598876953125,84.958251953125,104.99996948242188,125.0,51.0,0.0,-20.0
32,100,30,60,go_to_pick_up_from_red,red,true,false,joint 1 -,false,2024-03-04 12:26:11.185202,21.95,0.194,236.8,-162.5214080810547,265.87689208984375,84.958251953125,101.43600463867188,121.27400207519531,51.0,0.0,-20.0
32,100,30,60,go_to_pick_up_from_red,red,true,false,joint 1 -,false,2024-03-04 12:26:11.874163,21.95,0.194,236.8,-104.52755737304688,293.5604248046875,84.958251953125,89.59920501708984,109.264404296875,51.0,0.0,-20.0
32,100,30,60,go_to_pick_up_from_red,red,true,false,joint 1 -,false,2024-03-04 12:26:13.259631,16.101,0.149,236.8,19.737945556640625,310.9889831542969,84.958251953125,66.36840057373047,85.83920288085938,51.0,0.0,-20.0
32,100,30,60,go_to_pick_up_from_red,red,true,false,joint 1 -,false,2024-03-04 12:26:13.949620,16.101,0.149,236.8,160.81597900390625,266.911865234375,84.958251953125,38.9307861328125,58.40315246582031,51.0,0.0,-20.0
32,100,30,60,go_to_pick_up_from_red,red,true,false,joint 1 -,false,2024-03-04 12:26:15.327160,16.177,0.15,236.8,246.6727752685547,190.41079711914062,84.958251953125,17.665145874023438,37.31031036376953,51.0,0.0,-20.0
32,100,30,60,go_to_pick_up_from_red,red,true,false,joint 1 -,false,2024-03-04 12:26:16.029019,16.215,0.15,236.8,285.4306945800781,125.03221893310547,84.958251953125,3.6557044982910156,23.495269775390625,51.0,0.0,-20.0
32,100,30,60,moving_belt,red,false,true,joint 1 -,false,2024-03-04 12:26:17.413739,16.12,0.15,236.8,292.8220520019531,106.5785140991211,84.958251953125,0.0,20.0,51.0,0.0,-20.0
32,100,30,60,moving_belt,red,false,true,joint 1 -,false,2024-03-04 12:26:18.102030,16.12,0.15,236.8,292.8220520019531,106.5785140991211,84.958251953125,0.0,20.0,51.0,0.0,-20.0
32,100,30,60,moving_belt,red,false,true,joint 1 -,false,2024-03-04 12:26:19.487038,16.538,0.153,236.8,292.8220520019531,106.5785140991211,84.958251953125,0.0,20.0,51.0,0.0,-20.0
32,100,30,60,moving_belt,red,false,true,joint 1 -,false,2024-03-04 12:26:20.175540,16.538,0.153,236.8,292.8220520019531,106.5785140991211,84.958251953125,0.0,20.0,51.0,0.0,-20.0
32,100,30,60,moving_belt,red,false,true,joint 1 -,false,2024-03-04 12:26:20.895622,16.576,0.153,236.8,292.8220520019531,106.5785140991211,84.958251953125,0.0,20.0,51.0,0.0,-20.0
32,100,30,60,go_to_pick_down,red,true,false,joint 3 +,false,2024-03-04 12:26:22.272784,16.747,0.151,236.8,292.7549743652344,106.5541000366211,80.37779235839844,0.0,20.0,51.0,1.900800347328186,-20.0
32,100,30,60,go_to_pick_down,red,true,false,joint 3 +,false,2024-03-04 12:26:22.960906,16.747,0.151,236.8,290.111083984375,105.59180450439453,55.97795104980469,0.0,20.0,51.0,11.644899368286133,-20.0
32,100,30,60,go_to_pick_down,red,true,false,joint 3 +,false,2024-03-04 12:26:24.355514,16.329,0.151,236.8,284.07257080078125,103.39395904541016,33.47285461425781,0.0,20.0,51.0,20.604093551635742,-20.0
32,100,30,60,go_to_pick_up_from_pick_down,red,true,false,joint 3 -,true,2024-03-04 12:26:25.046050,16.367,0.151,236.8,283.5011291503906,103.18598175048828,31.875030517578125,0.0,20.0,51.0,21.089200973510742,-20.0
32,100,30,60,go_to_pick_up_from_pick_down,red,true,false,joint 3 -,true,2024-03-04 12:26:26.425580,22.937,0.175,236.8,289.1138000488281,105.22882080078125,51.125953674316406,0.0,20.0,51.0,13.054001808166504,-20.0
32,100,30,60,go_to_pick_up_from_pick_down,red,true,false,joint 3 -,true,2024-03-04 12:26:27.143129,22.937,0.175,236.8,292.6668395996094,106.52202606201172,77.9914321899414,0.0,20.0,51.0,2.57840633392334,-20.0
32,100,30,60,go_to_color_detect_up_from_pick_up,red,true,false,joint 1 +,true,2024-03-04 12:26:27.831713,22.918,0.202,236.8,292.29620361328125,108.0123062133789,84.958251953125,0.28079795837402344,20.327598571777344,51.0,0.0,-20.0
32,100,30,60,go_to_color_detect_up_from_pick_up,red,true,false,joint 1 +,true,2024-03-04 12:26:29.413740,22.424,0.202,236.8,278.66082763671875,139.46995544433594,84.958251953125,6.5879974365234375,26.807598114013672,51.0,0.0,-20.0
32,100,30,60,go_to_color_detect_up_from_pick_up,red,true,false,joint 1 +,true,2024-03-04 12:26:30.101450,22.329,0.198,236.8,234.5008087158203,205.2147674560547,84.958251953125,21.18960189819336,41.582000732421875,51.0,0.0,-20.0
32,100,30,60,go_to_color_detect_up_from_pick_up,red,true,false,joint 1 +,true,2024-03-04 12:26:31.487294,22.576,0.198,236.8,163.8436737060547,265.0641174316406,84.958251953125,38.27860641479492,58.49679183959961,51.0,0.0,-20.0
32,100,30,60,go_to_color_detect_up_from_pick_up,red,true,false,joint 1 +,true,2024-03-04 12:26:32.176550,22.424,0.198,236.8,133.2169189453125,281.7037048339844,84.958251953125,44.69065856933594,64.73604583740234,51.0,0.0,-20.0
32,100,30,60,go_to_color_detect_down,red,true,false,joint 3 +,true,2024-03-04 12:26:33.554410,22.348,0.198,236.8,131.65989685058594,282.3455505371094,80.08238983154297,45.0,65.0,51.0,2.0196003913879395,-20.0
32,100,30,60,go_to_color_detect_down,red,true,false,joint 3 +,true,2024-03-04 12:26:34.244425,22.519,0.198,236.8,129.90576171875,278.58380126953125,49.94166946411133,45.0,65.0,51.0,14.097600936889648,-20.0
32,100,30,60,go_to_color_detect_down,red,true,false,joint 3 +,true,2024-03-04 12:26:34.938104,22.462,0.198,236.8,122.48052215576172,262.6603088378906,7.9242706298828125,45.0,65.0,51.0,31.945472717285156,-20.0
32,100,30,60,go_to_color_detect_down,red,true,false,joint 3 +,true,2024-03-04 12:26:36.489476,22.481,0.197,236.8,114.29682922363281,245.11033630371094,-17.06151580810547,45.0,65.0,51.0,44.117523193359375,-20.0
32,100,30,60,go_to_color_detect_up_from_color_detect_down,red,true,false,joint 3 -,false,2024-03-04 12:26:37.454476,22.557,0.197,236.8,111.13883972167969,238.33799743652344,-24.284042358398438,45.0,65.0,51.0,48.0,-20.0
32,100,30,60,go_to_color_detect_up_from_color_detect_down,red,true,false,joint 3 -,false,2024-03-04 12:26:38.392341,17.525,0.16,236.8,114.83667755126953,246.26803588867188,-15.71954345703125,45.0,65.0,51.0,43.03920364379883,-20.0
32,100,30,60,go_to_color_detect_up_from_color_detect_down,red,true,false,joint 3 -,false,2024-03-04 12:26:39.171278,17.525,0.16,236.8,123.27306365966797,264.35992431640625,11.058670043945312,45.0,65.0,51.0,29.81999969482422,-20.0
32,100,30,60,go_to_color_detect_up_from_color_detect_down,red,true,false,joint 3 -,false,2024-03-04 12:26:40.552691,16.652,0.154,236.8,130.28326416015625,279.3933410644531,53.80846405029297,45.0,65.0,51.0,11.93893051147461,-20.0
32,100,30,60,go_to_color_detect_up_from_color_detect_down,red,true,false,joint 3 -,false,2024-03-04 12:26:41.244842,16.728,0.154,236.8,131.67401123046875,282.37579345703125,81.22216796875,45.0,65.0,51.0,1.3557742834091187,-20.0
32,100,30,60,detecting_color,red,false,false,detecting_color,false,2024-03-04 12:26:41.934157,16.576,0.154,236.8,131.69407653808594,282.4188232421875,84.958251953125,45.0,65.0,51.0,0.0,-20.0
32,100,30,60,detecting_color,red,false,false,detecting_color,false,2024-03-04 12:26:43.311395,16.462,0.152,236.8,131.69407653808594,282.4188232421875,84.958251953125,45.0,65.0,51.0,0.0,-20.0
32,100,30,60,detecting_color,red,false,false,detecting_color,false,2024-03-04 12:26:44.000366,16.462,0.152,236.8,131.69407653808594,282.4188232421875,84.958251953125,45.0,65.0,51.0,0.0,-20.0
32,100,30,60,detecting_color,red,false,false,detecting_color,false,2024-03-04 12:26:45.381382,16.424,0.152,236.8,131.69407653808594,282.4188232421875,84.958251953125,45.0,65.0,51.0,0.0,-20.0
32,100,30,60,go_to_color_detect_down,red,true,false,joint 3 +,false,2024-03-04 12:26:46.070069,16.5,0.152,236.8,131.65066528320312,282.32574462890625,79.46394348144531,45.0,65.0,51.0,2.268000364303589,-20.0
32,100,30,60,go_to_color_detect_down,red,true,false,joint 3 +,false,2024-03-04 12:26:47.081226,16.443,0.152,236.8,130.2097930908203,279.2358093261719,53.01739501953125,45.0,65.0,51.0,12.852001190185547,-20.0
32,100,30,60,go_to_color_detect_down,red,true,false,joint 3 +,false,2024-03-04 12:26:48.500701,16.443,0.152,236.8,122.09044647216797,261.82379150390625,6.4438934326171875,45.0,65.0,51.0,32.61824035644531,-20.0
32,100,30,60,go_to_color_detect_down,red,true,false,joint 3 +,false,2024-03-04 12:26:49.190075,16.443,0.152,236.8,114.0444564819336,244.56912231445312,-17.677406311035156,45.0,65.0,51.0,44.44469451904297,-20.0
32,100,30,60,go_to_color_detect_up_from_color_detect_down,red,true,false,joint 3 -,true,2024-03-04 12:26:50.568762,16.481,0.152,236.8,111.13883972167969,238.33799743652344,-24.284042358398438,45.0,65.0,51.0,47.99639892578125,-20.0
32,100,30,60,go_to_color_detect_up_from_color_detect_down,red,true,false,joint 3 -,true,2024-03-04 12:26:51.269042,16.481,0.152,236.8,114.43366241455078,245.4037628173828,-16.724563598632812,45.0,65.0,51.0,43.590003967285156,-20.0
32,100,30,60,go_to_color_detect_up_from_color_detect_down,red,true,false,joint 3 -,true,2024-03-04 12:26:51.957489,23.184,0.204,236.8,123.8578872680664,265.61407470703125,13.491165161132812,45.0,65.0,51.0,28.718399047851562,-20.0
32,100,30,60,go_to_color_detect_up_from_color_detect_down,red,true,false,joint 3 -,true,2024-03-04 12:26:53.335111,23.184,0.204,236.8,130.41481018066406,279.6754455566406,55.280311584472656,45.0,65.0,51.0,11.359761238098145,-20.0
32,100,30,60,go_to_color_detect_up_from_color_detect_down,red,true,false,joint 3 -,true,2024-03-04 12:26:54.026017,23.184,0.204,236.8,131.67909240722656,282.3866882324219,81.72891998291016,45.0,65.0,51.0,1.165405511856079,-20.0
32,100,30,60,go_to_green_up,green,true,false,joint 1 +,true,2024-03-04 12:26:54.814251,22.918,0.204,236.8,128.313232421875,283.9708557128906,84.958251953125,45.683998107910156,65.75599670410156,51.0,0.0,-20.0
32,100,30,60,go_to_green_up,green,true,false,joint 1 +,true,2024-03-04 12:26:56.443448,22.576,0.2,236.8,90.06238555908203,298.31610107421875,84.958251953125,53.2008056640625,73.44560241699219,51.0,0.0,-20.0
32,100,30,60,go_to_green_up,green,true,false,joint 1 +,true,2024-03-04 12:26:57.133150,22.69,0.2,236.8,-1.7197424173355103,311.6099853515625,84.958251953125,70.31620025634766,90.6395492553711,51.0,0.0,-20.0
32,100,30,60,go_to_green_up,green,true,false,joint 1 +,true,2024-03-04 12:26:58.523359,22.709,0.199,236.8,-63.59642028808594,305.05609130859375,84.958251953125,81.77603912353516,101.92658233642578,51.0,0.0,-20.0
32,100,30,60,go_to_pick_up_from_green,green,true,false,joint 1 -,false,2024-03-04 12:26:59.215310,22.557,0.199,236.8,-80.53828430175781,301.0271301269531,84.958251953125,84.9783935546875,104.96399688720703,51.0,0.0,-20.0
32,100,30,60,go_to_pick_up_from_green,green,true,false,joint 1 -,false,2024-03-04 12:26:59.909210,22.614,0.179,236.8,-49.011573791503906,307.7362365722656,84.958251953125,79.04920196533203,98.84040069580078,51.0,0.0,-20.0
32,100,30,60,go_to_pick_up_from_green,green,true,false,joint 1 -,false,2024-03-04 12:27:01.286405,16.196,0.179,236.8,27.34316635131836,310.4127502441406,84.958251953125,64.96601104736328,84.58441162109375,51.0,0.0,-20.0
32,100,30,60,go_to_pick_up_from_green,green,true,false,joint 1 -,false,2024-03-04 12:27:01.980809,16.291,0.179,236.8,143.4610137939453,276.6272888183594,84.958251953125,42.58840560913086,62.036460876464844,51.0,0.0,-20.0
32,100,30,60,go_to_pick_up_from_green,green,true,false,joint 1 -,false,2024-03-04 12:27:03.532080,16.253,0.151,236.8,244.56100463867188,193.11563110351562,84.958251953125,18.296100616455078,37.93495559692383,51.0,0.0,-20.0
32,100,30,60,go_to_pick_up_from_green,green,true,false,joint 1 -,false,2024-03-04 12:27:04.227623,16.253,0.151,236.8,282.8001708984375,130.87318420410156,84.958251953125,4.833576202392578,24.64883041381836,51.0,0.0,-20.0
32,100,30,60,go_to_pick_up_from_green,green,true,false,joint 1 -,false,2024-03-04 12:27:04.915947,16.31,0.151,236.8,292.7725524902344,106.71444702148438,84.958251953125,0.026597976684570312,20.014652252197266,51.0,0.0,-20.0
32,100,30,60,moving_belt,green,false,true,joint 1 -,false,2024-03-04 12:27:06.302276,16.291,0.151,236.8,292.8220520019531,106.5785140991211,84.958251953125,0.0,20.0,51.0,0.0,-20.0
32,100,30,60,moving_belt,green,false,true,joint 1 -,false,2024-03-04 12:27:06.991969,16.671,0.155,236.8,292.8220520019531,106.5785140991211,84.958251953125,0.0,20.0,51.0,0.0,-20.0
32,100,30,60,moving_belt,green,false,true,joint 1 -,false,2024-03-04 12:27:08.378586,16.443,0.155,236.8,292.8220520019531,106.5785140991211,84.958251953125,0.0,20.0,51.0,0.0,-20.0
32,100,30,60,moving_belt,green,false,true,joint 1 -,false,2024-03-04 12:27:08.378586,16.443,0.155,236.8,292.8220520019531,106.5785140991211,84.958251953125,0.0,20.0,51.0,0.0,-20.0
32,100,30,60,go_to_pick_down,green,true,false,joint 3 +,false,2024-03-04 12:27:10.324939,16.69,0.152,236.8,292.80462646484375,106.5721664428711,82.62156677246094,0.0,20.0,51.0,0.993600070476532,-20.0
32,100,30,60,go_to_pick_down,green,true,false,joint 3 +,false,2024-03-04 12:27:11.015644,16.348,0.152,236.8,291.1416931152344,105.96691131591797,62.09923553466797,0.0,20.0,51.0,9.201600074768066,-20.0
32,100,30,60,go_to_pick_down,green,true,false,joint 3 +,false,2024-03-04 12:27:12.393290,16.291,0.152,236.8,284.34716796875,103.49391174316406,34.26131820678711,0.0,20.0,51.0,20.28714370727539,-20.0
32,100,30,60,go_to_pick_up_from_pick_down,green,true,false,joint 3 -,true,2024-03-04 12:27:13.083898,16.367,0.152,236.8,283.0574035644531,103.02446746826172,30.67127227783203,0.0,20.0,51.0,21.62200164794922,-20.0
32,100,30,60,go_to_pick_up_from_pick_down,green,true,false,joint 3 -,true,2024-03-04 12:27:14.467565,22.861,0.152,236.8,287.9944152832031,104.82140350341797,46.43525314331055,0.0,20.0,51.0,14.969202041625977,-20.0
32,100,30,60,go_to_pick_up_from_pick_down,green,true,false,joint 3 -,true,2024-03-04 12:27:15.158263,22.121,0.152,236.8,292.63232421875,106.50946044921875,77.25627136230469,0.0,20.0,51.0,2.8581061363220215,-20.0
32,100,30,60,go_to_color_detect_up_from_pick_up,green,true,false,joint 1 +,true,2024-03-04 12:27:16.536468,22.026,0.195,236.8,292.7818603515625,106.68889617919922,84.958251953125,0.02159881591796875,20.035999298095703,51.0,0.0,-20.0
32,100,30,60,go_to_color_detect_up_from_pick_up,green,true,false,joint 1 +,true,2024-03-04 12:27:17.229150,21.912,0.195,236.8,282.93701171875,130.57708740234375,84.958251953125,4.773597717285156,24.960798263549805,51.0,0.0,-20.0
32,100,30,60,go_to_color_detect_up_from_pick_up,green,true,false,joint 1 +,true,2024-03-04 12:27:17.929496,21.874,0.192,236.8,238.59182739257812,200.44369506835938,84.958251953125,20.034000396728516,40.41559982299805,51.0,0.0,-20.0
32,100,30,60,go_to_color_detect_up_from_pick_up,green,true,false,joint 1 +,true,2024-03-04 12:27:19.310683,21.931,0.192,236.8,173.56246948242188,258.8045349121094,84.958251953125,36.152950286865234,56.403533935546875,51.0,0.0,-20.0
32,100,30,60,go_to_color_detect_up_from_pick_up,green,true,false,joint 1 +,true,2024-03-04 12:27:19.998647,21.836,0.193,236.8,136.0150146484375,280.3634033203125,84.958251953125,44.120201110839844,64.19798278808594,51.0,0.0,-20.0
32,100,30,60,go_to_color_detect_down,green,true,false,joint 3 +,true,2024-03-04 12:27:21.413716,21.836,0.193,236.8,131.67385864257812,282.37548828125,81.20872497558594,45.0,65.0,51.0,1.5660003423690796,-20.0
32,100,30,60,go_to_color_detect_down,green,true,false,joint 3 +,true,2024-03-04 12:27:22.104615,21.817,0.193,236.8,130.6471405029297,280.1736755371094,58.084869384765625,45.0,65.0,51.0,10.810800552368164,-20.0
32,100,30,60,go_to_color_detect_down,green,true,false,joint 3 +,true,2024-03-04 12:27:22.795347,21.741,0.193,236.8,124.6212387084961,267.2510986328125,16.83905029296875,45.0,65.0,51.0,27.987844467163086,-20.0
32,100,30,60,go_to_color_detect_down,green,true,false,joint 3 +,true,2024-03-04 12:27:24.464244,21.76,0.193,236.8,114.9677505493164,246.5491180419922,-15.388580322265625,45.0,65.0,51.0,43.236602783203125,-20.0
32,100,30,60,go_to_color_detect_down,green,true,false,joint 3 +,true,2024-03-04 12:27:25.161279,21.76,0.193,236.8,111.18211364746094,238.43080139160156,-24.19178009033203,45.0,65.0,51.0,47.96406555175781,-20.0
32,100,30,60,go_to_color_detect_up_from_color_detect_down,green,true,false,joint 3 -,false,2024-03-04 12:27:26.551252,19.728,0.193,236.8,113.24251556396484,242.84934997558594,-19.587730407714844,45.0,65.0,51.0,45.19200134277344,-20.0
32,100,30,60,go_to_color_detect_up_from_color_detect_down,green,true,false,joint 3 -,false,2024-03-04 12:27:27.240471,19.728,0.193,236.8,121.90691375732422,261.4302062988281,5.760673522949219,45.0,65.0,51.0,32.264400482177734,-20.0
32,100,30,60,go_to_color_detect_up_from_color_detect_down,green,true,false,joint 3 -,false,2024-03-04 12:27:27.968043,16.443,0.193,236.8,129.65414428710938,278.044189453125,47.5977897644043,45.0,65.0,51.0,14.399605751037598,-20.0
32,100,30,60,go_to_color_detect_up_from_color_detect_down,green,true,false,joint 3 -,false,2024-03-04 12:27:29.350471,16.481,0.154,236.8,131.5946044921875,282.2055358886719,76.64352416992188,45.0,65.0,51.0,3.091555595397949,-20.0
32,100,30,60,detecting_color,green,false,false,detecting_color,false,2024-03-04 12:27:30.044379,16.538,0.154,236.8,131.69407653808594,282.4188232421875,84.958251953125,45.0,65.0,51.0,0.0,-20.0
32,100,30,60,detecting_color,green,false,false,detecting_color,false,2024-03-04 12:27:31.426756,16.443,0.153,236.8,131.69407653808594,282.4188232421875,84.958251953125,45.0,65.0,51.0,0.0,-20.0
32,100,30,60,go_to_color_detect_down,green,true,false,joint 3 +,false,2024-03-04 12:27:32.225720,16.443,0.153,236.8,131.67897033691406,282.3864440917969,81.7165756225586,45.0,65.0,51.0,1.3608002662658691,-20.0
32,100,30,60,go_to_color_detect_down,green,true,false,joint 3 +,false,2024-03-04 12:27:32.918268,16.348,0.152,236.8,130.7521514892578,280.39886474609375,59.457237243652344,45.0,65.0,51.0,10.260001182556152,-20.0
32,100,30,60,go_to_color_detect_down,green,true,false,joint 3 +,false,2024-03-04 12:27:34.344987,16.253,0.152,236.8,125.00489807128906,268.0738525390625,18.60394287109375,45.0,65.0,51.0,27.22147560119629,-20.0
32,100,30,60,go_to_color_detect_down,green,true,false,joint 3 +,false,2024-03-04 12:27:35.033324,16.367,0.152,236.8,115.25151824951172,247.15765380859375,-14.664924621582031,45.0,65.0,51.0,42.859031677246094,-20.0
32,100,30,60,go_to_color_detect_down,green,true,false,joint 3 +,false,2024-03-04 12:27:35.719289,16.367,0.152,236.8,111.19933319091797,238.4677276611328,-24.155014038085938,45.0,65.0,51.0,47.94628143310547,-20.0
32,100,30,60,go_to_color_detect_up_from_color_detect_down,green,true,false,joint 3 -,true,2024-03-04 12:27:37.352489,19.823,0.16,236.8,113.46129608154297,243.31851196289062,-19.073486328125,45.0,65.0,51.0,44.9004020690918,-20.0
32,100,30,60,go_to_color_detect_up_from_color_detect_down,green,true,false,joint 3 -,true,2024-03-04 12:27:38.069142,22.158,0.16,236.8,122.29655456542969,262.26580810546875,7.22119140625,45.0,65.0,51.0,31.583999633789062,-20.0
32,100,30,60,go_to_color_detect_up_from_color_detect_down,green,true,false,joint 3 -,true,2024-03-04 12:27:39.455963,22.215,0.196,236.8,129.8278045654297,278.4166259765625,49.198055267333984,45.0,65.0,51.0,13.762836456298828,-20.0
32,100,30,60,go_to_color_detect_up_from_color_detect_down,green,true,false,joint 3 -,true,2024-03-04 12:27:40.144609,22.196,0.196,236.8,131.64569091796875,282.3150939941406,79.15821838378906,45.0,65.0,51.0,2.135465145111084,-20.0
32,100,30,60,go_to_blue_up,blue,true,false,joint 1 +,true,2024-03-04 12:27:41.530673,21.893,0.195,236.8,130.89498901367188,282.7900695800781,84.958251953125,45.16200256347656,65.19800567626953,51.0,0.0,-20.0
32,100,30,60,go_to_blue_up,blue,true,false,joint 1 +,true,2024-03-04 12:27:42.218630,21.893,0.195,236.8,101.70482635498047,294.5502624511719,84.958251953125,50.95079803466797,71.15959930419922,51.0,0.0,-20.0
32,100,30,60,go_to_blue_up,blue,true,false,joint 1 +,true,2024-03-04 12:27:43.614059,21.741,0.193,236.8,40.89663314819336,308.9194030761719,84.958251953125,62.45868682861328,82.5921401977539,51.0,0.0,-20.0
32,100,30,60,go_to_pick_up_from_blue,blue,true,false,joint 1 -,false,2024-03-04 12:27:44.304416,21.741,0.193,236.8,27.56855010986328,310.392822265625,84.958251953125,64.92440032958984,84.89920043945312,51.0,0.0,-20.0
32,100,30,60,go_to_pick_up_from_blue,blue,true,false,joint 1 -,false,2024-03-04 12:27:44.995646,21.684,0.193,236.8,55.96352767944336,306.5482482910156,84.958251953125,59.65399932861328,79.45600128173828,51.0,0.0,-20.0
32,100,30,60,go_to_pick_up_from_blue,blue,true,false,joint 1 -,false,2024-03-04 12:27:46.374044,16.253,0.151,236.8,137.52894592285156,279.6238708496094,84.958251953125,43.81040954589844,63.41801071166992,51.0,0.0,-20.0
32,100,30,60,go_to_pick_up_from_blue,blue,true,false,joint 1 -,false,2024-03-04 12:27:47.065975,16.253,0.151,236.8,229.09410095214844,211.2335968017578,84.958251953125,22.677249908447266,42.27497863769531,51.0,0.0,-20.0
32,100,30,60,go_to_pick_up_from_blue,blue,true,false,joint 1 -,false,2024-03-04 12:27:47.756567,16.063,0.151,236.8,276.5835876464844,143.54525756835938,84.958251953125,7.429044723510742,27.199573516845703,51.0,0.0,-20.0
32,100,30,60,go_to_pick_up_from_blue,blue,true,false,joint 1 -,false,2024-03-04 12:27:49.443444,16.177,0.151,236.8,292.4684753417969,107.54496002197266,84.958251953125,0.18921470642089844,20.154144287109375,51.0,0.0,-20.0
32,100,30,60,moving_belt,blue,false,true,joint 1 -,false,2024-03-04 12:27:50.166218,16.196,0.15,236.8,292.8220520019531,106.5785140991211,84.958251953125,0.0,20.0,51.0,0.0,-20.0
32,100,30,60,moving_belt,blue,false,true,joint 1 -,false,2024-03-04 12:27:50.960784,16.766,0.15,236.8,292.8220520019531,106.5785140991211,84.958251953125,0.0,20.0,51.0,0.0,-20.0
32,100,30,60,moving_belt,blue,false,true,joint 1 -,false,2024-03-04 12:27:52.355824,16.31,0.151,236.8,292.8220520019531,106.5785140991211,84.958251953125,0.0,20.0,51.0,0.0,-20.0
32,100,30,60,moving_belt,blue,false,true,joint 1 -,false,2024-03-04 12:27:53.056519,16.31,0.151,236.8,292.8220520019531,106.5785140991211,84.958251953125,0.0,20.0,51.0,0.0,-20.0
32,100,30,60,go_to_pick_down,blue,true,false,joint 3 +,false,2024-03-04 12:27:54.438751,16.367,0.152,236.8,292.82086181640625,106.57808685302734,84.3486557006836,0.0,20.0,51.0,0.2807999849319458,-20.0
32,100,30,60,go_to_pick_down,blue,true,false,joint 3 +,false,2024-03-04 12:27:54.438751,16.367,0.152,236.8,291.96868896484375,106.2679214477539,68.64370727539062,0.0,20.0,51.0,6.588000774383545,-20.0
32,100,30,60,go_to_pick_down,blue,true,false,joint 3 +,false,2024-03-04 12:27:56.398193,16.215,0.152,236.8,285.5335388183594,103.92572021484375,37.839454650878906,0.0,20.0,51.0,18.847795486450195,-20.0
32,100,30,60,go_to_pick_up_from_pick_down,blue,true,false,joint 3 -,true,2024-03-04 12:27:57.096797,16.253,0.151,236.8,282.7668762207031,102.9187240600586,29.899646759033203,0.0,20.0,51.0,21.989200592041016,-20.0
32,100,30,60,go_to_pick_up_from_pick_down,blue,true,false,joint 3 -,true,2024-03-04 12:27:58.476017,20.601,0.151,236.8,286.23419189453125,104.18073272705078,40.103126525878906,0.0,20.0,51.0,17.590002059936523,-20.0
32,100,30,60,go_to_pick_up_from_pick_down,blue,true,false,joint 3 -,true,2024-03-04 12:27:59.169253,22.177,0.194,236.8,292.2906799316406,106.38511657714844,72.07695007324219,0.0,20.0,51.0,4.838705062866211,-20.0
32,100,30,60,go_to_pick_up_from_pick_down,blue,true,false,joint 3 -,true,2024-03-04 12:28:00.549860,22.045,0.194,236.8,292.822021484375,106.57849884033203,84.84957122802734,0.0,20.0,51.0,0.02670985646545887,-20.0
32,100,30,60,go_to_color_detect_up_from_pick_up,blue,true,false,joint 1 +,true,2024-03-04 12:28:01.243975,21.779,0.193,236.8,286.94476318359375,121.51721954345703,84.958251953125,2.951997756958008,23.099597930908203,51.0,0.0,-20.0
32,100,30,60,go_to_color_detect_up_from_pick_up,blue,true,false,joint 1 +,true,2024-03-04 12:28:01.940645,21.57,0.193,236.8,251.86480712890625,183.4879913330078,84.958251953125,16.07400131225586,36.41600036621094,51.0,0.0,-20.0
32,100,30,60,go_to_color_detect_up_from_pick_up,blue,true,false,joint 1 +,true,2024-03-04 12:28:03.324405,21.855,0.193,236.8,186.84341430664062,249.38577270507812,84.958251953125,33.15892028808594,53.44910430908203,51.0,0.0,-20.0
32,100,30,60,go_to_color_detect_up_from_pick_up,blue,true,false,joint 1 +,true,2024-03-04 12:28:04.014501,21.874,0.193,236.8,141.33941650390625,277.71728515625,84.958251953125,43.02696990966797,63.14435577392578,51.0,0.0,-20.0
32,100,30,60,go_to_color_detect_down,blue,true,false,joint 3 +,true,2024-03-04 12:28:04.964110,21.855,0.193,236.8,131.69049072265625,282.4111328125,83.37887573242188,45.0,65.0,51.0,0.6840000748634338,-20.0
32,100,30,60,go_to_color_detect_down,blue,true,false,joint 3 +,true,2024-03-04 12:28:06.344445,21.817,0.192,236.8,131.09556579589844,281.13531494140625,64.60244750976562,45.0,65.0,51.0,8.200800895690918,-20.0
32,100,30,60,go_to_color_detect_down,blue,true,false,joint 3 +,true,2024-03-04 12:28:07.036951,21.836,0.192,236.8,126.31780242919922,270.8893737792969,25.139835357666016,45.0,65.0,51.0,24.425785064697266,-20.0
32,100,30,60,go_to_color_detect_down,blue,true,false,joint 3 +,true,2024-03-04 12:28:08.416306,21.817,0.192,236.8,116.30947875976562,249.4264678955078,-11.878288269042969,45.0,65.0,51.0,41.42414093017578,-20.0
32,100,30,60,go_to_color_detect_down,blue,true,false,joint 3 +,true,2024-03-04 12:28:09.116771,21.817,0.192,236.8,111.44074249267578,238.9854278564453,-23.636573791503906,45.0,65.0,51.0,47.674407958984375,-20.0
32,100,30,60,go_to_color_detect_up_from_color_detect_down,blue,true,false,joint 3 -,false,2024-03-04 12:28:10.498712,21.513,0.193,236.8,112.64732360839844,241.5729522705078,-20.961341857910156,45.0,65.0,51.0,45.98040008544922,-20.0
32,100,30,60,go_to_color_detect_up_from_color_detect_down,blue,true,false,joint 3 -,false,2024-03-04 12:28:11.187903,21.513,0.193,236.8,120.5569839477539,258.5352783203125,0.974884033203125,45.0,65.0,51.0,34.53240203857422,-20.0
32,100,30,60,go_to_color_detect_up_from_color_detect_down,blue,true,false,joint 3 -,false,2024-03-04 12:28:12.567535,16.424,0.152,236.8,128.95068359375,276.53564453125,41.757179260253906,45.0,65.0,51.0,16.741695404052734,-20.0
32,100,30,60,go_to_color_detect_up_from_color_detect_down,blue,true,false,joint 3 -,false,2024-03-04 12:28:13.258257,16.633,0.152,236.8,131.51095581054688,282.0261535644531,73.67996215820312,45.0,65.0,51.0,4.224046230316162,-20.0
32,100,30,60,detecting_color,blue,false,false,detecting_color,false,2024-03-04 12:28:13.946953,16.5,0.153,236.8,131.69407653808594,282.4188232421875,84.958251953125,45.0,65.0,51.0,0.0,-20.0
32,100,30,60,detecting_color,blue,false,false,detecting_color,false,2024-03-04 12:28:15.441968,16.291,0.153,236.8,131.69407653808594,282.4188232421875,84.958251953125,45.0,65.0,51.0,0.0,-20.0
32,100,30,60,go_to_color_detect_down,blue,true,false,joint 3 +,false,2024-03-04 12:28:16.134323,16.291,0.151,236.8,131.6765594482422,282.38128662109375,81.4672622680664,45.0,65.0,51.0,1.4616003036499023,-20.0
32,100,30,60,go_to_color_detect_down,blue,true,false,joint 3 +,false,2024-03-04 12:28:17.366838,16.291,0.151,236.8,130.70066833496094,280.2884826660156,58.775299072265625,45.0,65.0,51.0,10.533600807189941,-20.0
32,100,30,60,go_to_color_detect_down,blue,true,false,joint 3 +,false,2024-03-04 12:28:18.057335,16.405,0.151,236.8,124.81343078613281,267.66326904296875,17.715850830078125,45.0,65.0,51.0,27.606460571289062,-20.0
32,100,30,60,go_to_color_detect_down,blue,true,false,joint 3 +,false,2024-03-04 12:28:19.312459,16.405,0.15,236.8,115.10855865478516,246.85108947753906,-15.03070068359375,45.0,65.0,51.0,43.049617767333984,-20.0
32,100,30,60,go_to_color_detect_down,blue,true,false,joint 3 +,false,2024-03-04 12:28:20.002156,16.177,0.15,236.8,111.18211364746094,238.43080139160156,-24.19178009033203,45.0,65.0,51.0,47.96406555175781,-20.0
32,100,30,60,go_to_color_detect_up_from_color_detect_down,blue,true,false,joint 3 -,true,2024-03-04 12:28:21.381916,19.614,0.151,236.8,113.35066223144531,243.08126831054688,-19.334190368652344,45.0,65.0,51.0,45.04800033569336,-20.0
32,100,30,60,go_to_color_detect_up_from_color_detect_down,blue,true,false,joint 3 -,true,2024-03-04 12:28:22.242533,22.064,0.151,236.8,122.10160064697266,261.84771728515625,6.4856719970703125,45.0,65.0,51.0,31.926000595092773,-20.0
32,100,30,60,go_to_color_detect_up_from_color_detect_down,blue,true,false,joint 3 -,true,2024-03-04 12:28:23.621920,22.14,0.195,236.8,129.74241638183594,278.2334899902344,48.401817321777344,45.0,65.0,51.0,14.079421043395996,-20.0
32,100,30,60,go_to_color_detect_up_from_color_detect_down,blue,true,false,joint 3 -,true,2024-03-04 12:28:24.323573,21.988,0.195,236.8,131.60366821289062,282.2249450683594,77.0302963256836,45.0,65.0,51.0,2.944171190261841,-20.0
32,100,30,60,go_to_red_up,red,true,false,joint 1 +,true,2024-03-04 12:28:25.012874,22.045,0.194,236.8,130.71728515625,282.8722839355469,84.958251953125,45.19800567626953,65.23760223388672,51.0,0.0,-20.0
32,100,30,60,go_to_red_up,red,true,false,joint 1 +,true,2024-03-04 12:28:26.396152,21.817,0.194,236.8,100.63070678710938,294.9189758300781,84.958251953125,51.15959930419922,71.37200164794922,51.0,0.0,-20.0
32,100,30,60,go_to_red_up,red,true,false,joint 1 +,true,2024-03-04 12:28:27.087811,21.76,0.193,236.8,24.906593322753906,310.6177673339844,84.958251953125,65.41559600830078,85.80079650878906,51.0,0.0,-20.0
32,100,30,60,go_to_red_up,red,true,false,joint 1 +,true,2024-03-04 12:28:28.472432,21.855,0.193,236.8,-95.35758209228516,296.6659240722656,84.958251953125,87.81900787353516,108.1689224243164,51.0,0.0,-20.0
32,100,30,60,go_to_red_up,red,true,false,joint 1 +,true,2024-03-04 12:28:29.164119,21.779,0.194,236.8,-158.4102325439453,268.3466491699219,84.958251953125,100.5541763305664,120.73129272460938,51.0,0.0,-20.0
32,100,30,60,go_to_pick_up_from_red,red,true,false,joint 1 -,false,2024-03-04 12:28:30.550075,21.684,0.194,236.8,-178.73486328125,255.2598114013672,84.958251953125,105.0,124.99639892578125,51.0,0.0,-20.0
32,100,30,60,go_to_pick_up_from_red,red,true,false,joint 1 -,false,2024-03-04 12:28:31.239985,21.684,0.174,236.8,-160.20994567871094,267.27606201171875,84.958251953125,100.93920135498047,120.76640319824219,51.0,0.0,-20.0
32,100,30,60,go_to_pick_up_from_red,red,true,false,joint 1 -,false,2024-03-04 12:28:32.644469,16.291,0.174,236.8,-99.30992126464844,295.3663330078125,84.958251953125,88.58399963378906,108.2384033203125,51.0,0.0,-20.0
32,100,30,60,go_to_pick_up_from_red,red,true,false,joint 1 -,false,2024-03-04 12:28:33.335148,16.101,0.151,236.8,28.4049129486084,310.3174133300781,84.958251953125,64.77000427246094,84.2300033569336,51.0,0.0,-20.0
32,100,30,60,go_to_pick_up_from_red,red,true,false,joint 1 -,false,2024-03-04 12:28:34.024974,16.101,0.151,236.8,168.07815551757812,262.3994445800781,84.958251953125,37.35868453979492,56.84185028076172,51.0,0.0,-20.0
32,100,30,60,go_to_pick_up_from_red,red,true,false,joint 1 -,false,2024-03-04 12:28:35.409208,16.196,0.151,236.8,250.13262939453125,185.84239196777344,84.958251953125,16.61144256591797,36.26741027832031,51.0,0.0,-20.0
32,100,30,60,go_to_pick_up_from_red,red,true,false,joint 1 -,false,2024-03-04 12:28:36.097927,16.196,0.15,236.8,286.4477844238281,122.68412780761719,84.958251953125,3.185201644897461,23.035568237304688,51.0,0.0,-20.0
32,100,30,60,moving_belt,red,false,true,joint 1 -,false,2024-03-04 12:28:37.474578,16.158,0.15,236.8,292.8220520019531,106.5785140991211,84.958251953125,0.0,20.0,51.0,0.0,-20.0
32,100,30,60,moving_belt,red,false,true,joint 1 -,false,2024-03-04 12:28:38.207664,16.234,0.15,236.8,292.8220520019531,106.5785140991211,84.958251953125,0.0,20.0,51.0,0.0,-20.0
32,100,30,60,moving_belt,red,false,true,joint 1 -,false,2024-03-04 12:28:39.640318,16.519,0.15,236.8,292.8220520019531,106.5785140991211,84.958251953125,0.0,20.0,51.0,0.0,-20.0
32,100,30,60,moving_belt,red,false,true,joint 1 -,false,2024-03-04 12:28:40.337608,16.405,0.152,236.8,292.8220520019531,106.5785140991211,84.958251953125,0.0,20.0,51.0,0.0,-20.0
32,100,30,60,moving_belt,red,false,true,joint 1 -,false,2024-03-04 12:28:41.027937,16.405,0.152,236.8,292.8220520019531,106.5785140991211,84.958251953125,0.0,20.0,51.0,0.0,-20.0
32,100,30,60,go_to_pick_down,red,true,false,joint 3 +,false,2024-03-04 12:28:42.418864,16.386,0.152,236.8,292.7460632324219,106.55084991455078,80.08238983154297,0.0,20.0,51.0,2.0196003913879395,-20.0
32,100,30,60,go_to_pick_down,red,true,false,joint 3 +,false,2024-03-04 12:28:43.108498,16.31,0.152,236.8,289.9788818359375,105.54368591308594,55.286964416503906,0.0,20.0,51.0,11.916149139404297,-20.0
32,100,30,60,go_to_pick_down,red,true,false,joint 3 +,false,2024-03-04 12:28:44.491875,16.348,0.152,236.8,283.5251770019531,103.1947250366211,31.941089630126953,0.0,20.0,51.0,21.217641830444336,-20.0
32,100,30,60,go_to_pick_up_from_pick_down,red,true,false,joint 3 -,true,2024-03-04 12:28:45.180748,16.405,0.152,236.8,283.5699768066406,103.21102905273438,32.064571380615234,0.0,20.0,51.0,21.00640106201172,-20.0
32,100,30,60,go_to_pick_up_from_pick_down,red,true,false,joint 3 -,true,2024-03-04 12:28:46.447717,16.405,0.152,236.8,289.2523193359375,105.27923583984375,51.755462646484375,0.0,20.0,51.0,12.798401832580566,-20.0
32,100,30,60,go_to_pick_up_from_pick_down,red,true,false,joint 3 -,true,2024-03-04 12:28:47.144396,22.842,0.202,236.8,292.7519226074219,106.55299377441406,80.27494812011719,0.0,20.0,51.0,1.7128572463989258,-20.0
32,100,30,60,go_to_color_detect_up_from_pick_up,red,true,false,joint 1 +,true,2024-03-04 12:28:48.650083,22.728,0.202,236.8,292.2078857421875,108.25102996826172,84.958251953125,0.32759857177734375,20.37799835205078,51.0,0.0,-20.0
32,100,30,60,go_to_color_detect_up_from_pick_up,red,true,false,joint 1 +,true,2024-03-04 12:28:49.347693,22.595,0.199,236.8,278.1242370605469,140.53697204589844,84.958251953125,6.807598114013672,27.030797958374023,51.0,0.0,-20.0
32,100,30,60,go_to_color_detect_up_from_pick_up,red,true,false,joint 1 +,true,2024-03-04 12:28:50.063655,22.291,0.199,236.8,225.7670135498047,214.78591918945312,84.958251953125,23.572154998779297,43.963138580322266,51.0,0.0,-20.0
32,100,30,60,go_to_color_detect_up_from_pick_up,red,true,false,joint 1 +,true,2024-03-04 12:28:51.458523,22.443,0.198,236.8,163.8436737060547,265.0641174316406,84.958251953125,38.27860641479492,58.49679183959961,51.0,0.0,-20.0
32,100,30,60,go_to_color_detect_up_from_pick_up,red,true,false,joint 1 +,true,2024-03-04 12:28:52.388703,22.462,0.198,236.8,133.2169189453125,281.7037048339844,84.958251953125,44.69065856933594,64.73604583740234,51.0,0.0,-20.0
32,100,30,60,go_to_color_detect_down,red,true,false,joint 3 +,true,2024-03-04 12:28:53.081353,22.348,0.198,236.8,131.63348388671875,282.2889099121094,78.46725463867188,45.0,65.0,51.0,2.667600393295288,-20.0
32,100,30,60,go_to_color_detect_down,red,true,false,joint 3 +,true,2024-03-04 12:28:54.461534,22.405,0.198,236.8,130.06304931640625,278.9211120605469,51.49558639526367,45.0,65.0,51.0,13.46760082244873,-20.0
32,100,30,60,go_to_color_detect_down,red,true,false,joint 3 +,true,2024-03-04 12:28:55.176782,22.443,0.198,236.8,121.70146179199219,260.9896240234375,5.005592346191406,45.0,65.0,51.0,33.276611328125,-20.0
32,100,30,60,go_to_color_detect_down,red,true,false,joint 3 +,true,2024-03-04 12:28:55.946470,22.443,0.198,236.8,113.80152893066406,244.0481414794922,-18.263511657714844,45.0,65.0,51.0,44.75746154785156,-20.0
32,100,30,60,go_to_color_detect_up_from_color_detect_down,red,true,false,joint 3 -,false,2024-03-04 12:28:57.427141,22.424,0.198,236.8,111.14754486083984,238.35667419433594,-24.2655029296875,45.0,65.0,51.0,47.97840118408203,-20.0
32,100,30,60,go_to_color_detect_up_from_color_detect_down,red,true,false,joint 3 -,false,2024-03-04 12:28:58.119359,20.981,0.198,236.8,115.55194854736328,247.8019256591797,-13.888023376464844,45.0,65.0,51.0,42.04920196533203,-20.0
32,100,30,60,go_to_color_detect_up_from_color_detect_down,red,true,false,joint 3 -,false,2024-03-04 12:28:58.810193,20.981,0.198,236.8,124.24610900878906,266.4466247558594,15.16790771484375,45.0,65.0,51.0,27.965999603271484,-20.0
32,100,30,60,go_to_color_detect_up_from_color_detect_down,red,true,false,joint 3 -,false,2024-03-04 12:29:00.424793,16.595,0.153,236.8,130.53697204589844,279.93743896484375,56.719017028808594,45.0,65.0,51.0,10.794992446899414,-20.0
32,100,30,60,go_to_color_detect_up_from_color_detect_down,red,true,false,joint 3 -,false,2024-03-04 12:29:01.115030,16.595,0.153,236.8,131.68313598632812,282.3953857421875,82.19876098632812,45.0,65.0,51.0,0.9894367456436157,-20.0
32,100,30,60,detecting_color,red,false,false,detecting_color,false,2024-03-04 12:29:02.588764,16.614,0.153,236.8,131.69407653808594,282.4188232421875,84.958251953125,45.0,65.0,51.0,0.0,-20.0
32,100,30,60,detecting_color,red,false,false,detecting_color,false,2024-03-04 12:29:03.284458,16.367,0.153,236.8,131.69407653808594,282.4188232421875,84.958251953125,45.0,65.0,51.0,0.0,-20.0
32,100,30,60,detecting_color,red,false,false,detecting_color,false,2024-03-04 12:29:03.981389,16.367,0.153,236.8,131.69407653808594,282.4188232421875,84.958251953125,45.0,65.0,51.0,0.0,-20.0
32,100,30,60,detecting_color,red,false,false,detecting_color,false,2024-03-04 12:29:05.516246,16.215,0.152,236.8,131.69407653808594,282.4188232421875,84.958251953125,45.0,65.0,51.0,0.0,-20.0
32,100,30,60,go_to_color_detect_down,red,true,false,joint 3 +,false,2024-03-04 12:29:06.207933,16.215,0.152,236.8,131.69407653808594,282.4188232421875,84.958251953125,45.0,65.0,51.0,0.0,-20.0
32,100,30,60,go_to_color_detect_down,red,true,false,joint 3 +,false,2024-03-04 12:29:07.592807,16.443,0.151,236.8,131.56275939941406,282.13720703125,75.40543365478516,45.0,65.0,51.0,3.8916003704071045,-20.0
32,100,30,60,go_to_color_detect_down,red,true,false,joint 3 +,false,2024-03-04 12:29:08.313796,16.291,0.151,236.8,128.71348571777344,276.0269470214844,39.97218704223633,45.0,65.0,51.0,18.180002212524414,-20.0
32,100,30,60,go_to_color_detect_down,red,true,false,joint 3 +,false,2024-03-04 12:29:09.008315,16.291,0.153,236.8,120.1664810180664,257.69781494140625,-0.337188720703125,45.0,65.0,51.0,35.76608657836914,-20.0
32,100,30,60,go_to_color_detect_down,red,true,false,joint 3 +,false,2024-03-04 12:29:10.387807,16.291,0.153,236.8,112.83029174804688,241.96533203125,-20.542984008789062,45.0,65.0,51.0,45.98672103881836,-20.0
32,100,30,60,go_to_color_detect_up_from_color_detect_down,red,true,false,joint 3 -,true,2024-03-04 12:29:11.219189,16.291,0.152,236.8,111.5318374633789,239.1807861328125,-23.439559936523438,45.0,65.0,51.0,47.44920349121094,-20.0
32,100,30,60,go_to_color_detect_up_from_color_detect_down,red,true,false,joint 3 -,true,2024-03-04 12:29:12.603285,22.956,0.152,236.8,116.80086517333984,250.48025512695312,-10.534027099609375,45.0,65.0,51.0,40.27799987792969,-20.0
32,100,30,60,go_to_color_detect_up_from_color_detect_down,red,true,false,joint 3 -,true,2024-03-04 12:29:13.291801,22.918,0.202,236.8,125.77259063720703,269.7201843261719,22.32413101196289,45.0,65.0,51.0,24.81239891052246,-20.0
32,100,30,60,go_to_color_detect_up_from_color_detect_down,red,true,false,joint 3 -,true,2024-03-04 12:29:14.671924,23.051,0.202,236.8,130.98255920410156,280.8929748535156,62.773841857910156,45.0,65.0,51.0,8.431733131408691,-20.0
32,100,30,60,go_to_color_detect_up_from_color_detect_down,red,true,false,joint 3 -,true,2024-03-04 12:29:15.360928,22.785,0.203,236.8,131.6923370361328,282.41510009765625,83.85616302490234,45.0,65.0,51.0,0.3757771849632263,-20.0
32,100,30,60,go_to_green_up,green,true,false,joint 1 +,true,2024-03-04 12:29:16.055047,22.747,0.203,236.8,123.38768005371094,286.14544677734375,84.958251953125,46.67399597167969,66.78559875488281,51.0,0.0,-20.0
32,100,30,60,go_to_green_up,green,true,false,joint 1 +,true,2024-03-04 12:29:17.436386,22.538,0.199,236.8,76.38446044921875,302.10784912109375,84.958251953125,55.81079864501953,76.09159851074219,51.0,0.0,-20.0
32,100,30,60,go_to_green_up,green,true,false,joint 1 +,true,2024-03-04 12:29:18.125156,22.481,0.199,236.8,-19.973676681518555,310.97393798828125,84.958251953125,73.67501831054688,93.9587631225586,51.0,0.0,-20.0
32,100,30,60,go_to_green_up,green,true,false,joint 1 +,true,2024-03-04 12:29:19.507738,22.519,0.2,236.8,-71.33779907226562,303.33917236328125,84.958251953125,83.23405456542969,103.34500122070312,51.0,0.0,-20.0
32,100,30,60,go_to_pick_up_from_green,green,true,false,joint 1 -,false,2024-03-04 12:29:20.196434,22.386,0.2,236.8,-78.92951965332031,301.4529113769531,84.958251953125,84.67240142822266,104.62200164794922,51.0,0.0,-20.0
32,100,30,60,go_to_pick_up_from_green,green,true,false,joint 1 -,false,2024-03-04 12:29:21.577976,22.367,0.15,236.8,-35.56970977783203,309.5779724121094,84.958251953125,76.55439758300781,96.30599975585938,51.0,0.0,-20.0
32,100,30,60,go_to_pick_up_from_green,green,true,false,joint 1 -,false,2024-03-04 12:29:22.277809,16.215,0.15,236.8,51.053550720214844,307.4040832519531,84.958251953125,60.570404052734375,80.14920043945312,51.0,0.0,-20.0
32,100,30,60,go_to_pick_up_from_green,green,true,false,joint 1 -,false,2024-03-04 12:29:22.967800,16.177,0.15,236.8,171.0153350830078,260.49468994140625,84.958251953125,36.71500778198242,56.20266342163086,51.0,0.0,-20.0
32,100,30,60,go_to_pick_up_from_green,green,true,false,joint 1 -,false,2024-03-04 12:29:24.375066,16.386,0.151,236.8,257.7305908203125,175.15325927734375,84.958251953125,14.199954986572266,33.88201141357422,51.0,0.0,-20.0
32,100,30,60,go_to_pick_up_from_green,green,true,false,joint 1 -,false,2024-03-04 12:29:25.068046,16.386,0.151,236.8,286.84417724609375,121.75446319580078,84.958251953125,2.999378204345703,22.854232788085938,51.0,0.0,-20.0
32,100,30,60,moving_belt,green,false,true,joint 1 -,false,2024-03-04 12:29:26.481180,16.291,0.151,236.8,292.8220520019531,106.5785140991211,84.958251953125,0.0,20.0,51.0,0.0,-20.0
32,100,30,60,moving_belt,green,false,true,joint 1 -,false,2024-03-04 12:29:27.172110,16.177,0.151,236.8,292.8220520019531,106.5785140991211,84.958251953125,0.0,20.0,51.0,0.0,-20.0
32,100,30,60,moving_belt,green,false,true,joint 1 -,false,2024-03-04 12:29:28.549997,16.557,0.152,236.8,292.8220520019531,106.5785140991211,84.958251953125,0.0,20.0,51.0,0.0,-20.0
32,100,30,60,moving_belt,green,false,true,joint 1 -,false,2024-03-04 12:29:29.240339,16.671,0.152,236.8,292.8220520019531,106.5785140991211,84.958251953125,0.0,20.0,51.0,0.0,-20.0
32,100,30,60,moving_belt,green,false,true,joint 1 -,false,2024-03-04 12:29:30.615608,16.405,0.152,236.8,292.8220520019531,106.5785140991211,84.958251953125,0.0,20.0,51.0,0.0,-20.0
32,100,30,60,go_to_pick_down,green,true,false,joint 3 +,false,2024-03-04 12:29:31.305591,16.405,0.153,236.8,292.7362365722656,106.54728698730469,79.77777099609375,0.0,20.0,51.0,2.142000436782837,-20.0
32,100,30,60,go_to_pick_down,green,true,false,joint 3 +,false,2024-03-04 12:29:32.023101,16.405,0.153,236.8,289.7106628417969,105.44606018066406,53.93413543701172,0.0,20.0,51.0,12.447848320007324,-20.0
32,100,30,60,go_to_pick_down,green,true,false,joint 3 +,false,2024-03-04 12:29:33.528425,16.386,0.152,236.8,283.3941955566406,103.14705657958984,31.58209228515625,0.0,20.0,51.0,21.36054229736328,-20.0
32,100,30,60,go_to_pick_up_from_pick_down,green,true,false,joint 3 -,true,2024-03-04 12:29:34.219677,16.291,0.152,236.8,283.7161865234375,103.26425170898438,32.46982955932617,0.0,20.0,51.0,20.830001831054688,-20.0
32,100,30,60,go_to_pick_up_from_pick_down,green,true,false,joint 3 -,true,2024-03-04 12:29:34.916258,16.291,0.152,236.8,289.5272216796875,105.3792953491211,53.04344177246094,0.0,20.0,51.0,12.27640151977539,-20.0
32,100,30,60,go_to_pick_up_from_pick_down,green,true,false,joint 3 -,true,2024-03-04 12:29:36.563185,22.083,0.2,236.8,292.7679748535156,106.55883026123047,80.84452056884766,0.0,20.0,51.0,1.497957468032837,-20.0
32,100,30,60,go_to_color_detect_up_from_pick_up,green,true,false,joint 1 +,true,2024-03-04 12:29:37.253786,21.95,0.194,236.8,292.0101623535156,108.78328704833984,84.958251953125,0.43199920654296875,20.489599227905273,51.0,0.0,-20.0
32,100,30,60,go_to_color_detect_up_from_pick_up,green,true,false,joint 1 +,true,2024-03-04 12:29:38.633257,21.874,0.194,236.8,277.0118713378906,142.71697998046875,84.958251953125,7.257598876953125,27.487998962402344,51.0,0.0,-20.0
32,100,30,60,go_to_color_detect_up_from_pick_up,green,true,false,joint 1 +,true,2024-03-04 12:29:39.346791,21.817,0.193,236.8,221.3642578125,219.32073974609375,84.958251953125,24.734310150146484,45.11449432373047,51.0,0.0,-20.0
32,100,30,60,go_to_color_detect_up_from_pick_up,green,true,false,joint 1 +,true,2024-03-04 12:29:40.070619,21.874,0.193,236.8,160.85523986816406,266.8882141113281,84.958251953125,38.922359466552734,59.12974548339844,51.0,0.0,-20.0
32,100,30,60,go_to_color_detect_up_from_pick_up,green,true,false,joint 1 +,true,2024-03-04 12:29:41.457690,21.893,0.193,236.8,132.6002655029297,281.9945068359375,84.958251953125,44.816017150878906,64.85060119628906,51.0,0.0,-20.0
32,100,30,60,go_to_color_detect_down,green,true,false,joint 3 +,true,2024-03-04 12:29:42.157636,21.779,0.193,236.8,131.61163330078125,282.2420349121094,77.38784790039062,45.0,65.0,51.0,3.099600315093994,-20.0
32,100,30,60,go_to_color_detect_down,green,true,false,joint 3 +,true,2024-03-04 12:29:43.540803,21.722,0.193,236.8,129.82301330566406,278.4063415527344,49.15281677246094,45.0,65.0,51.0,14.418001174926758,-20.0
32,100,30,60,go_to_color_detect_down,green,true,false,joint 3 +,true,2024-03-04 12:29:44.234728,21.722,0.193,236.8,122.28538513183594,262.2418518066406,7.178802490234375,45.0,65.0,51.0,32.28365707397461,-20.0
32,100,30,60,go_to_color_detect_down,green,true,false,joint 3 +,true,2024-03-04 12:29:45.614973,21.798,0.193,236.8,113.45528411865234,243.30563354492188,-19.087684631347656,45.0,65.0,51.0,45.199615478515625,-20.0
32,100,30,60,go_to_color_detect_up_from_color_detect_down,green,true,false,joint 3 -,false,2024-03-04 12:29:46.312751,21.931,0.192,236.8,111.1678466796875,238.40020751953125,-24.22222137451172,45.0,65.0,51.0,47.94599914550781,-20.0
32,100,30,60,go_to_color_detect_up_from_color_detect_down,green,true,false,joint 3 -,false,2024-03-04 12:29:47.003020,21.931,0.192,236.8,114.97544860839844,246.5656280517578,-15.369049072265625,45.0,65.0,51.0,42.84840393066406,-20.0
32,100,30,60,go_to_color_detect_up_from_color_detect_down,green,true,false,joint 3 -,false,2024-03-04 12:29:48.687659,17.962,0.152,236.8,124.63231658935547,267.27484130859375,16.889198303222656,45.0,65.0,51.0,27.199199676513672,-20.0
32,100,30,60,go_to_color_detect_up_from_color_detect_down,green,true,false,joint 3 -,false,2024-03-04 12:29:49.376268,16.481,0.152,236.8,130.6502227783203,280.1802978515625,58.12419891357422,45.0,65.0,51.0,10.244624137878418,-20.0
32,100,30,60,go_to_color_detect_up_from_color_detect_down,green,true,false,joint 3 -,false,2024-03-04 12:29:50.064628,16.747,0.152,236.8,131.67401123046875,282.37579345703125,81.22216796875,45.0,65.0,51.0,1.3557742834091187,-20.0
32,100,30,60,detecting_color,green,false,false,detecting_color,false,2024-03-04 12:29:51.448616,16.633,0.154,236.8,131.69407653808594,282.4188232421875,84.958251953125,45.0,65.0,51.0,0.0,-20.0
32,100,30,60,detecting_color,green,false,false,detecting_color,false,2024-03-04 12:29:52.142302,16.481,0.154,236.8,131.69407653808594,282.4188232421875,84.958251953125,45.0,65.0,51.0,0.0,-20.0
32,100,30,60,go_to_color_detect_down,green,true,false,joint 3 +,false,2024-03-04 12:29:52.838135,16.481,0.152,236.8,131.61949157714844,282.2588806152344,77.7568359375,45.0,65.0,51.0,2.952000379562378,-20.0
32,100,30,60,go_to_color_detect_down,green,true,false,joint 3 +,false,2024-03-04 12:29:54.455949,16.215,0.152,236.8,129.36585998535156,277.42596435546875,45.092063903808594,45.0,65.0,51.0,16.07400131225586,-20.0
32,100,30,60,go_to_color_detect_down,green,true,false,joint 3 +,false,2024-03-04 12:29:55.212666,16.424,0.152,236.8,121.31409454345703,260.1589050292969,3.6088485717773438,45.0,65.0,51.0,33.92057800292969,-20.0
32,100,30,60,go_to_color_detect_down,green,true,false,joint 3 +,false,2024-03-04 12:29:56.400981,16.329,0.152,236.8,113.56825256347656,243.54788208007812,-18.820220947265625,45.0,65.0,51.0,45.05583190917969,-20.0
32,100,30,60,go_to_color_detect_up_from_color_detect_down,green,true,false,joint 3 -,true,2024-03-04 12:29:57.092279,16.424,0.152,236.8,111.26921844482422,238.6175994873047,-24.00550079345703,45.0,65.0,51.0,47.802001953125,-20.0
32,100,30,60,go_to_color_detect_up_from_color_detect_down,green,true,false,joint 3 -,true,2024-03-04 12:29:58.478557,22.595,0.152,236.8,115.7012710571289,248.12216186523438,-13.497718811035156,45.0,65.0,51.0,41.84040069580078,-20.0
32,100,30,60,go_to_color_detect_up_from_color_detect_down,green,true,false,joint 3 -,true,2024-03-04 12:29:59.173662,22.064,0.195,236.8,124.43950653076172,266.8613586425781,16.022964477539062,45.0,65.0,51.0,27.584400177001953,-20.0
32,100,30,60,go_to_color_detect_up_from_color_detect_down,green,true,false,joint 3 -,true,2024-03-04 12:30:00.559924,22.158,0.195,236.8,130.89715576171875,280.7098388671875,61.48842239379883,45.0,65.0,51.0,8.93170166015625,-20.0
32,100,30,60,go_to_color_detect_up_from_color_detect_down,green,true,false,joint 3 -,true,2024-03-04 12:30:01.260411,22.367,0.196,236.8,131.684814453125,282.39898681640625,82.41984558105469,45.0,65.0,51.0,0.9068523645401001,-20.0
32,100,30,60,go_to_blue_up,blue,true,false,joint 1 +,true,2024-03-04 12:30:01.961434,22.026,0.196,236.8,127.18817138671875,284.4765319824219,84.958251953125,45.910797119140625,65.99359893798828,51.0,0.0,-20.0
32,100,30,60,go_to_blue_up,blue,true,false,joint 1 +,true,2024-03-04 12:30:03.598985,21.817,0.193,236.8,77.91828918457031,301.71588134765625,84.958251953125,55.51971435546875,75.77916717529297,51.0,0.0,-20.0
32,100,30,60,go_to_blue_up,blue,true,false,joint 1 +,true,2024-03-04 12:30:04.315079,21.874,0.193,236.8,33.044071197509766,309.85772705078125,84.958251953125,63.91282653808594,83.99948120117188,51.0,0.0,-20.0
32,100,30,60,go_to_pick_up_from_blue,blue,true,false,joint 1 -,false,2024-03-04 12:30:05.031543,21.741,0.193,236.8,31.252519607543945,310.0435791015625,84.958251953125,64.24400329589844,84.16840362548828,51.0,0.0,-20.0
32,100,30,60,go_to_pick_up_from_blue,blue,true,false,joint 1 -,false,2024-03-04 12:30:06.412689,20.81,0.193,236.8,80.5993423461914,301.0107727050781,84.958251953125,55.00999450683594,74.73999786376953,51.0,0.0,-20.0
32,100,30,60,go_to_pick_up_from_blue,blue,true,false,joint 1 -,false,2024-03-04 12:30:07.231706,16.234,0.193,236.8,165.18038940429688,264.2331848144531,84.958251953125,37.98921203613281,57.54641342163086,51.0,0.0,-20.0
32,100,30,60,go_to_pick_up_from_blue,blue,true,false,joint 1 -,false,2024-03-04 12:30:07.923021,16.234,0.151,236.8,246.4619598388672,190.68359375,84.958251953125,17.728530883789062,37.3730583190918,51.0,0.0,-20.0
32,100,30,60,go_to_pick_up_from_blue,blue,true,false,joint 1 -,false,2024-03-04 12:30:09.558097,16.329,0.151,236.8,285.7181396484375,124.3739013671875,84.958251953125,3.5236244201660156,23.366153717041016,51.0,0.0,-20.0
32,100,30,60,moving_belt,blue,false,true,joint 1 -,false,2024-03-04 12:30:10.264634,16.329,0.151,236.8,292.8220520019531,106.5785140991211,84.958251953125,0.0,20.0,51.0,0.0,-20.0
32,100,30,60,moving_belt,blue,false,true,joint 1 -,false,2024-03-04 12:30:11.650524,16.367,0.151,236.8,292.8220520019531,106.5785140991211,84.958251953125,0.0,20.0,51.0,0.0,-20.0
32,100,30,60,moving_belt,blue,false,true,joint 1 -,false,2024-03-04 12:30:12.336063,16.899,0.152,236.8,292.8220520019531,106.5785140991211,84.958251953125,0.0,20.0,51.0,0.0,-20.0
32,100,30,60,moving_belt,blue,false,true,joint 1 -,false,2024-03-04 12:30:13.023763,16.481,0.152,236.8,292.8220520019531,106.5785140991211,84.958251953125,0.0,20.0,51.0,0.0,-20.0
32,100,30,60,moving_belt,blue,false,true,joint 1 -,false,2024-03-04 12:30:14.603268,16.367,0.153,236.8,292.8220520019531,106.5785140991211,84.958251953125,0.0,20.0,51.0,0.0,-20.0
32,100,30,60,go_to_pick_down,blue,true,false,joint 3 +,false,2024-03-04 12:30:15.290908,16.367,0.153,236.8,292.77044677734375,106.55973815917969,80.94097137451172,0.0,20.0,51.0,1.6740002632141113,-20.0
32,100,30,60,go_to_pick_down,blue,true,false,joint 3 +,false,2024-03-04 12:30:16.675994,16.671,0.152,236.8,290.3704528808594,105.68620300292969,57.38597869873047,0.0,20.0,51.0,11.091599464416504,-20.0
32,100,30,60,go_to_pick_down,blue,true,false,joint 3 +,false,2024-03-04 12:30:17.370533,16.462,0.152,236.8,284.25311279296875,103.45967864990234,33.989646911621094,0.0,20.0,51.0,20.396392822265625,-20.0
32,100,30,60,go_to_pick_up_from_pick_down,blue,true,false,joint 3 -,true,2024-03-04 12:30:18.059315,16.405,0.152,236.8,283.4352111816406,103.1619873046875,31.694202423095703,0.0,20.0,51.0,21.16840171813965,-20.0
32,100,30,60,go_to_pick_up_from_pick_down,blue,true,false,joint 3 -,true,2024-03-04 12:30:19.447455,22.614,0.179,236.8,288.9747009277344,105.17819213867188,50.506080627441406,0.0,20.0,51.0,13.306001663208008,-20.0
32,100,30,60,go_to_pick_up_from_pick_down,blue,true,false,joint 3 -,true,2024-03-04 12:30:20.137945,22.31,0.179,236.8,292.6502380371094,106.51598358154297,77.6284408569336,0.0,20.0,51.0,2.716456174850464,-20.0
32,100,30,60,go_to_color_detect_up_from_pick_up,blue,true,false,joint 1 +,true,2024-03-04 12:30:21.517028,22.272,0.197,236.8,292.4519958496094,107.58978271484375,84.958251953125,0.197998046875,20.237598419189453,51.0,0.0,-20.0
32,100,30,60,go_to_color_detect_up_from_pick_up,blue,true,false,joint 1 +,true,2024-03-04 12:30:22.209687,22.14,0.197,236.8,279.6958312988281,137.38253784179688,84.958251953125,6.159597396850586,26.371997833251953,51.0,0.0,-20.0
32,100,30,60,go_to_color_detect_up_from_pick_up,blue,true,false,joint 1 +,true,2024-03-04 12:30:23.651272,21.988,0.194,236.8,237.25155639648438,202.02830505371094,84.958251953125,20.415599822998047,40.80080032348633,51.0,0.0,-20.0
32,100,30,60,go_to_color_detect_up_from_pick_up,blue,true,false,joint 1 +,true,2024-03-04 12:30:24.346582,21.988,0.194,236.8,165.9073486328125,263.77734375,84.958251953125,37.83143997192383,58.05682373046875,51.0,0.0,-20.0
32,100,30,60,go_to_color_detect_up_from_pick_up,blue,true,false,joint 1 +,true,2024-03-04 12:30:25.036614,22.121,0.194,236.8,133.716064453125,281.4671325683594,84.958251953125,44.58909606933594,64.64167785644531,51.0,0.0,-20.0
32,100,30,60,go_to_color_detect_down,blue,true,false,joint 3 +,true,2024-03-04 12:30:26.414583,21.95,0.194,236.8,131.66757202148438,282.36199951171875,80.66399383544922,45.0,65.0,51.0,1.7856004238128662,-20.0
