demetriskallis/dobot_magician_pick_and_place_and_color_sorting/Sampling/WholeSystemExperiments_training_data/payload_32g/joint_measurements__armv_100_arma_100_belts_70_cube_32g.csv
cube/weight,arm/velocity_ratio,arm/acceleration_ratio,belt/speed,dobot/operation,dobot/color,dobot/moving_arm,dobot/moving_belt,dobot/operation2,dobot/suction,meross/sample_timestamp,meross/power,meross/current,meross/voltage,dobot/pose_x,dobot/pose_y,dobot/pose_z,dobot/pose_rHead,dobot/pose_joint1Angle,dobot/pose_joint2Angle,dobot/pose_joint3Angle,dobot/pose_joint4Angle
32,100,100,70,homing,,,,homing,,,,,,194.74429321289062,58.93876647949219,82.66188049316406,-3.1617202758789062,16.43828010559082,2.693424701690674,20.795101165771484,-20.0
32,100,100,70,homing,,,,homing,,,,,,203.29489135742188,-8.384496688842773,82.66188049316406,-22.361713409423828,-2.7617130279541016,2.693424701690674,20.795101165771484,-20.0
32,100,100,70,homing,,,,homing,,,,,,189.7469482421875,-73.45211791992188,82.66188049316406,-41.161705017089844,-21.561702728271484,2.693424701690674,20.795101165771484,-20.0
32,100,100,70,homing,,,,homing,,,,,,149.3826446533203,-138.1446533203125,82.66188049316406,-62.76173400878906,-43.16173553466797,2.693424701690674,20.795101165771484,-20.0
32,100,100,70,homing,,,,homing,,2024-03-04 16:22:59.593553,16.443,0.157,233.1,95.64203643798828,-179.58763122558594,82.66188049316406,-81.96180725097656,-62.36180877685547,2.693424701690674,20.795101165771484,-20.0
32,100,100,70,homing,,,,homing,,2024-03-04 16:23:00.282318,16.386,0.157,233.1,31.261445999145508,-201.0518341064453,82.66188049316406,-101.16188049316406,-81.56188201904297,2.693424701690674,20.795101165771484,-20.0
32,100,100,70,homing,,,,homing,,2024-03-04 16:23:01.697811,16.443,0.158,233.1,-46.330535888671875,-198.1226806640625,82.66188049316406,-123.1619644165039,-103.56196594238281,2.693424701690674,20.795101165771484,-20.0
32,100,100,70,homing,,,,homing,,2024-03-04 16:23:02.389176,16.443,0.158,235.0,-108.9096450805664,-171.86566162109375,82.66188049316406,-142.36203002929688,-122.76203918457031,2.693424701690674,20.795101165771484,-20.0
32,100,100,70,homing,,,,homing,,2024-03-04 16:23:03.765350,16.31,0.158,235.0,-146.61354064941406,-141.08006286621094,82.66188049316406,-156.1018829345703,-136.08187866210938,2.693424701690674,20.795101165771484,-20.0
32,100,100,70,homing,,,,homing,,2024-03-04 16:23:04.449897,16.31,0.158,235.0,-142.47329711914062,-145.5249786376953,82.48135375976562,-154.3347625732422,-134.2609100341797,2.8225769996643066,20.87936019897461,-19.930225372314453
32,100,100,70,homing,,,,homing,,2024-03-04 16:23:05.829085,16.348,0.159,235.0,-88.27436828613281,-189.71173095703125,76.861328125,-133.14410400390625,-114.3529281616211,6.157051086425781,23.054729461669922,-18.128803253173828
32,100,100,70,homing,,,,homing,,2024-03-04 16:23:06.516131,16.633,0.159,235.0,14.869818687438965,-221.1326904296875,62.017112731933594,-100.15776824951172,-85.5530014038086,14.00010871887207,28.17144203186035,-13.891653060913086
32,100,100,70,homing,,,,homing,,2024-03-04 16:23:07.238422,16.595,0.159,235.0,139.01007080078125,-193.83172607421875,33.39678192138672,-61.41545867919922,-53.753082275390625,26.866455078125,36.56528854370117,-6.940708637237549
32,100,100,70,homing,,,,homing,,2024-03-04 16:23:08.172808,16.595,0.161,235.0,222.6527862548828,-106.45348358154297,11.834022521972656,-27.967931747436523,-24.95313262939453,35.37528991699219,42.11635208129883,-2.3438751697540283
32,100,100,70,homing,,,,homing,,2024-03-04 16:23:09.717708,16.747,0.161,235.0,249.62115478515625,-9.032469749450684,0.9090423583984375,-2.255094528198242,-1.8552690744400024,39.41094970703125,44.74916076660156,-0.16364505887031555
32,100,100,70,homing,,,,homing,,2024-03-04 16:23:10.536419,16.557,0.16,235.0,249.99998474121094,6.34947094901861e-11,-7.62939453125e-06,1.4551915228366852e-11,1.4551915228366852e-11,39.71385955810547,44.94676971435547,0.0
32,100,100,70,homing,,,,homing,,2024-03-04 16:23:11.459442,16.291,0.16,233.1,249.99998474121094,0.00017966009909287095,-7.62939453125e-06,4.117506250622682e-05,4.117506250622682e-05,39.71385955810547,44.94676971435547,0.0
32,100,100,70,homing,,,,homing,,2024-03-04 16:23:12.835379,16.253,0.157,235.0,249.99998474121094,0.00017966009909287095,-7.62939453125e-06,4.117506250622682e-05,4.117506250622682e-05,39.71385955810547,44.94676971435547,0.0
32,100,100,70,homing,,,,homing,,2024-03-04 16:23:13.523555,16.196,0.157,235.0,249.99998474121094,0.00017966009909287095,-7.62939453125e-06,4.117506250622682e-05,4.117506250622682e-05,39.71385955810547,44.94676971435547,0.0
32,100,100,70,homing,,,,homing,,2024-03-04 16:23:14.212646,16.196,0.157,235.0,249.99998474121094,0.00017966009909287095,-7.62939453125e-06,4.117506250622682e-05,4.117506250622682e-05,39.71385955810547,44.94676971435547,0.0
32,100,100,70,homing,,,,homing,,2024-03-04 16:23:15.865621,16.196,0.157,235.0,249.99998474121094,0.00017966009909287095,-7.62939453125e-06,4.117506250622682e-05,4.117506250622682e-05,39.71385955810547,44.94676971435547,0.0
32,100,100,70,homing,,,,homing,,2024-03-04 16:23:16.603338,16.139,0.157,235.0,249.98121643066406,0.00017964660946745425,0.05692291259765625,4.117506250622682e-05,4.117506250622682e-05,39.69106674194336,44.93431854248047,0.0
32,100,100,70,homing,,,,homing,,2024-03-04 16:23:17.288930,16.31,0.157,235.0,267.09197998046875,70.4433364868164,44.47248458862305,4.100799560546875e-05,15.15717887878418,38.1991081237793,24.230743408203125,-15.157137870788574
32,100,100,70,go_to_pick_up_from_homing,nothing,,,go_to_pick_up_from_homing,,2024-03-04 16:23:18.663227,17.298,0.162,235.0,286.082763671875,105.47074127197266,76.2046127319336,1.71661376953125e-05,20.21105194091797,47.61039352416992,5.393892288208008,-20.211036682128906
32,100,100,70,moving_belt,nothing,false,true,go_to_pick_up_from_homing,,2024-03-04 16:23:19.354424,17.298,0.162,235.0,292.8220520019531,106.5785140991211,84.958251953125,0.0,20.0,51.0,0.0,-20.0
32,100,100,70,moving_belt,nothing,false,true,go_to_pick_up_from_homing,,2024-03-04 16:23:20.732398,16.69,0.162,235.0,292.8220520019531,106.5785140991211,84.958251953125,0.0,20.0,51.0,0.0,-20.0
32,100,100,70,moving_belt,nothing,false,true,go_to_pick_up_from_homing,,2024-03-04 16:23:21.419311,16.348,0.157,235.0,292.8220520019531,106.5785140991211,84.958251953125,0.0,20.0,51.0,0.0,-20.0
32,100,100,70,moving_belt,nothing,false,true,go_to_pick_up_from_homing,,2024-03-04 16:23:22.128325,16.405,0.157,235.0,292.8220520019531,106.5785140991211,84.958251953125,0.0,20.0,51.0,0.0,-20.0
32,100,100,70,go_to_pick_down,nothing,true,false,joint 3 +,,2024-03-04 16:23:23.648060,16.139,0.157,235.0,285.3606262207031,103.86277770996094,37.29911804199219,0.0,20.0,51.0,19.39399528503418,-20.0
32,100,100,70,go_to_pick_up_from_pick_down,nothing,true,false,joint 3 -,true,2024-03-04 16:23:24.337741,16.139,0.157,233.1,292.7965393066406,106.56922149658203,82.13280487060547,0.0,20.0,51.0,0.825168788433075,-20.0
32,100,100,70,go_to_color_detect_up_from_pick_up,nothing,true,false,joint 1 +,true,2024-03-04 16:23:25.717397,22.804,0.213,233.1,205.84426879882812,233.94842529296875,84.958251953125,28.65640640258789,49.77968978881836,51.0,0.0,-20.0
32,100,100,70,go_to_color_detect_down,nothing,true,false,joint 3 +,true,2024-03-04 16:23:26.422671,22.937,0.213,235.0,131.4142608642578,281.81878662109375,71.02216339111328,45.0,65.0,51.0,6.119998931884766,-20.0
32,100,100,70,go_to_color_detect_up_from_color_detect_down,nothing,true,false,joint 3 -,false,2024-03-04 16:23:27.795287,22.234,0.208,235.0,111.13883972167969,238.33799743652344,-24.284042358398438,45.0,65.0,51.0,48.0,-20.0
32,100,100,70,go_to_color_detect_up_from_color_detect_down,nothing,true,false,joint 3 -,false,2024-03-04 16:23:28.478433,22.253,0.208,235.0,130.48638916015625,279.8289489746094,56.1141357421875,45.0,65.0,51.0,10.38463020324707,-20.0
32,100,100,70,detecting_color,nothing,false,false,detecting_color,false,2024-03-04 16:23:29.166714,22.253,0.208,235.0,131.69407653808594,282.4188232421875,84.958251953125,45.0,65.0,51.0,-4.656612873077393e-10,-20.0
32,100,100,70,go_to_color_detect_down,nothing,true,false,joint 3 +,false,2024-03-04 16:23:30.624796,15.987,0.161,233.1,131.6935272216797,282.41766357421875,84.34249877929688,45.0,65.0,51.0,0.3999999165534973,-20.0
32,100,100,70,go_to_color_detect_down,nothing,true,false,joint 3 +,false,2024-03-04 16:23:31.312445,15.987,0.161,233.1,115.97435760498047,248.70779418945312,-12.776542663574219,45.0,65.0,51.0,42.363059997558594,-20.0
32,100,100,70,go_to_color_detect_up_from_color_detect_down,nothing,true,false,joint 3 -,true,2024-03-04 16:23:32.687867,16.063,0.158,235.0,120.45890808105469,258.324951171875,0.64251708984375,45.0,65.0,51.0,33.959999084472656,-20.0
32,100,100,70,go_to_red_up,red,true,false,joint 1 +,true,2024-03-04 16:23:33.375669,22.31,0.158,235.0,126.14859008789062,284.9390563964844,84.958251953125,46.12000274658203,66.44000244140625,51.0,-4.656612873077393e-10,-20.0
32,100,100,70,go_to_red_up,red,true,false,joint 1 +,true,2024-03-04 16:23:34.750662,22.785,0.211,235.0,-133.42953491210938,281.6030578613281,84.958251953125,95.35258483886719,116.21096801757812,51.0,-4.656612873077393e-10,-20.0
32,100,100,70,go_to_pick_up_from_red,red,true,false,joint 1 -,false,2024-03-04 16:23:35.443636,22.785,0.211,235.0,-131.10226440429688,282.69403076171875,84.958251953125,94.87999725341797,113.95999908447266,51.0,-4.656612873077393e-10,-20.0
32,100,100,70,go_to_pick_up_from_red,red,true,false,joint 1 -,false,2024-03-04 16:23:36.836820,16.367,0.158,235.0,259.7910461425781,172.0823516845703,84.958251953125,13.51999282836914,32.49999237060547,51.0,-4.656612873077393e-10,-20.0
32,100,100,70,moving_belt,red,false,true,joint 1 -,false,2024-03-04 16:23:37.527733,16.367,0.158,235.0,292.8220520019531,106.5785140991211,84.958251953125,0.0,20.0,51.0,-4.656612873077393e-10,-20.0
32,100,100,70,moving_belt,red,false,true,joint 1 -,false,2024-03-04 16:23:38.212157,16.538,0.158,235.0,292.8220520019531,106.5785140991211,84.958251953125,0.0,20.0,51.0,-4.656612873077393e-10,-20.0
32,100,100,70,moving_belt,red,false,true,joint 1 -,false,2024-03-04 16:23:39.598814,15.987,0.161,235.0,292.8220520019531,106.5785140991211,84.958251953125,0.0,20.0,51.0,-4.656612873077393e-10,-20.0
32,100,100,70,moving_belt,red,false,true,joint 1 -,false,2024-03-04 16:23:40.289505,15.987,0.161,235.0,292.8220520019531,106.5785140991211,84.958251953125,0.0,20.0,51.0,-4.656612873077393e-10,-20.0
32,100,100,70,go_to_pick_down,red,true,false,joint 3 +,false,2024-03-04 16:23:41.669589,16.158,0.157,235.0,286.1759033203125,104.15950775146484,39.909912109375,0.0,20.0,51.0,18.401662826538086,-20.0
32,100,100,70,go_to_pick_up_from_pick_down,red,true,false,joint 3 -,true,2024-03-04 16:23:42.354568,16.253,0.157,235.0,292.04937744140625,106.29727935791016,69.43183135986328,0.0,20.0,51.0,5.386831283569336,-20.0
32,100,100,70,go_to_color_detect_up_from_pick_up,red,true,false,joint 1 +,true,2024-03-04 16:23:43.042474,22.045,0.185,235.0,251.33216857910156,184.21690368652344,84.958251953125,16.23999786376953,37.39999771118164,51.0,0.0,-20.0
32,100,100,70,go_to_color_detect_down,red,true,false,joint 3 +,true,2024-03-04 16:23:44.219733,22.519,0.185,235.0,131.60198974609375,282.2213439941406,76.95742797851562,45.0,65.0,51.0,3.6399993896484375,-20.0
32,100,100,70,go_to_color_detect_down,red,true,false,joint 3 +,true,2024-03-04 16:23:45.601555,22.234,0.209,235.0,112.66073608398438,241.60171508789062,-20.93079376220703,45.0,65.0,51.0,46.453311920166016,-20.0
32,100,100,70,go_to_color_detect_up_from_color_detect_down,red,true,false,joint 3 -,false,2024-03-04 16:23:46.286038,22.234,0.209,235.0,126.8277587890625,271.9830017089844,27.925533294677734,45.0,65.0,51.0,21.4974422454834,-20.0
32,100,100,70,detecting_color,red,false,false,detecting_color,false,2024-03-04 16:23:47.661253,20.696,0.162,235.0,131.69407653808594,282.4188232421875,84.958251953125,45.0,65.0,51.0,-4.656612873077393e-10,-20.0
32,100,100,70,detecting_color,red,false,false,detecting_color,false,2024-03-04 16:23:48.348278,17.013,0.162,235.0,131.69407653808594,282.4188232421875,84.958251953125,45.0,65.0,51.0,-4.656612873077393e-10,-20.0
32,100,100,70,go_to_color_detect_down,red,true,false,joint 3 +,false,2024-03-04 16:23:49.719711,16.272,0.157,235.0,120.01168823242188,257.3658752441406,-0.8489837646484375,45.0,65.0,51.0,36.68408966064453,-20.0
32,100,100,70,go_to_color_detect_up_from_color_detect_down,red,true,false,joint 3 -,true,2024-03-04 16:23:50.402882,16.291,0.157,235.0,117.4372329711914,251.84494018554688,-8.743080139160156,45.0,65.0,51.0,38.7599983215332,-20.0
32,100,100,70,go_to_green_up,green,true,false,joint 1 +,true,2024-03-04 16:23:51.784222,23.431,0.217,235.0,131.10227966308594,282.69403076171875,84.958251953125,45.12000274658203,65.24000549316406,51.0,-4.656612873077393e-10,-20.0
32,100,100,70,go_to_green_up,green,true,false,joint 1 +,true,2024-03-04 16:23:52.474089,22.975,0.217,235.0,-63.439823150634766,305.0887145996094,84.958251953125,81.74662780761719,102.2364501953125,51.0,-4.656612873077393e-10,-20.0
32,100,100,70,go_to_pick_up_from_green,green,true,false,joint 1 -,false,2024-03-04 16:23:53.868753,22.861,0.2,235.0,26.292022705078125,310.5035705566406,84.958251953125,65.15999603271484,83.87999725341797,51.0,-4.656612873077393e-10,-20.0
32,100,100,70,go_to_pick_up_from_green,green,true,false,joint 1 -,false,2024-03-04 16:23:54.557611,16.937,0.2,235.0,291.5993347167969,109.87972259521484,84.958251953125,0.6472854614257812,20.439468383789062,51.0,-4.656612873077393e-10,-20.0
32,100,100,70,moving_belt,green,false,true,joint 1 -,false,2024-03-04 16:23:55.250145,16.424,0.2,235.0,292.8220520019531,106.5785140991211,84.958251953125,0.0,20.0,51.0,-4.656612873077393e-10,-20.0
32,100,100,70,moving_belt,green,false,true,joint 1 -,false,2024-03-04 16:23:56.634329,16.367,0.158,235.0,292.8220520019531,106.5785140991211,84.958251953125,0.0,20.0,51.0,-4.656612873077393e-10,-20.0
32,100,100,70,moving_belt,green,false,true,joint 1 -,false,2024-03-04 16:23:57.322186,16.367,0.158,235.0,292.8220520019531,106.5785140991211,84.958251953125,0.0,20.0,51.0,-4.656612873077393e-10,-20.0
32,100,100,70,go_to_pick_down,green,true,false,joint 3 +,false,2024-03-04 16:23:58.696207,16.272,0.155,235.0,292.8220520019531,106.5785140991211,84.958251953125,0.0,20.0,51.0,-4.656612873077393e-10,-20.0
32,100,100,70,go_to_pick_up_from_pick_down,green,true,false,joint 3 -,true,2024-03-04 16:23:59.383984,16.348,0.155,235.0,282.8036193847656,102.9321060180664,29.996570587158203,0.0,20.0,51.0,21.9918270111084,-20.0
32,100,100,70,go_to_color_detect_up_from_pick_up,green,true,false,joint 1 +,true,2024-03-04 16:24:00.758375,17.26,0.158,235.0,292.59820556640625,107.19156646728516,84.958251953125,0.12000083923339844,20.240001678466797,51.0,0.0,-20.0
32,100,100,70,go_to_color_detect_up_from_pick_up,green,true,false,joint 1 +,true,2024-03-04 16:24:01.455218,23.203,0.158,235.0,158.1761474609375,268.48468017578125,84.958251953125,39.49578857421875,60.139068603515625,51.0,0.0,-20.0
32,100,100,70,go_to_color_detect_down,green,true,false,joint 3 +,true,2024-03-04 16:24:02.834133,22.443,0.21,235.0,129.2152099609375,277.1029052734375,43.8480224609375,45.0,65.0,51.0,17.39999771118164,-20.0
32,100,100,70,go_to_color_detect_up_from_color_detect_down,green,true,false,joint 3 -,false,2024-03-04 16:24:03.521882,22.443,0.21,235.0,112.8804931640625,242.07298278808594,-20.42760467529297,45.0,65.0,51.0,45.3599967956543,-20.0
32,100,100,70,go_to_color_detect_up_from_color_detect_down,green,true,false,joint 3 -,false,2024-03-04 16:24:04.898118,17.222,0.173,235.0,131.6427459716797,282.3087463378906,78.98388671875,45.0,65.0,51.0,1.9179725646972656,-20.0
32,100,100,70,detecting_color,green,false,false,detecting_color,false,2024-03-04 16:24:05.585296,17.222,0.173,235.0,131.69407653808594,282.4188232421875,84.958251953125,45.0,65.0,51.0,-4.656612873077393e-10,-20.0
32,100,100,70,go_to_color_detect_down,green,true,false,joint 3 +,false,2024-03-04 16:24:06.269329,16.234,0.173,235.0,131.4142608642578,281.81878662109375,71.02216339111328,45.0,65.0,51.0,6.119998931884766,-20.0
32,100,100,70,go_to_color_detect_down,green,true,false,joint 3 +,true,2024-03-04 16:24:07.645485,16.291,0.158,235.0,111.5094223022461,239.13270568847656,-23.488121032714844,45.0,65.0,51.0,47.709716796875,-20.0
32,100,100,70,go_to_color_detect_up_from_color_detect_down,green,true,false,joint 3 -,true,2024-03-04 16:24:08.329038,16.291,0.158,235.0,130.48638916015625,279.8289489746094,56.1141357421875,45.0,65.0,51.0,10.38463020324707,-20.0
32,100,100,70,go_to_blue_up,blue,true,false,joint 1 +,true,2024-03-04 16:24:09.709143,23.412,0.216,235.0,84.63713073730469,299.9004821777344,84.958251953125,54.24000549316406,75.12000274658203,51.0,-4.656612873077393e-10,-20.0
32,100,100,70,go_to_pick_up_from_blue,blue,true,false,joint 1 -,false,2024-03-04 16:24:10.395806,22.728,0.216,235.0,76.65227508544922,302.0400085449219,84.958251953125,55.75999450683594,74.87999725341797,51.0,-4.656612873077393e-10,-20.0
32,100,100,70,go_to_pick_up_from_blue,blue,true,false,joint 1 -,false,2024-03-04 16:24:11.790308,16.538,0.198,235.0,291.8267517089844,109.2743911743164,84.958251953125,0.5283889770507812,20.343486785888672,51.0,-4.656612873077393e-10,-20.0
32,100,100,70,moving_belt,blue,false,true,joint 1 -,false,2024-03-04 16:24:12.476399,16.538,0.198,235.0,292.8220520019531,106.5785140991211,84.958251953125,0.0,20.0,51.0,-4.656612873077393e-10,-20.0
32,100,100,70,moving_belt,blue,false,true,joint 1 -,false,2024-03-04 16:24:13.849898,16.329,0.158,235.0,292.8220520019531,106.5785140991211,84.958251953125,0.0,20.0,51.0,-4.656612873077393e-10,-20.0
32,100,100,70,moving_belt,blue,false,true,joint 1 -,false,2024-03-04 16:24:14.532653,16.329,0.158,235.0,292.8220520019531,106.5785140991211,84.958251953125,0.0,20.0,51.0,-4.656612873077393e-10,-20.0
32,100,100,70,go_to_pick_down,blue,true,false,joint 3 +,false,2024-03-04 16:24:15.225691,16.196,0.157,235.0,292.8220520019531,106.5785140991211,84.958251953125,0.0,20.0,51.0,0.03999999910593033,-20.0
32,100,100,70,go_to_pick_up_from_pick_down,blue,true,false,joint 3 -,true,2024-03-04 16:24:16.603525,16.348,0.157,235.0,283.1217346191406,103.04788970947266,30.843944549560547,0.0,20.0,51.0,21.39999771118164,-20.0
32,100,100,70,go_to_color_detect_up_from_pick_up,blue,true,false,joint 1 +,true,2024-03-04 16:24:17.290539,16.348,0.178,235.0,292.373046875,107.80415344238281,84.958251953125,0.24000167846679688,20.400001525878906,51.0,0.0,-20.0
32,100,100,70,go_to_color_detect_up_from_pick_up,blue,true,false,joint 1 +,true,2024-03-04 16:24:18.664934,22.462,0.178,235.0,155.15187072753906,270.2436218261719,84.958251953125,40.139068603515625,60.74235153198242,51.0,0.0,-20.0
32,100,100,70,go_to_color_detect_down,blue,true,false,joint 3 +,true,2024-03-04 16:24:19.354118,22.519,0.207,235.0,125.1656494140625,268.4185791015625,19.361297607421875,45.0,65.0,51.0,27.793838500976562,-20.0
32,100,100,70,go_to_color_detect_up_from_color_detect_down,blue,true,false,joint 3 -,false,2024-03-04 16:24:20.730245,21.95,0.207,235.0,113.59001922607422,243.59457397460938,-18.768508911132812,45.0,65.0,51.0,44.3599967956543,-20.0
32,100,100,70,go_to_color_detect_up_from_color_detect_down,blue,true,false,joint 3 -,false,2024-03-04 16:24:21.425270,19.956,0.207,235.0,131.6714324951172,282.37030029296875,80.99049377441406,45.0,65.0,51.0,1.215409517288208,-20.0
32,100,100,70,detecting_color,blue,false,false,detecting_color,false,2024-03-04 16:24:22.797443,16.956,0.162,235.0,131.69407653808594,282.4188232421875,84.958251953125,45.0,65.0,51.0,-4.656612873077393e-10,-20.0
32,100,100,70,go_to_color_detect_down,blue,true,false,joint 3 +,false,2024-03-04 16:24:23.491318,16.956,0.162,235.0,131.2519073486328,281.4706115722656,67.45097351074219,45.0,65.0,51.0,7.599998474121094,-20.0
32,100,100,70,go_to_color_detect_up_from_color_detect_down,blue,true,false,joint 3 -,true,2024-03-04 16:24:24.872767,16.272,0.157,235.0,111.13883972167969,238.33799743652344,-24.284042358398438,45.0,65.0,51.0,48.0,-20.0
32,100,100,70,go_to_color_detect_up_from_color_detect_down,blue,true,false,joint 3 -,true,2024-03-04 16:24:25.566593,16.272,0.157,235.0,130.98873901367188,280.9062194824219,62.869842529296875,45.0,65.0,51.0,7.83078670501709,-20.0
32,100,100,70,go_to_red_up,red,true,false,joint 1 +,true,2024-03-04 16:24:26.258396,23.526,0.215,235.0,70.09805297851562,303.6280822753906,84.958251953125,57.0,78.0,51.0,-4.656612873077393e-10,-20.0
32,100,100,70,go_to_red_up,red,true,false,joint 1 +,true,2024-03-04 16:24:27.652141,22.747,0.215,235.0,-176.523681640625,256.7939147949219,84.958251953125,104.50515747070312,124.68354797363281,51.0,-4.656612873077393e-10,-20.0
32,100,100,70,go_to_pick_up_from_red,red,true,false,joint 1 -,false,2024-03-04 16:24:28.343184,22.747,0.209,235.0,34.73540115356445,309.6726989746094,84.958251953125,63.59999084472656,81.75999450683594,51.0,-4.656612873077393e-10,-20.0
32,100,100,70,go_to_pick_up_from_red,red,true,false,joint 1 -,false,2024-03-04 16:24:29.716765,16.367,0.209,235.0,288.9241638183594,116.73290252685547,84.958251953125,1.9999942779541016,21.6199951171875,51.0,-4.656612873077393e-10,-20.0
32,100,100,70,moving_belt,red,false,true,joint 1 -,false,2024-03-04 16:24:30.405689,16.367,0.156,235.0,292.8220520019531,106.5785140991211,84.958251953125,0.0,20.0,51.0,-4.656612873077393e-10,-20.0
32,100,100,70,moving_belt,red,false,true,joint 1 -,false,2024-03-04 16:24:31.787750,16.101,0.156,235.0,292.8220520019531,106.5785140991211,84.958251953125,0.0,20.0,51.0,-4.656612873077393e-10,-20.0
32,100,100,70,moving_belt,red,false,true,joint 1 -,false,2024-03-04 16:24:32.475651,16.234,0.156,235.0,292.8220520019531,106.5785140991211,84.958251953125,0.0,20.0,51.0,-4.656612873077393e-10,-20.0
32,100,100,70,go_to_pick_down,red,true,false,joint 3 +,false,2024-03-04 16:24:33.864275,16.158,0.156,235.0,292.8217468261719,106.57840728759766,84.65037536621094,0.0,20.0,51.0,0.24000000953674316,-20.0
32,100,100,70,go_to_pick_up_from_pick_down,red,true,false,joint 3 -,true,2024-03-04 16:24:34.552708,16.158,0.156,235.0,282.7997131347656,102.93067932128906,29.986251831054688,0.0,20.0,51.0,21.8799991607666,-20.0
32,100,100,70,go_to_color_detect_up_from_pick_up,red,true,false,joint 1 +,true,2024-03-04 16:24:35.245391,15.854,0.155,235.0,292.74755859375,106.78292846679688,84.958251953125,0.04000091552734375,20.1200008392334,51.0,0.0,-20.0
32,100,100,70,go_to_color_detect_up_from_pick_up,red,true,false,joint 1 +,true,2024-03-04 16:24:36.670504,22.5,0.155,235.0,144.79287719726562,275.9325256347656,84.958251953125,42.31219482421875,62.75547790527344,51.0,0.0,-20.0
32,100,100,70,go_to_color_detect_down,red,true,false,joint 3 +,true,2024-03-04 16:24:37.360795,22.5,0.208,235.0,126.41095733642578,271.08917236328125,25.637104034423828,45.0,65.0,51.0,25.171276092529297,-20.0
32,100,100,70,go_to_color_detect_up_from_color_detect_down,red,true,false,joint 3 -,false,2024-03-04 16:24:38.749525,21.95,0.208,235.0,112.5685043334961,241.4039306640625,-21.14051055908203,45.0,65.0,51.0,45.79999542236328,-20.0
32,100,100,70,go_to_color_detect_up_from_color_detect_down,red,true,false,joint 3 -,false,2024-03-04 16:24:39.439607,21.95,0.204,235.0,131.68978881835938,282.4096374511719,83.23200988769531,45.0,65.0,51.0,0.4615650475025177,-20.0
32,100,100,70,detecting_color,red,false,false,detecting_color,false,2024-03-04 16:24:40.814490,16.12,0.204,235.0,131.69407653808594,282.4188232421875,84.958251953125,45.0,65.0,51.0,-4.656612873077393e-10,-20.0
32,100,100,70,go_to_color_detect_down,red,true,false,joint 3 +,false,2024-03-04 16:24:41.500311,16.12,0.155,235.0,131.2519073486328,281.4706115722656,67.45097351074219,45.0,65.0,51.0,7.599998474121094,-20.0
32,100,100,70,go_to_color_detect_down,red,true,false,joint 3 +,false,2024-03-04 16:24:42.884277,16.12,0.155,235.0,111.26680755615234,238.6124267578125,-24.010658264160156,45.0,65.0,51.0,47.932281494140625,-20.0
32,100,100,70,go_to_color_detect_up_from_color_detect_down,red,true,false,joint 3 -,true,2024-03-04 16:24:43.573760,16.785,0.161,235.0,129.45167541503906,277.6099853515625,45.82000732421875,45.0,65.0,51.0,14.349754333496094,-20.0
32,100,100,70,go_to_green_up,green,true,false,joint 1 +,true,2024-03-04 16:24:44.260277,23.317,0.161,235.0,97.12145233154297,296.0931701660156,84.958251953125,51.840003967285156,72.60000610351562,51.0,-4.656612873077393e-10,-20.0
32,100,100,70,go_to_pick_up_from_green,green,true,false,joint 1 -,false,2024-03-04 16:24:45.645925,22.367,0.208,235.0,-76.23045349121094,302.146728515625,84.958251953125,84.15999603271484,103.87999725341797,51.0,-4.656612873077393e-10,-20.0
32,100,100,70,go_to_pick_up_from_green,green,true,false,joint 1 -,false,2024-03-04 16:24:46.332801,22.215,0.208,235.0,212.80044555664062,227.639404296875,84.958251953125,26.92963409423828,45.481815338134766,51.0,-4.656612873077393e-10,-20.0
32,100,100,70,moving_belt,green,false,true,joint 1 -,false,2024-03-04 16:24:47.715822,16.253,0.156,235.0,292.8220520019531,106.5785140991211,84.958251953125,0.0,20.0,51.0,-4.656612873077393e-10,-20.0
32,100,100,70,moving_belt,green,false,true,joint 1 -,false,2024-03-04 16:24:48.402557,16.5,0.156,235.0,292.8220520019531,106.5785140991211,84.958251953125,0.0,20.0,51.0,-4.656612873077393e-10,-20.0
32,100,100,70,moving_belt,green,false,true,joint 1 -,false,2024-03-04 16:24:49.778611,15.987,0.156,235.0,292.8220520019531,106.5785140991211,84.958251953125,0.0,20.0,51.0,-4.656612873077393e-10,-20.0
32,100,100,70,moving_belt,green,false,true,joint 1 -,false,2024-03-04 16:24:50.470249,15.987,0.154,235.0,292.8220520019531,106.5785140991211,84.958251953125,0.0,20.0,51.0,-4.656612873077393e-10,-20.0
32,100,100,70,go_to_pick_down,green,true,false,joint 3 +,false,2024-03-04 16:24:51.840887,16.253,0.154,235.0,291.0296630859375,105.92613983154297,61.35441970825195,0.0,20.0,51.0,10.119999885559082,-20.0
32,100,100,70,go_to_pick_up_from_pick_down,green,true,false,joint 3 -,true,2024-03-04 16:24:52.531077,16.215,0.156,235.0,288.9488830566406,105.1688003540039,50.392372131347656,0.0,20.0,51.0,12.75999641418457,-20.0
32,100,100,70,go_to_color_detect_up_from_pick_up,green,true,false,joint 1 +,true,2024-03-04 16:24:53.905747,23.336,0.156,235.0,261.3420715332031,169.71754455566406,84.958251953125,13.0,34.040000915527344,51.0,0.0,-20.0
32,100,100,70,go_to_color_detect_down,green,true,false,joint 3 +,true,2024-03-04 16:24:54.595573,22.405,0.208,235.0,131.6935272216797,282.41766357421875,84.34249877929688,45.0,65.0,51.0,0.3999999165534973,-20.0
32,100,100,70,go_to_color_detect_down,green,true,false,joint 3 +,true,2024-03-04 16:24:55.322174,22.234,0.208,235.0,115.97435760498047,248.70779418945312,-12.776542663574219,45.0,65.0,51.0,42.363059997558594,-20.0
32,100,100,70,go_to_color_detect_up_from_color_detect_down,green,true,false,joint 3 -,false,2024-03-04 16:24:56.698373,22.007,0.205,235.0,124.98181915283203,268.02435302734375,18.49610137939453,45.0,65.0,51.0,25.56000518798828,-20.0
32,100,100,70,detecting_color,green,false,false,detecting_color,false,2024-03-04 16:24:57.392062,17.696,0.205,235.0,131.69407653808594,282.4188232421875,84.958251953125,45.0,65.0,51.0,-4.656612873077393e-10,-20.0
32,100,100,70,detecting_color,green,false,false,detecting_color,false,2024-03-04 16:24:58.881002,16.348,0.157,235.0,131.69407653808594,282.4188232421875,84.958251953125,45.0,65.0,51.0,-4.656612873077393e-10,-20.0
32,100,100,70,go_to_color_detect_down,green,true,false,joint 3 +,false,2024-03-04 16:24:59.569475,16.196,0.157,235.0,123.881103515625,265.66387939453125,13.590003967285156,45.0,65.0,51.0,30.25640106201172,-20.0
32,100,100,70,go_to_color_detect_up_from_color_detect_down,green,true,false,joint 3 -,true,2024-03-04 16:25:00.261281,16.196,0.157,235.0,113.9860610961914,244.44387817382812,-17.81891632080078,45.0,65.0,51.0,43.79999542236328,-20.0
32,100,100,70,go_to_color_detect_up_from_color_detect_down,green,true,false,joint 3 -,true,2024-03-04 16:25:01.666246,23.469,0.165,235.0,131.69403076171875,282.41876220703125,84.78450775146484,45.0,65.0,51.0,0.016438644379377365,-20.0
32,100,100,70,go_to_blue_up,blue,true,false,joint 1 +,false,2024-03-04 16:25:02.377219,23.469,0.165,235.0,27.343463897705078,310.4127502441406,84.958251953125,64.96595001220703,84.99480438232422,51.0,-4.656612873077393e-10,-20.0
32,100,100,70,go_to_pick_up_from_blue,blue,true,false,joint 1 -,false,2024-03-04 16:25:03.748445,19.386,0.206,235.0,210.26193237304688,229.98622131347656,84.958251953125,27.565288543701172,46.10038375854492,51.0,-4.656612873077393e-10,-20.0
32,100,100,70,moving_belt,blue,false,true,joint 1 -,false,2024-03-04 16:25:04.434794,19.386,0.206,235.0,292.8220520019531,106.5785140991211,84.958251953125,0.0,20.0,51.0,-4.656612873077393e-10,-20.0
32,100,100,70,moving_belt,blue,false,true,joint 1 -,false,2024-03-04 16:25:05.807109,16.329,0.157,235.0,292.8220520019531,106.5785140991211,84.958251953125,0.0,20.0,51.0,-4.656612873077393e-10,-20.0
32,100,100,70,moving_belt,blue,false,true,joint 1 -,false,2024-03-04 16:25:06.493198,16.291,0.157,235.0,292.8220520019531,106.5785140991211,84.958251953125,0.0,20.0,51.0,-4.656612873077393e-10,-20.0
32,100,100,70,moving_belt,blue,false,true,joint 1 -,false,2024-03-04 16:25:07.870016,16.177,0.156,235.0,292.8220520019531,106.5785140991211,84.958251953125,0.0,20.0,51.0,-4.656612873077393e-10,-20.0
32,100,100,70,go_to_pick_down,blue,true,false,joint 3 +,false,2024-03-04 16:25:08.557058,16.006,0.156,235.0,291.3401794433594,106.0391616821289,63.484046936035156,0.0,20.0,51.0,9.239999771118164,-20.0
32,100,100,70,go_to_pick_up_from_pick_down,blue,true,false,joint 3 -,true,2024-03-04 16:25:09.929330,16.652,0.158,235.0,288.4822998046875,104.99897766113281,48.40084457397461,0.0,20.0,51.0,13.599996566772461,-20.0
32,100,100,70,go_to_color_detect_up_from_pick_up,blue,true,false,joint 1 +,true,2024-03-04 16:25:10.616197,23.089,0.158,235.0,264.2642517089844,165.1306610107422,84.958251953125,12.0,33.0,51.0,0.0,-20.0
32,100,100,70,go_to_color_detect_down,blue,true,false,joint 3 +,true,2024-03-04 16:25:11.303628,23.089,0.158,235.0,131.69393920898438,282.4185485839844,84.65037536621094,45.0,65.0,51.0,0.2399999499320984,-20.0
32,100,100,70,go_to_color_detect_down,blue,true,false,joint 3 +,true,2024-03-04 16:25:12.673681,22.158,0.208,235.0,116.49774169921875,249.8302001953125,-11.367164611816406,45.0,65.0,51.0,41.67177963256836,-20.0
32,100,100,70,go_to_color_detect_up_from_color_detect_down,blue,true,false,joint 3 -,false,2024-03-04 16:25:13.361020,22.234,0.208,235.0,121.0972900390625,259.6939697265625,2.8420028686523438,45.0,65.0,51.0,32.880001068115234,-20.0
32,100,100,70,detecting_color,blue,false,false,detecting_color,false,2024-03-04 16:25:14.736059,17.051,0.167,235.0,131.69407653808594,282.4188232421875,84.958251953125,45.0,65.0,51.0,-4.656612873077393e-10,-20.0
32,100,100,70,detecting_color,blue,false,false,detecting_color,false,2024-03-04 16:25:15.430820,17.051,0.167,235.0,131.69407653808594,282.4188232421875,84.958251953125,45.0,65.0,51.0,-4.656612873077393e-10,-20.0
32,100,100,70,go_to_color_detect_down,blue,true,false,joint 3 +,false,2024-03-04 16:25:16.808206,16.31,0.158,235.0,123.881103515625,265.66387939453125,13.590003967285156,45.0,65.0,51.0,30.25640106201172,-20.0
32,100,100,70,go_to_color_detect_up_from_color_detect_down,blue,true,false,joint 3 -,true,2024-03-04 16:25:17.495875,16.31,0.158,235.0,114.40845489501953,245.34971618652344,-16.786788940429688,45.0,65.0,51.0,43.19999694824219,-20.0
32,100,100,70,go_to_color_detect_up_from_color_detect_down,blue,true,false,joint 3 -,true,2024-03-04 16:25:18.884885,19.253,0.214,235.0,131.68600463867188,282.4015197753906,82.5873794555664,45.0,65.0,51.0,0.6728465557098389,-20.0
32,100,100,70,go_to_red_up,red,true,false,joint 1 +,true,2024-03-04 16:25:19.575811,23.165,0.214,235.0,-71.52986907958984,303.2939453125,84.958251953125,83.27033233642578,104.56871795654297,51.0,-4.656612873077393e-10,-20.0
32,100,100,70,go_to_pick_up_from_red,red,true,false,joint 1 -,false,2024-03-04 16:25:20.273577,22.31,0.214,235.0,-170.62876892089844,260.748046875,84.958251953125,103.19999694824219,122.79999542236328,51.0,-4.656612873077393e-10,-20.0
32,100,100,70,go_to_pick_up_from_red,red,true,false,joint 1 -,false,2024-03-04 16:25:21.648879,22.69,0.21,235.0,198.54690551757812,240.1725616455078,84.958251953125,30.41999053955078,48.87998962402344,51.0,-4.656612873077393e-10,-20.0
32,100,100,70,moving_belt,red,false,true,joint 1 -,false,2024-03-04 16:25:22.338948,16.291,0.21,235.0,292.8220520019531,106.5785140991211,84.958251953125,0.0,20.0,51.0,-4.656612873077393e-10,-20.0
32,100,100,70,moving_belt,red,false,true,joint 1 -,false,2024-03-04 16:25:23.715196,16.405,0.158,235.0,292.8220520019531,106.5785140991211,84.958251953125,0.0,20.0,51.0,-4.656612873077393e-10,-20.0
32,100,100,70,moving_belt,red,false,true,joint 1 -,false,2024-03-04 16:25:24.405490,16.253,0.158,235.0,292.8220520019531,106.5785140991211,84.958251953125,0.0,20.0,51.0,-4.656612873077393e-10,-20.0
32,100,100,70,moving_belt,red,false,true,joint 1 -,false,2024-03-04 16:25:25.779571,16.215,0.155,235.0,292.8220520019531,106.5785140991211,84.958251953125,0.0,20.0,51.0,-4.656612873077393e-10,-20.0
32,100,100,70,go_to_pick_down,red,true,false,joint 3 +,false,2024-03-04 16:25:26.469492,16.215,0.155,235.0,292.4510803222656,106.44348907470703,74.1922378540039,0.0,20.0,51.0,4.800000190734863,-20.0
32,100,100,70,go_to_pick_up_from_pick_down,red,true,false,joint 3 -,true,2024-03-04 16:25:27.846101,16.291,0.157,235.0,285.39019775390625,103.87354278564453,37.39094924926758,0.0,20.0,51.0,18.359996795654297,-20.0
32,100,100,70,go_to_color_detect_up_from_pick_up,red,true,false,joint 1 +,true,2024-03-04 16:25:28.534801,18.988,0.157,235.0,281.399169921875,133.8590087890625,84.958251953125,5.44000244140625,26.12000274658203,51.0,0.0,-20.0
32,100,100,70,go_to_color_detect_up_from_pick_up,red,true,false,joint 1 +,true,2024-03-04 16:25:29.902892,22.69,0.206,235.0,132.98190307617188,281.8147277832031,84.958251953125,44.73844909667969,64.86173248291016,51.0,0.0,-20.0
32,100,100,70,go_to_color_detect_down,red,true,false,joint 3 +,true,2024-03-04 16:25:30.604390,22.69,0.206,235.0,118.77991485595703,254.72433471679688,-4.7643280029296875,45.0,65.0,51.0,38.50665283203125,-20.0
32,100,100,70,go_to_color_detect_up_from_color_detect_down,red,true,false,joint 3 -,false,2024-03-04 16:25:31.294092,21.969,0.205,235.0,118.01263427734375,253.07888793945312,-7.072502136230469,45.0,65.0,51.0,37.87999725341797,-20.0
32,100,100,70,detecting_color,red,false,false,detecting_color,false,2024-03-04 16:25:32.669074,22.045,0.205,235.0,131.69407653808594,282.4188232421875,84.958251953125,45.0,65.0,51.0,-4.656612873077393e-10,-20.0
32,100,100,70,detecting_color,red,false,false,detecting_color,false,2024-03-04 16:25:33.359920,17.184,0.205,235.0,131.69407653808594,282.4188232421875,84.958251953125,45.0,65.0,51.0,-4.656612873077393e-10,-20.0
32,100,100,70,go_to_color_detect_down,red,true,false,joint 3 +,false,2024-03-04 16:25:34.738503,16.272,0.157,235.0,128.8512725830078,276.3224182128906,40.9992561340332,45.0,65.0,51.0,18.59999656677246,-20.0
32,100,100,70,go_to_color_detect_up_from_color_detect_down,red,true,false,joint 3 -,true,2024-03-04 16:25:35.426544,16.196,0.157,235.0,111.23545837402344,238.54519653320312,-24.077789306640625,45.0,65.0,51.0,47.7599983215332,-20.0
32,100,100,70,go_to_color_detect_up_from_color_detect_down,red,true,false,joint 3 -,true,2024-03-04 16:25:36.798695,22.083,0.158,235.0,131.5928192138672,282.2016906738281,76.56852722167969,45.0,65.0,51.0,2.7805356979370117,-20.0
32,100,100,70,go_to_green_up,green,true,false,joint 1 +,true,2024-03-04 16:25:37.500163,22.937,0.158,235.0,21.249757766723633,310.88934326171875,84.958251953125,66.08982849121094,87.29965209960938,51.0,-4.656612873077393e-10,-20.0
32,100,100,70,go_to_pick_up_from_green,green,true,false,joint 1 -,false,2024-03-04 16:25:38.877748,22.538,0.206,235.0,-61.379634857177734,305.5098571777344,84.958251953125,81.35999298095703,100.79999542236328,51.0,-4.656612873077393e-10,-20.0
32,100,100,70,go_to_pick_up_from_green,green,true,false,joint 1 -,false,2024-03-04 16:25:39.569167,18.304,0.206,235.0,263.6983337402344,166.0328826904297,84.958251953125,12.195823669433594,31.22800636291504,51.0,-4.656612873077393e-10,-20.0
32,100,100,70,moving_belt,green,false,true,joint 1 -,false,2024-03-04 16:25:40.941400,16.348,0.159,235.0,292.8220520019531,106.5785140991211,84.958251953125,0.0,20.0,51.0,-4.656612873077393e-10,-20.0
32,100,100,70,moving_belt,green,false,true,joint 1 -,false,2024-03-04 16:25:41.629159,16.348,0.159,235.0,292.8220520019531,106.5785140991211,84.958251953125,0.0,20.0,51.0,-4.656612873077393e-10,-20.0
32,100,100,70,moving_belt,green,false,true,joint 1 -,false,2024-03-04 16:25:42.326841,16.215,0.154,235.0,292.8220520019531,106.5785140991211,84.958251953125,0.0,20.0,51.0,-4.656612873077393e-10,-20.0
32,100,100,70,moving_belt,green,false,true,joint 1 -,false,2024-03-04 16:25:43.702606,16.177,0.154,235.0,292.8220520019531,106.5785140991211,84.958251953125,0.0,20.0,51.0,-4.656612873077393e-10,-20.0
32,100,100,70,go_to_pick_down,green,true,false,joint 3 +,false,2024-03-04 16:25:44.386861,15.854,0.154,235.0,285.3606262207031,103.86277770996094,37.29911804199219,0.0,20.0,51.0,19.39399528503418,-20.0
32,100,100,70,go_to_pick_up_from_pick_down,green,true,false,joint 3 -,true,2024-03-04 16:25:45.764043,16.044,0.156,235.0,292.54974365234375,106.47940063476562,75.73231506347656,0.0,20.0,51.0,3.0821664333343506,-20.0
32,100,100,70,go_to_color_detect_up_from_pick_up,green,true,false,joint 1 +,true,2024-03-04 16:25:46.452358,22.937,0.156,235.0,229.96681213378906,210.28314208984375,84.958251953125,22.439998626708984,43.76327896118164,51.0,0.0,-20.0
32,100,100,70,go_to_color_detect_down,green,true,false,joint 3 +,true,2024-03-04 16:25:47.823733,22.424,0.205,235.0,131.64828491210938,282.3206481933594,79.31524658203125,45.0,65.0,51.0,2.6399993896484375,-20.0
32,100,100,70,go_to_color_detect_down,green,true,false,joint 3 +,true,2024-03-04 16:25:48.511564,21.817,0.205,235.0,111.5094223022461,239.13270568847656,-23.488121032714844,45.0,65.0,51.0,47.709716796875,-20.0
32,100,100,70,go_to_color_detect_up_from_color_detect_down,green,true,false,joint 3 -,false,2024-03-04 16:25:49.890180,22.102,0.203,235.0,128.73878479003906,276.0812072753906,40.15884017944336,45.0,65.0,51.0,16.572317123413086,-20.0
32,100,100,70,detecting_color,green,false,false,detecting_color,false,2024-03-04 16:25:50.577444,16.956,0.203,235.0,131.69407653808594,282.4188232421875,84.958251953125,45.0,65.0,51.0,-4.656612873077393e-10,-20.0
32,100,100,70,detecting_color,green,false,false,detecting_color,false,2024-03-04 16:25:51.953948,16.101,0.156,235.0,131.69407653808594,282.4188232421875,84.958251953125,45.0,65.0,51.0,-4.656612873077393e-10,-20.0
32,100,100,70,go_to_color_detect_down,green,true,false,joint 3 +,false,2024-03-04 16:25:52.644182,16.101,0.156,235.0,121.2841567993164,260.0946960449219,3.502349853515625,45.0,65.0,51.0,34.7015266418457,-20.0
32,100,100,70,go_to_color_detect_up_from_color_detect_down,green,true,false,joint 3 -,true,2024-03-04 16:25:53.332082,16.082,0.157,235.0,119.82927703857422,256.9747009277344,-1.4461822509765625,45.0,65.0,51.0,35.0,-20.0
32,100,100,70,go_to_blue_up,blue,true,false,joint 1 +,true,2024-03-04 16:25:54.712868,19.215,0.157,235.0,131.69407653808594,282.4188232421875,84.958251953125,45.0,65.04000091552734,51.0,-4.656612873077393e-10,-20.0
32,100,100,70,go_to_pick_up_from_blue,blue,true,false,joint 1 -,false,2024-03-04 16:25:55.401580,23.184,0.204,235.0,27.37569236755371,310.4098815917969,84.958251953125,64.95999908447266,84.87999725341797,51.0,-4.656612873077393e-10,-20.0
32,100,100,70,go_to_pick_up_from_blue,blue,true,false,joint 1 -,false,2024-03-04 16:25:56.781442,16.405,0.204,235.0,262.4430236816406,168.0100860595703,84.958251953125,12.626449584960938,31.64154624938965,51.0,-4.656612873077393e-10,-20.0
32,100,100,70,moving_belt,blue,false,true,joint 1 -,false,2024-03-04 16:25:57.473977,16.405,0.204,235.0,292.8220520019531,106.5785140991211,84.958251953125,0.0,20.0,51.0,-4.656612873077393e-10,-20.0
32,100,100,70,moving_belt,blue,false,true,joint 1 -,false,2024-03-04 16:25:58.848196,16.215,0.157,235.0,292.8220520019531,106.5785140991211,84.958251953125,0.0,20.0,51.0,-4.656612873077393e-10,-20.0
32,100,100,70,moving_belt,blue,false,true,joint 1 -,false,2024-03-04 16:25:59.533255,16.082,0.157,235.0,292.8220520019531,106.5785140991211,84.958251953125,0.0,20.0,51.0,-4.656612873077393e-10,-20.0
32,100,100,70,moving_belt,blue,false,true,joint 1 -,false,2024-03-04 16:26:00.913089,16.063,0.157,235.0,292.8220520019531,106.5785140991211,84.958251953125,0.0,20.0,51.0,-4.656612873077393e-10,-20.0
32,100,100,70,go_to_pick_down,blue,true,false,joint 3 +,false,2024-03-04 16:26:01.604915,16.063,0.157,235.0,288.90997314453125,105.15463256835938,50.22156524658203,0.0,20.0,51.0,14.464665412902832,-20.0
32,100,100,70,go_to_pick_up_from_pick_down,blue,true,false,joint 3 -,true,2024-03-04 16:26:02.293435,16.253,0.157,235.0,292.2120056152344,106.35647583007812,71.15796661376953,0.0,20.0,51.0,4.750665187835693,-20.0
32,100,100,70,go_to_color_detect_up_from_pick_up,blue,true,false,joint 1 +,true,2024-03-04 16:26:03.671901,21.475,0.157,235.0,247.55128479003906,189.26724243164062,84.958251953125,17.39999771118164,38.599998474121094,51.0,0.0,-20.0
32,100,100,70,go_to_color_detect_down,blue,true,false,joint 3 +,true,2024-03-04 16:26:04.359910,22.196,0.206,235.0,131.6822052001953,282.3934020996094,82.08492279052734,45.0,65.0,51.0,1.4399996995925903,-20.0
32,100,100,70,go_to_color_detect_down,blue,true,false,joint 3 +,true,2024-03-04 16:26:05.761311,22.064,0.206,235.0,112.10877227783203,240.4180145263672,-22.173080444335938,45.0,65.0,51.0,47.07587432861328,-20.0
32,100,100,70,go_to_color_detect_up_from_color_detect_down,blue,true,false,joint 3 -,false,2024-03-04 16:26:06.448184,22.064,0.204,235.0,127.87065887451172,274.2195129394531,34.18457794189453,45.0,65.0,51.0,18.954879760742188,-20.0
32,100,100,70,detecting_color,blue,false,false,detecting_color,false,2024-03-04 16:26:07.905719,16.956,0.204,235.0,131.69407653808594,282.4188232421875,84.958251953125,45.0,65.0,51.0,-4.656612873077393e-10,-20.0
32,100,100,70,detecting_color,blue,false,false,detecting_color,false,2024-03-04 16:26:08.594005,16.956,0.157,235.0,131.69407653808594,282.4188232421875,84.958251953125,45.0,65.0,51.0,-4.656612873077393e-10,-20.0
32,100,100,70,go_to_color_detect_down,blue,true,false,joint 3 +,false,2024-03-04 16:26:09.969671,16.386,0.157,235.0,123.23137664794922,264.2705383300781,10.889289855957031,45.0,65.0,51.0,31.427682876586914,-20.0
32,100,100,70,go_to_color_detect_up_from_color_detect_down,blue,true,false,joint 3 -,true,2024-03-04 16:26:10.694966,16.386,0.157,235.0,118.01263427734375,253.07888793945312,-7.072502136230469,45.0,65.0,51.0,37.87999725341797,-20.0
32,100,100,70,go_to_red_up,red,true,false,joint 1 +,true,2024-03-04 16:26:11.381882,23.355,0.157,235.0,131.69407653808594,282.4188232421875,84.958251953125,45.0,65.0,51.0,-4.656612873077393e-10,-20.0
32,100,100,70,go_to_red_up,red,true,false,joint 1 +,true,2024-03-04 16:26:12.767684,22.424,0.157,235.0,-78.38388061523438,301.59527587890625,84.958251953125,84.56871795654297,105.82710266113281,51.0,-4.656612873077393e-10,-20.0
32,100,100,70,go_to_pick_up_from_red,red,true,false,joint 1 -,false,2024-03-04 16:26:13.455489,22.538,0.207,235.0,-147.06202697753906,274.7298278808594,84.958251953125,98.15999603271484,117.39999389648438,51.0,-4.656612873077393e-10,-20.0
32,100,100,70,go_to_pick_up_from_red,red,true,false,joint 1 -,false,2024-03-04 16:26:14.830573,19.918,0.207,235.0,216.778564453125,223.85438537597656,84.958251953125,25.91999053955078,44.49999237060547,51.0,-4.656612873077393e-10,-20.0
32,100,100,70,moving_belt,red,false,true,joint 1 -,false,2024-03-04 16:26:15.517581,16.443,0.158,235.0,292.8220520019531,106.5785140991211,84.958251953125,0.0,20.0,51.0,-4.656612873077393e-10,-20.0
32,100,100,70,moving_belt,red,false,true,joint 1 -,false,2024-03-04 16:26:16.891131,16.367,0.158,235.0,292.8220520019531,106.5785140991211,84.958251953125,0.0,20.0,51.0,-4.656612873077393e-10,-20.0
32,100,100,70,moving_belt,red,false,true,joint 1 -,false,2024-03-04 16:26:17.577865,16.367,0.155,235.0,292.8220520019531,106.5785140991211,84.958251953125,0.0,20.0,51.0,-4.656612873077393e-10,-20.0
32,100,100,70,moving_belt,red,false,true,joint 1 -,false,2024-03-04 16:26:18.949847,16.215,0.155,235.0,292.8220520019531,106.5785140991211,84.958251953125,0.0,20.0,51.0,-4.656612873077393e-10,-20.0
32,100,100,70,go_to_pick_down,red,true,false,joint 3 +,false,2024-03-04 16:26:19.636474,16.158,0.155,235.0,291.0296630859375,105.92613983154297,61.35441970825195,0.0,20.0,51.0,10.119999885559082,-20.0
32,100,100,70,go_to_pick_up_from_pick_down,red,true,false,joint 3 -,true,2024-03-04 16:26:20.324705,16.329,0.155,235.0,288.0148620605469,104.82884216308594,46.5154914855957,0.0,20.0,51.0,14.399996757507324,-20.0
32,100,100,70,go_to_color_detect_up_from_pick_up,red,true,false,joint 1 +,true,2024-03-04 16:26:21.705067,23.317,0.212,233.1,269.5393371582031,156.37222290039062,84.958251953125,10.120000839233398,31.040000915527344,51.0,0.0,-20.0
32,100,100,70,go_to_color_detect_down,red,true,false,joint 3 +,true,2024-03-04 16:26:22.393302,22.367,0.212,233.1,131.69407653808594,282.4188232421875,84.958251953125,45.0,65.0,51.0,0.0,-20.0
32,100,100,70,go_to_color_detect_down,red,true,false,joint 3 +,true,2024-03-04 16:26:23.855869,22.31,0.206,233.1,118.18413543701172,253.44668579101562,-6.56475830078125,45.0,65.0,51.0,39.357933044433594,-20.0
32,100,100,70,go_to_color_detect_up_from_color_detect_down,red,true,false,joint 3 -,false,2024-03-04 16:26:24.548737,22.14,0.206,233.1,122.39151763916016,262.4694519042969,7.582984924316406,45.0,65.0,51.0,30.60000228881836,-20.0
32,100,100,70,detecting_color,red,false,false,detecting_color,false,2024-03-04 16:26:25.928187,18.152,0.163,233.1,131.69407653808594,282.4188232421875,84.958251953125,45.0,65.0,51.0,-4.656612873077393e-10,-20.0
32,100,100,70,detecting_color,red,false,false,detecting_color,false,2024-03-04 16:26:26.620175,16.709,0.163,233.1,131.69407653808594,282.4188232421875,84.958251953125,45.0,65.0,51.0,-4.656612873077393e-10,-20.0
32,100,100,70,go_to_color_detect_down,red,true,false,joint 3 +,false,2024-03-04 16:26:27.305554,16.709,0.163,233.1,127.52101135253906,273.4696960449219,31.990859985351562,45.0,65.0,51.0,22.43999481201172,-20.0
32,100,100,70,go_to_color_detect_up_from_color_detect_down,red,true,false,joint 3 -,true,2024-03-04 16:26:28.687538,16.253,0.156,233.1,111.81121826171875,239.7799072265625,-22.83026885986328,45.0,65.0,51.0,46.87999725341797,-20.0
32,100,100,70,go_to_color_detect_up_from_color_detect_down,red,true,false,joint 3 -,true,2024-03-04 16:26:29.376348,16.348,0.156,233.1,131.6714324951172,282.37030029296875,80.99049377441406,45.0,65.0,51.0,1.215409517288208,-20.0
32,100,100,70,go_to_green_up,green,true,false,joint 1 +,true,2024-03-04 16:26:30.768555,22.253,0.213,233.1,-3.747795820236206,311.5921936035156,84.958251953125,70.68911743164062,91.73893737792969,51.0,-4.656612873077393e-10,-20.0
32,100,100,70,go_to_pick_up_from_green,green,true,false,joint 1 -,false,2024-03-04 16:26:31.589671,22.538,0.213,233.1,-40.13457107543945,309.01934814453125,84.958251953125,77.39999389648438,96.59999084472656,51.0,-4.656612873077393e-10,-20.0
32,100,100,70,go_to_pick_up_from_green,green,true,false,joint 1 -,false,2024-03-04 16:26:32.309571,22.538,0.213,233.1,275.75811767578125,145.124755859375,84.958251953125,7.756734848022461,26.988916397094727,51.0,-4.656612873077393e-10,-20.0
32,100,100,70,moving_belt,green,false,true,joint 1 -,false,2024-03-04 16:26:33.954562,16.31,0.159,233.1,292.8220520019531,106.5785140991211,84.958251953125,0.0,20.0,51.0,-4.656612873077393e-10,-20.0
32,100,100,70,moving_belt,green,false,true,joint 1 -,false,2024-03-04 16:26:34.775469,16.31,0.155,233.1,292.8220520019531,106.5785140991211,84.958251953125,0.0,20.0,51.0,-4.656612873077393e-10,-20.0
32,100,100,70,moving_belt,green,false,true,joint 1 -,false,2024-03-04 16:26:35.463710,16.082,0.155,233.1,292.8220520019531,106.5785140991211,84.958251953125,0.0,20.0,51.0,-4.656612873077393e-10,-20.0
32,100,100,70,moving_belt,green,false,true,joint 1 -,false,2024-03-04 16:26:36.848270,16.082,0.156,233.1,292.8220520019531,106.5785140991211,84.958251953125,0.0,20.0,51.0,-4.656612873077393e-10,-20.0
32,100,100,70,go_to_pick_down,green,true,false,joint 3 +,false,2024-03-04 16:26:37.543281,16.063,0.156,233.1,284.0044860839844,103.36918640136719,33.279571533203125,0.0,20.0,51.0,20.89866065979004,-20.0
32,100,100,70,go_to_pick_up_from_pick_down,green,true,false,joint 3 -,true,2024-03-04 16:26:38.920523,20.013,0.218,233.1,292.755859375,106.5544204711914,80.40839385986328,0.0,20.0,51.0,1.417501449584961,-20.0
32,100,100,70,go_to_color_detect_up_from_pick_up,green,true,false,joint 1 +,true,2024-03-04 16:26:39.609005,20.013,0.218,233.1,215.3290557861328,225.24905395507812,84.958251953125,26.289844512939453,47.493125915527344,51.0,0.0,-20.0
32,100,100,70,go_to_color_detect_down,green,true,false,joint 3 +,true,2024-03-04 16:26:40.988058,22.424,0.204,233.1,131.02761840820312,280.9896240234375,63.484046936035156,45.0,65.0,51.0,9.239998817443848,-20.0
32,100,100,70,go_to_color_detect_down,green,true,false,joint 3 +,true,2024-03-04 16:26:41.675419,21.893,0.204,233.1,111.15208435058594,238.3664093017578,-24.255813598632812,45.0,65.0,51.0,47.994842529296875,-20.0
32,100,100,70,go_to_color_detect_up_from_color_detect_down,green,true,false,joint 3 -,false,2024-03-04 16:26:42.364009,21.095,0.204,233.1,129.75582885742188,278.26226806640625,48.52571487426758,45.0,65.0,51.0,13.298473358154297,-20.0
32,100,100,70,detecting_color,green,false,false,detecting_color,false,2024-03-04 16:26:43.738263,17.032,0.164,233.1,131.69407653808594,282.4188232421875,84.958251953125,45.0,65.0,51.0,-4.656612873077393e-10,-20.0
32,100,100,70,go_to_color_detect_down,green,true,false,joint 3 +,false,2024-03-04 16:26:44.423194,17.032,0.164,233.1,131.69407653808594,282.4188232421875,84.958251953125,45.0,65.0,51.0,-4.656612873077393e-10,-20.0
32,100,100,70,go_to_color_detect_down,green,true,false,joint 3 +,false,2024-03-04 16:26:45.798766,16.158,0.158,233.1,115.47264099121094,247.63186645507812,-14.094192504882812,45.0,65.0,51.0,43.01434326171875,-20.0
32,100,100,70,go_to_color_detect_up_from_color_detect_down,green,true,false,joint 3 -,true,2024-03-04 16:26:46.489217,16.348,0.158,233.1,121.74224090576172,261.0770568847656,5.154693603515625,45.0,65.0,51.0,31.76000213623047,-20.0
32,100,100,70,go_to_blue_up,blue,true,false,joint 1 +,true,2024-03-04 16:26:47.867271,23.279,0.215,233.1,129.7191619873047,283.3313903808594,84.958251953125,45.40000915527344,65.60000610351562,51.0,-4.656612873077393e-10,-20.0
32,100,100,70,go_to_pick_up_from_blue,blue,true,false,joint 1 -,false,2024-03-04 16:26:48.582267,22.614,0.215,233.1,39.05567932128906,309.1575622558594,84.958251953125,62.79999542236328,82.35999298095703,51.0,-4.656612873077393e-10,-20.0
32,100,100,70,go_to_pick_up_from_blue,blue,true,false,joint 1 -,false,2024-03-04 16:26:49.951965,22.196,0.159,233.1,270.4308166503906,154.82542419433594,84.958251953125,9.791740417480469,28.926837921142578,51.0,-4.656612873077393e-10,-20.0
32,100,100,70,moving_belt,blue,false,true,joint 1 -,false,2024-03-04 16:26:50.641456,16.519,0.159,233.1,292.8220520019531,106.5785140991211,84.958251953125,0.0,20.0,51.0,-4.656612873077393e-10,-20.0
32,100,100,70,moving_belt,blue,false,true,joint 1 -,false,2024-03-04 16:26:51.330405,16.519,0.159,233.1,292.8220520019531,106.5785140991211,84.958251953125,0.0,20.0,51.0,-4.656612873077393e-10,-20.0
32,100,100,70,moving_belt,blue,false,true,joint 1 -,false,2024-03-04 16:26:52.724755,16.329,0.156,233.1,292.8220520019531,106.5785140991211,84.958251953125,0.0,20.0,51.0,-4.656612873077393e-10,-20.0
32,100,100,70,moving_belt,blue,false,true,joint 1 -,false,2024-03-04 16:26:53.454560,16.329,0.156,233.1,292.8220520019531,106.5785140991211,84.958251953125,0.0,20.0,51.0,-4.656612873077393e-10,-20.0
32,100,100,70,go_to_pick_down,blue,true,false,joint 3 +,false,2024-03-04 16:26:54.839526,16.329,0.156,233.1,284.9839172363281,103.72566986083984,36.14509201049805,0.0,20.0,51.0,19.830162048339844,-20.0
32,100,100,70,go_to_pick_up_from_pick_down,blue,true,false,joint 3 -,true,2024-03-04 16:26:55.524338,16.063,0.156,233.1,292.4590759277344,106.44640350341797,74.30866241455078,0.0,20.0,51.0,3.598332643508911,-20.0
32,100,100,70,go_to_color_detect_up_from_pick_up,blue,true,false,joint 1 +,true,2024-03-04 16:26:56.902967,23.146,0.211,233.1,239.26913452148438,199.6346893310547,84.958251953125,19.84000015258789,41.119998931884766,51.0,0.0,-20.0
32,100,100,70,go_to_color_detect_down,blue,true,false,joint 3 +,true,2024-03-04 16:26:57.608291,22.121,0.211,233.1,131.4761962890625,281.95159912109375,72.65760803222656,45.0,65.0,51.0,5.439999103546143,-20.0
32,100,100,70,go_to_color_detect_down,blue,true,false,joint 3 +,true,2024-03-04 16:26:59.007587,21.893,0.202,233.1,111.8780517578125,239.92323303222656,-22.683425903320312,45.0,65.0,51.0,47.32715606689453,-20.0
32,100,100,70,go_to_color_detect_up_from_color_detect_down,blue,true,false,joint 3 -,false,2024-03-04 16:26:59.691766,21.893,0.202,233.1,128.32533264160156,275.1945495605469,37.209197998046875,45.0,65.0,51.0,17.74359893798828,-20.0
32,100,100,70,detecting_color,blue,false,false,detecting_color,false,2024-03-04 16:27:00.378866,17.089,0.202,233.1,131.69407653808594,282.4188232421875,84.958251953125,45.0,65.0,51.0,-4.656612873077393e-10,-20.0
32,100,100,70,go_to_color_detect_down,blue,true,false,joint 3 +,false,2024-03-04 16:27:01.755916,16.177,0.163,233.1,131.69407653808594,282.4188232421875,84.958251953125,45.0,65.0,51.0,-4.656612873077393e-10,-20.0
32,100,100,70,go_to_color_detect_down,blue,true,false,joint 3 +,false,2024-03-04 16:27:02.445592,16.082,0.163,233.1,119.38970947265625,256.03204345703125,-2.8599166870117188,45.0,65.0,51.0,37.61537170410156,-20.0
32,100,100,70,go_to_color_detect_up_from_color_detect_down,blue,true,false,joint 3 -,true,2024-03-04 16:27:03.836585,16.101,0.155,233.1,118.01263427734375,253.07888793945312,-7.072502136230469,45.0,65.0,51.0,37.87999725341797,-20.0
32,100,100,70,go_to_red_up,red,true,false,joint 1 +,true,2024-03-04 16:27:04.526097,16.101,0.155,233.1,130.50990295410156,282.968017578125,84.958251953125,45.24000549316406,65.40000915527344,51.0,-4.656612873077393e-10,-20.0
32,100,100,70,go_to_red_up,red,true,false,joint 1 +,true,2024-03-04 16:27:05.899183,21.931,0.209,233.1,-114.30354309082031,289.8938293457031,84.958251953125,91.51904296875,112.53742980957031,51.0,-4.656612873077393e-10,-20.0
32,100,100,70,go_to_pick_up_from_red,red,true,false,joint 1 -,false,2024-03-04 16:27:06.584116,22.519,0.209,233.1,-147.06202697753906,274.7298278808594,84.958251953125,98.15999603271484,117.39999389648438,51.0,-4.656612873077393e-10,-20.0
32,100,100,70,go_to_pick_up_from_red,red,true,false,joint 1 -,false,2024-03-04 16:27:07.961316,16.253,0.166,233.1,245.55577087402344,191.84915161132812,84.958251953125,17.99999237060547,36.81999206542969,51.0,-4.656612873077393e-10,-20.0
32,100,100,70,moving_belt,red,false,true,joint 1 -,false,2024-03-04 16:27:08.649950,16.253,0.166,233.1,292.8220520019531,106.5785140991211,84.958251953125,0.0,20.0,51.0,-4.656612873077393e-10,-20.0
32,100,100,70,moving_belt,red,false,true,joint 1 -,false,2024-03-04 16:27:09.338347,16.253,0.166,233.1,292.8220520019531,106.5785140991211,84.958251953125,0.0,20.0,51.0,-4.656612873077393e-10,-20.0
32,100,100,70,moving_belt,red,false,true,joint 1 -,false,2024-03-04 16:27:10.715788,16.234,0.158,233.1,292.8220520019531,106.5785140991211,84.958251953125,0.0,20.0,51.0,-4.656612873077393e-10,-20.0
32,100,100,70,moving_belt,red,false,true,joint 1 -,false,2024-03-04 16:27:11.409707,16.063,0.158,233.1,292.8220520019531,106.5785140991211,84.958251953125,0.0,20.0,51.0,-4.656612873077393e-10,-20.0
32,100,100,70,go_to_pick_down,red,true,false,joint 3 +,false,2024-03-04 16:27:12.788112,16.006,0.157,233.1,290.6729431152344,105.79631042480469,59.12882614135742,0.0,20.0,51.0,11.039999961853027,-20.0
32,100,100,70,go_to_pick_up_from_pick_down,red,true,false,joint 3 -,true,2024-03-04 16:27:13.480075,16.006,0.157,233.1,291.629150390625,106.14432525634766,65.6810302734375,0.0,20.0,51.0,6.7791643142700195,-20.0
32,100,100,70,go_to_color_detect_up_from_pick_up,red,true,false,joint 1 +,true,2024-03-04 16:27:14.857961,22.842,0.176,233.1,258.21856689453125,174.4330596923828,84.958251953125,14.040000915527344,35.119998931884766,51.0,0.0,-20.0
32,100,100,70,go_to_color_detect_down,red,true,false,joint 3 +,true,2024-03-04 16:27:15.547840,22.424,0.176,233.1,131.69256591796875,282.41558837890625,83.9320068359375,45.0,65.0,51.0,0.5999999046325684,-20.0
32,100,100,70,go_to_color_detect_down,red,true,false,joint 3 +,true,2024-03-04 16:27:16.943477,22.007,0.206,233.1,112.98084259033203,242.28819274902344,-20.196151733398438,45.0,65.0,51.0,46.08203125,-20.0
32,100,100,70,go_to_color_detect_up_from_color_detect_down,red,true,false,joint 3 -,false,2024-03-04 16:27:17.630168,22.045,0.206,233.1,125.61415100097656,269.3804016113281,21.534198760986328,45.0,65.0,51.0,24.20000457763672,-20.0
32,100,100,70,detecting_color,red,false,false,detecting_color,false,2024-03-04 16:27:19.005927,17.184,0.161,233.1,131.69407653808594,282.4188232421875,84.958251953125,45.0,65.0,51.0,-4.656612873077393e-10,-20.0
32,100,100,70,detecting_color,red,false,false,detecting_color,false,2024-03-04 16:27:19.694236,17.184,0.161,233.1,131.69407653808594,282.4188232421875,84.958251953125,45.0,65.0,51.0,-4.656612873077393e-10,-20.0
32,100,100,70,go_to_color_detect_down,red,true,false,joint 3 +,false,2024-03-04 16:27:20.382038,16.177,0.161,233.1,123.881103515625,265.66387939453125,13.590003967285156,45.0,65.0,51.0,30.25640106201172,-20.0
32,100,100,70,go_to_color_detect_up_from_color_detect_down,red,true,false,joint 3 -,true,2024-03-04 16:27:21.759084,16.253,0.157,233.1,116.87966918945312,250.6492462158203,-10.31536865234375,45.0,65.0,51.0,39.599998474121094,-20.0
32,100,100,70,go_to_green_up,green,true,false,joint 1 +,true,2024-03-04 16:27:22.448362,20.469,0.215,233.1,131.69403076171875,282.41876220703125,84.78450775146484,45.0,65.0,51.0,0.016438644379377365,-20.0
32,100,100,70,go_to_green_up,green,true,false,joint 1 +,true,2024-03-04 16:27:23.828846,22.937,0.215,233.1,-39.044246673583984,309.15899658203125,84.958251953125,77.1978759765625,97.96769714355469,51.0,-4.656612873077393e-10,-20.0
32,100,100,70,go_to_pick_up_from_green,green,true,false,joint 1 -,false,2024-03-04 16:27:24.516818,22.272,0.206,233.1,26.292022705078125,310.5035705566406,84.958251953125,65.15999603271484,83.87999725341797,51.0,-4.656612873077393e-10,-20.0
32,100,100,70,go_to_pick_up_from_green,green,true,false,joint 1 -,false,2024-03-04 16:27:25.942864,19.291,0.206,233.1,286.3689270019531,122.86809539794922,84.958251953125,3.2220077514648438,22.734189987182617,51.0,-4.656612873077393e-10,-20.0
32,100,100,70,moving_belt,green,false,true,joint 1 -,false,2024-03-04 16:27:26.632116,16.367,0.206,233.1,292.8220520019531,106.5785140991211,84.958251953125,0.0,20.0,51.0,-4.656612873077393e-10,-20.0
32,100,100,70,moving_belt,green,false,true,joint 1 -,false,2024-03-04 16:27:28.028140,16.348,0.158,233.1,292.8220520019531,106.5785140991211,84.958251953125,0.0,20.0,51.0,-4.656612873077393e-10,-20.0
32,100,100,70,moving_belt,green,false,true,joint 1 -,false,2024-03-04 16:27:28.717340,16.006,0.158,233.1,292.8220520019531,106.5785140991211,84.958251953125,0.0,20.0,51.0,-4.656612873077393e-10,-20.0
32,100,100,70,moving_belt,green,false,true,joint 1 -,false,2024-03-04 16:27:29.417767,16.006,0.157,233.1,292.8220520019531,106.5785140991211,84.958251953125,0.0,20.0,51.0,-4.656612873077393e-10,-20.0
32,100,100,70,go_to_pick_up_from_pick_down,green,true,false,joint 3 -,true,2024-03-04 16:27:30.802953,16.025,0.157,233.1,282.8036193847656,102.9321060180664,29.996570587158203,0.0,20.0,51.0,21.9918270111084,-20.0
32,100,100,70,go_to_color_detect_up_from_pick_up,green,true,false,joint 1 +,true,2024-03-04 16:27:31.503444,16.31,0.157,233.1,292.8217468261719,106.57840728759766,84.64908599853516,0.0,20.0,51.0,0.04433741420507431,-20.0
32,100,100,70,go_to_color_detect_up_from_pick_up,green,true,false,joint 1 +,true,2024-03-04 16:27:32.892690,23.317,0.157,233.1,164.71888732910156,264.5210876464844,84.958251953125,38.08922576904297,58.81250762939453,51.0,0.0,-20.0
32,100,100,70,go_to_color_detect_down,green,true,false,joint 3 +,true,2024-03-04 16:27:33.584631,22.348,0.208,233.1,129.5434112548828,277.8067321777344,46.61455154418945,45.0,65.0,51.0,16.23999786376953,-20.0
32,100,100,70,go_to_color_detect_up_from_color_detect_down,green,true,false,joint 3 -,false,2024-03-04 16:27:35.014282,22.007,0.208,233.1,111.33187866210938,238.75196838378906,-23.871063232421875,45.0,65.0,51.0,47.599998474121094,-20.0
32,100,100,70,go_to_color_detect_up_from_color_detect_down,green,true,false,joint 3 -,false,2024-03-04 16:27:35.703374,22.007,0.183,233.1,131.6209259033203,282.2619934082031,77.82721710205078,45.0,65.0,51.0,2.329254150390625,-20.0
32,100,100,70,detecting_color,green,false,false,detecting_color,false,2024-03-04 16:27:36.391389,17.051,0.183,233.1,131.69407653808594,282.4188232421875,84.958251953125,45.0,65.0,51.0,-4.656612873077393e-10,-20.0
32,100,100,70,go_to_color_detect_down,green,true,false,joint 3 +,false,2024-03-04 16:27:37.769061,16.367,0.159,233.1,131.4761962890625,281.95159912109375,72.65760803222656,45.0,65.0,51.0,5.439999103546143,-20.0
32,100,100,70,go_to_color_detect_down,green,true,false,joint 3 +,false,2024-03-04 16:27:38.463510,16.177,0.159,233.1,111.67813110351562,239.4945068359375,-23.121429443359375,45.0,65.0,51.0,47.53843688964844,-20.0
32,100,100,70,go_to_color_detect_up_from_color_detect_down,green,true,false,joint 3 -,true,2024-03-04 16:27:39.842985,18.437,0.194,233.1,128.32533264160156,275.1945495605469,37.209197998046875,45.0,65.0,51.0,17.74359893798828,-20.0
32,100,100,70,go_to_blue_up,blue,true,false,joint 1 +,true,2024-03-04 16:27:40.526445,23.203,0.194,233.1,89.02467346191406,298.62744140625,84.958251953125,53.40000915527344,74.24000549316406,51.0,-4.656612873077393e-10,-20.0
32,100,100,70,go_to_pick_up_from_blue,blue,true,false,joint 1 -,false,2024-03-04 16:27:41.898976,22.329,0.205,233.1,72.21610260009766,303.13128662109375,84.958251953125,56.59999084472656,75.75999450683594,51.0,-4.656612873077393e-10,-20.0
32,100,100,70,go_to_pick_up_from_blue,blue,true,false,joint 1 -,false,2024-03-04 16:27:42.587187,16.69,0.205,233.1,290.8819274902344,111.7651138305664,84.958251953125,1.0181941986083984,20.753292083740234,51.0,-4.656612873077393e-10,-20.0
32,100,100,70,moving_belt,blue,false,true,joint 1 -,false,2024-03-04 16:27:43.984635,16.462,0.158,233.1,292.8220520019531,106.5785140991211,84.958251953125,0.0,20.0,51.0,-4.656612873077393e-10,-20.0
32,100,100,70,moving_belt,blue,false,true,joint 1 -,false,2024-03-04 16:27:44.697578,16.462,0.158,233.1,292.8220520019531,106.5785140991211,84.958251953125,0.0,20.0,51.0,-4.656612873077393e-10,-20.0
32,100,100,70,moving_belt,blue,false,true,joint 1 -,false,2024-03-04 16:27:45.386111,15.968,0.158,233.1,292.8220520019531,106.5785140991211,84.958251953125,0.0,20.0,51.0,-4.656612873077393e-10,-20.0
32,100,100,70,go_to_pick_down,blue,true,false,joint 3 +,false,2024-03-04 16:27:46.769287,16.272,0.157,233.1,292.8220520019531,106.5785140991211,84.958251953125,0.0,20.0,51.0,-4.656612873077393e-10,-20.0
32,100,100,70,go_to_pick_up_from_pick_down,blue,true,false,joint 3 -,true,2024-03-04 16:27:47.457872,16.234,0.157,233.1,282.77099609375,102.92022705078125,29.9105224609375,0.0,20.0,51.0,22.0,-20.0
32,100,100,70,go_to_color_detect_up_from_pick_up,blue,true,false,joint 1 +,true,2024-03-04 16:27:48.834233,20.431,0.166,233.1,292.59820556640625,107.19156646728516,84.958251953125,0.12000083923339844,20.240001678466797,51.0,0.0,-20.0
32,100,100,70,go_to_color_detect_up_from_pick_up,blue,true,false,joint 1 +,true,2024-03-04 16:27:49.527533,22.215,0.166,233.1,158.1761474609375,268.48468017578125,84.958251953125,39.49578857421875,60.139068603515625,51.0,0.0,-20.0
32,100,100,70,go_to_color_detect_down,blue,true,false,joint 3 +,true,2024-03-04 16:27:50.907153,22.348,0.206,233.1,126.41095733642578,271.08917236328125,25.637104034423828,45.0,65.0,51.0,25.171276092529297,-20.0
32,100,100,70,go_to_color_detect_up_from_color_detect_down,blue,true,false,joint 3 -,false,2024-03-04 16:27:51.597791,21.741,0.206,233.1,112.5685043334961,241.4039306640625,-21.14051055908203,45.0,65.0,51.0,45.79999542236328,-20.0
32,100,100,70,go_to_color_detect_up_from_color_detect_down,blue,true,false,joint 3 -,false,2024-03-04 16:27:52.974887,20.772,0.16,233.1,131.6209259033203,282.2619934082031,77.82721710205078,45.0,65.0,51.0,2.329254150390625,-20.0
32,100,100,70,detecting_color,blue,false,false,detecting_color,false,2024-03-04 16:27:53.661909,16.975,0.16,233.1,131.69407653808594,282.4188232421875,84.958251953125,45.0,65.0,51.0,-4.656612873077393e-10,-20.0
32,100,100,70,go_to_color_detect_down,blue,true,false,joint 3 +,false,2024-03-04 16:27:55.032257,16.31,0.157,233.1,131.4761962890625,281.95159912109375,72.65760803222656,45.0,65.0,51.0,5.439999103546143,-20.0
32,100,100,70,go_to_color_detect_down,blue,true,false,joint 3 +,false,2024-03-04 16:27:55.720716,16.31,0.157,233.1,111.67813110351562,239.4945068359375,-23.121429443359375,45.0,65.0,51.0,47.53843688964844,-20.0
32,100,100,70,go_to_color_detect_up_from_color_detect_down,blue,true,false,joint 3 -,true,2024-03-04 16:27:56.411405,16.329,0.157,233.1,130.27099609375,279.3670349121094,53.674888610839844,45.0,65.0,51.0,11.315911293029785,-20.0
32,100,100,70,go_to_red_up,red,true,false,joint 1 +,true,2024-03-04 16:27:57.788003,22.367,0.214,233.1,84.63713073730469,299.9004821777344,84.958251953125,54.24000549316406,75.12000274658203,51.0,-4.656612873077393e-10,-20.0
32,100,100,70,go_to_red_up,red,true,false,joint 1 +,true,2024-03-04 16:27:58.521894,22.367,0.214,233.1,-178.3797149658203,255.50814819335938,84.958251953125,104.92032623291016,124.97871398925781,51.0,-4.656612873077393e-10,-20.0
32,100,100,70,go_to_pick_up_from_red,red,true,false,joint 1 -,false,2024-03-04 16:27:59.900596,19.196,0.209,233.1,15.43961238861084,311.23199462890625,84.958251953125,67.15999603271484,85.39999389648438,51.0,-4.656612873077393e-10,-20.0
32,100,100,70,go_to_pick_up_from_red,red,true,false,joint 1 -,false,2024-03-04 16:28:00.593778,19.196,0.209,233.1,288.0606689453125,118.8476791381836,84.958251953125,2.419994354248047,21.9999942779541,51.0,-4.656612873077393e-10,-20.0
32,100,100,70,moving_belt,red,false,true,joint 1 -,false,2024-03-04 16:28:01.984478,16.424,0.158,233.1,292.8220520019531,106.5785140991211,84.958251953125,0.0,20.0,51.0,-4.656612873077393e-10,-20.0
32,100,100,70,moving_belt,red,false,true,joint 1 -,false,2024-03-04 16:28:02.684137,16.386,0.158,233.1,292.8220520019531,106.5785140991211,84.958251953125,0.0,20.0,51.0,-4.656612873077393e-10,-20.0
32,100,100,70,moving_belt,red,false,true,joint 1 -,false,2024-03-04 16:28:03.388322,16.386,0.158,233.1,292.8220520019531,106.5785140991211,84.958251953125,0.0,20.0,51.0,-4.656612873077393e-10,-20.0
32,100,100,70,go_to_pick_down,red,true,false,joint 3 +,false,2024-03-04 16:28:04.761435,15.949,0.156,233.1,292.8220520019531,106.5785140991211,84.958251953125,0.0,20.0,51.0,-4.656612873077393e-10,-20.0
32,100,100,70,go_to_pick_up_from_pick_down,red,true,false,joint 3 -,true,2024-03-04 16:28:05.468037,15.949,0.156,233.1,282.77099609375,102.92022705078125,29.9105224609375,0.0,20.0,51.0,22.0,-20.0
32,100,100,70,go_to_color_detect_up_from_pick_up,red,true,false,joint 1 +,true,2024-03-04 16:28:06.927157,23.317,0.156,233.1,292.8217468261719,106.57840728759766,84.64908599853516,0.0,20.0,51.0,0.04433741420507431,-20.0
32,100,100,70,go_to_color_detect_up_from_pick_up,red,true,false,joint 1 +,true,2024-03-04 16:28:07.682360,23.317,0.156,233.1,164.71888732910156,264.5210876464844,84.958251953125,38.08922576904297,58.81250762939453,51.0,0.0,-20.0
32,100,100,70,go_to_color_detect_down,red,true,false,joint 3 +,true,2024-03-04 16:28:08.503445,22.102,0.206,233.1,129.5434112548828,277.8067321777344,46.61455154418945,45.0,65.0,51.0,16.23999786376953,-20.0
32,100,100,70,go_to_color_detect_up_from_color_detect_down,red,true,false,joint 3 -,false,2024-03-04 16:28:09.325653,21.95,0.206,233.1,112.5685043334961,241.4039306640625,-21.14051055908203,45.0,65.0,51.0,45.79999542236328,-20.0
32,100,100,70,go_to_color_detect_up_from_color_detect_down,red,true,false,joint 3 -,false,2024-03-04 16:28:10.962698,16.69,0.205,233.1,131.6209259033203,282.2619934082031,77.82721710205078,45.0,65.0,51.0,2.329254150390625,-20.0
32,100,100,70,detecting_color,red,false,false,detecting_color,false,2024-03-04 16:28:11.711759,16.69,0.205,233.1,131.69407653808594,282.4188232421875,84.958251953125,45.0,65.0,51.0,-4.656612873077393e-10,-20.0
32,100,100,70,go_to_color_detect_down,red,true,false,joint 3 +,false,2024-03-04 16:28:12.398914,16.158,0.156,233.1,131.3400115966797,281.6595458984375,69.28641510009766,45.0,65.0,51.0,6.839998722076416,-20.0
32,100,100,70,go_to_color_detect_down,red,true,false,joint 3 +,false,2024-03-04 16:28:13.776190,15.949,0.156,233.1,111.3722152709961,238.83848571777344,-23.7843017578125,45.0,65.0,51.0,47.840999603271484,-20.0
32,100,100,70,go_to_color_detect_up_from_color_detect_down,red,true,false,joint 3 -,true,2024-03-04 16:28:14.461373,16.937,0.157,233.1,129.11343383789062,276.8846435546875,43.03013229370117,45.0,65.0,51.0,15.441036224365234,-20.0
32,100,100,70,go_to_green_up,green,true,false,joint 1 +,true,2024-03-04 16:28:15.843437,23.203,0.157,233.1,80.0212173461914,301.16497802734375,84.958251953125,55.12000274658203,76.04000091552734,51.0,-4.656612873077393e-10,-20.0
32,100,100,70,go_to_pick_up_from_green,green,true,false,joint 1 -,false,2024-03-04 16:28:16.534554,22.045,0.207,233.1,-79.39026641845703,301.3319091796875,84.958251953125,84.75999450683594,104.59999084472656,51.0,-4.656612873077393e-10,-20.0
32,100,100,70,go_to_pick_up_from_green,green,true,false,joint 1 -,false,2024-03-04 16:28:17.914919,22.026,0.207,233.1,187.00885009765625,249.2617645263672,84.958251953125,33.12090301513672,51.513084411621094,51.0,-4.656612873077393e-10,-20.0
32,100,100,70,moving_belt,green,false,true,joint 1 -,false,2024-03-04 16:28:18.604944,16.443,0.207,233.1,292.8220520019531,106.5785140991211,84.958251953125,0.0,20.0,51.0,-4.656612873077393e-10,-20.0
32,100,100,70,moving_belt,green,false,true,joint 1 -,false,2024-03-04 16:28:19.981510,16.557,0.159,233.1,292.8220520019531,106.5785140991211,84.958251953125,0.0,20.0,51.0,-4.656612873077393e-10,-20.0
32,100,100,70,moving_belt,green,false,true,joint 1 -,false,2024-03-04 16:28:20.714507,16.557,0.159,233.1,292.8220520019531,106.5785140991211,84.958251953125,0.0,20.0,51.0,-4.656612873077393e-10,-20.0
32,100,100,70,moving_belt,green,false,true,joint 1 -,false,2024-03-04 16:28:21.403060,16.196,0.158,233.1,292.8220520019531,106.5785140991211,84.958251953125,0.0,20.0,51.0,-4.656612873077393e-10,-20.0
32,100,100,70,go_to_pick_down,green,true,false,joint 3 +,false,2024-03-04 16:28:22.777848,16.177,0.158,233.1,292.0347900390625,106.29197692871094,69.28641510009766,0.0,20.0,51.0,6.839999675750732,-20.0
32,100,100,70,go_to_pick_up_from_pick_down,green,true,false,joint 3 -,true,2024-03-04 16:28:23.462850,16.31,0.157,233.1,286.6444396972656,104.33004760742188,41.48917770385742,0.0,20.0,51.0,16.55999755859375,-20.0
32,100,100,70,go_to_color_detect_up_from_pick_up,green,true,false,joint 1 +,true,2024-03-04 16:28:24.836492,23.336,0.157,233.1,276.154052734375,144.369873046875,84.958251953125,7.600002288818359,28.400001525878906,51.0,0.0,-20.0
32,100,100,70,go_to_color_detect_down,green,true,false,joint 3 +,true,2024-03-04 16:28:25.525003,22.215,0.206,233.1,131.73558044433594,282.39947509765625,84.958251953125,44.9915771484375,65.0,51.0,0.0,-20.0
32,100,100,70,go_to_color_detect_down,green,true,false,joint 3 +,true,2024-03-04 16:28:26.937047,22.215,0.206,233.1,116.49774169921875,249.8302001953125,-11.367164611816406,45.0,65.0,51.0,41.67177963256836,-20.0
32,100,100,70,go_to_color_detect_up_from_color_detect_down,green,true,false,joint 3 -,false,2024-03-04 16:28:27.627351,21.836,0.204,233.1,120.45890808105469,258.324951171875,0.64251708984375,45.0,65.0,51.0,33.959999084472656,-20.0
32,100,100,70,detecting_color,green,false,false,detecting_color,false,2024-03-04 16:28:29.001924,17.981,0.204,233.1,131.69407653808594,282.4188232421875,84.958251953125,45.0,65.0,51.0,-4.656612873077393e-10,-20.0
32,100,100,70,detecting_color,green,false,false,detecting_color,false,2024-03-04 16:28:29.723730,16.519,0.158,233.1,131.69407653808594,282.4188232421875,84.958251953125,45.0,65.0,51.0,-4.656612873077393e-10,-20.0
32,100,100,70,go_to_color_detect_down,green,true,false,joint 3 +,false,2024-03-04 16:28:30.420725,16.519,0.158,233.1,128.44918823242188,275.4601745605469,38.07123947143555,45.0,65.0,51.0,19.839996337890625,-20.0
32,100,100,70,go_to_color_detect_up_from_color_detect_down,green,true,false,joint 3 -,true,2024-03-04 16:28:31.800890,16.177,0.158,233.1,111.81121826171875,239.7799072265625,-22.83026885986328,45.0,65.0,51.0,46.87999725341797,-20.0
32,100,100,70,go_to_color_detect_up_from_color_detect_down,green,true,false,joint 3 -,true,2024-03-04 16:28:32.486146,16.367,0.158,233.1,131.6714324951172,282.37030029296875,80.99049377441406,45.0,65.0,51.0,1.215409517288208,-20.0
32,100,100,70,go_to_blue_up,blue,true,false,joint 1 +,true,2024-03-04 16:28:33.859571,22.045,0.158,233.1,34.49768829345703,309.69927978515625,84.958251953125,63.64396667480469,83.95281982421875,51.0,-4.656612873077393e-10,-20.0
32,100,100,70,go_to_pick_up_from_blue,blue,true,false,joint 1 -,false,2024-03-04 16:28:34.548392,22.045,0.206,233.1,163.46697998046875,265.29656982421875,84.958251953125,38.3599967956543,56.87999725341797,51.0,-4.656612873077393e-10,-20.0
32,100,100,70,moving_belt,blue,false,true,joint 1 -,false,2024-03-04 16:28:35.928948,16.291,0.206,233.1,292.8220520019531,106.5785140991211,84.958251953125,0.0,20.0,51.0,-4.656612873077393e-10,-20.0
32,100,100,70,moving_belt,blue,false,true,joint 1 -,false,2024-03-04 16:28:36.617157,16.291,0.158,233.1,292.8220520019531,106.5785140991211,84.958251953125,0.0,20.0,51.0,-4.656612873077393e-10,-20.0
32,100,100,70,moving_belt,blue,false,true,joint 1 -,false,2024-03-04 16:28:38.005797,16.063,0.158,233.1,292.8220520019531,106.5785140991211,84.958251953125,0.0,20.0,51.0,-4.656612873077393e-10,-20.0
32,100,100,70,moving_belt,blue,false,true,joint 1 -,false,2024-03-04 16:28:38.693609,16.082,0.156,233.1,292.8220520019531,106.5785140991211,84.958251953125,0.0,20.0,51.0,-4.656612873077393e-10,-20.0
32,100,100,70,go_to_pick_down,blue,true,false,joint 3 +,false,2024-03-04 16:28:40.075715,16.253,0.156,233.1,292.4510803222656,106.44348907470703,74.1922378540039,0.0,20.0,51.0,4.800000190734863,-20.0
32,100,100,70,go_to_pick_up_from_pick_down,blue,true,false,joint 3 -,true,2024-03-04 16:28:40.813119,16.253,0.158,233.1,285.79046630859375,104.01922607421875,38.655242919921875,0.0,20.0,51.0,17.799997329711914,-20.0
32,100,100,70,go_to_color_detect_up_from_pick_up,blue,true,false,joint 1 +,true,2024-03-04 16:28:41.508971,16.329,0.158,233.1,276.154052734375,144.369873046875,84.958251953125,7.600002288818359,28.400001525878906,51.0,0.0,-20.0
32,100,100,70,go_to_color_detect_down,blue,true,false,joint 3 +,true,2024-03-04 16:28:42.888213,22.291,0.21,233.1,131.73558044433594,282.39947509765625,84.958251953125,44.9915771484375,65.0,51.0,0.0,-20.0
32,100,100,70,go_to_color_detect_down,blue,true,false,joint 3 +,true,2024-03-04 16:28:43.575171,22.291,0.21,233.1,119.38970947265625,256.03204345703125,-2.8599166870117188,45.0,65.0,51.0,37.61537170410156,-20.0
32,100,100,70,go_to_color_detect_up_from_color_detect_down,blue,true,false,joint 3 -,false,2024-03-04 16:28:44.989769,22.064,0.205,233.1,120.45890808105469,258.324951171875,0.64251708984375,45.0,65.0,51.0,33.959999084472656,-20.0
32,100,100,70,detecting_color,blue,false,false,detecting_color,false,2024-03-04 16:28:45.677007,17.127,0.205,233.1,131.69407653808594,282.4188232421875,84.958251953125,45.0,65.0,51.0,-4.656612873077393e-10,-20.0
32,100,100,70,detecting_color,blue,false,false,detecting_color,false,2024-03-04 16:28:47.055069,16.329,0.159,233.1,131.69407653808594,282.4188232421875,84.958251953125,45.0,65.0,51.0,-4.656612873077393e-10,-20.0
32,100,100,70,go_to_color_detect_down,blue,true,false,joint 3 +,false,2024-03-04 16:28:47.742048,16.329,0.159,233.1,128.44918823242188,275.4601745605469,38.07123947143555,45.0,65.0,51.0,19.839996337890625,-20.0
32,100,100,70,go_to_color_detect_up_from_color_detect_down,blue,true,false,joint 3 -,true,2024-03-04 16:28:48.429748,16.348,0.159,233.1,111.81121826171875,239.7799072265625,-22.83026885986328,45.0,65.0,51.0,46.87999725341797,-20.0
32,100,100,70,go_to_color_detect_up_from_color_detect_down,blue,true,false,joint 3 -,true,2024-03-04 16:28:49.804208,18.988,0.163,233.1,131.6714324951172,282.37030029296875,80.99049377441406,45.0,65.0,51.0,1.215409517288208,-20.0
32,100,100,70,go_to_red_up,red,true,false,joint 1 +,true,2024-03-04 16:28:50.491766,23.279,0.163,233.1,-8.91832447052002,311.4870910644531,84.958251953125,71.64000701904297,93.12001037597656,51.0,-4.656612873077393e-10,-20.0
32,100,100,70,go_to_pick_up_from_red,red,true,false,joint 1 -,false,2024-03-04 16:28:51.868011,22.272,0.207,233.1,-177.6640167236328,256.00628662109375,84.958251953125,104.75999450683594,124.59999084472656,51.0,-4.656612873077393e-10,-20.0
32,100,100,70,go_to_pick_up_from_red,red,true,false,joint 1 -,false,2024-03-04 16:28:52.556649,22.462,0.207,233.1,135.7223663330078,280.5052185058594,84.958251953125,44.17999267578125,62.31999206542969,51.0,-4.656612873077393e-10,-20.0
32,100,100,70,moving_belt,red,false,true,joint 1 -,false,2024-03-04 16:28:53.951554,16.538,0.16,233.1,292.8220520019531,106.5785140991211,84.958251953125,0.0,20.0,51.0,-4.656612873077393e-10,-20.0
32,100,100,70,moving_belt,red,false,true,joint 1 -,false,2024-03-04 16:28:54.649965,16.272,0.16,233.1,292.8220520019531,106.5785140991211,84.958251953125,0.0,20.0,51.0,-4.656612873077393e-10,-20.0
32,100,100,70,moving_belt,red,false,true,joint 1 -,false,2024-03-04 16:28:56.017788,16.12,0.156,233.1,292.8220520019531,106.5785140991211,84.958251953125,0.0,20.0,51.0,-4.656612873077393e-10,-20.0
32,100,100,70,moving_belt,red,false,true,joint 1 -,false,2024-03-04 16:28:56.707333,16.12,0.156,233.1,292.8220520019531,106.5785140991211,84.958251953125,0.0,20.0,51.0,-4.656612873077393e-10,-20.0
32,100,100,70,go_to_pick_down,red,true,false,joint 3 +,false,2024-03-04 16:28:57.403266,16.025,0.156,233.1,292.8186950683594,106.5772933959961,83.9320068359375,0.0,20.0,51.0,0.6000000238418579,-20.0
32,100,100,70,go_to_pick_up_from_pick_down,red,true,false,joint 3 -,true,2024-03-04 16:28:58.785861,16.234,0.157,233.1,284.3258056640625,103.48613739013672,34.19942092895508,0.0,20.0,51.0,19.799997329711914,-20.0
32,100,100,70,go_to_color_detect_up_from_pick_up,red,true,false,joint 1 +,true,2024-03-04 16:28:59.474061,18.912,0.157,233.1,290.0512390136719,113.90351104736328,84.958251953125,1.44000244140625,21.800003051757812,51.0,0.0,-20.0
32,100,100,70,go_to_color_detect_up_from_pick_up,red,true,false,joint 1 +,true,2024-03-04 16:29:00.864046,22.443,0.21,233.1,133.78451538085938,281.4346008300781,84.958251953125,44.575164794921875,64.73844909667969,51.0,0.0,-20.0
32,100,100,70,go_to_color_detect_down,red,true,false,joint 3 +,true,2024-03-04 16:29:01.549998,22.367,0.21,233.1,121.9303970336914,261.4805603027344,5.84765625,45.0,65.0,51.0,33.650245666503906,-20.0
32,100,100,70,go_to_color_detect_up_from_color_detect_down,red,true,false,joint 3 -,false,2024-03-04 16:29:02.929385,21.798,0.204,233.1,114.85627746582031,246.31007385253906,-15.670166015625,45.0,65.0,51.0,42.55999755859375,-20.0
32,100,100,70,go_to_color_detect_up_from_color_detect_down,red,true,false,joint 3 -,false,2024-03-04 16:29:03.617488,21.722,0.204,233.1,131.68978881835938,282.4096374511719,83.23200988769531,45.0,65.0,51.0,0.4615650475025177,-20.0
32,100,100,70,detecting_color,red,false,false,detecting_color,false,2024-03-04 16:29:04.992702,17.146,0.16,233.1,131.69407653808594,282.4188232421875,84.958251953125,45.0,65.0,51.0,-4.656612873077393e-10,-20.0
32,100,100,70,go_to_color_detect_down,red,true,false,joint 3 +,false,2024-03-04 16:29:05.681853,16.139,0.16,233.1,130.7275390625,280.3460998535156,59.12882995605469,45.0,65.0,51.0,11.039999008178711,-20.0
32,100,100,70,go_to_color_detect_up_from_color_detect_down,red,true,false,joint 3 -,true,2024-03-04 16:29:07.058013,16.177,0.157,233.1,111.33187866210938,238.75196838378906,-23.871063232421875,45.0,65.0,51.0,47.599998474121094,-20.0
32,100,100,70,go_to_color_detect_up_from_color_detect_down,red,true,false,joint 3 -,true,2024-03-04 16:29:07.748326,22.975,0.157,233.1,131.31553649902344,281.6070556640625,68.75533294677734,45.0,65.0,51.0,5.6369428634643555,-20.0
32,100,100,70,go_to_green_up,green,true,false,joint 1 +,true,2024-03-04 16:29:08.437018,22.975,0.157,233.1,47.45757293701172,307.979736328125,84.958251953125,61.24000549316406,82.40000915527344,51.0,-4.656612873077393e-10,-20.0
32,100,100,70,go_to_pick_up_from_green,green,true,false,joint 1 -,false,2024-03-04 16:29:09.816332,22.329,0.208,233.1,-55.182220458984375,306.6898498535156,84.958251953125,80.19999694824219,99.55999755859375,51.0,-4.656612873077393e-10,-20.0
32,100,100,70,go_to_pick_up_from_green,green,true,false,joint 1 -,false,2024-03-04 16:29:10.503577,22.329,0.208,233.1,254.1969757080078,180.24322509765625,84.958251953125,15.339275360107422,34.25145721435547,51.0,-4.656612873077393e-10,-20.0
32,100,100,70,moving_belt,green,false,true,joint 1 -,false,2024-03-04 16:29:11.884257,16.291,0.158,233.1,292.8220520019531,106.5785140991211,84.958251953125,0.0,20.0,51.0,-4.656612873077393e-10,-20.0
32,100,100,70,moving_belt,green,false,true,joint 1 -,false,2024-03-04 16:29:12.580560,16.291,0.158,233.1,292.8220520019531,106.5785140991211,84.958251953125,0.0,20.0,51.0,-4.656612873077393e-10,-20.0
32,100,100,70,moving_belt,green,false,true,joint 1 -,false,2024-03-04 16:29:13.954819,16.291,0.156,233.1,292.8220520019531,106.5785140991211,84.958251953125,0.0,20.0,51.0,-4.656612873077393e-10,-20.0
32,100,100,70,moving_belt,green,false,true,joint 1 -,false,2024-03-04 16:29:14.648747,16.158,0.156,233.1,292.8220520019531,106.5785140991211,84.958251953125,0.0,20.0,51.0,-4.656612873077393e-10,-20.0
32,100,100,70,go_to_pick_down,green,true,false,joint 3 +,false,2024-03-04 16:29:16.038342,16.234,0.157,233.1,288.4434509277344,104.98483276367188,48.24016571044922,0.0,20.0,51.0,15.220831871032715,-20.0
32,100,100,70,go_to_pick_up_from_pick_down,green,true,false,joint 3 -,true,2024-03-04 16:29:16.725280,16.234,0.157,233.1,291.0575866699219,105.93629455566406,61.53761291503906,0.0,20.0,51.0,8.331497192382812,-20.0
32,100,100,70,go_to_color_detect_up_from_pick_up,green,true,false,joint 1 +,true,2024-03-04 16:29:17.412214,16.88,0.157,233.1,264.2642517089844,165.1306610107422,84.958251953125,12.0,33.0,51.0,0.0,-20.0
32,100,100,70,go_to_color_detect_down,green,true,false,joint 3 +,true,2024-03-04 16:29:18.830987,22.31,0.214,233.1,131.67445373535156,282.37677001953125,81.26412963867188,45.0,65.0,51.0,1.7999995946884155,-20.0
32,100,100,70,go_to_color_detect_down,green,true,false,joint 3 +,true,2024-03-04 16:29:19.515049,21.703,0.214,233.1,113.70602416992188,243.8433380126953,-18.492164611816406,45.0,65.0,51.0,45.21946716308594,-20.0
32,100,100,70,go_to_color_detect_up_from_color_detect_down,green,true,false,joint 3 -,false,2024-03-04 16:29:20.920885,21.779,0.203,233.1,124.34054565429688,266.6491394042969,15.583740234375,45.0,65.0,51.0,26.8800048828125,-20.0
32,100,100,70,detecting_color,green,false,false,detecting_color,false,2024-03-04 16:29:21.613569,16.918,0.203,233.1,131.69407653808594,282.4188232421875,84.958251953125,45.0,65.0,51.0,-4.656612873077393e-10,-20.0
32,100,100,70,detecting_color,green,false,false,detecting_color,false,2024-03-04 16:29:22.994135,16.063,0.163,233.1,131.69407653808594,282.4188232421875,84.958251953125,45.0,65.0,51.0,-4.656612873077393e-10,-20.0
32,100,100,70,go_to_color_detect_down,green,true,false,joint 3 +,false,2024-03-04 16:29:23.687037,16.063,0.163,233.1,120.64384460449219,258.7215576171875,1.2709426879882812,45.0,65.0,51.0,35.712806701660156,-20.0
32,100,100,70,go_to_color_detect_up_from_color_detect_down,green,true,false,joint 3 -,true,2024-03-04 16:29:25.066226,16.025,0.156,233.1,115.82393646240234,248.38522338867188,-13.174934387207031,45.0,65.0,51.0,41.159996032714844,-20.0
32,100,100,70,go_to_color_detect_up_from_color_detect_down,green,true,false,joint 3 -,true,2024-03-04 16:29:25.760068,21.323,0.156,233.1,131.69383239746094,282.4183349609375,84.55030822753906,45.0,65.0,51.0,0.06772007793188095,-20.0
32,100,100,70,go_to_pick_up_from_blue,blue,true,false,joint 1 -,false,2024-03-04 16:29:26.447335,22.766,0.211,233.1,27.159029006958008,310.4289245605469,84.958251953125,65.0,84.95999908447266,51.0,-4.656612873077393e-10,-20.0
32,100,100,70,go_to_pick_up_from_blue,blue,true,false,joint 1 -,false,2024-03-04 16:29:27.819943,22.064,0.211,233.1,231.7724609375,208.29129028320312,84.958251953125,21.945674896240234,40.640769958496094,51.0,-4.656612873077393e-10,-20.0
32,100,100,70,moving_belt,blue,false,true,joint 1 -,false,2024-03-04 16:29:28.514857,16.215,0.158,233.1,292.8220520019531,106.5785140991211,84.958251953125,0.0,20.0,51.0,-4.656612873077393e-10,-20.0
32,100,100,70,moving_belt,blue,false,true,joint 1 -,false,2024-03-04 16:29:29.888562,16.253,0.158,233.1,292.8220520019531,106.5785140991211,84.958251953125,0.0,20.0,51.0,-4.656612873077393e-10,-20.0
32,100,100,70,moving_belt,blue,false,true,joint 1 -,false,2024-03-04 16:29:30.576262,16.253,0.158,233.1,292.8220520019531,106.5785140991211,84.958251953125,0.0,20.0,51.0,-4.656612873077393e-10,-20.0
32,100,100,70,moving_belt,blue,false,true,joint 1 -,false,2024-03-04 16:29:31.960309,16.139,0.156,233.1,292.8220520019531,106.5785140991211,84.958251953125,0.0,20.0,51.0,-4.656612873077393e-10,-20.0
32,100,100,70,go_to_pick_down,blue,true,false,joint 3 +,false,2024-03-04 16:29:32.651037,16.253,0.156,233.1,289.3720397949219,105.32281494140625,52.30973434448242,0.0,20.0,51.0,13.668498992919922,-20.0
32,100,100,70,go_to_pick_up_from_pick_down,blue,true,false,joint 3 -,true,2024-03-04 16:29:34.028470,16.253,0.156,233.1,289.86334228515625,105.50163269042969,54.69645690917969,0.0,20.0,51.0,10.959996223449707,-20.0
32,100,100,70,go_to_color_detect_up_from_pick_up,blue,true,false,joint 1 +,true,2024-03-04 16:29:34.716784,22.861,0.156,233.1,271.9091491699219,152.21412658691406,84.958251953125,9.240001678466797,30.1200008392334,51.0,0.0,-20.0
32,100,100,70,go_to_color_detect_down,blue,true,false,joint 3 +,true,2024-03-04 16:29:36.092380,22.177,0.205,233.1,131.69407653808594,282.4188232421875,84.958251953125,45.0,65.0,51.0,0.0,-20.0
32,100,100,70,go_to_color_detect_down,blue,true,false,joint 3 +,true,2024-03-04 16:29:36.783201,22.177,0.205,233.1,115.47264099121094,247.63186645507812,-14.094192504882812,45.0,65.0,51.0,43.01434326171875,-20.0
32,100,100,70,go_to_color_detect_up_from_color_detect_down,blue,true,false,joint 3 -,false,2024-03-04 16:29:37.470138,21.76,0.203,233.1,125.61415100097656,269.3804016113281,21.534198760986328,45.0,65.0,51.0,24.20000457763672,-20.0
32,100,100,70,detecting_color,blue,false,false,detecting_color,false,2024-03-04 16:29:38.842132,18.323,0.203,233.1,131.69407653808594,282.4188232421875,84.958251953125,45.0,65.0,51.0,-4.656612873077393e-10,-20.0
32,100,100,70,detecting_color,blue,false,false,detecting_color,false,2024-03-04 16:29:39.560594,16.538,0.158,233.1,131.69407653808594,282.4188232421875,84.958251953125,45.0,65.0,51.0,-4.656612873077393e-10,-20.0
32,100,100,70,go_to_color_detect_down,blue,true,false,joint 3 +,false,2024-03-04 16:29:40.945337,16.215,0.158,233.1,123.23137664794922,264.2705383300781,10.889289855957031,45.0,65.0,51.0,31.427682876586914,-20.0
32,100,100,70,go_to_color_detect_up_from_color_detect_down,blue,true,false,joint 3 -,true,2024-03-04 16:29:41.634121,16.215,0.158,233.1,114.85627746582031,246.31007385253906,-15.670166015625,45.0,65.0,51.0,42.55999755859375,-20.0
32,100,100,70,go_to_color_detect_up_from_color_detect_down,blue,true,false,joint 3 -,true,2024-03-04 16:29:43.014074,23.279,0.158,233.1,131.68978881835938,282.4096374511719,83.23200988769531,45.0,65.0,51.0,0.4615650475025177,-20.0
32,100,100,70,go_to_red_up,red,true,false,joint 1 +,true,2024-03-04 16:29:43.709011,22.064,0.158,233.1,-78.38388061523438,301.59527587890625,84.958251953125,84.56871795654297,105.82710266113281,51.0,-4.656612873077393e-10,-20.0
32,100,100,70,go_to_pick_up_from_red,red,true,false,joint 1 -,false,2024-03-04 16:29:45.080238,22.443,0.205,233.1,-162.16848754882812,266.09228515625,84.958251953125,101.35999298095703,120.79999542236328,51.0,-4.656612873077393e-10,-20.0
32,100,100,70,go_to_pick_up_from_red,red,true,false,joint 1 -,false,2024-03-04 16:29:45.767561,17.355,0.205,233.1,184.8305206298828,250.88125610351562,84.958251953125,33.619991302490234,51.99999237060547,51.0,-4.656612873077393e-10,-20.0
32,100,100,70,moving_belt,red,false,true,joint 1 -,false,2024-03-04 16:29:46.454963,17.355,0.158,233.1,292.8220520019531,106.5785140991211,84.958251953125,0.0,20.0,51.0,-4.656612873077393e-10,-20.0
32,100,100,70,moving_belt,red,false,true,joint 1 -,false,2024-03-04 16:29:47.828530,16.31,0.158,233.1,292.8220520019531,106.5785140991211,84.958251953125,0.0,20.0,51.0,-4.656612873077393e-10,-20.0
32,100,100,70,moving_belt,red,false,true,joint 1 -,false,2024-03-04 16:29:48.523822,16.462,0.158,233.1,292.8220520019531,106.5785140991211,84.958251953125,0.0,20.0,51.0,-4.656612873077393e-10,-20.0
32,100,100,70,moving_belt,red,false,true,joint 1 -,false,2024-03-04 16:29:49.900566,16.082,0.158,233.1,292.8220520019531,106.5785140991211,84.958251953125,0.0,20.0,51.0,-4.656612873077393e-10,-20.0
32,100,100,70,go_to_pick_down,red,true,false,joint 3 +,false,2024-03-04 16:29:50.602111,16.196,0.156,233.1,292.19989013671875,106.35206604003906,71.02216339111328,0.0,20.0,51.0,6.119999885559082,-20.0
32,100,100,70,go_to_pick_up_from_pick_down,red,true,false,joint 3 -,true,2024-03-04 16:29:52.048339,16.234,0.156,233.1,287.09246826171875,104.49311828613281,43.060420989990234,0.0,20.0,51.0,15.879997253417969,-20.0
32,100,100,70,go_to_color_detect_up_from_pick_up,red,true,false,joint 1 +,true,2024-03-04 16:29:52.738656,23.602,0.215,233.1,271.9091491699219,152.21412658691406,84.958251953125,9.240001678466797,30.1200008392334,51.0,0.0,-20.0
32,100,100,70,go_to_color_detect_down,red,true,false,joint 3 +,true,2024-03-04 16:29:53.430536,23.602,0.215,233.1,131.69407653808594,282.4188232421875,84.958251953125,45.0,65.0,51.0,0.0,-20.0
32,100,100,70,go_to_color_detect_down,red,true,false,joint 3 +,true,2024-03-04 16:29:54.828789,22.823,0.21,233.1,118.77991485595703,254.72433471679688,-4.7643280029296875,45.0,65.0,51.0,38.50665283203125,-20.0
32,100,100,70,go_to_color_detect_up_from_color_detect_down,red,true,false,joint 3 -,false,2024-03-04 16:29:55.525468,22.937,0.21,233.1,121.74224090576172,261.0770568847656,5.154693603515625,45.0,65.0,51.0,31.76000213623047,-20.0
32,100,100,70,detecting_color,red,false,false,detecting_color,false,2024-03-04 16:29:56.908769,16.842,0.164,233.1,131.69407653808594,282.4188232421875,84.958251953125,45.0,65.0,51.0,-4.656612873077393e-10,-20.0
32,100,100,70,detecting_color,red,false,false,detecting_color,false,2024-03-04 16:29:57.595672,16.443,0.164,233.1,131.69407653808594,282.4188232421875,84.958251953125,45.0,65.0,51.0,-4.656612873077393e-10,-20.0
32,100,100,70,go_to_color_detect_down,red,true,false,joint 3 +,false,2024-03-04 16:29:58.979159,16.291,0.158,233.1,127.52101135253906,273.4696960449219,31.990859985351562,45.0,65.0,51.0,22.43999481201172,-20.0
32,100,100,70,go_to_color_detect_up_from_color_detect_down,red,true,false,joint 3 -,true,2024-03-04 16:29:59.671005,16.291,0.158,233.1,113.9860610961914,244.44387817382812,-17.81891632080078,45.0,65.0,51.0,43.79999542236328,-20.0
32,100,100,70,go_to_color_detect_up_from_color_detect_down,red,true,false,joint 3 -,true,2024-03-04 16:30:01.048568,23.81,0.22,233.1,131.68008422851562,282.38885498046875,81.8401870727539,45.0,65.0,51.0,0.9241280555725098,-20.0
32,100,100,70,go_to_green_up,green,true,false,joint 1 +,true,2024-03-04 16:30:01.738416,23.81,0.22,233.1,-9.456132888793945,311.4712219238281,84.958251953125,71.73893737792969,92.7487564086914,51.0,-4.656612873077393e-10,-20.0
32,100,100,70,go_to_pick_up_from_green,green,true,false,joint 1 -,false,2024-03-04 16:30:03.118338,23.108,0.187,233.1,-16.308650970458984,311.1876525878906,84.958251953125,73.0,92.0,51.0,-4.656612873077393e-10,-20.0
32,100,100,70,go_to_pick_up_from_green,green,true,false,joint 1 -,false,2024-03-04 16:30:03.806523,23.108,0.187,233.1,275.75811767578125,145.124755859375,84.958251953125,7.756734848022461,26.988916397094727,51.0,-4.656612873077393e-10,-20.0
32,100,100,70,moving_belt,green,false,true,joint 1 -,false,2024-03-04 16:30:04.497553,16.519,0.187,233.1,292.8220520019531,106.5785140991211,84.958251953125,0.0,20.0,51.0,-4.656612873077393e-10,-20.0
32,100,100,70,moving_belt,green,false,true,joint 1 -,false,2024-03-04 16:30:05.875227,16.538,0.159,233.1,292.8220520019531,106.5785140991211,84.958251953125,0.0,20.0,51.0,-4.656612873077393e-10,-20.0
32,100,100,70,moving_belt,green,false,true,joint 1 -,false,2024-03-04 16:30:06.585369,16.158,0.159,233.1,292.8220520019531,106.5785140991211,84.958251953125,0.0,20.0,51.0,-4.656612873077393e-10,-20.0
32,100,100,70,moving_belt,green,false,true,joint 1 -,false,2024-03-04 16:30:07.965963,16.291,0.156,233.1,292.8220520019531,106.5785140991211,84.958251953125,0.0,20.0,51.0,-4.656612873077393e-10,-20.0
32,100,100,70,go_to_pick_down,green,true,false,joint 3 +,false,2024-03-04 16:30:08.653957,16.291,0.156,233.1,284.0044860839844,103.36918640136719,33.279571533203125,0.0,20.0,51.0,20.89866065979004,-20.0
32,100,100,70,go_to_pick_up_from_pick_down,green,true,false,joint 3 -,true,2024-03-04 16:30:10.089752,22.69,0.168,233.1,292.7230224609375,106.54247283935547,79.39258575439453,0.0,20.0,51.0,1.7736676931381226,-20.0
32,100,100,70,go_to_color_detect_up_from_pick_up,green,true,false,joint 1 +,true,2024-03-04 16:30:10.794307,22.69,0.168,233.1,225.04928588867188,215.5377960205078,84.958251953125,23.76327896118164,45.04656219482422,51.0,0.0,-20.0
32,100,100,70,go_to_color_detect_down,green,true,false,joint 3 +,true,2024-03-04 16:30:11.485861,22.121,0.168,233.1,131.2519073486328,281.4706115722656,67.45097351074219,45.0,65.0,51.0,7.599998474121094,-20.0
32,100,100,70,go_to_color_detect_down,green,true,false,joint 3 +,true,2024-03-04 16:30:12.864577,21.874,0.207,233.1,111.26680755615234,238.6124267578125,-24.010658264160156,45.0,65.0,51.0,47.932281494140625,-20.0
32,100,100,70,go_to_color_detect_up_from_color_detect_down,green,true,false,joint 3 -,false,2024-03-04 16:30:13.552385,21.874,0.207,233.1,129.45167541503906,277.6099853515625,45.82000732421875,45.0,65.0,51.0,14.349754333496094,-20.0
32,100,100,70,detecting_color,green,false,false,detecting_color,false,2024-03-04 16:30:14.931833,16.766,0.163,233.1,131.69407653808594,282.4188232421875,84.958251953125,45.0,65.0,51.0,-4.656612873077393e-10,-20.0
32,100,100,70,go_to_color_detect_down,green,true,false,joint 3 +,false,2024-03-04 16:30:15.621104,16.766,0.163,233.1,131.69407653808594,282.4188232421875,84.958251953125,45.0,65.0,51.0,0.03999999165534973,-20.0
32,100,100,70,go_to_color_detect_down,green,true,false,joint 3 +,false,2024-03-04 16:30:17.012762,16.329,0.157,233.1,114.53912353515625,245.6299285888672,-16.463424682617188,45.0,65.0,51.0,44.19690704345703,-20.0
32,100,100,70,go_to_color_detect_up_from_color_detect_down,green,true,false,joint 3 -,true,2024-03-04 16:30:17.705816,16.215,0.157,233.1,123.6932373046875,265.260986328125,12.795387268066406,45.0,65.0,51.0,28.160003662109375,-20.0
32,100,100,70,go_to_blue_up,blue,true,false,joint 1 +,true,2024-03-04 16:30:19.087632,23.298,0.215,233.1,126.14859008789062,284.9390563964844,84.958251953125,46.12000274658203,66.44000244140625,51.0,-4.656612873077393e-10,-20.0
32,100,100,70,go_to_pick_up_from_blue,blue,true,false,joint 1 -,false,2024-03-04 16:30:19.775177,22.31,0.215,233.1,49.821346282958984,307.606201171875,84.958251953125,60.79999542236328,80.19999694824219,51.0,-4.656612873077393e-10,-20.0
32,100,100,70,go_to_pick_up_from_blue,blue,true,false,joint 1 -,false,2024-03-04 16:30:20.469160,20.715,0.215,233.1,278.699462890625,139.3927459716797,84.958251953125,6.5721282958984375,25.867225646972656,51.0,-4.656612873077393e-10,-20.0
32,100,100,70,moving_belt,blue,false,true,joint 1 -,false,2024-03-04 16:30:21.844364,16.386,0.164,233.1,292.8220520019531,106.5785140991211,84.958251953125,0.0,20.0,51.0,-4.656612873077393e-10,-20.0
32,100,100,70,moving_belt,blue,false,true,joint 1 -,false,2024-03-04 16:30:22.531947,16.386,0.164,233.1,292.8220520019531,106.5785140991211,84.958251953125,0.0,20.0,51.0,-4.656612873077393e-10,-20.0
32,100,100,70,moving_belt,blue,false,true,joint 1 -,false,2024-03-04 16:30:23.914541,16.31,0.155,233.1,292.8220520019531,106.5785140991211,84.958251953125,0.0,20.0,51.0,-4.656612873077393e-10,-20.0
32,100,100,70,moving_belt,blue,false,true,joint 1 -,false,2024-03-04 16:30:24.608744,16.31,0.155,233.1,292.8220520019531,106.5785140991211,84.958251953125,0.0,20.0,51.0,-4.656612873077393e-10,-20.0
32,100,100,70,go_to_pick_down,blue,true,false,joint 3 +,false,2024-03-04 16:30:26.028836,16.196,0.156,233.1,283.49554443359375,103.18394470214844,31.859657287597656,0.0,20.0,51.0,21.410993576049805,-20.0
32,100,100,70,go_to_pick_up_from_pick_down,blue,true,false,joint 3 -,true,2024-03-04 16:30:26.723911,16.044,0.156,233.1,292.7965393066406,106.56922149658203,82.13280487060547,0.0,20.0,51.0,0.825168788433075,-20.0
32,100,100,70,go_to_color_detect_up_from_pick_up,blue,true,false,joint 1 +,true,2024-03-04 16:30:28.109274,23.013,0.212,233.1,205.84426879882812,233.94842529296875,84.958251953125,28.65640640258789,49.77968978881836,51.0,0.0,-20.0
32,100,100,70,go_to_color_detect_down,blue,true,false,joint 3 +,true,2024-03-04 16:30:28.796519,21.988,0.212,233.1,130.7275390625,280.3460998535156,59.12882995605469,45.0,65.0,51.0,11.039999008178711,-20.0
32,100,100,70,go_to_color_detect_up_from_color_detect_down,blue,true,false,joint 3 -,false,2024-03-04 16:30:29.489924,21.779,0.203,233.1,111.13883972167969,238.33799743652344,-24.284042358398438,45.0,65.0,51.0,48.0,-20.0
32,100,100,70,go_to_color_detect_up_from_color_detect_down,blue,true,false,joint 3 -,false,2024-03-04 16:30:30.862562,21.76,0.203,233.1,130.48638916015625,279.8289489746094,56.1141357421875,45.0,65.0,51.0,10.38463020324707,-20.0
32,100,100,70,detecting_color,blue,false,false,detecting_color,false,2024-03-04 16:30:31.549529,16.956,0.163,233.1,131.69407653808594,282.4188232421875,84.958251953125,45.0,65.0,51.0,-4.656612873077393e-10,-20.0
32,100,100,70,go_to_color_detect_down,blue,true,false,joint 3 +,false,2024-03-04 16:30:32.927391,16.253,0.163,233.1,131.69256591796875,282.41558837890625,83.9320068359375,45.0,65.0,51.0,0.5999999046325684,-20.0
32,100,100,70,go_to_color_detect_down,blue,true,false,joint 3 +,false,2024-03-04 16:30:33.618848,16.253,0.163,233.1,115.47264099121094,247.63186645507812,-14.094192504882812,45.0,65.0,51.0,43.01434326171875,-20.0
32,100,100,70,go_to_color_detect_up_from_color_detect_down,blue,true,false,joint 3 -,true,2024-03-04 16:30:35.000036,19.69,0.156,233.1,125.61415100097656,269.3804016113281,21.534198760986328,45.0,65.0,51.0,24.20000457763672,-20.0
32,100,100,70,go_to_red_up,red,true,false,joint 1 +,true,2024-03-04 16:30:35.691722,19.69,0.156,233.1,122.75809478759766,286.4161071777344,84.958251953125,46.80000305175781,67.20000457763672,51.0,-4.656612873077393e-10,-20.0
