demetriskallis/dobot_magician_pick_and_place_and_color_sorting/Sampling/WholeSystemExperiments_training_data/payload_32g/joint_measurements__armv_100_arma_60_belts_60_cube_32g.csv
cube/weight,arm/velocity_ratio,arm/acceleration_ratio,belt/speed,dobot/operation,dobot/color,dobot/moving_arm,dobot/moving_belt,dobot/operation2,dobot/suction,meross/sample_timestamp,meross/power,meross/current,meross/voltage,dobot/pose_x,dobot/pose_y,dobot/pose_z,dobot/pose_rHead,dobot/pose_joint1Angle,dobot/pose_joint2Angle,dobot/pose_joint3Angle,dobot/pose_joint4Angle
32,100,60,60,homing,,,,homing,,,,,,190.7860870361328,73.71967315673828,64.97600555419922,1.1265144348144531,20.72651481628418,6.43325662612915,28.07135581970215,-20.0
32,100,60,60,homing,,,,homing,,,,,,204.4178009033203,6.875978469848633,64.97600555419922,-18.073474884033203,1.5265252590179443,6.43325662612915,28.07135581970215,-20.0
32,100,60,60,homing,,,,homing,,,,,,195.3086395263672,-60.732666015625,64.97600555419922,-37.273468017578125,-17.6734676361084,6.43325662612915,28.07135581970215,-20.0
32,100,60,60,homing,,,,homing,,2024-03-04 13:08:59.844333,16.272,0.152,236.8,159.2361602783203,-128.36575317382812,64.97600555419922,-58.87348175048828,-39.27348327636719,6.43325662612915,28.07135581970215,-20.0
32,100,60,60,homing,,,,homing,,2024-03-04 13:09:00.533762,16.272,0.152,236.8,108.1634292602539,-173.59317016601562,64.97600555419922,-78.07355499267578,-58.47355651855469,6.43325662612915,28.07135581970215,-20.0
32,100,60,60,homing,,,,homing,,2024-03-04 13:09:01.910752,16.291,0.156,236.8,45.0577392578125,-199.50869750976562,64.97600555419922,-97.27362823486328,-77.67362976074219,6.43325662612915,28.07135581970215,-20.0
32,100,60,60,homing,,,,homing,,2024-03-04 13:09:02.620953,16.31,0.156,236.8,-31.55074119567871,-202.08529663085938,64.97600555419922,-118.87371063232422,-99.27371215820312,6.43325662612915,28.07135581970215,-20.0
32,100,60,60,homing,,,,homing,,2024-03-04 13:09:03.314649,16.158,0.155,236.8,-96.25508880615234,-180.46847534179688,64.97600555419922,-138.07379150390625,-118.47378540039062,6.43325662612915,28.07135581970215,-20.0
32,100,60,60,homing,,,,homing,,2024-03-04 13:09:04.709229,16.272,0.155,236.8,-148.2002410888672,-140.96315002441406,64.97600555419922,-156.43368530273438,-136.41368103027344,6.43325662612915,28.07135581970215,-20.0
32,100,60,60,homing,,,,homing,,2024-03-04 13:09:05.395069,16.272,0.155,236.8,-145.51638793945312,-143.7320556640625,64.97600555419922,-155.35345458984375,-135.3334503173828,6.43325662612915,28.07135581970215,-20.0
32,100,60,60,homing,,,,homing,,2024-03-04 13:09:06.788022,16.215,0.155,236.8,-116.54865264892578,-171.38731384277344,62.688568115234375,-143.2622833251953,-123.70091247558594,8.097430229187012,28.915193557739258,-18.999914169311523
32,100,60,60,homing,,,,homing,,2024-03-04 13:09:07.480741,16.139,0.155,236.8,-21.708486557006836,-215.4749298095703,53.89716339111328,-111.4238510131836,-95.1529769897461,13.797135353088379,31.805315017700195,-15.57467269897461
32,100,60,60,homing,,,,homing,,2024-03-04 13:09:08.875130,16.633,0.158,236.8,104.5042953491211,-208.26388549804688,33.47142028808594,-72.36731719970703,-62.75305938720703,24.942707061767578,37.45683670043945,-8.87673568725586
32,100,60,60,homing,,,,homing,,2024-03-04 13:09:09.583615,16.557,0.158,236.8,200.9896697998047,-138.4109649658203,14.115211486816406,-38.15864944458008,-33.95313262939453,33.858577728271484,41.97776412963867,-3.518735408782959
32,100,60,60,homing,,,,homing,,2024-03-04 13:09:10.340302,16.557,0.157,236.8,247.0892791748047,-31.114990234375,2.5405120849609375,-7.809755802154541,-6.768197536468506,38.7213249206543,44.4434928894043,-0.5964630842208862
32,100,60,60,homing,,,,homing,,2024-03-04 13:09:11.721160,16.671,0.157,236.8,251.70079040527344,-0.11233702301979065,-4.224029541015625,-0.025571776553988457,-0.024714140221476555,41.44285202026367,45.7404670715332,0.0
32,100,60,60,homing,,,,homing,,2024-03-04 13:09:12.412714,16.348,0.154,236.8,249.79417419433594,0.00017951219342648983,0.698577880859375,4.117506250622682e-05,4.117506250622682e-05,39.46162796020508,44.799049377441406,0.0
32,100,60,60,homing,,,,homing,,2024-03-04 13:09:13.796752,16.272,0.154,236.8,249.99998474121094,0.00017966009909287095,-7.62939453125e-06,4.117506250622682e-05,4.117506250622682e-05,39.71385955810547,44.94676971435547,0.0
32,100,60,60,homing,,,,homing,,2024-03-04 13:09:14.515496,16.196,0.153,236.8,249.84181213378906,0.00017954641953110695,-0.084503173828125,4.117506250622682e-05,4.117506250622682e-05,39.69846725463867,44.99176788330078,0.0
32,100,60,60,homing,,,,homing,,2024-03-04 13:09:15.956984,16.253,0.153,236.8,249.99998474121094,0.00017966009909287095,-7.62939453125e-06,4.117506250622682e-05,4.117506250622682e-05,39.71385955810547,44.94676971435547,0.0
32,100,60,60,homing,,,,homing,,2024-03-04 13:09:16.649072,16.253,0.154,236.8,249.99998474121094,0.00017966009909287095,-7.62939453125e-06,4.117506250622682e-05,4.117506250622682e-05,39.71385955810547,44.94676971435547,0.0
32,100,60,60,homing,,,,homing,,2024-03-04 13:09:17.342758,16.234,0.154,236.8,249.99998474121094,0.00017966009909287095,-7.62939453125e-06,4.117506250622682e-05,4.117506250622682e-05,39.71385955810547,44.94676971435547,0.0
32,100,60,60,homing,,,,homing,,2024-03-04 13:09:18.719032,16.291,0.154,236.8,249.99998474121094,0.00017966009909287095,-7.62939453125e-06,4.117506250622682e-05,4.117506250622682e-05,39.71385955810547,44.94676971435547,0.0
32,100,60,60,homing,,,,homing,,2024-03-04 13:09:19.413137,16.329,0.155,236.8,249.99998474121094,0.00017966009909287095,-7.62939453125e-06,4.117506250622682e-05,4.117506250622682e-05,39.71385955810547,44.94676971435547,0.0
32,100,60,60,homing,,,,homing,,2024-03-04 13:09:20.787618,16.215,0.155,236.8,249.99998474121094,0.00017966009909287095,-7.62939453125e-06,4.117506250622682e-05,4.117506250622682e-05,39.71385955810547,44.94676971435547,0.0
32,100,60,60,homing,,,,homing,,2024-03-04 13:09:21.524220,16.215,0.154,236.8,249.99998474121094,0.00017966009909287095,-7.62939453125e-06,4.117506250622682e-05,4.117506250622682e-05,39.71385955810547,44.94676971435547,0.0
32,100,60,60,homing,,,,homing,,2024-03-04 13:09:22.902983,16.215,0.154,236.8,249.99998474121094,0.00017966009909287095,-7.62939453125e-06,4.117506250622682e-05,4.117506250622682e-05,39.71385955810547,44.94676971435547,0.0
32,100,60,60,homing,,,,homing,,2024-03-04 13:09:23.595233,16.12,0.153,236.8,249.99998474121094,0.00017966009909287095,-7.62939453125e-06,4.117506250622682e-05,4.117506250622682e-05,39.71385955810547,44.94676971435547,0.0
32,100,60,60,homing,,,,homing,,2024-03-04 13:09:24.973837,16.158,0.153,236.8,249.99998474121094,0.00017966009909287095,-7.62939453125e-06,4.117506250622682e-05,4.117506250622682e-05,39.71385955810547,44.94676971435547,0.0
32,100,60,60,homing,,,,homing,,2024-03-04 13:09:25.699410,16.272,0.155,236.8,249.99998474121094,0.00017966009909287095,-7.62939453125e-06,4.117506250622682e-05,4.117506250622682e-05,39.71385955810547,44.94676971435547,0.0
32,100,60,60,homing,,,,homing,,2024-03-04 13:09:26.398278,16.272,0.155,236.8,252.64288330078125,10.96807861328125,6.7952728271484375,4.124641418457031e-05,2.699219226837158,38.5240592956543,41.924598693847656,-2.6991779804229736
32,100,60,60,homing,,,,homing,,2024-03-04 13:09:27.778985,16.386,0.155,236.8,270.5626220703125,84.7335433959961,53.44752883911133,4.1961669921875e-05,17.599960327148438,39.64228820800781,19.785186767578125,-17.599918365478516
32,100,60,60,go_to_pick_up_from_homing,nothing,,,go_to_pick_up_from_homing,,2024-03-04 13:09:28.490158,17.108,0.16,236.8,280.710205078125,104.34307098388672,70.42930603027344,3.0517578125e-05,20.377695083618164,44.934104919433594,9.652685165405273,-20.37766456604004
32,100,60,60,moving_belt,nothing,false,true,go_to_pick_up_from_homing,,2024-03-04 13:09:29.871249,16.234,0.16,236.8,292.8220520019531,106.5785140991211,84.958251953125,0.0,20.0,51.0,0.0,-20.0
32,100,60,60,moving_belt,nothing,false,true,go_to_pick_up_from_homing,,2024-03-04 13:09:30.562280,16.576,0.155,236.8,292.8220520019531,106.5785140991211,84.958251953125,0.0,20.0,51.0,0.0,-20.0
32,100,60,60,moving_belt,nothing,false,true,go_to_pick_up_from_homing,,2024-03-04 13:09:31.942721,16.291,0.155,236.8,292.8220520019531,106.5785140991211,84.958251953125,0.0,20.0,51.0,0.0,-20.0
32,100,60,60,moving_belt,nothing,false,true,go_to_pick_up_from_homing,,2024-03-04 13:09:32.638535,16.291,0.155,236.8,292.8220520019531,106.5785140991211,84.958251953125,0.0,20.0,51.0,0.0,-20.0
32,100,60,60,moving_belt,nothing,false,true,go_to_pick_up_from_homing,,2024-03-04 13:09:33.335101,16.405,0.155,236.8,292.8220520019531,106.5785140991211,84.958251953125,0.0,20.0,51.0,0.0,-20.0
32,100,60,60,go_to_pick_down,nothing,true,false,joint 3 +,,2024-03-04 13:09:34.721472,16.196,0.155,236.8,290.8914794921875,105.87583923339844,60.467529296875,0.0,20.0,51.0,10.123201370239258,-20.0
32,100,60,60,go_to_pick_up_from_pick_down,nothing,true,false,joint 3 -,true,2024-03-04 13:09:35.408902,16.196,0.155,236.8,282.8026123046875,102.93173217773438,29.99386215209961,0.0,20.0,51.0,21.91360092163086,-20.0
32,100,60,60,go_to_pick_up_from_pick_down,nothing,true,false,joint 3 -,true,2024-03-04 13:09:36.905984,22.975,0.207,236.8,292.2704772949219,106.37775421142578,71.83454895019531,0.0,20.0,51.0,4.745109558105469,-20.0
32,100,60,60,go_to_color_detect_up_from_pick_up,nothing,true,false,joint 1 +,true,2024-03-04 13:09:37.597346,22.557,0.207,236.8,283.9618835449219,128.33303833007812,84.958251953125,4.319995880126953,24.679996490478516,51.0,0.0,-20.0
32,100,60,60,go_to_color_detect_up_from_pick_up,nothing,true,false,joint 1 +,true,2024-03-04 13:09:38.977568,22.215,0.204,236.8,183.69773864746094,251.71188354492188,84.958251953125,33.87826919555664,54.43703842163086,51.0,0.0,-20.0
32,100,60,60,go_to_color_detect_down,nothing,true,false,joint 3 +,true,2024-03-04 13:09:39.667882,22.31,0.204,236.8,131.69320678710938,282.4169921875,84.18241119384766,45.0,65.0,51.0,0.40320003032684326,-20.0
32,100,60,60,go_to_color_detect_down,nothing,true,false,joint 3 +,true,2024-03-04 13:09:40.358246,22.026,0.204,236.8,127.41725158691406,273.2471618652344,31.359580993652344,45.0,65.0,51.0,22.176002502441406,-20.0
32,100,60,60,go_to_color_detect_down,nothing,true,false,joint 3 +,true,2024-03-04 13:09:41.748078,21.741,0.197,236.8,111.42072296142578,238.9425048828125,-23.679786682128906,45.0,65.0,51.0,47.74238204956055,-20.0
32,100,60,60,go_to_color_detect_up_from_color_detect_down,nothing,true,false,joint 3 -,false,2024-03-04 13:09:42.443225,21.893,0.197,236.8,118.96842193603516,255.1285858154297,-4.182456970214844,45.0,65.0,51.0,36.76800537109375,-20.0
32,100,60,60,go_to_color_detect_up_from_color_detect_down,nothing,true,false,joint 3 -,false,2024-03-04 13:09:43.821036,16.424,0.157,236.8,131.29864501953125,281.5708312988281,68.39875030517578,45.0,65.0,51.0,6.043710708618164,-20.0
32,100,60,60,detecting_color,nothing,false,false,detecting_color,false,2024-03-04 13:09:44.508336,16.785,0.157,236.8,131.69407653808594,282.4188232421875,84.958251953125,45.0,65.0,51.0,0.0,-20.0
32,100,60,60,go_to_color_detect_down,nothing,true,false,joint 3 +,false,2024-03-04 13:09:45.886355,16.31,0.156,236.8,131.69407653808594,282.4188232421875,84.958251953125,45.0,65.0,51.0,0.0,-20.0
32,100,60,60,go_to_color_detect_down,nothing,true,false,joint 3 +,false,2024-03-04 13:09:46.575673,16.31,0.156,236.8,129.21424865722656,277.100830078125,43.84012985229492,45.0,65.0,51.0,16.934402465820312,-20.0
32,100,60,60,go_to_color_detect_down,nothing,true,false,joint 3 +,false,2024-03-04 13:09:47.959136,16.31,0.153,236.8,112.25927734375,240.7407989501953,-21.83734893798828,45.0,65.0,51.0,46.78779983520508,-20.0
32,100,60,60,go_to_color_detect_up_from_color_detect_down,nothing,true,false,joint 3 -,true,2024-03-04 13:09:48.649594,16.196,0.153,236.8,116.23851776123047,249.2742919921875,-12.069717407226562,45.0,65.0,51.0,40.85760498046875,-20.0
32,100,60,60,go_to_color_detect_up_from_color_detect_down,nothing,true,false,joint 3 -,true,2024-03-04 13:09:49.339533,23.222,0.153,236.8,130.77981567382812,280.45819091796875,59.83163070678711,45.0,65.0,51.0,9.316692352294922,-20.0
32,100,60,60,go_to_red_up,red,true,false,joint 1 +,true,2024-03-04 13:09:50.728677,22.823,0.203,236.8,124.1962661743164,285.79541015625,84.958251953125,46.511993408203125,66.72799682617188,51.0,0.0,-20.0
32,100,60,60,go_to_red_up,red,true,false,joint 1 +,true,2024-03-04 13:09:51.416911,22.158,0.203,236.8,-16.977758407592773,311.1518859863281,84.958251953125,73.1231918334961,94.0303955078125,51.0,0.0,-20.0
32,100,60,60,go_to_red_up,red,true,false,joint 1 +,true,2024-03-04 13:09:52.811189,22.538,0.199,236.8,-167.46469116210938,262.7913818359375,84.958251953125,102.50746154785156,122.76809692382812,51.0,0.0,-20.0
32,100,60,60,go_to_pick_up_from_red,red,true,false,joint 1 -,false,2024-03-04 13:09:53.532593,22.538,0.199,236.8,-141.09010314941406,277.84405517578125,84.958251953125,96.9216079711914,116.4320068359375,51.0,0.0,-20.0
32,100,60,60,go_to_pick_up_from_red,red,true,false,joint 1 -,false,2024-03-04 13:09:54.946704,16.538,0.186,236.8,69.156494140625,303.8439025878906,84.958251953125,57.1776123046875,75.99681091308594,51.0,0.0,-20.0
32,100,60,60,go_to_pick_up_from_red,red,true,false,joint 1 -,false,2024-03-04 13:09:55.651583,16.538,0.186,236.8,263.47674560546875,166.38429260253906,84.958251953125,12.272212982177734,31.68494415283203,51.0,0.0,-20.0
32,100,60,60,moving_belt,red,false,true,joint 1 -,false,2024-03-04 13:09:56.616983,16.272,0.155,236.8,292.8220520019531,106.5785140991211,84.958251953125,0.0,20.0,51.0,0.0,-20.0
32,100,60,60,moving_belt,red,false,true,joint 1 -,false,2024-03-04 13:09:57.436519,16.709,0.155,236.8,292.8220520019531,106.5785140991211,84.958251953125,0.0,20.0,51.0,0.0,-20.0
32,100,60,60,moving_belt,red,false,true,joint 1 -,false,2024-03-04 13:09:58.766669,16.709,0.155,236.8,292.8220520019531,106.5785140991211,84.958251953125,0.0,20.0,51.0,0.0,-20.0
32,100,60,60,moving_belt,red,false,true,joint 1 -,false,2024-03-04 13:09:59.485651,16.405,0.155,236.8,292.8220520019531,106.5785140991211,84.958251953125,0.0,20.0,51.0,0.0,-20.0
32,100,60,60,moving_belt,red,false,true,joint 1 -,false,2024-03-04 13:10:00.639768,16.557,0.155,236.8,292.8220520019531,106.5785140991211,84.958251953125,0.0,20.0,51.0,0.0,-20.0
32,100,60,60,go_to_pick_down,red,true,false,joint 3 +,false,2024-03-04 13:10:01.327077,16.272,0.154,236.8,291.4512939453125,106.07960510253906,64.30062866210938,0.0,20.0,51.0,8.568001747131348,-20.0
32,100,60,60,go_to_pick_up_from_pick_down,red,true,false,joint 3 -,true,2024-03-04 13:10:02.725459,16.215,0.153,236.8,282.89324951171875,102.9647216796875,30.233802795410156,0.0,20.0,51.0,21.784000396728516,-20.0
32,100,60,60,go_to_pick_up_from_pick_down,red,true,false,joint 3 -,true,2024-03-04 13:10:03.421132,20.393,0.153,236.8,292.2704772949219,106.37775421142578,71.83454895019531,0.0,20.0,51.0,4.745109558105469,-20.0
32,100,60,60,go_to_color_detect_up_from_pick_up,red,true,false,joint 1 +,true,2024-03-04 13:10:04.804580,22.633,0.198,236.8,287.97265625,119.06082153320312,84.958251953125,2.4623966217041016,22.73599624633789,51.0,0.0,-20.0
32,100,60,60,go_to_color_detect_up_from_pick_up,red,true,false,joint 1 +,true,2024-03-04 13:10:05.493784,21.931,0.198,236.8,183.69773864746094,251.71188354492188,84.958251953125,33.87826919555664,54.43703842163086,51.0,0.0,-20.0
32,100,60,60,go_to_color_detect_down,red,true,false,joint 3 +,true,2024-03-04 13:10:06.939244,22.121,0.198,236.8,131.69253540039062,282.41552734375,83.92379760742188,45.0,65.0,51.0,0.5184000730514526,-20.0
32,100,60,60,go_to_color_detect_down,red,true,false,joint 3 +,true,2024-03-04 13:10:07.625843,21.969,0.198,236.8,127.09861755371094,272.5638427734375,29.472660064697266,45.0,65.0,51.0,22.982402801513672,-20.0
32,100,60,60,go_to_color_detect_down,red,true,false,joint 3 +,true,2024-03-04 13:10:08.322534,21.912,0.198,236.8,111.34600830078125,238.7822723388672,-23.840675354003906,45.0,65.0,51.0,47.82115173339844,-20.0
32,100,60,60,go_to_color_detect_up_from_color_detect_down,red,true,false,joint 3 -,false,2024-03-04 13:10:09.721276,21.893,0.197,236.8,119.33529663085938,255.9153594970703,-3.0324859619140625,45.0,65.0,51.0,36.1920051574707,-20.0
32,100,60,60,go_to_color_detect_up_from_color_detect_down,red,true,false,joint 3 -,false,2024-03-04 13:10:10.517861,16.975,0.197,236.8,131.3939971923828,281.7752990722656,70.52741241455078,45.0,65.0,51.0,5.238173007965088,-20.0
32,100,60,60,detecting_color,red,false,false,detecting_color,false,2024-03-04 13:10:11.895623,16.937,0.158,236.8,131.69407653808594,282.4188232421875,84.958251953125,45.0,65.0,51.0,0.0,-20.0
32,100,60,60,detecting_color,red,false,false,detecting_color,false,2024-03-04 13:10:12.584328,16.367,0.158,236.8,131.69407653808594,282.4188232421875,84.958251953125,45.0,65.0,51.0,0.0,-20.0
32,100,60,60,detecting_color,red,false,false,detecting_color,false,2024-03-04 13:10:13.975133,16.291,0.155,236.8,131.69407653808594,282.4188232421875,84.958251953125,45.0,65.0,51.0,0.0,-20.0
32,100,60,60,detecting_color,red,false,false,detecting_color,false,2024-03-04 13:10:13.975133,16.291,0.155,236.8,131.69407653808594,282.4188232421875,84.958251953125,45.0,65.0,51.0,0.0,-20.0
32,100,60,60,detecting_color,red,false,false,detecting_color,false,2024-03-04 13:10:15.799344,16.367,0.155,236.8,131.69407653808594,282.4188232421875,84.958251953125,45.0,65.0,51.0,0.0,-20.0
32,100,60,60,detecting_color,red,false,false,detecting_color,false,2024-03-04 13:10:16.530099,16.272,0.155,236.8,131.69407653808594,282.4188232421875,84.958251953125,45.0,65.0,51.0,0.0,-20.0
32,100,60,60,go_to_color_detect_down,red,true,false,joint 3 +,false,2024-03-04 13:10:17.917642,16.177,0.155,236.8,131.60757446289062,282.23333740234375,77.20337677001953,45.0,65.0,51.0,3.3264005184173584,-20.0
32,100,60,60,go_to_color_detect_down,red,true,false,joint 3 +,false,2024-03-04 13:10:18.607172,16.177,0.155,236.8,119.88436126708984,257.09283447265625,-1.2664871215820312,45.0,65.0,51.0,36.49624252319336,-20.0
32,100,60,60,go_to_color_detect_up_from_color_detect_down,red,true,false,joint 3 -,true,2024-03-04 13:10:19.301715,16.063,0.155,236.8,111.25475311279297,238.58656311035156,-24.036483764648438,45.0,65.0,51.0,47.784000396728516,-20.0
32,100,60,60,go_to_color_detect_up_from_color_detect_down,red,true,false,joint 3 -,true,2024-03-04 13:10:20.801672,16.291,0.156,236.8,124.34217834472656,266.65264892578125,15.590972900390625,45.0,65.0,51.0,27.393604278564453,-20.0
32,100,60,60,go_to_color_detect_up_from_color_detect_down,red,true,false,joint 3 -,true,2024-03-04 13:10:21.606751,22.766,0.156,236.8,131.69088745117188,282.4119873046875,83.46935272216797,45.0,65.0,51.0,0.45836570858955383,-20.0
32,100,60,60,go_to_green_up,green,true,false,joint 1 +,true,2024-03-04 13:10:23.000193,21.931,0.199,236.8,82.80157470703125,300.4124450683594,84.958251953125,54.59039306640625,75.1231918334961,51.0,0.0,-20.0
32,100,60,60,go_to_green_up,green,true,false,joint 1 +,true,2024-03-04 13:10:23.692154,22.158,0.199,236.8,-65.55883026123047,304.6404113769531,84.958251953125,82.14486694335938,102.42436218261719,51.0,0.0,-20.0
32,100,60,60,go_to_pick_up_from_green,green,true,false,joint 1 -,false,2024-03-04 13:10:24.387426,22.158,0.198,236.8,-55.824466705322266,306.5736083984375,84.958251953125,80.32000732421875,99.94561004638672,51.0,0.0,-20.0
32,100,60,60,go_to_pick_up_from_green,green,true,false,joint 1 -,false,2024-03-04 13:10:25.770095,16.5,0.198,236.8,157.70095825195312,268.7640686035156,84.958251953125,39.59714126586914,58.53644943237305,51.0,0.0,-20.0
32,100,60,60,go_to_pick_up_from_green,green,true,false,joint 1 -,false,2024-03-04 13:10:26.464743,16.5,0.198,236.8,282.5859680175781,131.33506774902344,84.958251953125,4.927188873291016,24.557697296142578,51.0,0.0,-20.0
32,100,60,60,moving_belt,green,false,true,joint 1 -,false,2024-03-04 13:10:27.852206,16.443,0.156,236.8,292.8220520019531,106.5785140991211,84.958251953125,0.0,20.0,51.0,0.0,-20.0
32,100,60,60,moving_belt,green,false,true,joint 1 -,false,2024-03-04 13:10:28.550422,16.614,0.156,236.8,292.8220520019531,106.5785140991211,84.958251953125,0.0,20.0,51.0,0.0,-20.0
32,100,60,60,moving_belt,green,false,true,joint 1 -,false,2024-03-04 13:10:29.355769,16.31,0.155,236.8,292.8220520019531,106.5785140991211,84.958251953125,0.0,20.0,51.0,0.0,-20.0
32,100,60,60,moving_belt,green,false,true,joint 1 -,false,2024-03-04 13:10:30.785681,16.348,0.155,236.8,292.8220520019531,106.5785140991211,84.958251953125,0.0,20.0,51.0,0.0,-20.0
32,100,60,60,go_to_pick_down,green,true,false,joint 3 +,false,2024-03-04 13:10:31.479804,16.348,0.155,236.8,292.8220520019531,106.5785140991211,84.958251953125,0.0,20.0,51.0,0.01439999882131815,-20.0
32,100,60,60,go_to_pick_down,green,true,false,joint 3 +,false,2024-03-04 13:10:32.860288,16.405,0.155,236.8,287.6939697265625,104.71204376220703,45.27656555175781,0.0,20.0,51.0,16.08099937438965,-20.0
32,100,60,60,go_to_pick_up_from_pick_down,green,true,false,joint 3 -,true,2024-03-04 13:10:33.563537,16.025,0.152,236.8,284.08441162109375,103.39826965332031,33.50659942626953,0.0,20.0,51.0,20.272003173828125,-20.0
32,100,60,60,go_to_pick_up_from_pick_down,green,true,false,joint 3 -,true,2024-03-04 13:10:34.961439,21.095,0.152,236.8,292.80792236328125,106.5733642578125,82.85549926757812,0.0,20.0,51.0,0.6731135845184326,-20.0
32,100,60,60,go_to_color_detect_up_from_pick_up,green,true,false,joint 1 +,true,2024-03-04 13:10:35.766737,22.443,0.198,236.8,274.93902587890625,146.6705780029297,84.958251953125,8.07839584350586,28.567995071411133,51.0,0.0,-20.0
32,100,60,60,go_to_color_detect_up_from_pick_up,green,true,false,joint 1 +,true,2024-03-04 13:10:36.455792,21.969,0.198,236.8,163.33364868164062,265.3786926269531,84.958251953125,38.388790130615234,58.81795883178711,51.0,0.0,-20.0
32,100,60,60,go_to_color_detect_down,green,true,false,joint 3 +,true,2024-03-04 13:10:37.835056,21.855,0.199,236.8,131.5685272216797,282.14959716796875,75.617431640625,45.0,65.0,51.0,3.974400758743286,-20.0
32,100,60,60,go_to_color_detect_down,green,true,false,joint 3 +,true,2024-03-04 13:10:38.695333,21.855,0.199,236.8,121.41107940673828,260.36688232421875,3.955352783203125,45.0,65.0,51.0,34.07876968383789,-20.0
32,100,60,60,go_to_color_detect_up_from_color_detect_down,green,true,false,joint 3 -,false,2024-03-04 13:10:39.383724,21.779,0.199,236.8,111.13883972167969,238.33799743652344,-24.284042358398438,45.0,65.0,51.0,48.0,-20.0
32,100,60,60,go_to_color_detect_up_from_color_detect_down,green,true,false,joint 3 -,false,2024-03-04 13:10:40.788867,21.684,0.197,236.8,125.11064147949219,268.3006286621094,19.1009521484375,45.0,65.0,51.0,25.824005126953125,-20.0
32,100,60,60,go_to_color_detect_up_from_color_detect_down,green,true,false,joint 3 -,false,2024-03-04 13:10:41.484994,16.348,0.197,236.8,131.68017578125,282.3890075683594,81.84839630126953,45.0,65.0,51.0,1.0326409339904785,-20.0
32,100,60,60,detecting_color,green,false,false,detecting_color,false,2024-03-04 13:10:42.935941,16.69,0.159,236.8,131.69407653808594,282.4188232421875,84.958251953125,45.0,65.0,51.0,0.0,-20.0
32,100,60,60,go_to_color_detect_down,green,true,false,joint 3 +,false,2024-03-04 13:10:43.625634,16.177,0.159,236.8,131.69253540039062,282.41552734375,83.92379760742188,45.0,65.0,51.0,0.5184000730514526,-20.0
32,100,60,60,go_to_color_detect_down,green,true,false,joint 3 +,false,2024-03-04 13:10:45.018742,16.082,0.154,236.8,127.09861755371094,272.5638427734375,29.472660064697266,45.0,65.0,51.0,22.982402801513672,-20.0
32,100,60,60,go_to_color_detect_down,green,true,false,joint 3 +,false,2024-03-04 13:10:45.733941,16.082,0.154,236.8,111.34600830078125,238.7822723388672,-23.840675354003906,45.0,65.0,51.0,47.82115173339844,-20.0
32,100,60,60,go_to_color_detect_up_from_color_detect_down,green,true,false,joint 3 -,true,2024-03-04 13:10:46.422181,16.101,0.154,236.8,118.60639953613281,254.3522186279297,-5.294708251953125,45.0,65.0,51.0,37.32960510253906,-20.0
32,100,60,60,go_to_color_detect_up_from_color_detect_down,green,true,false,joint 3 -,true,2024-03-04 13:10:47.801958,22.557,0.157,236.8,131.2432403564453,281.4519958496094,67.28069305419922,45.0,65.0,51.0,6.468079566955566,-20.0
32,100,60,60,go_to_blue_up,blue,true,false,joint 1 +,true,2024-03-04 13:10:48.544091,22.557,0.157,236.8,116.61190795898438,288.9729919433594,84.958251953125,48.02399444580078,68.3263931274414,51.0,0.0,-20.0
32,100,60,60,go_to_blue_up,blue,true,false,joint 1 +,true,2024-03-04 13:10:49.927428,22.007,0.2,236.8,28.585357666015625,310.30084228515625,84.958251953125,64.73668670654297,84.81639862060547,51.0,0.0,-20.0
32,100,60,60,go_to_pick_up_from_blue,blue,true,false,joint 1 -,false,2024-03-04 13:10:50.651324,19.899,0.2,236.8,87.10480499267578,299.19305419921875,84.958251953125,53.76800537109375,73.19200897216797,51.0,0.0,-20.0
32,100,60,60,go_to_pick_up_from_blue,blue,true,false,joint 1 -,false,2024-03-04 13:10:51.346246,19.899,0.161,236.8,264.1849365234375,165.2575225830078,84.958251953125,12.027511596679688,31.446168899536133,51.0,0.0,-20.0
32,100,60,60,moving_belt,blue,false,true,joint 1 -,false,2024-03-04 13:10:52.893151,16.215,0.161,236.8,292.8220520019531,106.5785140991211,84.958251953125,0.0,20.0,51.0,0.0,-20.0
32,100,60,60,moving_belt,blue,false,true,joint 1 -,false,2024-03-04 13:10:53.580642,16.272,0.154,236.8,292.8220520019531,106.5785140991211,84.958251953125,0.0,20.0,51.0,0.0,-20.0
32,100,60,60,moving_belt,blue,false,true,joint 1 -,false,2024-03-04 13:10:54.960709,16.31,0.154,236.8,292.8220520019531,106.5785140991211,84.958251953125,0.0,20.0,51.0,0.0,-20.0
32,100,60,60,moving_belt,blue,false,true,joint 1 -,false,2024-03-04 13:10:55.764410,16.519,0.155,236.8,292.8220520019531,106.5785140991211,84.958251953125,0.0,20.0,51.0,0.0,-20.0
32,100,60,60,moving_belt,blue,false,true,joint 1 -,false,2024-03-04 13:10:56.456418,16.519,0.155,236.8,292.8220520019531,106.5785140991211,84.958251953125,0.0,20.0,51.0,0.0,-20.0
32,100,60,60,go_to_pick_down,blue,true,false,joint 3 +,false,2024-03-04 13:10:57.836365,16.386,0.156,236.8,291.9973449707031,106.27835083007812,68.91911315917969,0.0,20.0,51.0,6.696001052856445,-20.0
32,100,60,60,go_to_pick_up_from_pick_down,blue,true,false,joint 3 -,true,2024-03-04 13:10:58.535880,16.272,0.156,236.8,282.776611328125,102.92227172851562,29.925338745117188,0.0,20.0,51.0,21.95680046081543,-20.0
32,100,60,60,go_to_pick_up_from_pick_down,blue,true,false,joint 3 -,true,2024-03-04 13:10:59.231828,16.747,0.156,236.8,292.08563232421875,106.31047821044922,69.79924011230469,0.0,20.0,51.0,5.513309001922607,-20.0
32,100,60,60,go_to_color_detect_up_from_pick_up,blue,true,false,joint 1 +,true,2024-03-04 13:11:00.898215,22.709,0.204,236.8,289.0088195800781,116.52310180664062,84.958251953125,1.9583969116210938,22.203197479248047,51.0,0.0,-20.0
32,100,60,60,go_to_color_detect_up_from_pick_up,blue,true,false,joint 1 +,true,2024-03-04 13:11:01.587417,22.007,0.204,236.8,188.75904846191406,247.9390106201172,84.958251953125,32.717529296875,53.30509948730469,51.0,0.0,-20.0
32,100,60,60,go_to_color_detect_down,blue,true,false,joint 3 +,true,2024-03-04 13:11:02.965898,22.14,0.199,236.8,131.69387817382812,282.4184265136719,84.58879852294922,45.0,65.0,51.0,0.2160000205039978,-20.0
32,100,60,60,go_to_color_detect_down,blue,true,false,joint 3 +,true,2024-03-04 13:11:03.655752,22.14,0.199,236.8,128.0054168701172,274.5085144042969,35.059505462646484,45.0,65.0,51.0,20.606403350830078,-20.0
32,100,60,60,go_to_color_detect_down,blue,true,false,joint 3 +,true,2024-03-04 13:11:05.032104,21.912,0.198,236.8,111.60433197021484,239.33624267578125,-23.282180786132812,45.0,65.0,51.0,47.54164123535156,-20.0
32,100,60,60,go_to_color_detect_up_from_color_detect_down,blue,true,false,joint 3 -,false,2024-03-04 13:11:05.722028,19.557,0.198,236.8,118.60639953613281,254.3522186279297,-5.294708251953125,45.0,65.0,51.0,37.32960510253906,-20.0
32,100,60,60,go_to_color_detect_up_from_color_detect_down,blue,true,false,joint 3 -,false,2024-03-04 13:11:06.411712,19.557,0.159,236.8,131.29864501953125,281.5708312988281,68.39875030517578,45.0,65.0,51.0,6.043710708618164,-20.0
32,100,60,60,detecting_color,blue,false,false,detecting_color,false,2024-03-04 13:11:07.927872,16.88,0.159,236.8,131.69407653808594,282.4188232421875,84.958251953125,45.0,65.0,51.0,0.0,-20.0
32,100,60,60,go_to_color_detect_down,blue,true,false,joint 3 +,false,2024-03-04 13:11:08.615960,16.253,0.156,236.8,131.69407653808594,282.4188232421875,84.958251953125,45.0,65.0,51.0,0.0,-20.0
32,100,60,60,go_to_color_detect_down,blue,true,false,joint 3 +,false,2024-03-04 13:11:09.994962,16.329,0.156,236.8,128.77293395996094,276.1544189453125,40.41205978393555,45.0,65.0,51.0,18.360002517700195,-20.0
32,100,60,60,go_to_color_detect_down,blue,true,false,joint 3 +,false,2024-03-04 13:11:10.803203,16.234,0.154,236.8,112.97835540771484,242.28285217285156,-20.20189666748047,45.0,65.0,51.0,45.9255256652832,-20.0
32,100,60,60,go_to_color_detect_up_from_color_detect_down,blue,true,false,joint 3 -,true,2024-03-04 13:11:11.494015,16.234,0.154,236.8,115.0446548461914,246.71405029296875,-15.193389892578125,45.0,65.0,51.0,42.556800842285156,-20.0
32,100,60,60,go_to_color_detect_up_from_color_detect_down,blue,true,false,joint 3 -,true,2024-03-04 13:11:12.877160,22.576,0.203,236.8,130.96177673339844,280.8484191894531,62.454315185546875,45.0,65.0,51.0,8.309555053710938,-20.0
32,100,60,60,go_to_red_up,red,true,false,joint 1 +,true,2024-03-04 13:11:13.566861,22.576,0.203,236.8,127.77776336669922,284.2121887207031,84.958251953125,45.7919921875,65.95039367675781,51.0,0.0,-20.0
32,100,60,60,go_to_red_up,red,true,false,joint 1 +,true,2024-03-04 13:11:14.362377,22.348,0.203,236.8,1.9666664600372314,311.6085205078125,84.958251953125,69.63838958740234,90.48799133300781,51.0,0.0,-20.0
32,100,60,60,go_to_red_up,red,true,false,joint 1 +,true,2024-03-04 13:11:15.051906,22.026,0.198,236.8,-169.78289794921875,261.29962158203125,84.958251953125,103.01432800292969,123.24616241455078,51.0,0.0,-20.0
32,100,60,60,go_to_pick_up_from_red,red,true,false,joint 1 -,false,2024-03-04 13:11:17.031126,22.121,0.192,236.8,-153.7152557373047,271.0633544921875,84.958251953125,99.55680847167969,119.15361022949219,51.0,0.0,-20.0
32,100,60,60,go_to_pick_up_from_red,red,true,false,joint 1 -,false,2024-03-04 13:11:17.849419,16.462,0.192,236.8,32.78889465332031,309.8848571777344,84.958251953125,63.96000671386719,82.86560821533203,51.0,0.0,-20.0
32,100,60,60,go_to_pick_up_from_red,red,true,false,joint 1 -,false,2024-03-04 13:11:18.672626,16.462,0.192,236.8,263.47674560546875,166.38429260253906,84.958251953125,12.272212982177734,31.68494415283203,51.0,0.0,-20.0
32,100,60,60,moving_belt,red,false,true,joint 1 -,false,2024-03-04 13:11:19.697834,16.595,0.156,236.8,292.8220520019531,106.5785140991211,84.958251953125,0.0,20.0,51.0,0.0,-20.0
32,100,60,60,moving_belt,red,false,true,joint 1 -,false,2024-03-04 13:11:20.385534,16.462,0.156,236.8,292.8220520019531,106.5785140991211,84.958251953125,0.0,20.0,51.0,0.0,-20.0
32,100,60,60,moving_belt,red,false,true,joint 1 -,false,2024-03-04 13:11:21.802778,16.462,0.154,236.8,292.8220520019531,106.5785140991211,84.958251953125,0.0,20.0,51.0,0.0,-20.0
32,100,60,60,moving_belt,red,false,true,joint 1 -,false,2024-03-04 13:11:22.497088,16.538,0.154,236.8,292.8220520019531,106.5785140991211,84.958251953125,0.0,20.0,51.0,0.0,-20.0
32,100,60,60,moving_belt,red,false,true,joint 1 -,false,2024-03-04 13:11:24.005052,16.424,0.154,236.8,292.8220520019531,106.5785140991211,84.958251953125,0.0,20.0,51.0,0.0,-20.0
32,100,60,60,go_to_pick_down,red,true,false,joint 3 +,false,2024-03-04 13:11:24.698388,16.424,0.154,236.8,291.4512939453125,106.07960510253906,64.30062866210938,0.0,20.0,51.0,8.568001747131348,-20.0
32,100,60,60,go_to_pick_up_from_pick_down,red,true,false,joint 3 -,true,2024-03-04 13:11:25.386644,16.405,0.154,236.8,282.76361083984375,102.91754913330078,29.89107894897461,0.0,20.0,51.0,21.985599517822266,-20.0
32,100,60,60,go_to_pick_up_from_pick_down,red,true,false,joint 3 -,true,2024-03-04 13:11:26.776000,16.272,0.153,236.8,291.97747802734375,106.2711181640625,68.72757720947266,0.0,20.0,51.0,5.919008731842041,-20.0
32,100,60,60,go_to_color_detect_up_from_pick_up,red,true,false,joint 1 +,true,2024-03-04 13:11:27.462703,23.051,0.153,236.8,285.4579772949219,124.96988677978516,84.958251953125,3.6431961059570312,23.974395751953125,51.0,0.0,-20.0
32,100,60,60,go_to_color_detect_up_from_pick_up,red,true,false,joint 1 +,true,2024-03-04 13:11:28.854058,22.5,0.203,236.8,188.75904846191406,247.9390106201172,84.958251953125,32.717529296875,53.30509948730469,51.0,0.0,-20.0
32,100,60,60,go_to_color_detect_down,red,true,false,joint 3 +,true,2024-03-04 13:11:29.560901,22.842,0.203,236.8,131.69387817382812,282.4184265136719,84.58879852294922,45.0,65.0,51.0,0.2160000205039978,-20.0
32,100,60,60,go_to_color_detect_down,red,true,false,joint 3 +,true,2024-03-04 13:11:30.935938,22.5,0.204,236.8,126.04147338867188,270.29681396484375,23.693199157714844,45.0,65.0,51.0,25.443941116333008,-20.0
32,100,60,60,go_to_color_detect_down,red,true,false,joint 3 +,true,2024-03-04 13:11:31.695398,22.424,0.204,236.8,111.60433197021484,239.33624267578125,-23.282180786132812,45.0,65.0,51.0,47.54164123535156,-20.0
32,100,60,60,go_to_color_detect_up_from_color_detect_down,red,true,false,joint 3 -,false,2024-03-04 13:11:32.383014,22.424,0.202,236.8,118.24959564208984,253.58705139160156,-6.369781494140625,45.0,65.0,51.0,37.87680435180664,-20.0
32,100,60,60,go_to_color_detect_up_from_color_detect_down,red,true,false,joint 3 -,false,2024-03-04 13:11:33.771234,16.823,0.202,236.8,131.50340270996094,282.0099182128906,73.44973754882812,45.0,65.0,51.0,4.137866497039795,-20.0
32,100,60,60,detecting_color,red,false,false,detecting_color,false,2024-03-04 13:11:34.460928,16.823,0.159,236.8,131.69407653808594,282.4188232421875,84.958251953125,45.0,65.0,51.0,0.0,-20.0
32,100,60,60,detecting_color,red,false,false,detecting_color,false,2024-03-04 13:11:35.848897,16.386,0.159,236.8,131.69407653808594,282.4188232421875,84.958251953125,45.0,65.0,51.0,0.0,-20.0
32,100,60,60,go_to_color_detect_down,red,true,false,joint 3 +,false,2024-03-04 13:11:36.538035,16.234,0.155,236.8,131.69320678710938,282.4169921875,84.18241119384766,45.0,65.0,51.0,0.40320003032684326,-20.0
32,100,60,60,go_to_color_detect_down,red,true,false,joint 3 +,false,2024-03-04 13:11:37.924347,16.253,0.155,236.8,127.41725158691406,273.2471618652344,31.359580993652344,45.0,65.0,51.0,22.176002502441406,-20.0
32,100,60,60,go_to_color_detect_down,red,true,false,joint 3 +,false,2024-03-04 13:11:38.615616,16.253,0.155,236.8,111.50685119628906,239.12721252441406,-23.493667602539062,45.0,65.0,51.0,47.64921188354492,-20.0
32,100,60,60,go_to_color_detect_up_from_color_detect_down,red,true,false,joint 3 -,true,2024-03-04 13:11:40.033791,20.298,0.154,236.8,118.60639953613281,254.3522186279297,-5.294708251953125,45.0,65.0,51.0,37.32960510253906,-20.0
32,100,60,60,go_to_color_detect_up_from_color_detect_down,red,true,false,joint 3 -,true,2024-03-04 13:11:40.721491,23.165,0.154,236.8,131.53213500976562,282.0715637207031,74.35122680664062,45.0,65.0,51.0,3.7998976707458496,-20.0
32,100,60,60,go_to_green_up,green,true,false,joint 1 +,true,2024-03-04 13:11:41.410500,23.165,0.206,236.8,115.08512115478516,289.5844421386719,84.958251953125,48.326393127441406,68.64319610595703,51.0,0.0,-20.0
32,100,60,60,go_to_green_up,green,true,false,joint 1 +,true,2024-03-04 13:11:42.406915,23.013,0.206,236.8,-31.028377532958984,310.0660705566406,84.958251953125,75.7145767211914,96.22447204589844,51.0,0.0,-20.0
32,100,60,60,go_to_pick_up_from_green,green,true,false,joint 1 -,false,2024-03-04 13:11:43.780499,22.785,0.203,236.8,-71.53868865966797,303.2918701171875,84.958251953125,83.27200317382812,103.0416030883789,51.0,0.0,-20.0
32,100,60,60,go_to_pick_up_from_green,green,true,false,joint 1 -,false,2024-03-04 13:11:44.481741,19.69,0.203,236.8,75.54680633544922,302.3183898925781,84.958251953125,55.9696044921875,75.04800415039062,51.0,0.0,-20.0
32,100,60,60,go_to_pick_up_from_green,green,true,false,joint 1 -,false,2024-03-04 13:11:45.948083,16.31,0.155,236.8,261.9404296875,168.79257202148438,84.958251953125,12.797443389892578,32.19755172729492,51.0,0.0,-20.0
32,100,60,60,moving_belt,green,false,true,joint 1 -,false,2024-03-04 13:11:46.642006,16.31,0.155,236.8,292.8220520019531,106.5785140991211,84.958251953125,0.0,20.0,51.0,0.0,-20.0
32,100,60,60,moving_belt,green,false,true,joint 1 -,false,2024-03-04 13:11:48.017836,16.31,0.154,236.8,292.8220520019531,106.5785140991211,84.958251953125,0.0,20.0,51.0,0.0,-20.0
32,100,60,60,moving_belt,green,false,true,joint 1 -,false,2024-03-04 13:11:48.707782,16.31,0.154,236.8,292.8220520019531,106.5785140991211,84.958251953125,0.0,20.0,51.0,0.0,-20.0
32,100,60,60,moving_belt,green,false,true,joint 1 -,false,2024-03-04 13:11:49.531331,16.329,0.154,236.8,292.8220520019531,106.5785140991211,84.958251953125,0.0,20.0,51.0,0.0,-20.0
32,100,60,60,moving_belt,green,false,true,joint 1 -,false,2024-03-04 13:11:50.925503,16.291,0.154,236.8,292.8220520019531,106.5785140991211,84.958251953125,0.0,20.0,51.0,0.0,-20.0
32,100,60,60,go_to_pick_down,green,true,false,joint 3 +,false,2024-03-04 13:11:51.620072,16.291,0.154,236.8,291.4512939453125,106.07960510253906,64.30062866210938,0.0,20.0,51.0,8.568001747131348,-20.0
32,100,60,60,go_to_pick_up_from_pick_down,green,true,false,joint 3 -,true,2024-03-04 13:11:53.020240,16.253,0.154,236.8,283.0349426269531,103.01629638671875,30.611194610595703,0.0,20.0,51.0,21.5968017578125,-20.0
32,100,60,60,go_to_pick_up_from_pick_down,green,true,false,joint 3 -,true,2024-03-04 13:11:53.765746,16.253,0.206,236.8,292.479736328125,106.45391845703125,74.61572265625,0.0,20.0,51.0,3.700810432434082,-20.0
32,100,60,60,go_to_color_detect_up_from_pick_up,green,true,false,joint 1 +,true,2024-03-04 13:11:54.583706,22.861,0.206,236.8,285.4579772949219,124.96988677978516,84.958251953125,3.6431961059570312,23.974395751953125,51.0,0.0,-20.0
32,100,60,60,go_to_color_detect_up_from_pick_up,green,true,false,joint 1 +,true,2024-03-04 13:11:55.563943,22.007,0.206,236.8,174.1312255859375,258.4222106933594,84.958251953125,36.02694320678711,56.52811050415039,51.0,0.0,-20.0
32,100,60,60,go_to_color_detect_down,green,true,false,joint 3 +,true,2024-03-04 13:11:56.876561,22.158,0.199,236.8,131.68814086914062,282.4060974121094,82.92633056640625,45.0,65.0,51.0,0.9504000544548035,-20.0
32,100,60,60,go_to_color_detect_down,green,true,false,joint 3 +,true,2024-03-04 13:11:56.876561,22.158,0.199,236.8,126.04147338867188,270.29681396484375,23.693199157714844,45.0,65.0,51.0,25.443941116333008,-20.0
32,100,60,60,go_to_color_detect_down,green,true,false,joint 3 +,true,2024-03-04 13:11:59.033974,22.026,0.196,236.8,111.19080352783203,238.44943237304688,-24.17322540283203,45.0,65.0,51.0,47.9710578918457,-20.0
32,100,60,60,go_to_color_detect_up_from_color_detect_down,green,true,false,joint 3 -,false,2024-03-04 13:11:59.739050,21.57,0.196,236.8,120.46089935302734,258.3292236328125,0.64923095703125,45.0,65.0,51.0,34.377601623535156,-20.0
32,100,60,60,go_to_color_detect_up_from_color_detect_down,green,true,false,joint 3 -,false,2024-03-04 13:12:00.643170,21.57,0.156,236.8,131.6160125732422,282.2514343261719,77.59183502197266,45.0,65.0,51.0,2.59202241897583,-20.0
32,100,60,60,detecting_color,green,false,false,detecting_color,false,2024-03-04 13:12:02.062469,16.519,0.156,236.8,131.69407653808594,282.4188232421875,84.958251953125,45.0,65.0,51.0,0.0,-20.0
32,100,60,60,go_to_color_detect_down,green,true,false,joint 3 +,false,2024-03-04 13:12:02.971830,16.519,0.155,236.8,131.69320678710938,282.4169921875,84.18241119384766,45.0,65.0,51.0,0.40320003032684326,-20.0
32,100,60,60,go_to_color_detect_down,green,true,false,joint 3 +,false,2024-03-04 13:12:03.663516,16.443,0.155,236.8,127.41725158691406,273.2471618652344,31.359580993652344,45.0,65.0,51.0,22.176002502441406,-20.0
32,100,60,60,go_to_color_detect_down,green,true,false,joint 3 +,false,2024-03-04 13:12:05.048078,16.234,0.154,236.8,112.10623931884766,240.41259765625,-22.17870330810547,45.0,65.0,51.0,46.967369079589844,-20.0
32,100,60,60,go_to_color_detect_up_from_color_detect_down,green,true,false,joint 3 -,true,2024-03-04 13:12:05.775636,16.709,0.154,236.8,118.96842193603516,255.1285858154297,-4.182456970214844,45.0,65.0,51.0,36.76800537109375,-20.0
32,100,60,60,go_to_color_detect_up_from_color_detect_down,green,true,false,joint 3 -,true,2024-03-04 13:12:06.479580,22.69,0.154,236.8,131.3939971923828,281.7752990722656,70.52741241455078,45.0,65.0,51.0,5.238173007965088,-20.0
32,100,60,60,go_to_blue_up,blue,true,false,joint 1 +,true,2024-03-04 13:12:07.395516,22.69,0.203,236.8,120.73954772949219,287.2728576660156,84.958251953125,47.20319366455078,67.46239471435547,51.0,0.0,-20.0
32,100,60,60,go_to_blue_up,blue,true,false,joint 1 +,true,2024-03-04 13:12:08.780528,21.969,0.203,236.8,30.347938537597656,310.1334228515625,84.958251953125,64.41114807128906,84.5340576171875,51.0,0.0,-20.0
32,100,60,60,go_to_pick_up_from_blue,blue,true,false,joint 1 -,false,2024-03-04 13:12:09.606288,22.121,0.198,236.8,96.31073760986328,296.35784912109375,84.958251953125,51.99681091308594,71.37760925292969,51.0,0.0,-20.0
32,100,60,60,go_to_pick_up_from_blue,blue,true,false,joint 1 -,false,2024-03-04 13:12:10.985306,16.481,0.198,236.8,258.7715759277344,173.61166381835938,84.958251953125,13.85793685913086,33.233394622802734,51.0,0.0,-20.0
32,100,60,60,moving_belt,blue,false,true,joint 1 -,false,2024-03-04 13:12:11.730746,16.576,0.157,236.8,292.8220520019531,106.5785140991211,84.958251953125,0.0,20.0,51.0,0.0,-20.0
32,100,60,60,moving_belt,blue,false,true,joint 1 -,false,2024-03-04 13:12:12.529178,16.576,0.157,236.8,292.8220520019531,106.5785140991211,84.958251953125,0.0,20.0,51.0,0.0,-20.0
32,100,60,60,moving_belt,blue,false,true,joint 1 -,false,2024-03-04 13:12:13.912325,16.595,0.156,236.8,292.8220520019531,106.5785140991211,84.958251953125,0.0,20.0,51.0,0.0,-20.0
32,100,60,60,moving_belt,blue,false,true,joint 1 -,false,2024-03-04 13:12:14.598738,16.291,0.156,236.8,292.8220520019531,106.5785140991211,84.958251953125,0.0,20.0,51.0,0.0,-20.0
32,100,60,60,moving_belt,blue,false,true,joint 1 -,false,2024-03-04 13:12:15.971391,16.348,0.157,236.8,292.8220520019531,106.5785140991211,84.958251953125,0.0,20.0,51.0,0.0,-20.0
32,100,60,60,go_to_pick_down,blue,true,false,joint 3 +,false,2024-03-04 13:12:16.662404,16.367,0.157,236.8,291.7501525878906,106.1883773803711,66.6808853149414,0.0,20.0,51.0,7.603201389312744,-20.0
32,100,60,60,go_to_pick_up_from_pick_down,blue,true,false,joint 3 -,true,2024-03-04 13:12:18.037959,16.234,0.154,236.8,282.76361083984375,102.91754913330078,29.89107894897461,0.0,20.0,51.0,22.0,-20.0
32,100,60,60,go_to_pick_up_from_pick_down,blue,true,false,joint 3 -,true,2024-03-04 13:12:18.725746,16.234,0.154,236.8,292.18304443359375,106.34593200683594,70.8349380493164,0.0,20.0,51.0,5.12200927734375,-20.0
32,100,60,60,go_to_color_detect_up_from_pick_up,blue,true,false,joint 1 +,true,2024-03-04 13:12:19.418401,23.032,0.154,236.8,289.0088195800781,116.52310180664062,84.958251953125,1.9583969116210938,22.203197479248047,51.0,0.0,-20.0
32,100,60,60,go_to_color_detect_up_from_pick_up,blue,true,false,joint 1 +,true,2024-03-04 13:12:20.797682,21.95,0.198,236.8,204.8899383544922,234.7847137451172,84.958251953125,28.88971710205078,49.56368637084961,51.0,0.0,-20.0
32,100,60,60,go_to_color_detect_down,blue,true,false,joint 3 +,true,2024-03-04 13:12:21.524549,21.95,0.198,236.8,131.69387817382812,282.4184265136719,84.58879852294922,45.0,65.0,51.0,0.2160000205039978,-20.0
32,100,60,60,go_to_color_detect_down,blue,true,false,joint 3 +,true,2024-03-04 13:12:22.925995,21.95,0.198,236.8,128.0054168701172,274.5085144042969,35.059505462646484,45.0,65.0,51.0,20.606403350830078,-20.0
32,100,60,60,go_to_color_detect_down,blue,true,false,joint 3 +,true,2024-03-04 13:12:24.030477,21.798,0.198,236.8,112.42314147949219,241.09219360351562,-21.469284057617188,45.0,65.0,51.0,46.59383010864258,-20.0
32,100,60,60,go_to_color_detect_up_from_color_detect_down,blue,true,false,joint 3 -,false,2024-03-04 13:12:24.746715,21.779,0.196,236.8,117.89838409423828,252.83389282226562,-7.4082183837890625,45.0,65.0,51.0,38.409603118896484,-20.0
32,100,60,60,go_to_color_detect_up_from_color_detect_down,blue,true,false,joint 3 -,false,2024-03-04 13:12:25.651687,16.462,0.196,236.8,131.2432403564453,281.4519958496094,67.28069305419922,45.0,65.0,51.0,6.468079566955566,-20.0
32,100,60,60,detecting_color,blue,false,false,detecting_color,false,2024-03-04 13:12:26.385828,16.462,0.158,236.8,131.69407653808594,282.4188232421875,84.958251953125,45.0,65.0,51.0,0.0,-20.0
32,100,60,60,detecting_color,blue,false,false,detecting_color,false,2024-03-04 13:12:27.917672,16.253,0.158,236.8,131.69407653808594,282.4188232421875,84.958251953125,45.0,65.0,51.0,0.0,-20.0
32,100,60,60,go_to_color_detect_down,blue,true,false,joint 3 +,false,2024-03-04 13:12:28.610255,16.253,0.154,236.8,129.7809600830078,278.3161315917969,48.758792877197266,45.0,65.0,51.0,14.904001235961914,-20.0
32,100,60,60,go_to_color_detect_down,blue,true,false,joint 3 +,false,2024-03-04 13:12:29.989932,16.253,0.154,236.8,113.86177825927734,244.1773681640625,-18.118743896484375,45.0,65.0,51.0,44.83285140991211,-20.0
32,100,60,60,go_to_color_detect_up_from_color_detect_down,blue,true,false,joint 3 -,true,2024-03-04 13:12:30.703177,16.177,0.154,236.8,114.2387924194336,244.98587036132812,-17.203773498535156,45.0,65.0,51.0,43.68000411987305,-20.0
32,100,60,60,go_to_color_detect_up_from_color_detect_down,blue,true,false,joint 3 -,true,2024-03-04 13:12:31.393781,22.937,0.155,236.8,130.6770782470703,280.2378845214844,58.46879959106445,45.0,65.0,51.0,9.8418607711792,-20.0
32,100,60,60,go_to_red_up,red,true,false,joint 1 +,true,2024-03-04 13:12:32.854120,22.633,0.198,236.8,129.70339965820312,283.3385925292969,84.958251953125,45.4031982421875,65.51839447021484,51.0,0.0,-20.0
32,100,60,60,go_to_red_up,red,true,false,joint 1 +,true,2024-03-04 13:12:33.547790,22.007,0.198,236.8,15.3527193069458,311.23626708984375,84.958251953125,67.17599487304688,87.98239135742188,51.0,0.0,-20.0
32,100,60,60,go_to_red_up,red,true,false,joint 1 +,true,2024-03-04 13:12:35.049559,22.253,0.2,236.8,-166.2013397216797,263.5921630859375,84.958251953125,102.23242950439453,122.50746154785156,51.0,0.0,-20.0
32,100,60,60,go_to_pick_up_from_red,red,true,false,joint 1 -,false,2024-03-04 13:12:36.012106,22.253,0.2,236.8,-158.9992218017578,267.9980773925781,84.958251953125,100.68000793457031,120.32000732421875,51.0,0.0,-20.0
32,100,60,60,go_to_pick_up_from_red,red,true,false,joint 1 -,false,2024-03-04 13:12:36.933035,19.576,0.2,236.8,15.456938743591309,311.23114013671875,84.958251953125,67.15680694580078,86.10560607910156,51.0,0.0,-20.0
32,100,60,60,go_to_pick_up_from_red,red,true,false,joint 1 -,false,2024-03-04 13:12:37.627131,16.538,0.154,236.8,257.9735107421875,174.79530334472656,84.958251953125,14.120418548583984,33.489952087402344,51.0,0.0,-20.0
32,100,60,60,moving_belt,red,false,true,joint 1 -,false,2024-03-04 13:12:39.009251,16.519,0.154,236.8,292.8220520019531,106.5785140991211,84.958251953125,0.0,20.0,51.0,0.0,-20.0
32,100,60,60,moving_belt,red,false,true,joint 1 -,false,2024-03-04 13:12:39.717762,16.519,0.155,236.8,292.8220520019531,106.5785140991211,84.958251953125,0.0,20.0,51.0,0.0,-20.0
32,100,60,60,moving_belt,red,false,true,joint 1 -,false,2024-03-04 13:12:40.410446,16.519,0.155,236.8,292.8220520019531,106.5785140991211,84.958251953125,0.0,20.0,51.0,0.0,-20.0
32,100,60,60,moving_belt,red,false,true,joint 1 -,false,2024-03-04 13:12:41.792065,16.329,0.154,236.8,292.8220520019531,106.5785140991211,84.958251953125,0.0,20.0,51.0,0.0,-20.0
32,100,60,60,moving_belt,red,false,true,joint 1 -,false,2024-03-04 13:12:42.485671,16.519,0.154,236.8,292.8220520019531,106.5785140991211,84.958251953125,0.0,20.0,51.0,0.0,-20.0
32,100,60,60,go_to_pick_down,red,true,false,joint 3 +,false,2024-03-04 13:12:43.946591,16.329,0.154,236.8,291.7501525878906,106.1883773803711,66.6808853149414,0.0,20.0,51.0,7.603201389312744,-20.0
32,100,60,60,go_to_pick_up_from_pick_down,red,true,false,joint 3 -,true,2024-03-04 13:12:44.638324,16.329,0.153,236.8,282.76361083984375,102.91754913330078,29.89107894897461,0.0,20.0,51.0,22.0,-20.0
32,100,60,60,go_to_pick_up_from_pick_down,red,true,false,joint 3 -,true,2024-03-04 13:12:46.022162,22.747,0.153,236.8,291.42230224609375,106.06905364990234,64.08447265625,0.0,20.0,51.0,7.685807704925537,-20.0
32,100,60,60,go_to_color_detect_up_from_pick_up,red,true,false,joint 1 +,true,2024-03-04 13:12:46.714989,22.956,0.206,236.8,289.0088195800781,116.52310180664062,84.958251953125,1.9583969116210938,22.203197479248047,51.0,0.0,-20.0
32,100,60,60,go_to_color_detect_up_from_pick_up,red,true,false,joint 1 +,true,2024-03-04 13:12:47.402011,22.956,0.206,236.8,204.8899383544922,234.7847137451172,84.958251953125,28.88971710205078,49.56368637084961,51.0,0.0,-20.0
32,100,60,60,go_to_color_detect_down,red,true,false,joint 3 +,true,2024-03-04 13:12:48.828199,23.032,0.204,236.8,131.69407653808594,282.4188232421875,84.958251953125,45.0,65.0,51.0,0.0,-20.0
32,100,60,60,go_to_color_detect_down,red,true,false,joint 3 +,true,2024-03-04 13:12:49.528853,22.671,0.204,236.8,128.0054168701172,274.5085144042969,35.059505462646484,45.0,65.0,51.0,20.606403350830078,-20.0
32,100,60,60,go_to_color_detect_down,red,true,false,joint 3 +,true,2024-03-04 13:12:50.910451,22.557,0.2,236.8,112.42314147949219,241.09219360351562,-21.469284057617188,45.0,65.0,51.0,46.59383010864258,-20.0
32,100,60,60,go_to_color_detect_up_from_color_detect_down,red,true,false,joint 3 -,false,2024-03-04 13:12:51.597441,22.538,0.2,236.8,116.23851776123047,249.2742919921875,-12.069717407226562,45.0,65.0,51.0,40.85760498046875,-20.0
32,100,60,60,go_to_color_detect_up_from_color_detect_down,red,true,false,joint 3 -,false,2024-03-04 13:12:53.028665,17.393,0.156,236.8,131.2432403564453,281.4519958496094,67.28069305419922,45.0,65.0,51.0,6.468079566955566,-20.0
32,100,60,60,detecting_color,red,false,false,detecting_color,false,2024-03-04 13:12:53.718242,16.956,0.156,236.8,131.69407653808594,282.4188232421875,84.958251953125,45.0,65.0,51.0,0.0,-20.0
32,100,60,60,detecting_color,red,false,false,detecting_color,false,2024-03-04 13:12:54.775941,16.31,0.156,236.8,131.69407653808594,282.4188232421875,84.958251953125,45.0,65.0,51.0,0.0,-20.0
32,100,60,60,detecting_color,red,false,false,detecting_color,false,2024-03-04 13:12:55.467670,16.31,0.154,236.8,131.69407653808594,282.4188232421875,84.958251953125,45.0,65.0,51.0,0.0,-20.0
32,100,60,60,detecting_color,red,false,false,detecting_color,false,2024-03-04 13:12:56.846277,16.329,0.154,236.8,131.69407653808594,282.4188232421875,84.958251953125,45.0,65.0,51.0,0.0,-20.0
32,100,60,60,go_to_color_detect_down,red,true,false,joint 3 +,false,2024-03-04 13:12:57.538968,16.329,0.155,236.8,130.3794403076172,279.5995788574219,54.877235412597656,45.0,65.0,51.0,12.398401260375977,-20.0
32,100,60,60,go_to_color_detect_down,red,true,false,joint 3 +,false,2024-03-04 13:12:58.920274,16.063,0.155,236.8,115.18018341064453,247.0046844482422,-14.847755432128906,45.0,65.0,51.0,43.14300537109375,-20.0
32,100,60,60,go_to_color_detect_up_from_color_detect_down,red,true,false,joint 3 -,true,2024-03-04 13:12:59.615281,16.291,0.153,236.8,113.0840072631836,242.50942993164062,-19.95716094970703,45.0,65.0,51.0,45.263999938964844,-20.0
32,100,60,60,go_to_color_detect_up_from_color_detect_down,red,true,false,joint 3 -,true,2024-03-04 13:13:00.990271,23.108,0.153,236.8,130.02899169921875,278.8480529785156,51.152740478515625,45.0,65.0,51.0,12.683704376220703,-20.0
32,100,60,60,go_to_green_up,green,true,false,joint 1 +,true,2024-03-04 13:13:01.678933,23.298,0.207,236.8,131.48109436035156,282.51806640625,84.958251953125,45.04319763183594,65.08639526367188,51.0,0.0,-20.0
32,100,60,60,go_to_green_up,green,true,false,joint 1 +,true,2024-03-04 13:13:03.056304,22.671,0.207,236.8,36.03224182128906,309.52447509765625,84.958251953125,63.35999298095703,84.09439086914062,51.0,0.0,-20.0
32,100,60,60,go_to_green_up,green,true,false,joint 1 +,true,2024-03-04 13:13:03.750638,22.823,0.205,236.8,-80.61421203613281,301.00677490234375,84.958251953125,84.99283599853516,104.99872589111328,51.0,0.0,-20.0
32,100,60,60,go_to_pick_up_from_green,green,true,false,joint 1 -,false,2024-03-04 13:13:04.437986,22.671,0.205,236.8,-7.491655349731445,311.524658203125,84.958251953125,71.37760925292969,90.74401092529297,51.0,0.0,-20.0
32,100,60,60,go_to_pick_up_from_green,green,true,false,joint 1 -,false,2024-03-04 13:13:05.823533,16.481,0.155,236.8,209.2404327392578,230.91595458984375,84.958251953125,27.819252014160156,46.93136215209961,51.0,0.0,-20.0
32,100,60,60,go_to_pick_up_from_green,green,true,false,joint 1 -,false,2024-03-04 13:13:06.515041,16.405,0.155,236.8,291.9197692871094,109.02560424804688,84.958251953125,0.47955322265625,20.3692626953125,51.0,0.0,-20.0
32,100,60,60,moving_belt,green,false,true,joint 1 -,false,2024-03-04 13:13:07.900494,16.348,0.155,236.8,292.8220520019531,106.5785140991211,84.958251953125,0.0,20.0,51.0,0.0,-20.0
32,100,60,60,moving_belt,green,false,true,joint 1 -,false,2024-03-04 13:13:08.599249,16.348,0.157,236.8,292.8220520019531,106.5785140991211,84.958251953125,0.0,20.0,51.0,0.0,-20.0
32,100,60,60,moving_belt,green,false,true,joint 1 -,false,2024-03-04 13:13:09.971284,16.481,0.157,236.8,292.8220520019531,106.5785140991211,84.958251953125,0.0,20.0,51.0,0.0,-20.0
32,100,60,60,moving_belt,green,false,true,joint 1 -,false,2024-03-04 13:13:10.658530,16.386,0.154,236.8,292.8220520019531,106.5785140991211,84.958251953125,0.0,20.0,51.0,0.0,-20.0
32,100,60,60,go_to_pick_down,green,true,false,joint 3 +,false,2024-03-04 13:13:12.045689,16.31,0.154,236.8,292.7955322265625,106.56885528564453,82.07671356201172,0.0,20.0,51.0,1.3103998899459839,-20.0
32,100,60,60,go_to_pick_down,green,true,false,joint 3 +,false,2024-03-04 13:13:12.735985,16.291,0.154,236.8,283.63037109375,103.23301696777344,32.23146438598633,0.0,20.0,51.0,21.18039894104004,-20.0
32,100,60,60,go_to_pick_up_from_pick_down,green,true,false,joint 3 -,true,2024-03-04 13:13:13.439631,16.291,0.154,236.8,288.20367431640625,104.89756774902344,47.264854431152344,0.0,20.0,51.0,14.396804809570312,-20.0
32,100,60,60,go_to_color_detect_up_from_pick_up,green,true,false,joint 1 +,true,2024-03-04 13:13:14.851947,22.5,0.2,236.8,292.8220520019531,106.5785140991211,84.958251953125,0.0,20.0,51.0,0.0,-20.0
32,100,60,60,go_to_color_detect_up_from_pick_up,green,true,false,joint 1 +,true,2024-03-04 13:13:15.543470,22.5,0.2,236.8,236.5774688720703,202.81724548339844,84.958251953125,20.606395721435547,41.383995056152344,51.0,0.0,-20.0
32,100,60,60,go_to_color_detect_up_from_pick_up,green,true,false,joint 1 +,true,2024-03-04 13:13:16.919728,22.102,0.199,236.8,135.447265625,280.63812255859375,84.958251953125,44.236167907714844,64.37733459472656,51.0,0.0,-20.0
32,100,60,60,go_to_color_detect_down,green,true,false,joint 3 +,true,2024-03-04 13:13:17.608141,21.988,0.199,236.8,131.000732421875,280.9319763183594,63.05773162841797,45.0,65.0,51.0,9.072001457214355,-20.0
32,100,60,60,go_to_color_detect_down,green,true,false,joint 3 +,true,2024-03-04 13:13:18.988407,21.798,0.195,236.8,117.03922271728516,250.9914093017578,-9.869972229003906,45.0,65.0,51.0,40.639991760253906,-20.0
32,100,60,60,go_to_color_detect_up_from_color_detect_down,green,true,false,joint 3 -,false,2024-03-04 13:13:19.675006,21.779,0.195,236.8,113.0840072631836,242.50942993164062,-19.95716094970703,45.0,65.0,51.0,45.263999938964844,-20.0
32,100,60,60,go_to_color_detect_up_from_color_detect_down,green,true,false,joint 3 -,false,2024-03-04 13:13:21.050255,18.437,0.157,236.8,128.89419555664062,276.41448974609375,41.32477569580078,45.0,65.0,51.0,16.569116592407227,-20.0
32,100,60,60,detecting_color,green,false,false,detecting_color,false,2024-03-04 13:13:21.741957,16.956,0.157,236.8,131.69407653808594,282.4188232421875,84.93827819824219,45.0,65.0,51.0,0.0010159830562770367,-20.0
32,100,60,60,detecting_color,green,false,false,detecting_color,false,2024-03-04 13:13:23.122953,16.31,0.157,236.8,131.69407653808594,282.4188232421875,84.958251953125,45.0,65.0,51.0,0.0,-20.0
32,100,60,60,go_to_color_detect_down,green,true,false,joint 3 +,false,2024-03-04 13:13:23.814248,16.31,0.155,236.8,131.6577911376953,282.3410339355469,79.9346923828125,45.0,65.0,51.0,2.203200101852417,-20.0
32,100,60,60,go_to_color_detect_down,green,true,false,joint 3 +,false,2024-03-04 13:13:24.508140,16.329,0.155,236.8,121.0252456665039,259.5394592285156,2.5894241333007812,45.0,65.0,51.0,34.70473861694336,-20.0
32,100,60,60,go_to_color_detect_up_from_color_detect_down,green,true,false,joint 3 -,true,2024-03-04 13:13:25.903482,16.234,0.153,236.8,111.15045166015625,238.36289978027344,-24.259315490722656,45.0,65.0,51.0,47.9567985534668,-20.0
32,100,60,60,go_to_color_detect_up_from_color_detect_down,green,true,false,joint 3 -,true,2024-03-04 13:13:26.601598,18.285,0.153,236.8,122.78392791748047,263.31097412109375,9.103424072265625,45.0,65.0,51.0,30.360004425048828,-20.0
32,100,60,60,go_to_color_detect_up_from_color_detect_down,green,true,false,joint 3 -,true,2024-03-04 13:13:27.983001,22.31,0.203,236.8,131.68017578125,282.3890075683594,81.84839630126953,45.0,65.0,51.0,1.0326409339904785,-20.0
32,100,60,60,go_to_blue_up,blue,true,false,joint 1 +,true,2024-03-04 13:13:28.713557,22.196,0.203,235.0,93.1689224243164,297.36053466796875,84.958251953125,52.60319519042969,73.0783920288086,51.0,0.0,-20.0
32,100,60,60,go_to_pick_up_from_blue,blue,true,false,joint 1 -,false,2024-03-04 13:13:30.097844,21.779,0.198,235.0,27.627050399780273,310.38763427734375,84.958251953125,64.91360473632812,84.85600280761719,51.0,0.0,-20.0
32,100,60,60,go_to_pick_up_from_blue,blue,true,false,joint 1 -,false,2024-03-04 13:13:30.796931,21.855,0.198,235.0,150.13673400878906,273.0616760253906,84.958251953125,41.196807861328125,60.36160659790039,51.0,0.0,-20.0
32,100,60,60,go_to_pick_up_from_blue,blue,true,false,joint 1 -,false,2024-03-04 13:13:31.490243,16.329,0.198,235.0,280.0731201171875,136.6117401123047,84.958251953125,6.001808166503906,25.593265533447266,51.0,0.0,-20.0
32,100,60,60,moving_belt,blue,false,true,joint 1 -,false,2024-03-04 13:13:32.258332,16.329,0.155,235.0,292.8220520019531,106.5785140991211,84.958251953125,0.0,20.0,51.0,0.0,-20.0
32,100,60,60,moving_belt,blue,false,true,joint 1 -,false,2024-03-04 13:13:33.589878,16.367,0.155,235.0,292.8220520019531,106.5785140991211,84.958251953125,0.0,20.0,51.0,0.0,-20.0
32,100,60,60,moving_belt,blue,false,true,joint 1 -,false,2024-03-04 13:13:34.409105,16.557,0.155,235.0,292.8220520019531,106.5785140991211,84.958251953125,0.0,20.0,51.0,0.0,-20.0
32,100,60,60,moving_belt,blue,false,true,joint 1 -,false,2024-03-04 13:13:35.740215,16.272,0.155,235.0,292.8220520019531,106.5785140991211,84.958251953125,0.0,20.0,51.0,0.0,-20.0
32,100,60,60,moving_belt,blue,false,true,joint 1 -,false,2024-03-04 13:13:36.443861,16.215,0.154,235.0,292.8220520019531,106.5785140991211,84.958251953125,0.0,20.0,51.0,0.0,-20.0
32,100,60,60,go_to_pick_down,blue,true,false,joint 3 +,false,2024-03-04 13:13:37.830903,16.291,0.154,235.0,289.09246826171875,105.22106170654297,51.03009033203125,0.0,20.0,51.0,13.83650016784668,-20.0
32,100,60,60,go_to_pick_up_from_pick_down,blue,true,false,joint 3 -,true,2024-03-04 13:13:38.526577,16.291,0.154,235.0,283.4666442871094,103.17342376708984,31.780296325683594,0.0,20.0,51.0,21.049602508544922,-20.0
32,100,60,60,go_to_pick_up_from_pick_down,blue,true,false,joint 3 -,true,2024-03-04 13:13:39.899826,22.88,0.154,235.0,292.7839660644531,106.56465148925781,81.50647735595703,0.0,20.0,51.0,1.1558129787445068,-20.0
32,100,60,60,go_to_color_detect_up_from_pick_up,blue,true,false,joint 1 +,true,2024-03-04 13:13:40.589955,21.931,0.154,235.0,277.29827880859375,142.1597137451172,84.958251953125,7.14239501953125,27.603195190429688,51.0,0.0,-20.0
32,100,60,60,go_to_color_detect_up_from_pick_up,blue,true,false,joint 1 +,true,2024-03-04 13:13:41.968202,22.14,0.198,235.0,167.4889373779297,262.7759094238281,84.958251953125,37.48725128173828,57.945220947265625,51.0,0.0,-20.0
32,100,60,60,go_to_color_detect_down,blue,true,false,joint 3 +,true,2024-03-04 13:13:42.661393,22.158,0.198,235.0,131.62326049804688,282.2669677734375,77.94134521484375,45.0,65.0,51.0,3.024000406265259,-20.0
32,100,60,60,go_to_color_detect_down,blue,true,false,joint 3 +,true,2024-03-04 13:13:44.081716,21.931,0.197,236.8,122.57847595214844,262.8703918457031,8.30218505859375,45.0,65.0,51.0,32.11445999145508,-20.0
32,100,60,60,go_to_color_detect_up_from_color_detect_down,blue,true,false,joint 3 -,false,2024-03-04 13:13:44.777345,21.836,0.197,236.8,111.13966369628906,238.3397674560547,-24.282310485839844,45.0,65.0,51.0,48.0,-20.0
32,100,60,60,go_to_color_detect_up_from_color_detect_down,blue,true,false,joint 3 -,false,2024-03-04 13:13:45.465244,21.931,0.195,236.8,123.56501770019531,264.98602294921875,12.259567260742188,45.0,65.0,51.0,28.90560531616211,-20.0
32,100,60,60,go_to_color_detect_up_from_color_detect_down,blue,true,false,joint 3 -,false,2024-03-04 13:13:46.848422,16.652,0.195,236.8,131.65335083007812,282.3315124511719,79.63704681396484,45.0,65.0,51.0,1.8373160362243652,-20.0
32,100,60,60,detecting_color,blue,false,false,detecting_color,false,2024-03-04 13:13:47.535861,16.652,0.158,236.8,131.69407653808594,282.4188232421875,84.958251953125,45.0,65.0,51.0,0.0,-20.0
32,100,60,60,go_to_color_detect_down,blue,true,false,joint 3 +,false,2024-03-04 13:13:48.920978,16.405,0.158,236.8,131.68814086914062,282.4060974121094,82.92633056640625,45.0,65.0,51.0,0.9504000544548035,-20.0
32,100,60,60,go_to_color_detect_down,blue,true,false,joint 3 +,false,2024-03-04 13:13:49.608818,16.405,0.155,236.8,125.66834259033203,269.4966125488281,21.802963256835938,45.0,65.0,51.0,26.24271011352539,-20.0
32,100,60,60,go_to_color_detect_down,blue,true,false,joint 3 +,false,2024-03-04 13:13:51.008026,16.253,0.155,236.8,111.60433197021484,239.33624267578125,-23.282180786132812,45.0,65.0,51.0,47.54164123535156,-20.0
32,100,60,60,go_to_color_detect_up_from_color_detect_down,blue,true,false,joint 3 -,true,2024-03-04 13:13:51.743161,16.348,0.171,236.8,120.46089935302734,258.3292236328125,0.64923095703125,45.0,65.0,51.0,34.377601623535156,-20.0
32,100,60,60,go_to_color_detect_up_from_color_detect_down,blue,true,false,joint 3 -,true,2024-03-04 13:13:53.136694,22.671,0.171,236.8,131.50340270996094,282.0099182128906,73.44973754882812,45.0,65.0,51.0,4.137866497039795,-20.0
32,100,60,60,go_to_red_up,red,true,false,joint 1 +,true,2024-03-04 13:13:53.824698,22.5,0.199,236.8,108.21231079101562,292.22222900390625,84.958251953125,49.67999267578125,70.05438995361328,51.0,0.0,-20.0
32,100,60,60,go_to_red_up,red,true,false,joint 1 +,true,2024-03-04 13:13:54.512378,21.95,0.199,236.8,-64.4321517944336,304.8807067871094,84.958251953125,81.93305206298828,102.74088287353516,51.0,0.0,-20.0
32,100,60,60,go_to_red_up,red,true,false,joint 1 +,true,2024-03-04 13:13:55.897196,22.348,0.199,236.8,-178.51011657714844,255.4170379638672,84.958251953125,104.94956970214844,124.97980499267578,51.0,0.0,-20.0
32,100,60,60,go_to_pick_up_from_red,red,true,false,joint 1 -,false,2024-03-04 13:13:56.588119,22.386,0.199,236.8,-116.71685028076172,288.9306335449219,84.958251953125,91.99681091308594,111.37760925292969,51.0,0.0,-20.0
32,100,60,60,go_to_pick_up_from_red,red,true,false,joint 1 -,false,2024-03-04 13:13:57.966138,17.563,0.199,236.8,124.71640014648438,285.5688171386719,84.958251953125,46.40766906738281,65.25880432128906,51.0,0.0,-20.0
32,100,60,60,go_to_pick_up_from_red,red,true,false,joint 1 -,false,2024-03-04 13:13:58.688377,16.462,0.154,236.8,276.392578125,143.91275024414062,84.958251953125,7.505199432373047,27.047531127929688,51.0,0.0,-20.0
32,100,60,60,moving_belt,red,false,true,joint 1 -,false,2024-03-04 13:14:00.077530,16.519,0.154,236.8,292.8220520019531,106.5785140991211,84.958251953125,0.0,20.0,51.0,0.0,-20.0
32,100,60,60,moving_belt,red,false,true,joint 1 -,false,2024-03-04 13:14:00.787159,16.804,0.157,236.8,292.8220520019531,106.5785140991211,84.958251953125,0.0,20.0,51.0,0.0,-20.0
32,100,60,60,moving_belt,red,false,true,joint 1 -,false,2024-03-04 13:14:01.475460,16.804,0.157,236.8,292.8220520019531,106.5785140991211,84.958251953125,0.0,20.0,51.0,0.0,-20.0
32,100,60,60,moving_belt,red,false,true,joint 1 -,false,2024-03-04 13:14:02.853917,16.348,0.156,236.8,292.8220520019531,106.5785140991211,84.958251953125,0.0,20.0,51.0,0.0,-20.0
32,100,60,60,go_to_pick_down,red,true,false,joint 3 +,false,2024-03-04 13:14:03.552268,16.348,0.156,236.8,292.8220520019531,106.5785140991211,84.958251953125,0.0,20.0,51.0,0.0,-20.0
32,100,60,60,go_to_pick_down,red,true,false,joint 3 +,false,2024-03-04 13:14:04.928939,16.481,0.155,236.8,287.6939697265625,104.71204376220703,45.27656555175781,0.0,20.0,51.0,16.08099937438965,-20.0
32,100,60,60,go_to_pick_up_from_pick_down,red,true,false,joint 3 -,true,2024-03-04 13:14:05.619588,16.481,0.155,236.8,284.2657775878906,103.46427917480469,34.026084899902344,0.0,20.0,51.0,20.041603088378906,-20.0
32,100,60,60,go_to_pick_up_from_pick_down,red,true,false,joint 3 -,true,2024-03-04 13:14:06.309035,16.158,0.155,236.8,292.77154541015625,106.56013488769531,80.98300170898438,0.0,20.0,51.0,1.3455127477645874,-20.0
32,100,60,60,go_to_color_detect_up_from_pick_up,red,true,false,joint 1 +,true,2024-03-04 13:14:07.962532,22.747,0.207,236.8,272.3543395996094,151.41615295410156,84.958251953125,9.07199478149414,29.590394973754883,51.0,0.0,-20.0
32,100,60,60,go_to_color_detect_up_from_pick_up,red,true,false,joint 1 +,true,2024-03-04 13:14:08.654463,22.557,0.207,236.8,159.40713500976562,267.7556457519531,84.958251953125,39.23272705078125,59.633094787597656,51.0,0.0,-20.0
32,100,60,60,go_to_color_detect_down,red,true,false,joint 3 +,true,2024-03-04 13:14:10.036377,22.633,0.203,236.8,131.64816284179688,282.32037353515625,79.30703735351562,45.0,65.0,51.0,2.462400197982788,-20.0
32,100,60,60,go_to_color_detect_down,red,true,false,joint 3 +,true,2024-03-04 13:14:10.727066,22.348,0.203,236.8,121.0252456665039,259.5394592285156,2.5894241333007812,45.0,65.0,51.0,34.70473861694336,-20.0
32,100,60,60,go_to_color_detect_up_from_color_detect_down,red,true,false,joint 3 -,false,2024-03-04 13:14:12.112707,22.348,0.198,236.8,111.15045166015625,238.36289978027344,-24.259315490722656,45.0,65.0,51.0,47.9567985534668,-20.0
32,100,60,60,go_to_color_detect_up_from_color_detect_down,red,true,false,joint 3 -,false,2024-03-04 13:14:12.810560,22.348,0.198,236.8,123.1746826171875,264.14892578125,10.659805297851562,45.0,65.0,51.0,29.640005111694336,-20.0
32,100,60,60,go_to_color_detect_up_from_color_detect_down,red,true,false,joint 3 -,false,2024-03-04 13:14:13.539805,16.462,0.153,236.8,131.68399047851562,282.397216796875,82.30901336669922,45.0,65.0,51.0,0.8674721717834473,-20.0
32,100,60,60,detecting_color,red,false,false,detecting_color,false,2024-03-04 13:14:14.983908,16.576,0.153,236.8,131.69407653808594,282.4188232421875,84.958251953125,45.0,65.0,51.0,0.0,-20.0
32,100,60,60,detecting_color,red,false,false,detecting_color,false,2024-03-04 13:14:15.683808,16.367,0.152,236.8,131.69407653808594,282.4188232421875,84.958251953125,45.0,65.0,51.0,0.0,-20.0
32,100,60,60,go_to_color_detect_down,red,true,false,joint 3 +,false,2024-03-04 13:14:17.062460,16.196,0.152,236.8,131.5685272216797,282.14959716796875,75.617431640625,45.0,65.0,51.0,3.974400758743286,-20.0
32,100,60,60,go_to_color_detect_down,red,true,false,joint 3 +,false,2024-03-04 13:14:17.062460,16.196,0.152,236.8,119.14213562011719,255.50112915039062,-3.6408843994140625,45.0,65.0,51.0,37.61857986450195,-20.0
32,100,60,60,go_to_color_detect_up_from_color_detect_down,red,true,false,joint 3 -,true,2024-03-04 13:14:18.940396,16.177,0.152,236.8,111.25475311279297,238.58656311035156,-24.036483764648438,45.0,65.0,51.0,47.784000396728516,-20.0
32,100,60,60,go_to_color_detect_up_from_color_detect_down,red,true,false,joint 3 -,true,2024-03-04 13:14:19.629356,17.734,0.152,236.8,123.95438385009766,265.8210144042969,13.903152465820312,45.0,65.0,51.0,28.15680503845215,-20.0
32,100,60,60,go_to_color_detect_up_from_color_detect_down,red,true,false,joint 3 -,true,2024-03-04 13:14:21.035581,22.88,0.206,236.8,131.69088745117188,282.4119873046875,83.46935272216797,45.0,65.0,51.0,0.45836570858955383,-20.0
32,100,60,60,go_to_green_up,green,true,false,joint 1 +,true,2024-03-04 13:14:21.725439,22.899,0.206,236.8,82.80157470703125,300.4124450683594,84.958251953125,54.59039306640625,75.1231918334961,51.0,0.0,-20.0
32,100,60,60,go_to_green_up,green,true,false,joint 1 +,true,2024-03-04 13:14:23.114344,22.595,0.2,236.8,-63.99536895751953,304.9726867675781,84.958251953125,81.8509750366211,102.14486694335938,51.0,0.0,-20.0
32,100,60,60,go_to_pick_up_from_green,green,true,false,joint 1 -,false,2024-03-04 13:14:23.801166,22.177,0.2,236.8,-45.00513458251953,308.34765625,84.958251953125,78.30400848388672,97.85760498046875,51.0,0.0,-20.0
32,100,60,60,go_to_pick_up_from_green,green,true,false,joint 1 -,false,2024-03-04 13:14:24.488667,22.177,0.185,236.8,152.63043212890625,271.6756896972656,84.958251953125,40.67223358154297,59.59714126586914,51.0,0.0,-20.0
32,100,60,60,go_to_pick_up_from_green,green,true,false,joint 1 -,false,2024-03-04 13:14:25.876712,16.291,0.185,236.8,281.69964599609375,133.22547912597656,84.958251953125,5.311079025268555,24.927188873291016,51.0,0.0,-20.0
32,100,60,60,moving_belt,green,false,true,joint 1 -,false,2024-03-04 13:14:26.567016,16.462,0.155,236.8,292.8220520019531,106.5785140991211,84.958251953125,0.0,20.0,51.0,0.0,-20.0
32,100,60,60,moving_belt,green,false,true,joint 1 -,false,2024-03-04 13:14:27.255941,16.462,0.155,236.8,292.8220520019531,106.5785140991211,84.958251953125,0.0,20.0,51.0,0.0,-20.0
32,100,60,60,moving_belt,green,false,true,joint 1 -,false,2024-03-04 13:14:28.898516,16.215,0.154,236.8,292.8220520019531,106.5785140991211,84.958251953125,0.0,20.0,51.0,0.0,-20.0
32,100,60,60,moving_belt,green,false,true,joint 1 -,false,2024-03-04 13:14:29.611732,16.215,0.154,236.8,292.8220520019531,106.5785140991211,84.958251953125,0.0,20.0,51.0,0.0,-20.0
32,100,60,60,go_to_pick_down,green,true,false,joint 3 +,false,2024-03-04 13:14:31.029647,16.234,0.154,236.8,292.8220520019531,106.5785140991211,84.958251953125,0.0,20.0,51.0,0.0,-20.0
32,100,60,60,go_to_pick_down,green,true,false,joint 3 +,false,2024-03-04 13:14:31.729168,16.367,0.154,236.8,288.2530517578125,104.91553497314453,47.463539123535156,0.0,20.0,51.0,15.226400375366211,-20.0
32,100,60,60,go_to_pick_up_from_pick_down,green,true,false,joint 3 -,true,2024-03-04 13:14:33.111663,16.158,0.152,236.8,285.0876770019531,103.76343536376953,36.459808349609375,0.0,20.0,51.0,18.976003646850586,-20.0
32,100,60,60,go_to_pick_up_from_pick_down,green,true,false,joint 3 -,true,2024-03-04 13:14:33.808429,23.013,0.152,236.8,292.80792236328125,106.5733642578125,82.85549926757812,0.0,20.0,51.0,0.6731135845184326,-20.0
32,100,60,60,go_to_color_detect_up_from_pick_up,green,true,false,joint 1 +,true,2024-03-04 13:14:34.500276,22.083,0.152,236.8,264.8161315917969,164.244140625,84.958251953125,11.807994842529297,32.39839553833008,51.0,0.0,-20.0
32,100,60,60,go_to_color_detect_up_from_pick_up,green,true,false,joint 1 +,true,2024-03-04 13:14:35.873611,21.931,0.196,236.8,150.64279174804688,272.7828369140625,84.958251953125,41.090572357177734,61.418941497802734,51.0,0.0,-20.0
32,100,60,60,go_to_color_detect_down,green,true,false,joint 3 +,true,2024-03-04 13:14:36.564300,22.083,0.196,236.8,131.58941650390625,282.19439697265625,76.42871856689453,45.0,65.0,51.0,3.643200635910034,-20.0
32,100,60,60,go_to_color_detect_down,green,true,false,joint 3 +,true,2024-03-04 13:14:37.959882,21.855,0.196,236.8,119.5111312866211,256.29241943359375,-2.4729461669921875,45.0,65.0,51.0,37.06460952758789,-20.0
32,100,60,60,go_to_color_detect_up_from_color_detect_down,green,true,false,joint 3 -,false,2024-03-04 13:14:38.658575,21.684,0.196,236.8,111.31260681152344,238.7106475830078,-23.912452697753906,45.0,65.0,51.0,47.697601318359375,-20.0
32,100,60,60,go_to_color_detect_up_from_color_detect_down,green,true,false,joint 3 -,false,2024-03-04 13:14:40.040257,21.722,0.194,236.8,124.7278060913086,267.4796447753906,17.323448181152344,45.0,65.0,51.0,26.616004943847656,-20.0
32,100,60,60,go_to_color_detect_up_from_color_detect_down,green,true,false,joint 3 -,false,2024-03-04 13:14:40.737539,16.443,0.194,236.8,131.6920928955078,282.4145812988281,83.78226470947266,45.0,65.0,51.0,0.3507968783378601,-20.0
32,100,60,60,detecting_color,green,false,false,detecting_color,false,2024-03-04 13:14:41.429227,16.5,0.194,236.8,131.69407653808594,282.4188232421875,84.958251953125,45.0,65.0,51.0,0.0,-20.0
32,100,60,60,go_to_color_detect_down,green,true,false,joint 3 +,false,2024-03-04 13:14:42.921872,16.215,0.155,236.8,131.69363403320312,282.41790771484375,84.4040756225586,45.0,65.0,51.0,0.30240002274513245,-20.0
32,100,60,60,go_to_color_detect_down,green,true,false,joint 3 +,false,2024-03-04 13:14:43.626045,16.215,0.155,236.8,127.7193374633789,273.8949890136719,33.22215270996094,45.0,65.0,51.0,21.384002685546875,-20.0
32,100,60,60,go_to_color_detect_down,green,true,false,joint 3 +,false,2024-03-04 13:14:45.026464,16.234,0.152,236.8,112.42314147949219,241.09219360351562,-21.469284057617188,45.0,65.0,51.0,46.59383010864258,-20.0
32,100,60,60,go_to_color_detect_up_from_color_detect_down,green,true,false,joint 3 -,true,2024-03-04 13:14:45.717075,16.196,0.152,236.8,118.24959564208984,253.58705139160156,-6.369781494140625,45.0,65.0,51.0,37.87680435180664,-20.0
32,100,60,60,go_to_color_detect_up_from_color_detect_down,green,true,false,joint 3 -,true,2024-03-04 13:14:47.097127,22.481,0.187,236.8,131.2432403564453,281.4519958496094,67.28069305419922,45.0,65.0,51.0,6.468079566955566,-20.0
32,100,60,60,go_to_blue_up,blue,true,false,joint 1 +,true,2024-03-04 13:14:47.787817,22.481,0.187,236.8,123.11793518066406,286.2615966796875,84.958251953125,46.727996826171875,66.9583969116211,51.0,0.0,-20.0
32,100,60,60,go_to_blue_up,blue,true,false,joint 1 +,true,2024-03-04 13:14:49.166323,22.045,0.196,236.8,28.153610229492188,310.3403015136719,84.958251953125,64.81639862060547,84.8817138671875,51.0,0.0,-20.0
32,100,60,60,go_to_pick_up_from_blue,blue,true,false,joint 1 -,false,2024-03-04 13:14:49.854852,22.045,0.196,236.8,90.10818481445312,298.3022766113281,84.958251953125,53.19200897216797,72.60160827636719,51.0,0.0,-20.0
32,100,60,60,go_to_pick_up_from_blue,blue,true,false,joint 1 -,false,2024-03-04 13:14:50.547142,17.772,0.154,236.8,254.79031372070312,179.40350341796875,84.958251953125,15.150222778320312,34.49687957763672,51.0,0.0,-20.0
32,100,60,60,moving_belt,blue,false,true,joint 1 -,false,2024-03-04 13:14:51.937192,16.462,0.154,236.8,292.8220520019531,106.5785140991211,84.958251953125,0.0,20.0,51.0,0.0,-20.0
32,100,60,60,moving_belt,blue,false,true,joint 1 -,false,2024-03-04 13:14:52.633860,16.519,0.155,236.8,292.8220520019531,106.5785140991211,84.958251953125,0.0,20.0,51.0,0.0,-20.0
32,100,60,60,moving_belt,blue,false,true,joint 1 -,false,2024-03-04 13:14:54.018445,16.519,0.155,236.8,292.8220520019531,106.5785140991211,84.958251953125,0.0,20.0,51.0,0.0,-20.0
32,100,60,60,moving_belt,blue,false,true,joint 1 -,false,2024-03-04 13:14:54.713523,16.519,0.154,236.8,292.8220520019531,106.5785140991211,84.958251953125,0.0,20.0,51.0,0.0,-20.0
32,100,60,60,moving_belt,blue,false,true,joint 1 -,false,2024-03-04 13:14:56.100735,16.386,0.154,236.8,292.8220520019531,106.5785140991211,84.958251953125,0.0,20.0,51.0,0.0,-20.0
32,100,60,60,go_to_pick_down,blue,true,false,joint 3 +,false,2024-03-04 13:14:56.792412,16.424,0.154,236.8,291.60760498046875,106.13648986816406,65.5084228515625,0.0,20.0,51.0,8.078401565551758,-20.0
32,100,60,60,go_to_pick_up_from_pick_down,blue,true,false,joint 3 -,true,2024-03-04 13:14:58.175183,16.139,0.153,236.8,282.76361083984375,102.91754913330078,29.89107894897461,0.0,20.0,51.0,22.0,-20.0
32,100,60,60,go_to_pick_up_from_pick_down,blue,true,false,joint 3 -,true,2024-03-04 13:14:58.866818,18.836,0.153,236.8,291.72601318359375,106.1795883178711,66.47697448730469,0.0,20.0,51.0,6.773608207702637,-20.0
32,100,60,60,go_to_color_detect_up_from_pick_up,blue,true,false,joint 1 +,true,2024-03-04 13:14:59.558125,22.405,0.204,236.8,287.4008483886719,120.4345932006836,84.958251953125,2.7359962463378906,23.023996353149414,51.0,0.0,-20.0
32,100,60,60,go_to_color_detect_up_from_pick_up,blue,true,false,joint 1 +,true,2024-03-04 13:15:00.961811,21.969,0.204,236.8,196.66110229492188,241.71913146972656,84.958251953125,30.868423461914062,51.49919128417969,51.0,0.0,-20.0
32,100,60,60,go_to_color_detect_down,blue,true,false,joint 3 +,true,2024-03-04 13:15:01.659477,22.158,0.197,236.8,131.69407653808594,282.4188232421875,84.92131042480469,45.0,65.0,51.0,0.04320000484585762,-20.0
32,100,60,60,go_to_color_detect_down,blue,true,false,joint 3 +,true,2024-03-04 13:15:02.671495,22.083,0.197,236.8,127.09861755371094,272.5638427734375,29.472660064697266,45.0,65.0,51.0,22.982402801513672,-20.0
32,100,60,60,go_to_color_detect_down,blue,true,false,joint 3 +,true,2024-03-04 13:15:04.051907,21.665,0.195,236.8,111.96412658691406,240.1078338623047,-22.493629455566406,45.0,65.0,51.0,47.132537841796875,-20.0
32,100,60,60,go_to_color_detect_up_from_color_detect_down,blue,true,false,joint 3 -,false,2024-03-04 13:15:04.751986,21.741,0.195,236.8,116.88191223144531,250.654052734375,-10.309127807617188,45.0,65.0,51.0,39.92160415649414,-20.0
32,100,60,60,go_to_color_detect_up_from_color_detect_down,blue,true,false,joint 3 -,false,2024-03-04 13:15:06.137675,17.563,0.156,236.8,130.96177673339844,280.8484191894531,62.454315185546875,45.0,65.0,51.0,8.309555053710938,-20.0
32,100,60,60,detecting_color,blue,false,false,detecting_color,false,2024-03-04 13:15:06.830240,16.823,0.156,236.8,131.69407653808594,282.4188232421875,84.958251953125,45.0,65.0,51.0,0.0,-20.0
32,100,60,60,detecting_color,blue,false,false,detecting_color,false,2024-03-04 13:15:07.521795,16.823,0.156,236.8,131.69407653808594,282.4188232421875,84.958251953125,45.0,65.0,51.0,0.0,-20.0
32,100,60,60,go_to_color_detect_down,blue,true,false,joint 3 +,false,2024-03-04 13:15:08.903529,16.196,0.154,236.8,129.6040802001953,277.93682861328125,47.14980697631836,45.0,65.0,51.0,15.566401481628418,-20.0
32,100,60,60,go_to_color_detect_down,blue,true,false,joint 3 +,false,2024-03-04 13:15:09.607620,16.196,0.154,236.8,113.62608337402344,243.67190551757812,-18.682762145996094,45.0,65.0,51.0,45.127620697021484,-20.0
32,100,60,60,go_to_color_detect_up_from_color_detect_down,blue,true,false,joint 3 -,true,2024-03-04 13:15:10.992536,16.196,0.153,236.8,115.6253662109375,247.9593963623047,-13.696456909179688,45.0,65.0,51.0,41.73600387573242,-20.0
32,100,60,60,go_to_color_detect_up_from_color_detect_down,blue,true,false,joint 3 -,true,2024-03-04 13:15:11.997443,21.722,0.153,236.8,130.5659942626953,279.9996643066406,57.072044372558594,45.0,65.0,51.0,10.381429672241211,-20.0
32,100,60,60,go_to_red_up,red,true,false,joint 1 +,true,2024-03-04 13:15:12.813712,22.405,0.2,236.8,129.70339965820312,283.3385925292969,84.958251953125,45.4031982421875,65.51839447021484,51.0,0.0,-20.0
32,100,60,60,go_to_red_up,red,true,false,joint 1 +,true,2024-03-04 13:15:13.639862,22.177,0.2,236.8,-7.352429389953613,311.5279541015625,84.958251953125,71.35198974609375,92.23039245605469,51.0,0.0,-20.0
32,100,60,60,go_to_red_up,red,true,false,joint 1 +,true,2024-03-04 13:15:14.663603,22.083,0.198,236.8,-164.86767578125,264.42840576171875,84.958251953125,101.94300079345703,122.23242950439453,51.0,0.0,-20.0
32,100,60,60,go_to_pick_up_from_red,red,true,false,joint 1 -,false,2024-03-04 13:15:14.663603,22.083,0.198,236.8,-158.9992218017578,267.9980773925781,84.958251953125,100.68000793457031,120.32000732421875,51.0,0.0,-20.0
32,100,60,60,go_to_pick_up_from_red,red,true,false,joint 1 -,false,2024-03-04 13:15:16.514568,22.064,0.198,236.8,15.456938743591309,311.23114013671875,84.958251953125,67.15680694580078,86.10560607910156,51.0,0.0,-20.0
32,100,60,60,go_to_pick_up_from_red,red,true,false,joint 1 -,false,2024-03-04 13:15:17.895185,16.405,0.172,236.8,257.9735107421875,174.79530334472656,84.958251953125,14.120418548583984,33.489952087402344,51.0,0.0,-20.0
32,100,60,60,moving_belt,red,false,true,joint 1 -,false,2024-03-04 13:15:18.591344,16.386,0.155,236.8,292.8220520019531,106.5785140991211,84.958251953125,0.0,20.0,51.0,0.0,-20.0
32,100,60,60,moving_belt,red,false,true,joint 1 -,false,2024-03-04 13:15:19.966495,16.272,0.155,236.8,292.8220520019531,106.5785140991211,84.958251953125,0.0,20.0,51.0,0.0,-20.0
32,100,60,60,moving_belt,red,false,true,joint 1 -,false,2024-03-04 13:15:20.661192,16.272,0.155,236.8,292.8220520019531,106.5785140991211,84.958251953125,0.0,20.0,51.0,0.0,-20.0
32,100,60,60,moving_belt,red,false,true,joint 1 -,false,2024-03-04 13:15:22.040499,16.405,0.156,236.8,292.8220520019531,106.5785140991211,84.958251953125,0.0,20.0,51.0,0.0,-20.0
32,100,60,60,moving_belt,red,false,true,joint 1 -,false,2024-03-04 13:15:22.730214,16.405,0.156,236.8,292.8220520019531,106.5785140991211,84.958251953125,0.0,20.0,51.0,0.0,-20.0
32,100,60,60,go_to_pick_down,red,true,false,joint 3 +,false,2024-03-04 13:15:24.110910,16.462,0.155,236.8,291.8797912597656,106.23556518554688,67.81784057617188,0.0,20.0,51.0,7.142401218414307,-20.0
32,100,60,60,go_to_pick_up_from_pick_down,red,true,false,joint 3 -,true,2024-03-04 13:15:24.799378,16.139,0.155,236.8,282.7637023925781,102.9175796508789,29.891326904296875,0.0,20.0,51.0,22.0,-20.0
32,100,60,60,go_to_pick_up_from_pick_down,red,true,false,joint 3 -,true,2024-03-04 13:15:26.178579,18.114,0.152,236.8,291.42230224609375,106.06905364990234,64.08447265625,0.0,20.0,51.0,7.685807704925537,-20.0
32,100,60,60,go_to_color_detect_up_from_pick_up,red,true,false,joint 1 +,true,2024-03-04 13:15:26.867062,22.424,0.152,236.8,289.0088195800781,116.52310180664062,84.958251953125,1.9583969116210938,22.203197479248047,51.0,0.0,-20.0
32,100,60,60,go_to_color_detect_up_from_pick_up,red,true,false,joint 1 +,true,2024-03-04 13:15:27.553478,21.931,0.196,236.8,204.8899383544922,234.7847137451172,84.958251953125,28.88971710205078,49.56368637084961,51.0,0.0,-20.0
32,100,60,60,go_to_color_detect_down,red,true,false,joint 3 +,true,2024-03-04 13:15:28.993780,22.064,0.196,236.8,131.69407653808594,282.4188232421875,84.958251953125,45.0,65.0,51.0,0.0,-20.0
32,100,60,60,go_to_color_detect_down,red,true,false,joint 3 +,true,2024-03-04 13:15:29.680829,21.969,0.195,236.8,128.0054168701172,274.5085144042969,35.059505462646484,45.0,65.0,51.0,20.606403350830078,-20.0
32,100,60,60,go_to_color_detect_down,red,true,false,joint 3 +,true,2024-03-04 13:15:31.065267,21.722,0.195,236.8,112.42314147949219,241.09219360351562,-21.469284057617188,45.0,65.0,51.0,46.59383010864258,-20.0
32,100,60,60,go_to_color_detect_up_from_color_detect_down,red,true,false,joint 3 -,false,2024-03-04 13:15:31.758519,21.76,0.195,236.8,115.6253662109375,247.9593963623047,-13.696456909179688,45.0,65.0,51.0,41.73600387573242,-20.0
32,100,60,60,go_to_color_detect_up_from_color_detect_down,red,true,false,joint 3 -,false,2024-03-04 13:15:33.140636,18.114,0.195,236.8,131.11521911621094,281.1774597167969,64.93794250488281,45.0,65.0,51.0,7.3600172996521,-20.0
32,100,60,60,detecting_color,red,false,false,detecting_color,false,2024-03-04 13:15:33.826548,16.804,0.157,236.8,131.69407653808594,282.4188232421875,84.958251953125,45.0,65.0,51.0,0.0,-20.0
32,100,60,60,detecting_color,red,false,false,detecting_color,false,2024-03-04 13:15:35.206200,16.424,0.157,236.8,131.69407653808594,282.4188232421875,84.958251953125,45.0,65.0,51.0,0.0,-20.0
32,100,60,60,detecting_color,red,false,false,detecting_color,false,2024-03-04 13:15:35.894906,16.139,0.157,236.8,131.69407653808594,282.4188232421875,84.958251953125,45.0,65.0,51.0,0.0,-20.0
32,100,60,60,detecting_color,red,false,false,detecting_color,false,2024-03-04 13:15:36.583594,16.139,0.154,236.8,131.69407653808594,282.4188232421875,84.958251953125,45.0,65.0,51.0,0.0,-20.0
32,100,60,60,detecting_color,red,false,false,detecting_color,false,2024-03-04 13:15:37.967972,16.196,0.154,236.8,131.69407653808594,282.4188232421875,84.958251953125,45.0,65.0,51.0,0.0,-20.0
32,100,60,60,go_to_color_detect_down,red,true,false,joint 3 +,false,2024-03-04 13:15:38.657952,16.272,0.154,236.8,131.69320678710938,282.4169921875,84.18241119384766,45.0,65.0,51.0,0.40320003032684326,-20.0
32,100,60,60,go_to_color_detect_down,red,true,false,joint 3 +,false,2024-03-04 13:15:39.346556,16.272,0.154,236.8,125.29080200195312,268.6869812011719,19.958587646484375,45.0,65.0,51.0,27.02707862854004,-20.0
32,100,60,60,go_to_color_detect_down,red,true,false,joint 3 +,false,2024-03-04 13:15:40.597019,16.158,0.154,236.8,111.34600830078125,238.7822723388672,-23.840675354003906,45.0,65.0,51.0,47.82115173339844,-20.0
32,100,60,60,go_to_color_detect_up_from_color_detect_down,red,true,false,joint 3 -,true,2024-03-04 13:15:41.973245,21.874,0.153,236.8,119.33529663085938,255.9153594970703,-3.0324859619140625,45.0,65.0,51.0,36.1920051574707,-20.0
32,100,60,60,go_to_color_detect_up_from_color_detect_down,red,true,false,joint 3 -,true,2024-03-04 13:15:42.663306,21.874,0.2,236.8,131.5797576904297,282.1737060546875,76.04473876953125,45.0,65.0,51.0,3.1671600341796875,-20.0
32,100,60,60,go_to_green_up,green,true,false,joint 1 +,true,2024-03-04 13:15:44.055723,22.083,0.2,236.8,113.48221588134766,290.2163391113281,84.958251953125,48.64319610595703,68.97439575195312,51.0,0.0,-20.0
32,100,60,60,go_to_green_up,green,true,false,joint 1 +,true,2024-03-04 13:15:44.741880,22.102,0.197,236.8,-33.786529541015625,309.7776794433594,84.958251953125,76.22447204589844,96.71996307373047,51.0,0.0,-20.0
32,100,60,60,go_to_pick_up_from_green,green,true,false,joint 1 -,false,2024-03-04 13:15:46.124221,22.045,0.197,236.8,-71.53868865966797,303.2918701171875,84.958251953125,83.27200317382812,103.0416030883789,51.0,0.0,-20.0
32,100,60,60,go_to_pick_up_from_green,green,true,false,joint 1 -,false,2024-03-04 13:15:46.815120,16.956,0.197,236.8,75.54680633544922,302.3183898925781,84.958251953125,55.9696044921875,75.04800415039062,51.0,0.0,-20.0
32,100,60,60,go_to_pick_up_from_green,green,true,false,joint 1 -,false,2024-03-04 13:15:47.503389,16.956,0.155,236.8,270.02386474609375,155.53404235839844,84.958251953125,9.941987991333008,29.41409683227539,51.0,0.0,-20.0
32,100,60,60,moving_belt,green,false,true,joint 1 -,false,2024-03-04 13:15:48.718418,16.462,0.155,236.8,292.8220520019531,106.5785140991211,84.958251953125,0.0,20.0,51.0,0.0,-20.0
32,100,60,60,moving_belt,green,false,true,joint 1 -,false,2024-03-04 13:15:50.104950,16.291,0.154,236.8,292.8220520019531,106.5785140991211,84.958251953125,0.0,20.0,51.0,0.0,-20.0
32,100,60,60,moving_belt,green,false,true,joint 1 -,false,2024-03-04 13:15:50.796636,16.424,0.154,236.8,292.8220520019531,106.5785140991211,84.958251953125,0.0,20.0,51.0,0.0,-20.0
32,100,60,60,moving_belt,green,false,true,joint 1 -,false,2024-03-04 13:15:52.198752,16.291,0.153,236.8,292.8220520019531,106.5785140991211,84.958251953125,0.0,20.0,51.0,0.0,-20.0
32,100,60,60,moving_belt,green,false,true,joint 1 -,false,2024-03-04 13:15:52.887928,16.462,0.153,236.8,292.8220520019531,106.5785140991211,84.958251953125,0.0,20.0,51.0,0.0,-20.0
32,100,60,60,go_to_pick_down,green,true,false,joint 3 +,false,2024-03-04 13:15:53.578186,16.462,0.153,236.8,290.67156982421875,105.79580688476562,59.12074279785156,0.0,20.0,51.0,10.670401573181152,-20.0
32,100,60,60,go_to_pick_up_from_pick_down,green,true,false,joint 3 -,true,2024-03-04 13:15:54.955888,16.12,0.153,236.8,282.84149169921875,102.94588470458984,30.096668243408203,0.0,20.0,51.0,21.856000900268555,-20.0
32,100,60,60,go_to_pick_up_from_pick_down,green,true,false,joint 3 -,true,2024-03-04 13:15:55.645185,16.405,0.199,236.8,292.2704772949219,106.37775421142578,71.83454895019531,0.0,20.0,51.0,4.745109558105469,-20.0
32,100,60,60,go_to_color_detect_up_from_pick_up,green,true,false,joint 1 +,true,2024-03-04 13:15:57.024297,22.462,0.199,236.8,284.7308044433594,126.61790466308594,84.958251953125,3.974395751953125,24.319995880126953,51.0,0.0,-20.0
32,100,60,60,go_to_color_detect_up_from_pick_up,green,true,false,joint 1 +,true,2024-03-04 13:15:57.719691,21.855,0.199,236.8,183.69773864746094,251.71188354492188,84.958251953125,33.87826919555664,54.43703842163086,51.0,0.0,-20.0
32,100,60,60,go_to_color_detect_down,green,true,false,joint 3 +,true,2024-03-04 13:15:59.123147,22.007,0.197,236.8,131.69363403320312,282.41790771484375,84.4040756225586,45.0,65.0,51.0,0.30240002274513245,-20.0
32,100,60,60,go_to_color_detect_down,green,true,false,joint 3 +,true,2024-03-04 13:15:59.814436,22.007,0.197,236.8,125.66834259033203,269.4966125488281,21.802963256835938,45.0,65.0,51.0,26.24271011352539,-20.0
32,100,60,60,go_to_color_detect_down,green,true,false,joint 3 +,true,2024-03-04 13:16:01.196543,21.589,0.195,236.8,111.42072296142578,238.9425048828125,-23.679786682128906,45.0,65.0,51.0,47.74238204956055,-20.0
32,100,60,60,go_to_color_detect_up_from_color_detect_down,green,true,false,joint 3 -,false,2024-03-04 13:16:01.882856,19.101,0.195,236.8,118.60639953613281,254.3522186279297,-5.294708251953125,45.0,65.0,51.0,37.32960510253906,-20.0
32,100,60,60,go_to_color_detect_up_from_color_detect_down,green,true,false,joint 3 -,false,2024-03-04 13:16:02.608430,19.101,0.155,236.8,131.53213500976562,282.0715637207031,74.35122680664062,45.0,65.0,51.0,3.7998976707458496,-20.0
32,100,60,60,detecting_color,green,false,false,detecting_color,false,2024-03-04 13:16:03.994419,16.804,0.155,236.8,131.69407653808594,282.4188232421875,84.958251953125,45.0,65.0,51.0,0.0,-20.0
32,100,60,60,go_to_color_detect_down,green,true,false,joint 3 +,false,2024-03-04 13:16:04.683263,16.044,0.152,236.8,131.69407653808594,282.4188232421875,84.958251953125,45.0,65.0,51.0,0.0,-20.0
32,100,60,60,go_to_color_detect_down,green,true,false,joint 3 +,false,2024-03-04 13:16:06.064540,16.158,0.152,236.8,128.77293395996094,276.1544189453125,40.41205978393555,45.0,65.0,51.0,18.360002517700195,-20.0
32,100,60,60,go_to_color_detect_down,green,true,false,joint 3 +,false,2024-03-04 13:16:06.757222,16.158,0.152,236.8,112.97835540771484,242.28285217285156,-20.20189666748047,45.0,65.0,51.0,45.9255256652832,-20.0
32,100,60,60,go_to_color_detect_up_from_color_detect_down,green,true,false,joint 3 -,true,2024-03-04 13:16:07.446172,16.139,0.152,236.8,115.33081817626953,247.32772827148438,-14.460906982421875,45.0,65.0,51.0,42.153602600097656,-20.0
32,100,60,60,go_to_color_detect_up_from_color_detect_down,green,true,false,joint 3 -,true,2024-03-04 13:16:09.170411,22.272,0.2,236.8,131.0418701171875,281.0201721191406,63.71363067626953,45.0,65.0,51.0,7.8275861740112305,-20.0
32,100,60,60,go_to_blue_up,blue,true,false,joint 1 +,true,2024-03-04 13:16:09.873842,22.14,0.2,236.8,126.99154663085938,284.5643615722656,84.958251953125,45.95039367675781,66.1231918334961,51.0,0.0,-20.0
32,100,60,60,go_to_blue_up,blue,true,false,joint 1 +,true,2024-03-04 13:16:10.562181,22.14,0.2,236.8,34.840274810791016,309.6609191894531,84.958251953125,63.58058166503906,83.77549743652344,51.0,0.0,-20.0
32,100,60,60,go_to_pick_up_from_blue,blue,true,false,joint 1 -,false,2024-03-04 13:16:11.941034,21.608,0.196,236.8,81.29881286621094,300.8226013183594,84.958251953125,54.876808166503906,74.32960510253906,51.0,0.0,-20.0
32,100,60,60,go_to_pick_up_from_blue,blue,true,false,joint 1 -,false,2024-03-04 13:16:12.629001,21.608,0.196,236.8,248.22146606445312,188.387451171875,84.958251953125,17.19664764404297,36.50010681152344,51.0,0.0,-20.0
32,100,60,60,moving_belt,blue,false,true,joint 1 -,false,2024-03-04 13:16:14.029093,16.367,0.154,236.8,292.8111877441406,106.60834503173828,84.958251953125,0.00583648681640625,20.0004940032959,51.0,0.0,-20.0
32,100,60,60,moving_belt,blue,false,true,joint 1 -,false,2024-03-04 13:16:14.716783,16.291,0.154,236.8,292.8220520019531,106.5785140991211,84.958251953125,0.0,20.0,51.0,0.0,-20.0
32,100,60,60,moving_belt,blue,false,true,joint 1 -,false,2024-03-04 13:16:16.095703,16.633,0.155,236.8,292.8220520019531,106.5785140991211,84.958251953125,0.0,20.0,51.0,0.0,-20.0
32,100,60,60,moving_belt,blue,false,true,joint 1 -,false,2024-03-04 13:16:16.787837,16.462,0.155,236.8,292.8220520019531,106.5785140991211,84.958251953125,0.0,20.0,51.0,0.0,-20.0
32,100,60,60,moving_belt,blue,false,true,joint 1 -,false,2024-03-04 13:16:17.609099,16.462,0.155,236.8,292.8220520019531,106.5785140991211,84.958251953125,0.0,20.0,51.0,0.0,-20.0
32,100,60,60,go_to_pick_down,blue,true,false,joint 3 +,false,2024-03-04 13:16:18.985123,16.557,0.156,236.8,292.284912109375,106.38301849365234,72.00732421875,0.0,20.0,51.0,5.443200588226318,-20.0
32,100,60,60,go_to_pick_down,blue,true,false,joint 3 +,false,2024-03-04 13:16:19.675182,16.386,0.156,236.8,282.8094482421875,102.9342269897461,30.011951446533203,0.0,20.0,51.0,21.980497360229492,-20.0
32,100,60,60,go_to_pick_up_from_pick_down,blue,true,false,joint 3 -,true,2024-03-04 13:16:20.470826,16.386,0.152,236.8,291.0596923828125,105.93706512451172,61.55168914794922,0.0,20.0,51.0,8.655607223510742,-20.0
32,100,60,60,go_to_color_detect_up_from_pick_up,blue,true,false,joint 1 +,true,2024-03-04 13:16:22.123763,22.804,0.152,236.8,289.47503662109375,115.36000061035156,84.958251953125,1.727996826171875,21.958396911621094,51.0,0.0,-20.0
32,100,60,60,go_to_color_detect_up_from_pick_up,blue,true,false,joint 1 +,true,2024-03-04 13:16:22.942882,21.893,0.196,236.8,207.6958770751953,232.30618286132812,84.958251953125,28.20134735107422,48.88971710205078,51.0,0.0,-20.0
32,100,60,60,go_to_color_detect_down,blue,true,false,joint 3 +,true,2024-03-04 13:16:23.761313,22.121,0.196,236.8,131.6947784423828,282.41851806640625,84.958251953125,44.999855041503906,65.0,51.0,0.0,-20.0
32,100,60,60,go_to_color_detect_down,blue,true,false,joint 3 +,true,2024-03-04 13:16:24.607403,21.95,0.2,236.8,128.27601623535156,275.08880615234375,36.870792388916016,45.0,65.0,51.0,19.843202590942383,-20.0
32,100,60,60,go_to_color_detect_down,blue,true,false,joint 3 +,true,2024-03-04 13:16:25.992612,21.684,0.2,236.8,112.59769439697266,241.46652221679688,-21.074234008789062,45.0,65.0,51.0,46.385459899902344,-20.0
32,100,60,60,go_to_color_detect_up_from_color_detect_down,blue,true,false,joint 3 -,false,2024-03-04 13:16:26.681591,21.684,0.195,236.8,115.33081817626953,247.32772827148438,-14.460906982421875,45.0,65.0,51.0,42.153602600097656,-20.0
32,100,60,60,go_to_color_detect_up_from_color_detect_down,blue,true,false,joint 3 -,false,2024-03-04 13:16:28.058847,16.709,0.195,236.8,131.11521911621094,281.1774597167969,64.93794250488281,45.0,65.0,51.0,7.3600172996521,-20.0
32,100,60,60,detecting_color,blue,false,false,detecting_color,false,2024-03-04 13:16:28.872393,16.709,0.159,236.8,131.69407653808594,282.4188232421875,84.958251953125,45.0,65.0,51.0,0.0,-20.0
32,100,60,60,detecting_color,blue,false,false,detecting_color,false,2024-03-04 13:16:29.565400,16.329,0.159,236.8,131.69407653808594,282.4188232421875,84.958251953125,45.0,65.0,51.0,0.0,-20.0
32,100,60,60,go_to_color_detect_down,blue,true,false,joint 3 +,false,2024-03-04 13:16:30.945949,16.291,0.154,236.8,130.3794403076172,279.5995788574219,54.877235412597656,45.0,65.0,51.0,12.398401260375977,-20.0
32,100,60,60,go_to_color_detect_down,blue,true,false,joint 3 +,false,2024-03-04 13:16:31.677511,16.291,0.154,236.8,115.18018341064453,247.0046844482422,-14.847755432128906,45.0,65.0,51.0,43.14300537109375,-20.0
32,100,60,60,go_to_color_detect_up_from_color_detect_down,blue,true,false,joint 3 -,true,2024-03-04 13:16:33.061880,16.196,0.154,236.8,114.2387924194336,244.98587036132812,-17.203773498535156,45.0,65.0,51.0,43.68000411987305,-20.0
32,100,60,60,go_to_color_detect_up_from_color_detect_down,blue,true,false,joint 3 -,true,2024-03-04 13:16:33.749571,17.146,0.166,236.8,129.86929321289062,278.5055847167969,49.591827392578125,45.0,65.0,51.0,13.295272827148438,-20.0
32,100,60,60,go_to_red_up,red,true,false,joint 1 +,true,2024-03-04 13:16:34.695613,22.329,0.166,236.8,131.48109436035156,282.51806640625,84.958251953125,45.04319763183594,65.08639526367188,51.0,0.0,-20.0
32,100,60,60,go_to_red_up,red,true,false,joint 1 +,true,2024-03-04 13:16:36.070751,21.893,0.197,236.8,15.3527193069458,311.23626708984375,84.958251953125,67.17599487304688,87.98239135742188,51.0,0.0,-20.0
32,100,60,60,go_to_red_up,red,true,false,joint 1 +,true,2024-03-04 13:16:36.762447,22.102,0.197,236.8,-157.12359619140625,269.1020202636719,84.958251953125,100.27983856201172,120.64127349853516,51.0,0.0,-20.0
32,100,60,60,go_to_pick_up_from_red,red,true,false,joint 1 -,false,2024-03-04 13:16:37.462046,22.102,0.198,236.8,-167.6029510498047,262.7032165527344,84.958251953125,102.53760528564453,122.26400756835938,51.0,0.0,-20.0
32,100,60,60,go_to_pick_up_from_red,red,true,false,joint 1 -,false,2024-03-04 13:16:39.224622,16.329,0.198,236.8,15.456938743591309,311.23114013671875,84.958251953125,67.15680694580078,86.10560607910156,51.0,0.0,-20.0
32,100,60,60,go_to_pick_up_from_red,red,true,false,joint 1 -,false,2024-03-04 13:16:39.917258,16.329,0.155,236.8,242.38595581054688,195.8386688232422,84.958251953125,18.93689727783203,38.20562744140625,51.0,0.0,-20.0
32,100,60,60,moving_belt,red,false,true,joint 1 -,false,2024-03-04 13:16:40.605717,16.443,0.155,236.8,292.8220520019531,106.5785140991211,84.958251953125,0.0,20.0,51.0,0.0,-20.0
32,100,60,60,moving_belt,red,false,true,joint 1 -,false,2024-03-04 13:16:41.985083,16.253,0.156,236.8,292.8220520019531,106.5785140991211,84.958251953125,0.0,20.0,51.0,0.0,-20.0
32,100,60,60,moving_belt,red,false,true,joint 1 -,false,2024-03-04 13:16:42.686568,16.576,0.156,236.8,292.8220520019531,106.5785140991211,84.958251953125,0.0,20.0,51.0,0.0,-20.0
32,100,60,60,moving_belt,red,false,true,joint 1 -,false,2024-03-04 13:16:44.092498,16.253,0.156,236.8,292.8220520019531,106.5785140991211,84.958251953125,0.0,20.0,51.0,0.0,-20.0
32,100,60,60,moving_belt,red,false,true,joint 1 -,false,2024-03-04 13:16:44.788249,16.253,0.156,236.8,292.8220520019531,106.5785140991211,84.958251953125,0.0,20.0,51.0,0.0,-20.0
32,100,60,60,go_to_pick_down,red,true,false,joint 3 +,false,2024-03-04 13:16:46.163310,16.272,0.156,236.8,292.3614807128906,106.41088104248047,72.96443176269531,0.0,20.0,51.0,5.054400444030762,-20.0
32,100,60,60,go_to_pick_down,red,true,false,joint 3 +,true,2024-03-04 13:16:46.860604,16.12,0.154,236.8,282.9045715332031,102.9688491821289,30.263816833496094,0.0,20.0,51.0,21.90349769592285,-20.0
32,100,60,60,go_to_pick_up_from_pick_down,red,true,false,joint 3 -,true,2024-03-04 13:16:48.244666,16.12,0.154,236.8,291.58111572265625,106.12684631347656,65.29837036132812,0.0,20.0,51.0,7.222507953643799,-20.0
32,100,60,60,go_to_color_detect_up_from_pick_up,red,true,false,joint 1 +,true,2024-03-04 13:16:48.942965,22.595,0.203,236.8,290.6766052246094,112.29800415039062,84.958251953125,1.1231975555419922,21.31039810180664,51.0,0.0,-20.0
32,100,60,60,go_to_color_detect_up_from_pick_up,red,true,false,joint 1 +,true,2024-03-04 13:16:49.632705,21.95,0.203,236.8,199.3704071044922,239.48941040039062,84.958251953125,30.223255157470703,50.86842346191406,51.0,0.0,-20.0
32,100,60,60,go_to_color_detect_down,red,true,false,joint 3 +,true,2024-03-04 13:16:51.010894,22.064,0.199,236.8,131.69407653808594,282.4188232421875,84.958251953125,45.0,65.0,51.0,0.014400001615285873,-20.0
32,100,60,60,go_to_color_detect_down,red,true,false,joint 3 +,true,2024-03-04 13:16:51.699507,22.102,0.199,236.8,129.00027465820312,276.6419372558594,42.14058303833008,45.0,65.0,51.0,17.640003204345703,-20.0
32,100,60,60,go_to_color_detect_down,red,true,false,joint 3 +,true,2024-03-04 13:16:53.132181,21.741,0.195,236.8,112.10623931884766,240.41259765625,-22.17870330810547,45.0,65.0,51.0,46.967369079589844,-20.0
32,100,60,60,go_to_color_detect_up_from_color_detect_down,red,true,false,joint 3 -,false,2024-03-04 13:16:53.831771,21.741,0.195,236.8,116.55657958984375,249.9563751220703,-11.206405639648438,45.0,65.0,51.0,40.39680480957031,-20.0
