demetriskallis/dobot_magician_pick_and_place_and_color_sorting/Sampling/WholeSystemExperiments_training_data/payload_32g/joint_measurements__armv_30_arma_100_belts_60_cube_32g.csv
cube/weight,arm/velocity_ratio,arm/acceleration_ratio,belt/speed,dobot/operation,dobot/color,dobot/moving_arm,dobot/moving_belt,dobot/operation2,dobot/suction,meross/sample_timestamp,meross/power,meross/current,meross/voltage,dobot/pose_x,dobot/pose_y,dobot/pose_z,dobot/pose_rHead,dobot/pose_joint1Angle,dobot/pose_joint2Angle,dobot/pose_joint3Angle,dobot/pose_joint4Angle
32,30,100,60,homing,,,,homing,,,,,,94.57321166992188,177.8445281982422,40.65724182128906,41.99708557128906,61.597084045410156,11.450305938720703,38.5728759765625,-20.0
32,30,100,60,homing,,,,homing,,,,,,147.8000030517578,136.85000610351562,40.65724182128906,22.797012329101562,42.397010803222656,11.450305938720703,38.5728759765625,-20.0
32,30,100,60,homing,,,,homing,,,,,,184.58428955078125,80.63131713867188,40.65724182128906,3.5969810485839844,23.19698143005371,11.450305938720703,38.5728759765625,-20.0
32,30,100,60,homing,,,,homing,,2024-03-03 16:26:40.408265,16.424,0.153,236.8,201.3044891357422,7.019134998321533,40.65724182128906,-18.003005981445312,1.596994161605835,11.450305938720703,38.5728759765625,-20.0
32,30,100,60,homing,,,,homing,,2024-03-03 16:26:40.408265,16.424,0.153,236.8,192.41558837890625,-59.573612213134766,40.65724182128906,-37.202999114990234,-17.602998733520508,11.450305938720703,38.5728759765625,-20.0
32,30,100,60,homing,,,,homing,,2024-03-03 16:26:41.734914,16.462,0.154,236.8,161.28245544433594,-120.66788482666016,40.65724182128906,-56.80300521850586,-37.203006744384766,11.450305938720703,38.5728759765625,-20.0
32,30,100,60,homing,,,,homing,,2024-03-03 16:26:43.336741,16.405,0.154,236.8,112.62748718261719,-166.9964599609375,40.65724182128906,-76.00308227539062,-56.403079986572266,11.450305938720703,38.5728759765625,-20.0
32,30,100,60,homing,,,,homing,,2024-03-03 16:26:44.028632,16.481,0.153,236.8,43.24259948730469,-196.7303924560547,40.65724182128906,-97.60315704345703,-78.00315856933594,11.450305938720703,38.5728759765625,-20.0
32,30,100,60,homing,,,,homing,,2024-03-03 16:26:45.417222,16.481,0.153,235.0,-23.86102294921875,-200.00856018066406,40.65724182128906,-116.80323028564453,-97.20323181152344,11.450305938720703,38.5728759765625,-20.0
32,30,100,60,homing,,,,homing,,2024-03-03 16:26:46.109101,16.443,0.153,235.0,-95.81375122070312,-177.17926025390625,40.65724182128906,-138.4033203125,-118.80331420898438,11.450305938720703,38.5728759765625,-20.0
32,30,100,60,homing,,,,homing,,2024-03-03 16:26:46.844629,16.443,0.153,235.0,-145.72987365722656,-139.05242919921875,40.65724182128906,-156.34320068359375,-136.3231964111328,11.450305938720703,38.5728759765625,-20.0
32,30,100,60,homing,,,,homing,,2024-03-03 16:26:48.304525,16.519,0.153,235.0,-143.37916564941406,-141.4750213623047,40.65724182128906,-155.38299560546875,-135.3629913330078,11.450305938720703,38.5728759765625,-20.0
32,30,100,60,homing,,,,homing,,2024-03-03 16:26:48.999433,16.348,0.153,235.0,-121.3607406616211,-163.31155395507812,39.66944885253906,-145.87371826171875,-126.1609115600586,12.557341575622559,38.822532653808594,-19.21663475036621
32,30,100,60,homing,,,,homing,,2024-03-03 16:26:50.385967,16.557,0.153,236.8,-32.24576187133789,-209.4318389892578,35.05785369873047,-114.88899993896484,-98.15296936035156,17.039262771606445,39.83327865600586,-16.045114517211914
32,30,100,60,homing,,,,homing,,2024-03-03 16:26:51.102578,16.88,0.156,236.8,77.54454803466797,-212.5098114013672,25.036964416503906,-80.5325698852539,-69.35304260253906,24.963302612304688,41.620277404785156,-10.43786907196045
32,30,100,60,homing,,,,homing,,2024-03-03 16:26:51.800364,16.88,0.156,236.8,191.47024536132812,-147.20254516601562,10.467361450195312,-41.60840606689453,-36.953125,34.11314010620117,43.683719635009766,-3.96321439743042
32,30,100,60,homing,,,,homing,,2024-03-03 16:26:53.190313,16.937,0.157,236.8,245.00099182128906,-40.57083511352539,2.2215042114257812,-10.23108959197998,-8.933487892150879,38.60138702392578,44.69588851928711,-0.7872203588485718
32,30,100,60,homing,,,,homing,,2024-03-03 16:26:53.880344,16.766,0.157,236.8,252.7052764892578,-0.7416514754295349,-1.1336593627929688,-0.16815389692783356,-0.15072603523731232,40.751686096191406,44.63645553588867,0.0
32,30,100,60,homing,,,,homing,,2024-03-03 16:26:55.281567,16.576,0.154,236.8,249.99998474121094,0.00017966009909287095,-7.62939453125e-06,4.117506250622682e-05,4.117506250622682e-05,39.71385955810547,44.94676971435547,0.0
32,30,100,60,homing,,,,homing,,2024-03-03 16:26:55.973254,16.424,0.154,236.8,249.99998474121094,0.00017966009909287095,-7.62939453125e-06,4.117506250622682e-05,4.117506250622682e-05,39.71385955810547,44.94676971435547,0.0
32,30,100,60,homing,,,,homing,,2024-03-03 16:26:57.360782,16.329,0.154,236.8,249.99998474121094,0.00017966009909287095,-7.62939453125e-06,4.117506250622682e-05,4.117506250622682e-05,39.71385955810547,44.94676971435547,0.0
32,30,100,60,homing,,,,homing,,2024-03-03 16:26:58.051229,16.329,0.154,236.8,249.99998474121094,0.00017966009909287095,-7.62939453125e-06,4.117506250622682e-05,4.117506250622682e-05,39.71385955810547,44.94676971435547,0.0
32,30,100,60,homing,,,,homing,,2024-03-03 16:26:58.787362,16.405,0.154,235.0,249.99998474121094,0.00017966009909287095,-7.62939453125e-06,4.117506250622682e-05,4.117506250622682e-05,39.71385955810547,44.94676971435547,0.0
32,30,100,60,homing,,,,homing,,2024-03-03 16:27:00.175367,16.367,0.153,235.0,249.99998474121094,0.00017966009909287095,-7.62939453125e-06,4.117506250622682e-05,4.117506250622682e-05,39.71385955810547,44.94676971435547,0.0
32,30,100,60,homing,,,,homing,,2024-03-03 16:27:00.864633,16.5,0.153,235.0,252.4236602783203,9.941712379455566,6.2824554443359375,4.124641418457031e-05,2.478334903717041,38.58293914794922,42.13566970825195,-2.4782936573028564
32,30,100,60,homing,,,,homing,,2024-03-03 16:27:02.274089,16.804,0.158,235.0,265.44769287109375,63.62598419189453,40.15594482421875,4.100799560546875e-05,13.669903755187988,37.63958740234375,26.730119705200195,-13.669862747192383
32,30,100,60,go_to_pick_up_from_homing,nothing,,,go_to_pick_up_from_homing,,2024-03-03 16:27:02.969333,16.804,0.158,235.0,275.0000305175781,103.0,65.0,4.1961669921875e-05,20.533206939697266,42.43653106689453,13.627080917358398,-20.533164978027344
32,30,100,60,go_to_pick_up_from_homing,nothing,,,go_to_pick_up_from_homing,,2024-03-03 16:27:04.421181,16.481,0.155,235.0,286.96185302734375,105.57949829101562,75.90029907226562,1.52587890625e-05,20.188322067260742,47.869083404541016,5.667074680328369,-20.188308715820312
32,30,100,60,moving_belt,nothing,false,true,go_to_pick_up_from_homing,,2024-03-03 16:27:05.116440,16.481,0.155,235.0,292.8220520019531,106.5785140991211,84.958251953125,0.0,20.0,51.0,0.0,-20.0
32,30,100,60,moving_belt,nothing,false,true,go_to_pick_up_from_homing,,2024-03-03 16:27:05.810681,16.595,0.155,235.0,292.8220520019531,106.5785140991211,84.958251953125,0.0,20.0,51.0,0.0,-20.0
32,30,100,60,moving_belt,nothing,false,true,go_to_pick_up_from_homing,,2024-03-03 16:27:07.210600,16.576,0.155,236.8,292.8220520019531,106.5785140991211,84.958251953125,0.0,20.0,51.0,0.0,-20.0
32,30,100,60,moving_belt,nothing,false,true,go_to_pick_up_from_homing,,2024-03-03 16:27:07.905503,16.576,0.155,236.8,292.8220520019531,106.5785140991211,84.958251953125,0.0,20.0,51.0,0.0,-20.0
32,30,100,60,moving_belt,nothing,false,true,go_to_pick_up_from_homing,,2024-03-03 16:27:09.297455,16.671,0.154,236.8,292.8220520019531,106.5785140991211,84.958251953125,0.0,20.0,51.0,0.0,-20.0
32,30,100,60,go_to_pick_down,nothing,true,false,joint 3 +,,2024-03-03 16:27:09.989135,16.671,0.154,235.0,291.97723388671875,106.27103424072266,68.72531127929688,0.0,20.0,51.0,6.519997596740723,-20.0
32,30,100,60,go_to_pick_down,nothing,true,false,joint 3 +,,2024-03-03 16:27:11.386009,16.367,0.154,235.0,287.4309997558594,104.6163330078125,44.29158401489258,0.0,20.0,51.0,16.240009307861328,-20.0
32,30,100,60,go_to_pick_up_from_pick_down,nothing,true,false,joint 3 -,true,2024-03-03 16:27:11.386009,16.367,0.154,235.0,283.7506103515625,103.27677917480469,32.56570053100586,0.0,20.0,51.0,20.700000762939453,-20.0
32,30,100,60,go_to_pick_up_from_pick_down,nothing,true,false,joint 3 -,true,2024-03-03 16:27:12.603024,16.519,0.154,236.8,289.6820068359375,105.43563842773438,53.793243408203125,0.0,20.0,51.0,12.059986114501953,-20.0
32,30,100,60,go_to_pick_up_from_pick_down,nothing,true,false,joint 3 -,true,2024-03-03 16:27:13.926133,21.665,0.211,236.8,292.6884765625,106.52989196777344,78.49497985839844,0.0,20.0,51.0,2.339982509613037,-20.0
32,30,100,60,go_to_color_detect_up_from_pick_up,nothing,true,false,joint 1 +,true,2024-03-03 16:27:15.309896,22.291,0.2,235.0,283.05902099609375,130.3123779296875,84.958251953125,4.720008850097656,24.900009155273438,51.0,0.0,-20.0
32,30,100,60,go_to_color_detect_up_from_pick_up,nothing,true,false,joint 1 +,true,2024-03-03 16:27:16.003576,22.291,0.2,236.8,260.2705078125,171.35633850097656,84.958251953125,13.360023498535156,33.54002380371094,51.0,0.0,-20.0
32,30,100,60,go_to_color_detect_up_from_pick_up,nothing,true,false,joint 1 +,true,2024-03-03 16:27:17.391936,22.291,0.2,236.8,227.6034698486328,212.83889770507812,84.958251953125,23.080039978027344,43.260040283203125,51.0,0.0,-20.0
32,30,100,60,go_to_color_detect_up_from_pick_up,nothing,true,false,joint 1 +,true,2024-03-03 16:27:18.120642,22.291,0.2,235.0,193.04664611816406,244.61546325683594,84.958251953125,31.720054626464844,51.900054931640625,51.0,0.0,-20.0
32,30,100,60,go_to_color_detect_up_from_pick_up,nothing,true,false,joint 1 +,true,2024-03-03 16:27:18.811323,22.14,0.2,235.0,154.1083526611328,270.840087890625,84.958251953125,40.360069274902344,60.540069580078125,51.0,0.0,-20.0
32,30,100,60,go_to_color_detect_down,nothing,true,false,joint 3 +,true,2024-03-03 16:27:20.198066,22.102,0.2,235.0,131.56875610351562,282.15008544921875,75.62561798095703,45.0,65.0,51.0,3.8200018405914307,-20.0
32,30,100,60,go_to_color_detect_down,nothing,true,false,joint 3 +,true,2024-03-03 16:27:20.890344,22.102,0.2,235.0,130.27264404296875,279.3705749511719,53.69290542602539,45.0,65.0,51.0,12.460005760192871,-20.0
32,30,100,60,go_to_color_detect_down,nothing,true,false,joint 3 +,true,2024-03-03 16:27:22.325877,22.007,0.198,235.0,127.59878540039062,273.636474609375,32.46978759765625,45.0,65.0,51.0,21.100019454956055,-20.0
32,30,100,60,go_to_color_detect_down,nothing,true,false,joint 3 +,true,2024-03-03 16:27:23.345678,21.988,0.198,235.0,123.02056884765625,263.8184509277344,10.040763854980469,45.0,65.0,51.0,30.820035934448242,-20.0
32,30,100,60,go_to_color_detect_down,nothing,true,false,joint 3 +,true,2024-03-03 16:27:24.045456,21.931,0.198,235.0,117.65762329101562,252.31756591796875,-8.109115600585938,45.0,65.0,51.0,39.46004867553711,-20.0
32,30,100,60,go_to_color_detect_down,nothing,true,false,joint 3 +,false,2024-03-03 16:27:24.789967,22.026,0.198,235.0,111.2568359375,238.59104919433594,-24.032005310058594,45.0,65.0,51.0,47.9400634765625,-20.0
32,30,100,60,go_to_color_detect_up_from_color_detect_down,nothing,true,false,joint 3 -,false,2024-03-03 16:27:26.311719,21.874,0.199,235.0,117.1317367553711,251.18980407714844,-9.610092163085938,45.0,65.0,51.0,39.8599853515625,-20.0
32,30,100,60,go_to_color_detect_up_from_color_detect_down,nothing,true,false,joint 3 -,false,2024-03-03 16:27:27.004099,16.5,0.199,235.0,122.59595489501953,262.9078674316406,8.369895935058594,45.0,65.0,51.0,31.219970703125,-20.0
32,30,100,60,go_to_color_detect_up_from_color_detect_down,nothing,true,false,joint 3 -,false,2024-03-03 16:27:28.393024,16.595,0.155,235.0,126.85665130615234,272.0449523925781,28.088184356689453,45.0,65.0,51.0,22.5799560546875,-20.0
32,30,100,60,go_to_color_detect_up_from_color_detect_down,nothing,true,false,joint 3 -,false,2024-03-03 16:27:29.105245,16.595,0.155,235.0,130.09205627441406,278.9833068847656,51.79060745239258,45.0,65.0,51.0,12.859939575195312,-20.0
32,30,100,60,go_to_color_detect_up_from_color_detect_down,nothing,true,false,joint 3 -,false,2024-03-03 16:27:29.797454,16.557,0.155,235.0,131.52565002441406,282.0576477050781,74.14122772216797,45.0,65.0,51.0,4.03993558883667,-20.0
32,30,100,60,detecting_color,nothing,false,false,detecting_color,false,2024-03-03 16:27:31.188792,16.595,0.155,235.0,131.69407653808594,282.4188232421875,84.958251953125,45.0,65.0,51.0,0.0,-20.0
32,30,100,60,detecting_color,nothing,false,false,detecting_color,false,2024-03-03 16:27:31.890454,16.462,0.155,235.0,131.69407653808594,282.4188232421875,84.958251953125,45.0,65.0,51.0,0.0,-20.0
32,30,100,60,go_to_color_detect_down,nothing,true,false,joint 3 +,false,2024-03-03 16:27:33.443869,16.595,0.155,235.0,131.22305297851562,281.4087219238281,66.89067840576172,45.0,65.0,51.0,7.239998817443848,-20.0
32,30,100,60,go_to_color_detect_down,nothing,true,false,joint 3 +,false,2024-03-03 16:27:34.138546,16.405,0.155,235.0,129.3762969970703,277.4483642578125,45.17995834350586,45.0,65.0,51.0,15.880011558532715,-20.0
32,30,100,60,go_to_color_detect_down,nothing,true,false,joint 3 +,false,2024-03-03 16:27:34.830935,16.405,0.155,235.0,125.67947387695312,269.5204772949219,21.858375549316406,45.0,65.0,51.0,25.600027084350586,-20.0
32,30,100,60,go_to_color_detect_down,nothing,true,false,joint 3 +,false,2024-03-03 16:27:36.225869,16.367,0.155,235.0,121.03662109375,259.5638427734375,2.6292343139648438,45.0,65.0,51.0,34.24003982543945,-20.0
32,30,100,60,go_to_color_detect_down,nothing,true,false,joint 3 +,false,2024-03-03 16:27:36.919222,16.291,0.153,235.0,115.22563171386719,247.10214233398438,-14.7313232421875,45.0,65.0,51.0,42.88005447387695,-20.0
32,30,100,60,go_to_color_detect_up_from_color_detect_down,nothing,true,false,joint 3 -,true,2024-03-03 16:27:37.618029,16.291,0.153,235.0,113.43673706054688,243.26585388183594,-19.13146209716797,45.0,65.0,51.0,44.899993896484375,-20.0
32,30,100,60,go_to_color_detect_up_from_color_detect_down,nothing,true,false,joint 3 -,true,2024-03-03 16:27:39.458658,16.367,0.153,235.0,119.66307067871094,256.6182556152344,-1.9849090576171875,45.0,65.0,51.0,36.079978942871094,-20.0
32,30,100,60,go_to_color_detect_up_from_color_detect_down,nothing,true,false,joint 3 -,true,2024-03-03 16:27:40.156520,22.158,0.209,235.0,124.61445617675781,267.2365417480469,16.80834197998047,45.0,65.0,51.0,27.439964294433594,-20.0
32,30,100,60,go_to_color_detect_up_from_color_detect_down,nothing,true,false,joint 3 -,true,2024-03-03 16:27:40.854764,22.557,0.2,235.0,128.68690490722656,275.9699401855469,39.776954650878906,45.0,65.0,51.0,17.719947814941406,-20.0
32,30,100,60,go_to_color_detect_up_from_color_detect_down,nothing,true,false,joint 3 -,true,2024-03-03 16:27:41.677617,22.367,0.2,235.0,130.88449096679688,280.6827087402344,61.30393981933594,45.0,65.0,51.0,9.079933166503906,-20.0
32,30,100,60,go_to_color_detect_up_from_color_detect_down,nothing,true,false,joint 3 -,true,2024-03-03 16:27:42.960903,22.367,0.2,235.0,131.6904296875,282.4110412597656,83.36775970458984,45.0,65.0,51.0,0.4399350881576538,-20.0
32,30,100,60,go_to_red_up,red,true,false,joint 1 +,true,2024-03-03 16:27:43.661321,22.253,0.199,235.0,93.18537139892578,297.3553771972656,84.958251953125,52.60002136230469,72.78002166748047,51.0,0.0,-20.0
32,30,100,60,go_to_red_up,red,true,false,joint 1 +,true,2024-03-03 16:27:43.661321,22.253,0.199,235.0,47.45743179321289,307.9797668457031,84.958251953125,61.24003601074219,81.42003631591797,51.0,0.0,-20.0
32,30,100,60,go_to_red_up,red,true,false,joint 1 +,true,2024-03-03 16:27:45.937084,22.253,0.199,236.8,-5.221203327178955,311.57098388671875,84.958251953125,70.96005249023438,91.14005279541016,51.0,0.0,-20.0
32,30,100,60,go_to_red_up,red,true,false,joint 1 +,true,2024-03-03 16:27:45.937084,22.253,0.199,236.8,-51.96794891357422,307.2508239746094,84.958251953125,79.60006713867188,99.78006744384766,51.0,0.0,-20.0
32,30,100,60,go_to_red_up,red,true,false,joint 1 +,true,2024-03-03 16:27:48.480605,21.912,0.202,235.0,-97.53522491455078,295.9571228027344,84.958251953125,88.24008178710938,108.42008209228516,51.0,0.0,-20.0
32,30,100,60,go_to_red_up,red,true,false,joint 1 +,true,2024-03-03 16:27:49.170427,22.121,0.198,235.0,-146.10260009765625,275.24127197265625,84.958251953125,97.96009826660156,118.14009857177734,51.0,0.0,-20.0
32,30,100,60,go_to_pick_up_from_red,red,true,false,joint 1 -,false,2024-03-03 16:27:49.875070,22.234,0.198,235.0,-177.6640167236328,256.00628662109375,84.958251953125,104.75999450683594,124.5999984741211,51.0,0.0,-20.0
32,30,100,60,go_to_pick_up_from_red,red,true,false,joint 1 -,false,2024-03-03 16:27:51.273975,20.469,0.198,235.0,-137.2867889404297,279.74285888671875,84.958251953125,96.13998413085938,115.9599838256836,51.0,0.0,-20.0
32,30,100,60,go_to_pick_up_from_red,red,true,false,joint 1 -,false,2024-03-03 16:27:51.981222,20.469,0.154,235.0,-88.08592987060547,298.9056701660156,84.958251953125,86.41996765136719,106.2399673461914,51.0,0.0,-20.0
32,30,100,60,go_to_pick_up_from_red,red,true,false,joint 1 -,false,2024-03-03 16:27:52.829384,16.671,0.154,235.0,-42.18296813964844,308.7463684082031,84.958251953125,77.77995300292969,97.5999526977539,51.0,0.0,-20.0
32,30,100,60,go_to_pick_up_from_red,red,true,false,joint 1 -,false,2024-03-03 16:27:54.227306,16.215,0.155,235.0,4.6774444580078125,311.5796203613281,84.958251953125,69.13993835449219,88.9599380493164,51.0,0.0,-20.0
32,30,100,60,go_to_pick_up_from_red,red,true,false,joint 1 -,false,2024-03-03 16:27:54.922825,16.424,0.155,235.0,57.21543502807617,306.3170471191406,84.958251953125,59.419921875,79.23992156982422,51.0,0.0,-20.0
32,30,100,60,go_to_pick_up_from_red,red,true,false,joint 1 -,false,2024-03-03 16:27:56.319855,16.272,0.154,235.0,102.58285522460938,294.2456359863281,84.958251953125,50.7799072265625,70.59990692138672,51.0,0.0,-20.0
32,30,100,60,go_to_pick_up_from_red,red,true,false,joint 1 -,false,2024-03-03 16:27:57.154064,16.785,0.154,235.0,145.62200927734375,275.495849609375,84.958251953125,42.139892578125,61.95989227294922,51.0,0.0,-20.0
32,30,100,60,go_to_pick_up_from_red,red,true,false,joint 1 -,false,2024-03-03 16:27:58.403772,16.785,0.154,235.0,190.04454040527344,246.95506286621094,84.958251953125,32.41987609863281,52.23987579345703,51.0,0.0,-20.0
32,30,100,60,go_to_pick_up_from_red,red,true,false,joint 1 -,false,2024-03-03 16:27:59.100513,16.576,0.154,235.0,224.98690795898438,215.60293579101562,84.958251953125,23.779861450195312,43.59986114501953,51.0,0.0,-20.0
32,30,100,60,go_to_pick_up_from_red,red,true,false,joint 1 -,false,2024-03-03 16:27:59.816048,16.671,0.154,235.0,254.82281494140625,179.35736083984375,84.958251953125,15.139846801757812,34.95984649658203,51.0,0.0,-20.0
32,30,100,60,go_to_pick_up_from_red,red,true,false,joint 1 -,false,2024-03-03 16:28:01.318630,16.557,0.155,235.0,281.0246887207031,134.64344787597656,84.958251953125,5.599830627441406,25.419830322265625,51.0,0.0,-20.0
32,30,100,60,moving_belt,red,false,true,joint 1 -,false,2024-03-03 16:28:02.022276,16.405,0.155,235.0,292.8220520019531,106.5785140991211,84.958251953125,0.0,20.0,51.0,0.0,-20.0
32,30,100,60,moving_belt,red,false,true,joint 1 -,false,2024-03-03 16:28:02.775358,16.405,0.156,235.0,292.8220520019531,106.5785140991211,84.958251953125,0.0,20.0,51.0,0.0,-20.0
32,30,100,60,moving_belt,red,false,true,joint 1 -,false,2024-03-03 16:28:04.351767,16.101,0.156,235.0,292.8220520019531,106.5785140991211,84.958251953125,0.0,20.0,51.0,0.0,-20.0
32,30,100,60,moving_belt,red,false,true,joint 1 -,false,2024-03-03 16:28:05.046406,16.101,0.151,235.0,292.8220520019531,106.5785140991211,84.958251953125,0.0,20.0,51.0,0.0,-20.0
32,30,100,60,moving_belt,red,false,true,joint 1 -,false,2024-03-03 16:28:06.459480,16.557,0.151,235.0,292.8220520019531,106.5785140991211,84.958251953125,0.0,20.0,51.0,0.0,-20.0
32,30,100,60,go_to_pick_down,red,true,false,joint 3 +,false,2024-03-03 16:28:07.156349,16.595,0.154,235.0,291.77471923828125,106.19731903076172,66.89068603515625,0.0,20.0,51.0,7.239996910095215,-20.0
32,30,100,60,go_to_pick_down,red,true,false,joint 3 +,false,2024-03-03 16:28:07.877594,16.595,0.154,235.0,287.6684875488281,104.70276641845703,45.179962158203125,0.0,20.0,51.0,15.880009651184082,-20.0
32,30,100,60,go_to_pick_up_from_pick_down,red,true,false,joint 3 -,true,2024-03-03 16:28:09.270075,16.177,0.152,235.0,283.7506103515625,103.27677917480469,32.56570053100586,0.0,20.0,51.0,20.700000762939453,-20.0
32,30,100,60,go_to_pick_up_from_pick_down,red,true,false,joint 3 -,true,2024-03-03 16:28:09.975512,16.177,0.152,235.0,290.21002197265625,105.62781524658203,56.50651931762695,0.0,20.0,51.0,10.979984283447266,-20.0
32,30,100,60,go_to_pick_up_from_pick_down,red,true,false,joint 3 -,true,2024-03-03 16:28:11.478059,21.931,0.2,235.0,292.6884765625,106.52989196777344,78.49497985839844,0.0,20.0,51.0,2.339982509613037,-20.0
32,30,100,60,go_to_color_detect_up_from_pick_up,red,true,false,joint 1 +,true,2024-03-03 16:28:12.212593,22.14,0.2,235.0,282.6482238769531,131.2010040283203,84.958251953125,4.9000091552734375,25.08000946044922,51.0,0.0,-20.0
32,30,100,60,go_to_color_detect_up_from_pick_up,red,true,false,joint 1 +,true,2024-03-03 16:28:12.912972,22.14,0.2,235.0,256.4395446777344,177.03810119628906,84.958251953125,14.620025634765625,34.800025939941406,51.0,0.0,-20.0
32,30,100,60,go_to_color_detect_up_from_pick_up,red,true,false,joint 1 +,true,2024-03-03 16:28:14.322661,21.95,0.198,235.0,226.93368530273438,213.55287170410156,84.958251953125,23.260040283203125,43.440040588378906,51.0,0.0,-20.0
32,30,100,60,go_to_color_detect_up_from_pick_up,red,true,false,joint 1 +,true,2024-03-03 16:28:15.017490,21.722,0.198,235.0,187.62103271484375,248.80128479003906,84.958251953125,32.98005676269531,53.160057067871094,51.0,0.0,-20.0
32,30,100,60,go_to_color_detect_up_from_pick_up,red,true,false,joint 1 +,true,2024-03-03 16:28:15.710338,21.893,0.202,235.0,148.11546325683594,274.163330078125,84.958251953125,41.62007141113281,61.800071716308594,51.0,0.0,-20.0
32,30,100,60,go_to_color_detect_down,red,true,false,joint 3 +,true,2024-03-03 16:28:16.538698,21.893,0.202,235.0,131.54275512695312,282.0943298339844,74.70404815673828,45.0,65.0,51.0,4.180001735687256,-20.0
32,30,100,60,go_to_color_detect_down,red,true,false,joint 3 +,true,2024-03-03 16:28:17.713759,22.007,0.202,235.0,129.9214324951172,278.6174011230469,50.09317398071289,45.0,65.0,51.0,13.900008201599121,-20.0
32,30,100,60,go_to_color_detect_down,red,true,false,joint 3 +,true,2024-03-03 16:28:19.284311,21.741,0.2,235.0,127.02301025390625,272.4017028808594,29.035751342773438,45.0,65.0,51.0,22.540021896362305,-20.0
32,30,100,60,go_to_color_detect_down,red,true,false,joint 3 +,true,2024-03-03 16:28:19.981633,21.874,0.199,235.0,122.82058715820312,263.38958740234375,9.247573852539062,45.0,65.0,51.0,31.180036544799805,-20.0
32,30,100,60,go_to_color_detect_down,red,true,false,joint 3 +,true,2024-03-03 16:28:21.389711,21.855,0.199,236.8,116.65401458740234,250.1653289794922,-10.939208984375,45.0,65.0,51.0,40.90005111694336,-20.0
32,30,100,60,go_to_color_detect_up_from_color_detect_down,red,true,false,joint 3 -,false,2024-03-03 16:28:22.086604,21.855,0.203,236.8,111.23545837402344,238.54519653320312,-24.077789306640625,45.0,65.0,51.0,47.7599983215332,-20.0
32,30,100,60,go_to_color_detect_up_from_color_detect_down,red,true,false,joint 3 -,false,2024-03-03 16:28:23.470304,16.367,0.203,235.0,117.63020324707031,252.25875854492188,-8.18841552734375,45.0,65.0,51.0,39.139984130859375,-20.0
32,30,100,60,go_to_color_detect_up_from_color_detect_down,red,true,false,joint 3 -,false,2024-03-03 16:28:24.163637,16.367,0.155,235.0,123.58647918701172,265.03204345703125,12.348861694335938,45.0,65.0,51.0,29.419967651367188,-20.0
32,30,100,60,go_to_color_detect_up_from_color_detect_down,red,true,false,joint 3 -,false,2024-03-03 16:28:24.857980,16.31,0.155,235.0,127.58332061767578,273.6033020019531,32.37409591674805,45.0,65.0,51.0,20.779953002929688,-20.0
32,30,100,60,go_to_color_detect_up_from_color_detect_down,red,true,false,joint 3 -,false,2024-03-03 16:28:25.811917,16.31,0.155,235.0,130.263427734375,279.3507995605469,53.592803955078125,45.0,65.0,51.0,12.139938354492188,-20.0
32,30,100,60,go_to_color_detect_up_from_color_detect_down,red,true,false,joint 3 -,false,2024-03-03 16:28:27.205879,16.424,0.155,235.0,131.630126953125,282.2817077636719,78.2900619506836,45.0,65.0,51.0,2.4199349880218506,-20.0
32,30,100,60,detecting_color,red,false,false,detecting_color,false,2024-03-03 16:28:27.902265,16.424,0.155,235.0,131.69407653808594,282.4188232421875,84.958251953125,45.0,65.0,51.0,0.0,-20.0
32,30,100,60,detecting_color,red,false,false,detecting_color,false,2024-03-03 16:28:29.288202,16.728,0.156,235.0,131.69407653808594,282.4188232421875,84.958251953125,45.0,65.0,51.0,0.0,-20.0
32,30,100,60,detecting_color,red,false,false,detecting_color,false,2024-03-03 16:28:29.986858,16.405,0.156,235.0,131.69407653808594,282.4188232421875,84.958251953125,45.0,65.0,51.0,0.0,-20.0
32,30,100,60,detecting_color,red,false,false,detecting_color,false,2024-03-03 16:28:31.376210,16.31,0.154,235.0,131.69407653808594,282.4188232421875,84.958251953125,45.0,65.0,51.0,0.0,-20.0
32,30,100,60,go_to_color_detect_down,red,true,false,joint 3 +,false,2024-03-03 16:28:32.076876,16.253,0.154,236.8,131.54275512695312,282.0943298339844,74.70404815673828,45.0,65.0,51.0,4.180001735687256,-20.0
32,30,100,60,go_to_color_detect_down,red,true,false,joint 3 +,false,2024-03-03 16:28:33.466168,16.196,0.154,236.8,130.1884307861328,279.1899719238281,52.79103088378906,45.0,65.0,51.0,12.820006370544434,-20.0
32,30,100,60,go_to_color_detect_down,red,true,false,joint 3 +,false,2024-03-03 16:28:34.311016,16.196,0.154,235.0,127.02301025390625,272.4017028808594,29.035751342773438,45.0,65.0,51.0,22.540021896362305,-20.0
32,30,100,60,go_to_color_detect_down,red,true,false,joint 3 +,false,2024-03-03 16:28:35.002460,16.348,0.154,235.0,122.82058715820312,263.38958740234375,9.247573852539062,45.0,65.0,51.0,31.180036544799805,-20.0
32,30,100,60,go_to_color_detect_down,red,true,false,joint 3 +,false,2024-03-03 16:28:36.385618,16.063,0.154,235.0,117.40955352783203,251.78558349609375,-8.822219848632812,45.0,65.0,51.0,39.82004928588867,-20.0
32,30,100,60,go_to_color_detect_up_from_color_detect_down,red,true,false,joint 3 -,true,2024-03-03 16:28:37.079523,16.177,0.154,235.0,111.17107391357422,238.40711975097656,-24.215347290039062,45.0,65.0,51.0,47.87999725341797,-20.0
32,30,100,60,go_to_color_detect_up_from_color_detect_down,red,true,false,joint 3 -,true,2024-03-03 16:28:38.464084,22.614,0.153,235.0,117.50628662109375,251.99302673339844,-8.545219421386719,45.0,65.0,51.0,39.319984436035156,-20.0
32,30,100,60,go_to_color_detect_up_from_color_detect_down,red,true,false,joint 3 -,true,2024-03-03 16:28:39.155771,22.121,0.153,235.0,122.89863586425781,263.5569763183594,9.555831909179688,45.0,65.0,51.0,30.679969787597656,-20.0
32,30,100,60,go_to_color_detect_up_from_color_detect_down,red,true,false,joint 3 -,true,2024-03-03 16:28:39.854549,22.121,0.202,235.0,127.51321411132812,273.45294189453125,31.943096160888672,45.0,65.0,51.0,20.95995330810547,-20.0
32,30,100,60,go_to_color_detect_up_from_color_detect_down,red,true,false,joint 3 -,true,2024-03-03 16:28:41.359423,21.931,0.202,235.0,130.2214813232422,279.2608642578125,53.141780853271484,45.0,65.0,51.0,12.319938659667969,-20.0
32,30,100,60,go_to_color_detect_up_from_color_detect_down,red,true,false,joint 3 -,true,2024-03-03 16:28:42.054840,22.064,0.2,235.0,131.55316162109375,282.11663818359375,75.06256103515625,45.0,65.0,51.0,3.6799354553222656,-20.0
32,30,100,60,go_to_green_up,green,true,false,joint 1 +,true,2024-03-03 16:28:42.970309,22.14,0.2,235.0,108.92587280273438,291.9570007324219,84.958251953125,49.540016174316406,69.72001647949219,51.0,0.0,-20.0
32,30,100,60,go_to_green_up,green,true,false,joint 1 +,true,2024-03-03 16:28:44.354292,22.045,0.2,235.0,63.83027648925781,305.00726318359375,84.958251953125,58.180030822753906,78.36003112792969,51.0,0.0,-20.0
32,30,100,60,go_to_green_up,green,true,false,joint 1 +,true,2024-03-03 16:28:45.284669,22.083,0.2,235.0,17.285921096801758,311.1348876953125,84.958251953125,66.8200454711914,87.00004577636719,51.0,0.0,-20.0
32,30,100,60,go_to_green_up,green,true,false,joint 1 +,true,2024-03-03 16:28:45.999986,22.045,0.2,235.0,-35.49228286743164,309.5868835449219,84.958251953125,76.5400619506836,96.72006225585938,51.0,0.0,-20.0
32,30,100,60,go_to_pick_up_from_green,green,true,false,joint 1 -,false,2024-03-03 16:28:47.253375,22.026,0.2,235.0,-80.47709655761719,301.04345703125,84.958251953125,84.96673583984375,104.9956283569336,51.0,0.0,-20.0
32,30,100,60,go_to_pick_up_from_green,green,true,false,joint 1 -,false,2024-03-03 16:28:47.948626,22.177,0.198,235.0,-40.13457107543945,309.01934814453125,84.958251953125,77.39998626708984,97.21998596191406,51.0,0.0,-20.0
32,30,100,60,go_to_pick_up_from_green,green,true,false,joint 1 -,false,2024-03-03 16:28:49.330425,16.538,0.198,236.8,12.614496231079102,311.3592834472656,84.958251953125,67.67996978759766,87.49996948242188,51.0,0.0,-20.0
32,30,100,60,go_to_pick_up_from_green,green,true,false,joint 1 -,false,2024-03-03 16:28:50.022254,16.31,0.154,236.8,59.245540618896484,305.9308776855469,84.958251953125,59.039955139160156,78.85995483398438,51.0,0.0,-20.0
32,30,100,60,go_to_pick_up_from_green,green,true,false,joint 1 -,false,2024-03-03 16:28:51.408356,16.177,0.154,235.0,104.53195190429688,293.5588684082031,84.958251953125,50.399940490722656,70.21994018554688,51.0,0.0,-20.0
32,30,100,60,go_to_pick_up_from_green,green,true,false,joint 1 -,false,2024-03-03 16:28:52.260197,16.272,0.154,235.0,152.59396362304688,271.6961669921875,84.958251953125,40.67992401123047,60.49992370605469,51.0,0.0,-20.0
32,30,100,60,go_to_pick_up_from_green,green,true,false,joint 1 -,false,2024-03-03 16:28:53.180714,16.272,0.154,235.0,191.67808532714844,245.68931579589844,84.958251953125,32.03990936279297,51.85990905761719,51.0,0.0,-20.0
32,30,100,60,go_to_pick_up_from_green,green,true,false,joint 1 -,false,2024-03-03 16:28:54.003778,16.215,0.154,235.0,226.41175842285156,214.10618591308594,84.958251953125,23.39989471435547,43.21989440917969,51.0,0.0,-20.0
32,30,100,60,go_to_pick_up_from_green,green,true,false,joint 1 -,false,2024-03-03 16:28:54.924425,16.348,0.154,235.0,259.309814453125,172.806640625,84.958251953125,13.679878234863281,33.4998779296875,51.0,0.0,-20.0
32,30,100,60,go_to_pick_up_from_green,green,true,false,joint 1 -,false,2024-03-03 16:28:56.438904,16.367,0.154,235.0,282.3271484375,131.89053344726562,84.958251953125,5.039863586425781,24.85986328125,51.0,0.0,-20.0
32,30,100,60,moving_belt,green,false,true,joint 1 -,false,2024-03-03 16:28:57.131580,16.329,0.154,235.0,292.8220520019531,106.5785140991211,84.958251953125,0.0,20.0,51.0,0.0,-20.0
32,30,100,60,moving_belt,green,false,true,joint 1 -,false,2024-03-03 16:28:57.827810,16.329,0.154,235.0,292.8220520019531,106.5785140991211,84.958251953125,0.0,20.0,51.0,0.0,-20.0
32,30,100,60,moving_belt,green,false,true,joint 1 -,false,2024-03-03 16:28:59.211768,16.69,0.156,235.0,292.8220520019531,106.5785140991211,84.958251953125,0.0,20.0,51.0,0.0,-20.0
32,30,100,60,moving_belt,green,false,true,joint 1 -,false,2024-03-03 16:28:59.907426,16.329,0.156,235.0,292.8220520019531,106.5785140991211,84.958251953125,0.0,20.0,51.0,0.0,-20.0
32,30,100,60,moving_belt,green,false,true,joint 1 -,false,2024-03-03 16:29:01.323983,16.538,0.155,235.0,292.8220520019531,106.5785140991211,84.958251953125,0.0,20.0,51.0,0.0,-20.0
32,30,100,60,go_to_pick_down,green,true,false,joint 3 +,false,2024-03-03 16:29:02.016665,16.538,0.155,235.0,291.608642578125,106.1368637084961,65.51657104492188,0.0,20.0,51.0,7.779996395111084,-20.0
32,30,100,60,go_to_pick_down,green,true,false,joint 3 +,false,2024-03-03 16:29:03.402045,15.93,0.155,235.0,287.3102722167969,104.5723876953125,43.847991943359375,0.0,20.0,51.0,16.42000961303711,-20.0
32,30,100,60,go_to_pick_up_from_pick_down,green,true,false,joint 3 -,true,2024-03-03 16:29:04.099475,15.93,0.152,235.0,284.94708251953125,103.7122573852539,36.033782958984375,0.0,20.0,51.0,19.259998321533203,-20.0
32,30,100,60,go_to_pick_up_from_pick_down,green,true,false,joint 3 -,true,2024-03-03 16:29:05.489056,22.14,0.152,235.0,290.37530517578125,105.68797302246094,57.413238525390625,0.0,20.0,51.0,10.619983673095703,-20.0
32,30,100,60,go_to_pick_up_from_pick_down,green,true,false,joint 3 -,true,2024-03-03 16:29:06.186402,22.14,0.202,235.0,292.766845703125,106.55841827392578,80.80252075195312,0.0,20.0,51.0,1.4399826526641846,-20.0
32,30,100,60,go_to_color_detect_up_from_pick_up,green,true,false,joint 1 +,true,2024-03-03 16:29:06.879009,21.874,0.202,235.0,280.55255126953125,135.6244659423828,84.958251953125,5.800010681152344,25.980010986328125,51.0,0.0,-20.0
32,30,100,60,go_to_color_detect_up_from_pick_up,green,true,false,joint 1 +,true,2024-03-03 16:29:08.264880,21.95,0.199,235.0,256.99444580078125,176.2316131591797,84.958251953125,14.440025329589844,34.620025634765625,51.0,0.0,-20.0
32,30,100,60,go_to_color_detect_up_from_pick_up,green,true,false,joint 1 +,true,2024-03-03 16:29:08.955347,21.95,0.199,235.0,223.5513458251953,217.09104919433594,84.958251953125,24.16004180908203,44.34004211425781,51.0,0.0,-20.0
32,30,100,60,go_to_color_detect_up_from_pick_up,green,true,false,joint 1 +,true,2024-03-03 16:29:09.648594,21.779,0.199,235.0,188.40171813964844,248.21063232421875,84.958251953125,32.80005645751953,52.98005676269531,51.0,0.0,-20.0
32,30,100,60,go_to_color_detect_up_from_pick_up,green,true,false,joint 1 +,true,2024-03-03 16:29:11.390988,21.76,0.199,235.0,143.7908172607422,276.4560241699219,84.958251953125,42.52007293701172,62.7000732421875,51.0,0.0,-20.0
32,30,100,60,go_to_color_detect_down,green,true,false,joint 3 +,true,2024-03-03 16:29:12.082426,21.836,0.199,235.0,131.4833984375,281.967041015625,72.86215209960938,45.0,65.0,51.0,4.900001049041748,-20.0
32,30,100,60,go_to_color_detect_down,green,true,false,joint 3 +,true,2024-03-03 16:29:12.828112,21.836,0.199,235.0,130.0128173828125,278.8133850097656,50.99113082885742,45.0,65.0,51.0,13.540007591247559,-20.0
32,30,100,60,go_to_color_detect_down,green,true,false,joint 3 +,true,2024-03-03 16:29:14.093052,21.703,0.199,235.0,126.72148132324219,271.7550964355469,27.33184051513672,45.0,65.0,51.0,23.26002311706543,-20.0
32,30,100,60,go_to_color_detect_down,green,true,false,joint 3 +,true,2024-03-03 16:29:15.475044,21.684,0.198,235.0,122.414306640625,262.518310546875,7.6701812744140625,45.0,65.0,51.0,31.90003776550293,-20.0
32,30,100,60,go_to_color_detect_down,green,true,false,joint 3 +,true,2024-03-03 16:29:16.209457,21.57,0.197,235.0,116.90773010253906,250.7094268798828,-10.237289428710938,45.0,65.0,51.0,40.5400505065918,-20.0
32,30,100,60,go_to_color_detect_up_from_color_detect_down,green,true,false,joint 3 -,false,2024-03-03 16:29:16.903135,21.608,0.197,235.0,111.74756622314453,239.64341735839844,-22.969741821289062,45.0,65.0,51.0,47.05999755859375,-20.0
32,30,100,60,go_to_color_detect_up_from_color_detect_down,green,true,false,joint 3 -,false,2024-03-03 16:29:18.297605,21.57,0.197,235.0,118.1210708618164,253.3114471435547,-6.75201416015625,45.0,65.0,51.0,38.41998291015625,-20.0
32,30,100,60,go_to_color_detect_up_from_color_detect_down,green,true,false,joint 3 -,false,2024-03-03 16:29:18.985494,16.12,0.153,235.0,123.3926010131836,264.61627197265625,11.547218322753906,45.0,65.0,51.0,29.77996826171875,-20.0
32,30,100,60,go_to_color_detect_up_from_color_detect_down,green,true,false,joint 3 -,false,2024-03-03 16:29:20.384969,16.196,0.153,235.0,127.85799407958984,274.1923522949219,34.10322952270508,45.0,65.0,51.0,20.059951782226562,-20.0
32,30,100,60,go_to_color_detect_up_from_color_detect_down,green,true,false,joint 3 -,false,2024-03-03 16:29:21.077756,16.196,0.154,235.0,130.4252166748047,279.69775390625,55.39995574951172,45.0,65.0,51.0,11.419937133789062,-20.0
32,30,100,60,go_to_color_detect_up_from_color_detect_down,green,true,false,joint 3 -,false,2024-03-03 16:29:22.461114,16.158,0.154,235.0,131.61119079589844,282.2410888671875,77.36751556396484,45.0,65.0,51.0,2.779935121536255,-20.0
32,30,100,60,detecting_color,green,false,false,detecting_color,false,2024-03-03 16:29:23.153544,16.063,0.154,235.0,131.69407653808594,282.4188232421875,84.958251953125,45.0,65.0,51.0,0.0,-20.0
32,30,100,60,go_to_color_detect_down,green,true,false,joint 3 +,false,2024-03-03 16:29:23.944905,16.063,0.154,235.0,131.6935272216797,282.41766357421875,84.34249877929688,45.0,65.0,51.0,0.4000014066696167,-20.0
32,30,100,60,go_to_color_detect_down,green,true,false,joint 3 +,false,2024-03-03 16:29:25.440999,16.006,0.152,235.0,130.95277404785156,280.8291015625,62.317222595214844,45.0,65.0,51.0,9.039999961853027,-20.0
32,30,100,60,go_to_color_detect_down,green,true,false,joint 3 +,false,2024-03-03 16:29:26.133499,16.006,0.152,235.0,128.51800537109375,275.60772705078125,38.557804107666016,45.0,65.0,51.0,18.580015182495117,-20.0
32,30,100,60,go_to_color_detect_down,green,true,false,joint 3 +,false,2024-03-03 16:29:27.516644,15.968,0.152,235.0,124.90314483642578,267.85565185546875,18.130157470703125,45.0,65.0,51.0,27.220029830932617,-20.0
32,30,100,60,go_to_color_detect_down,green,true,false,joint 3 +,false,2024-03-03 16:29:28.210819,15.949,0.152,235.0,119.34046936035156,255.92645263671875,-3.01611328125,45.0,65.0,51.0,36.94004440307617,-20.0
32,30,100,60,go_to_color_detect_down,green,true,false,joint 3 +,false,2024-03-03 16:29:28.901083,16.044,0.152,235.0,113.19032287597656,242.73741149902344,-19.709678649902344,45.0,65.0,51.0,45.58005905151367,-20.0
32,30,100,60,go_to_color_detect_up_from_color_detect_down,green,true,false,joint 3 -,true,2024-03-03 16:29:29.592769,16.044,0.152,235.0,114.662841796875,245.89524841308594,-16.15538787841797,45.0,65.0,51.0,43.279991149902344,-20.0
32,30,100,60,go_to_color_detect_up_from_color_detect_down,green,true,false,joint 3 -,true,2024-03-03 16:29:31.379413,22.026,0.152,235.0,120.68181610107422,258.802978515625,1.40081787109375,45.0,65.0,51.0,34.45997619628906,-20.0
32,30,100,60,go_to_color_detect_up_from_color_detect_down,green,true,false,joint 3 -,true,2024-03-03 16:29:32.067704,21.855,0.2,235.0,125.91007995605469,270.0150146484375,23.019542694091797,45.0,65.0,51.0,24.739959716796875,-20.0
32,30,100,60,go_to_color_detect_up_from_color_detect_down,green,true,false,joint 3 -,true,2024-03-03 16:29:33.456437,21.836,0.2,235.0,129.2030792236328,277.0768737792969,43.7496337890625,45.0,65.0,51.0,16.099945068359375,-20.0
32,30,100,60,go_to_color_detect_up_from_color_detect_down,green,true,false,joint 3 -,true,2024-03-03 16:29:34.147295,21.931,0.2,235.0,131.14259338378906,281.2362060546875,65.4150161743164,45.0,65.0,51.0,7.459932327270508,-20.0
32,30,100,60,go_to_blue_up,blue,true,false,joint 1 +,true,2024-03-03 16:29:34.839574,21.969,0.2,235.0,127.9364013671875,284.14080810546875,84.958251953125,45.760009765625,65.94001007080078,51.0,0.0,-20.0
32,30,100,60,go_to_blue_up,blue,true,false,joint 1 +,true,2024-03-03 16:29:36.255256,21.703,0.2,235.0,82.8559341430664,300.3974609375,84.958251953125,54.58002471923828,74.76002502441406,51.0,0.0,-20.0
32,30,100,60,go_to_blue_up,blue,true,false,joint 1 +,true,2024-03-03 16:29:36.945870,21.703,0.2,235.0,36.788177490234375,309.435546875,84.958251953125,63.22003936767578,83.40003967285156,51.0,0.0,-20.0
32,30,100,60,go_to_pick_up_from_blue,blue,true,false,joint 1 -,false,2024-03-03 16:29:38.324864,21.703,0.199,235.0,62.23263931274414,305.3372497558594,84.958251953125,58.47998809814453,78.29998779296875,51.0,0.0,-20.0
32,30,100,60,go_to_pick_up_from_blue,blue,true,false,joint 1 -,false,2024-03-03 16:29:39.019150,16.253,0.199,235.0,107.39594268798828,292.5232238769531,84.958251953125,49.83997344970703,69.65997314453125,51.0,0.0,-20.0
32,30,100,60,go_to_pick_up_from_blue,blue,true,false,joint 1 -,false,2024-03-03 16:29:40.414638,16.196,0.153,235.0,150.12173461914062,273.0699462890625,84.958251953125,41.19995880126953,61.01995849609375,51.0,0.0,-20.0
32,30,100,60,go_to_pick_up_from_blue,blue,true,false,joint 1 -,false,2024-03-03 16:29:41.106325,16.196,0.153,235.0,194.07005310058594,243.80430603027344,84.958251953125,31.479942321777344,51.29994201660156,51.0,0.0,-20.0
32,30,100,60,go_to_pick_up_from_blue,blue,true,false,joint 1 -,false,2024-03-03 16:29:42.492269,16.082,0.152,235.0,228.49342346191406,211.88320922851562,84.958251953125,22.839927673339844,42.65992736816406,51.0,0.0,-20.0
32,30,100,60,go_to_pick_up_from_blue,blue,true,false,joint 1 -,false,2024-03-03 16:29:43.182782,16.082,0.152,235.0,257.7307434082031,175.153076171875,84.958251953125,14.199913024902344,34.01991271972656,51.0,0.0,-20.0
32,30,100,60,go_to_pick_up_from_blue,blue,true,false,joint 1 -,false,2024-03-03 16:29:43.876042,15.987,0.152,235.0,283.1955871582031,130.01535034179688,84.958251953125,4.6598968505859375,24.479896545410156,51.0,0.0,-20.0
32,30,100,60,moving_belt,blue,false,true,joint 1 -,false,2024-03-03 16:29:45.258196,16.063,0.153,235.0,292.8220520019531,106.5785140991211,84.958251953125,0.0,20.0,51.0,0.0,-20.0
32,30,100,60,moving_belt,blue,false,true,joint 1 -,false,2024-03-03 16:29:45.949303,16.063,0.153,235.0,292.8220520019531,106.5785140991211,84.958251953125,0.0,20.0,51.0,0.0,-20.0
32,30,100,60,moving_belt,blue,false,true,joint 1 -,false,2024-03-03 16:29:47.328320,16.633,0.155,235.0,292.8220520019531,106.5785140991211,84.958251953125,0.0,20.0,51.0,0.0,-20.0
32,30,100,60,moving_belt,blue,false,true,joint 1 -,false,2024-03-03 16:29:48.021801,16.31,0.155,235.0,292.8220520019531,106.5785140991211,84.958251953125,0.0,20.0,51.0,0.0,-20.0
32,30,100,60,moving_belt,blue,false,true,joint 1 -,false,2024-03-03 16:29:49.399817,16.386,0.155,235.0,292.8220520019531,106.5785140991211,84.958251953125,0.0,20.0,51.0,0.0,-20.0
32,30,100,60,go_to_pick_down,blue,true,false,joint 3 +,false,2024-03-03 16:29:50.095499,16.329,0.155,235.0,291.49114990234375,106.09410095214844,64.60144805908203,0.0,20.0,51.0,8.139996528625488,-20.0
32,30,100,60,go_to_pick_down,blue,true,false,joint 3 +,false,2024-03-03 16:29:51.494497,16.196,0.153,235.0,287.06494140625,104.48309326171875,42.9620361328125,0.0,20.0,51.0,16.780010223388672,-20.0
32,30,100,60,go_to_pick_up_from_pick_down,blue,true,false,joint 3 -,true,2024-03-03 16:29:51.494497,16.196,0.153,235.0,284.35906982421875,103.49824523925781,34.29574203491211,0.0,20.0,51.0,19.979999542236328,-20.0
32,30,100,60,go_to_pick_up_from_pick_down,blue,true,false,joint 3 -,true,2024-03-03 16:29:53.393127,22.538,0.153,235.0,290.5352783203125,105.7461929321289,58.321044921875,0.0,20.0,51.0,10.25998306274414,-20.0
32,30,100,60,go_to_pick_up_from_pick_down,blue,true,false,joint 3 -,true,2024-03-03 16:29:54.091814,22.538,0.203,235.0,292.75390625,106.5537109375,80.34091186523438,0.0,20.0,51.0,1.6199826002120972,-20.0
32,30,100,60,go_to_color_detect_up_from_pick_up,blue,true,false,joint 1 +,true,2024-03-03 16:29:55.470954,21.836,0.203,236.8,280.97723388671875,134.74241638183594,84.958251953125,5.6200103759765625,25.800010681152344,51.0,0.0,-20.0
32,30,100,60,go_to_color_detect_up_from_pick_up,blue,true,false,joint 1 +,true,2024-03-03 16:29:56.161838,21.95,0.202,236.8,254.19461059570312,180.24655151367188,84.958251953125,15.34002685546875,35.52002716064453,51.0,0.0,-20.0
32,30,100,60,go_to_color_detect_up_from_pick_up,blue,true,false,joint 1 +,true,2024-03-03 16:29:57.549234,22.007,0.202,235.0,224.2322540283203,216.38768005371094,84.958251953125,23.98004150390625,44.16004180908203,51.0,0.0,-20.0
32,30,100,60,go_to_color_detect_up_from_pick_up,blue,true,false,joint 1 +,true,2024-03-03 16:29:58.256455,21.874,0.2,235.0,189.1805877685547,247.61752319335938,84.958251953125,32.62005615234375,52.80005645751953,51.0,0.0,-20.0
32,30,100,60,go_to_color_detect_up_from_pick_up,blue,true,false,joint 1 +,true,2024-03-03 16:29:58.950703,21.988,0.2,235.0,144.65863037109375,276.0028991699219,84.958251953125,42.34007263183594,62.52007293701172,51.0,0.0,-20.0
32,30,100,60,go_to_color_detect_down,blue,true,false,joint 3 +,true,2024-03-03 16:30:00.333410,21.931,0.202,235.0,131.4991455078125,282.00079345703125,73.32245635986328,45.0,65.0,51.0,4.720001220703125,-20.0
32,30,100,60,go_to_color_detect_down,blue,true,false,joint 3 +,true,2024-03-03 16:30:01.026649,21.722,0.202,235.0,130.0576171875,278.909423828125,51.44061279296875,45.0,65.0,51.0,13.360007286071777,-20.0
32,30,100,60,go_to_color_detect_down,blue,true,false,joint 3 +,true,2024-03-03 16:30:01.737563,21.741,0.202,235.0,126.79772186279297,271.9185791015625,27.756980895996094,45.0,65.0,51.0,23.08002281188965,-20.0
32,30,100,60,go_to_color_detect_down,blue,true,false,joint 3 +,true,2024-03-03 16:30:02.881101,21.741,0.198,235.0,122.51666259765625,262.7378234863281,8.063400268554688,45.0,65.0,51.0,31.72003746032715,-20.0
32,30,100,60,go_to_color_detect_down,blue,true,false,joint 3 +,true,2024-03-03 16:30:04.265601,21.646,0.199,235.0,117.03389739990234,250.97998046875,-9.884925842285156,45.0,65.0,51.0,40.360050201416016,-20.0
32,30,100,60,go_to_color_detect_up_from_color_detect_down,blue,true,false,joint 3 -,false,2024-03-03 16:30:04.954305,21.836,0.199,235.0,111.60405731201172,239.33566284179688,-23.282745361328125,45.0,65.0,51.0,47.23999786376953,-20.0
32,30,100,60,go_to_color_detect_up_from_color_detect_down,blue,true,false,joint 3 -,false,2024-03-03 16:30:06.347514,21.836,0.157,235.0,117.99906158447266,253.04978942871094,-7.112480163574219,45.0,65.0,51.0,38.59998321533203,-20.0
32,30,100,60,go_to_color_detect_up_from_color_detect_down,blue,true,false,joint 3 -,false,2024-03-03 16:30:07.038397,16.348,0.157,235.0,123.87328338623047,265.6470947265625,13.556709289550781,45.0,65.0,51.0,28.879966735839844,-20.0
32,30,100,60,go_to_color_detect_up_from_color_detect_down,blue,true,false,joint 3 -,false,2024-03-03 16:30:08.424401,16.462,0.155,235.0,127.7218017578125,273.9002685546875,33.237640380859375,45.0,65.0,51.0,20.419952392578125,-20.0
32,30,100,60,go_to_color_detect_up_from_color_detect_down,blue,true,false,joint 3 -,false,2024-03-03 16:30:09.190863,16.405,0.155,235.0,130.34552001953125,279.52685546875,54.49578094482422,45.0,65.0,51.0,11.779937744140625,-20.0
32,30,100,60,go_to_color_detect_up_from_color_detect_down,blue,true,false,joint 3 -,false,2024-03-03 16:30:09.877784,16.405,0.155,236.8,131.6466064453125,282.3170471191406,79.21286010742188,45.0,65.0,51.0,2.0599348545074463,-20.0
32,30,100,60,detecting_color,blue,false,false,detecting_color,false,2024-03-03 16:30:11.315142,16.329,0.155,236.8,131.69407653808594,282.4188232421875,84.958251953125,45.0,65.0,51.0,0.0,-20.0
32,30,100,60,go_to_color_detect_down,blue,true,false,joint 3 +,false,2024-03-03 16:30:12.007816,16.291,0.155,236.8,131.6935272216797,282.41766357421875,84.34249877929688,45.0,65.0,51.0,0.4000014066696167,-20.0
32,30,100,60,go_to_color_detect_down,blue,true,false,joint 3 +,false,2024-03-03 16:30:13.427698,16.291,0.154,236.8,130.95277404785156,280.8291015625,62.317222595214844,45.0,65.0,51.0,9.039999961853027,-20.0
32,30,100,60,go_to_color_detect_down,blue,true,false,joint 3 +,false,2024-03-03 16:30:14.150483,16.215,0.154,236.8,128.81875610351562,276.252685546875,40.75446701049805,45.0,65.0,51.0,17.68001365661621,-20.0
32,30,100,60,go_to_color_detect_down,blue,true,false,joint 3 +,false,2024-03-03 16:30:15.533251,16.272,0.154,236.8,124.81414031982422,267.664794921875,17.719154357910156,45.0,65.0,51.0,27.4000301361084,-20.0
32,30,100,60,go_to_color_detect_down,blue,true,false,joint 3 +,false,2024-03-03 16:30:16.222476,16.272,0.154,236.8,119.91831970214844,257.1656494140625,-1.155426025390625,45.0,65.0,51.0,36.040042877197266,-20.0
32,30,100,60,go_to_color_detect_down,blue,true,false,joint 3 +,false,2024-03-03 16:30:16.912501,16.177,0.154,236.8,113.87974548339844,244.2158966064453,-18.075515747070312,45.0,65.0,51.0,44.680057525634766,-20.0
32,30,100,60,go_to_color_detect_up_from_color_detect_down,blue,true,false,joint 3 -,true,2024-03-03 16:30:18.296616,16.215,0.154,236.8,114.662841796875,245.89524841308594,-16.15538787841797,45.0,65.0,51.0,43.279991149902344,-20.0
32,30,100,60,go_to_color_detect_up_from_color_detect_down,blue,true,false,joint 3 -,true,2024-03-03 16:30:19.047701,22.861,0.154,236.8,120.57062530517578,258.5645446777344,1.0212783813476562,45.0,65.0,51.0,34.639976501464844,-20.0
32,30,100,60,go_to_color_detect_up_from_color_detect_down,blue,true,false,joint 3 -,true,2024-03-03 16:30:19.871552,22.026,0.2,236.8,125.82756042480469,269.83807373046875,22.601032257080078,45.0,65.0,51.0,24.919960021972656,-20.0
32,30,100,60,go_to_color_detect_up_from_color_detect_down,blue,true,false,joint 3 -,true,2024-03-03 16:30:21.277847,21.855,0.2,235.0,129.1480712890625,276.95892333984375,43.30653381347656,45.0,65.0,51.0,16.279945373535156,-20.0
32,30,100,60,go_to_color_detect_up_from_color_detect_down,blue,true,false,joint 3 -,true,2024-03-03 16:30:21.968540,21.931,0.2,235.0,131.11634826660156,281.1799011230469,64.9573974609375,45.0,65.0,51.0,7.639932155609131,-20.0
32,30,100,60,go_to_red_up,red,true,false,joint 1 +,true,2024-03-03 16:30:23.349771,21.95,0.2,236.8,129.7191619873047,283.3313903808594,84.958251953125,45.40000915527344,65.58000946044922,51.0,0.0,-20.0
32,30,100,60,go_to_red_up,red,true,false,joint 1 +,true,2024-03-03 16:30:24.039064,21.95,0.2,236.8,86.62419128417969,299.33258056640625,84.958251953125,53.860023498535156,74.04002380371094,51.0,0.0,-20.0
32,30,100,60,go_to_red_up,red,true,false,joint 1 +,true,2024-03-03 16:30:25.422639,22.007,0.2,236.8,40.67363739013672,308.9488525390625,84.958251953125,62.500038146972656,82.68003845214844,51.0,0.0,-20.0
32,30,100,60,go_to_red_up,red,true,false,joint 1 +,true,2024-03-03 16:30:26.142886,21.893,0.2,236.8,-12.071187973022461,311.3808288574219,84.958251953125,72.22005462646484,92.40005493164062,51.0,0.0,-20.0
32,30,100,60,go_to_red_up,red,true,false,joint 1 +,true,2024-03-03 16:30:27.520575,21.931,0.2,236.8,-58.711666107177734,306.0337829589844,84.958251953125,80.86006927490234,101.04006958007812,51.0,0.0,-20.0
32,30,100,60,go_to_red_up,red,true,false,joint 1 +,true,2024-03-03 16:30:28.213403,21.874,0.2,236.8,-104.01959228515625,293.7408142089844,84.958251953125,89.50008392333984,109.68008422851562,51.0,0.0,-20.0
32,30,100,60,go_to_red_up,red,true,false,joint 1 +,true,2024-03-03 16:30:29.151514,21.931,0.2,236.8,-152.11968994140625,271.96197509765625,84.958251953125,99.22010040283203,119.40010070800781,51.0,0.0,-20.0
32,30,100,60,go_to_pick_up_from_red,red,true,false,joint 1 -,false,2024-03-03 16:30:30.535024,21.798,0.202,236.8,-172.08236694335938,259.7910461425781,84.958251953125,103.5199966430664,123.33999633789062,51.0,0.0,-20.0
32,30,100,60,go_to_pick_up_from_red,red,true,false,joint 1 -,false,2024-03-03 16:30:31.230324,18.627,0.202,236.8,-125.75055694580078,285.11492919921875,84.958251953125,93.79998016357422,113.61997985839844,51.0,0.0,-20.0
32,30,100,60,go_to_pick_up_from_red,red,true,false,joint 1 -,false,2024-03-03 16:30:31.928998,18.627,0.202,236.8,-81.49188232421875,300.7703552246094,84.958251953125,85.15996551513672,104.97996520996094,51.0,0.0,-20.0
32,30,100,60,go_to_pick_up_from_red,red,true,false,joint 1 -,false,2024-03-03 16:30:33.342511,16.31,0.155,236.8,-35.38359451293945,309.59930419921875,84.958251953125,76.51995086669922,96.33995056152344,51.0,0.0,-20.0
32,30,100,60,go_to_pick_up_from_red,red,true,false,joint 1 -,false,2024-03-03 16:30:34.036793,16.348,0.155,236.8,17.395151138305664,311.1288146972656,84.958251953125,66.79993438720703,86.61993408203125,51.0,0.0,-20.0
32,30,100,60,go_to_pick_up_from_red,red,true,false,joint 1 -,false,2024-03-03 16:30:35.424786,16.424,0.155,236.8,63.93731689453125,304.9848327636719,84.958251953125,58.15991973876953,77.97991943359375,51.0,0.0,-20.0
32,30,100,60,go_to_pick_up_from_red,red,true,false,joint 1 -,false,2024-03-03 16:30:36.271150,16.272,0.155,236.8,109.02833557128906,291.91876220703125,84.958251953125,49.51990509033203,69.33990478515625,51.0,0.0,-20.0
32,30,100,60,go_to_pick_up_from_red,red,true,false,joint 1 -,false,2024-03-03 16:30:36.962070,16.272,0.155,236.8,151.64479064941406,272.2270812988281,84.958251953125,40.87989044189453,60.69989013671875,51.0,0.0,-20.0
32,30,100,60,go_to_pick_up_from_red,red,true,false,joint 1 -,false,2024-03-03 16:30:38.345288,16.329,0.155,235.0,195.42898559570312,242.71636962890625,84.958251953125,31.159873962402344,50.97987365722656,51.0,0.0,-20.0
32,30,100,60,go_to_pick_up_from_red,red,true,false,joint 1 -,false,2024-03-03 16:30:39.216983,16.329,0.155,235.0,229.67349243164062,210.60348510742188,84.958251953125,22.519859313964844,42.33985900878906,51.0,0.0,-20.0
32,30,100,60,go_to_pick_up_from_red,red,true,false,joint 1 -,false,2024-03-03 16:30:39.910662,16.367,0.155,236.8,259.2496032714844,172.89698791503906,84.958251953125,13.699844360351562,33.51984405517578,51.0,0.0,-20.0
32,30,100,60,go_to_pick_up_from_red,red,true,false,joint 1 -,false,2024-03-03 16:30:41.342265,16.329,0.155,236.8,284.3195495605469,127.53874206542969,84.958251953125,4.159828186035156,23.979827880859375,51.0,0.0,-20.0
32,30,100,60,moving_belt,red,false,true,joint 1 -,false,2024-03-03 16:30:42.089710,16.462,0.155,236.8,292.8220520019531,106.5785140991211,84.958251953125,0.0,20.0,51.0,0.0,-20.0
32,30,100,60,moving_belt,red,false,true,joint 1 -,false,2024-03-03 16:30:43.483855,16.728,0.158,236.8,292.8220520019531,106.5785140991211,84.958251953125,0.0,20.0,51.0,0.0,-20.0
32,30,100,60,moving_belt,red,false,true,joint 1 -,false,2024-03-03 16:30:44.192716,16.728,0.158,236.8,292.8220520019531,106.5785140991211,84.958251953125,0.0,20.0,51.0,0.0,-20.0
32,30,100,60,moving_belt,red,false,true,joint 1 -,false,2024-03-03 16:30:44.955799,16.481,0.158,236.8,292.8220520019531,106.5785140991211,84.958251953125,0.0,20.0,51.0,0.0,-20.0
32,30,100,60,go_to_pick_down,red,true,false,joint 3 +,false,2024-03-03 16:30:46.496000,16.31,0.157,236.8,292.822021484375,106.57849884033203,84.85562896728516,0.0,20.0,51.0,0.11999978125095367,-20.0
32,30,100,60,go_to_pick_down,red,true,false,joint 3 +,false,2024-03-03 16:30:47.200298,16.5,0.157,236.8,291.3047790527344,106.0262680053711,63.23027801513672,0.0,20.0,51.0,8.679997444152832,-20.0
32,30,100,60,go_to_pick_down,red,true,false,joint 3 +,false,2024-03-03 16:30:47.945688,16.5,0.155,236.8,286.6871337890625,104.34558868408203,41.6362190246582,0.0,20.0,51.0,17.320011138916016,-20.0
32,30,100,60,go_to_pick_up_from_pick_down,red,true,false,joint 3 -,true,2024-03-03 16:30:49.324194,16.424,0.155,236.8,285.5144958496094,103.91878509521484,37.779544830322266,0.0,20.0,51.0,18.539997100830078,-20.0
32,30,100,60,go_to_pick_up_from_pick_down,red,true,false,joint 3 -,true,2024-03-03 16:30:50.029388,17.146,0.212,236.8,290.68988037109375,105.8024673461914,59.22990417480469,0.0,20.0,51.0,9.899982452392578,-20.0
32,30,100,60,go_to_pick_up_from_pick_down,red,true,false,joint 3 -,true,2024-03-03 16:30:51.408056,22.272,0.212,236.8,292.7784423828125,106.56263732910156,81.26417541503906,0.0,20.0,51.0,1.259982705116272,-20.0
32,30,100,60,go_to_color_detect_up_from_pick_up,red,true,false,joint 1 +,true,2024-03-03 16:30:52.099356,22.272,0.204,236.8,277.9463806152344,140.88836669921875,84.958251953125,6.880012512207031,27.060012817382812,51.0,0.0,-20.0
32,30,100,60,go_to_color_detect_up_from_pick_up,red,true,false,joint 1 +,true,2024-03-03 16:30:53.478742,21.931,0.204,236.8,253.62709045410156,181.0442657470703,84.958251953125,15.520027160644531,35.70002746582031,51.0,0.0,-20.0
32,30,100,60,go_to_color_detect_up_from_pick_up,red,true,false,joint 1 +,true,2024-03-03 16:30:54.172414,22.045,0.203,236.8,223.5513458251953,217.09104919433594,84.958251953125,24.16004180908203,44.34004211425781,51.0,0.0,-20.0
32,30,100,60,go_to_color_detect_up_from_pick_up,red,true,false,joint 1 +,true,2024-03-03 16:30:55.558829,22.14,0.203,235.0,183.68984985351562,251.71763610839844,84.958251953125,33.88005828857422,54.06005859375,51.0,0.0,-20.0
32,30,100,60,go_to_color_detect_up_from_pick_up,red,true,false,joint 1 +,true,2024-03-03 16:30:56.255507,22.083,0.203,235.0,143.7908172607422,276.4560241699219,84.958251953125,42.52007293701172,62.7000732421875,51.0,0.0,-20.0
32,30,100,60,go_to_color_detect_down,red,true,false,joint 3 +,true,2024-03-03 16:30:56.946816,22.102,0.203,235.0,131.4833984375,281.967041015625,72.86215209960938,45.0,65.0,51.0,4.900001049041748,-20.0
32,30,100,60,go_to_color_detect_down,red,true,false,joint 3 +,true,2024-03-03 16:30:57.954437,22.064,0.203,236.8,129.73150634765625,278.2100830078125,48.30142593383789,45.0,65.0,51.0,14.620009422302246,-20.0
32,30,100,60,go_to_color_detect_down,red,true,false,joint 3 +,true,2024-03-03 16:30:59.341987,21.988,0.202,236.8,126.72148132324219,271.7550964355469,27.33184051513672,45.0,65.0,51.0,23.26002311706543,-20.0
32,30,100,60,go_to_color_detect_down,red,true,false,joint 3 +,true,2024-03-03 16:31:00.031680,21.988,0.202,236.8,122.414306640625,262.518310546875,7.6701812744140625,45.0,65.0,51.0,31.90003776550293,-20.0
32,30,100,60,go_to_color_detect_down,red,true,false,joint 3 +,true,2024-03-03 16:31:01.419615,22.045,0.202,235.0,116.14102935791016,249.0652313232422,-12.331649780273438,45.0,65.0,51.0,41.620052337646484,-20.0
32,30,100,60,go_to_color_detect_up_from_color_detect_down,red,true,false,joint 3 -,false,2024-03-03 16:31:02.134479,22.045,0.202,235.0,111.74756622314453,239.64341735839844,-22.969741821289062,45.0,65.0,51.0,47.05999755859375,-20.0
32,30,100,60,go_to_color_detect_up_from_color_detect_down,red,true,false,joint 3 -,false,2024-03-03 16:31:03.577562,16.652,0.202,236.8,118.1210708618164,253.3114471435547,-6.75201416015625,45.0,65.0,51.0,38.41998291015625,-20.0
32,30,100,60,go_to_color_detect_up_from_color_detect_down,red,true,false,joint 3 -,false,2024-03-03 16:31:04.284789,16.652,0.202,236.8,123.3926010131836,264.61627197265625,11.547218322753906,45.0,65.0,51.0,29.77996826171875,-20.0
32,30,100,60,go_to_color_detect_up_from_color_detect_down,red,true,false,joint 3 -,false,2024-03-03 16:31:04.973868,16.576,0.157,236.8,127.85799407958984,274.1923522949219,34.10322952270508,45.0,65.0,51.0,20.059951782226562,-20.0
32,30,100,60,go_to_color_detect_up_from_color_detect_down,red,true,false,joint 3 -,false,2024-03-03 16:31:06.356588,16.462,0.157,236.8,130.4252166748047,279.69775390625,55.39995574951172,45.0,65.0,51.0,11.419937133789062,-20.0
32,30,100,60,go_to_color_detect_up_from_color_detect_down,red,true,false,joint 3 -,false,2024-03-03 16:31:07.049351,16.652,0.158,236.8,131.61119079589844,282.2410888671875,77.36751556396484,45.0,65.0,51.0,2.779935121536255,-20.0
32,30,100,60,detecting_color,red,false,false,detecting_color,false,2024-03-03 16:31:08.430185,16.576,0.158,236.8,131.69407653808594,282.4188232421875,84.958251953125,45.0,65.0,51.0,0.0,-20.0
32,30,100,60,detecting_color,red,false,false,detecting_color,false,2024-03-03 16:31:09.115888,16.576,0.158,236.8,131.69407653808594,282.4188232421875,84.958251953125,45.0,65.0,51.0,0.0,-20.0
32,30,100,60,detecting_color,red,false,false,detecting_color,false,2024-03-03 16:31:10.498255,16.462,0.156,235.0,131.69407653808594,282.4188232421875,84.958251953125,45.0,65.0,51.0,0.0,-20.0
32,30,100,60,detecting_color,red,false,false,detecting_color,false,2024-03-03 16:31:11.185535,16.405,0.156,235.0,131.69407653808594,282.4188232421875,84.958251953125,45.0,65.0,51.0,0.0,-20.0
32,30,100,60,detecting_color,red,false,false,detecting_color,false,2024-03-03 16:31:12.590836,16.538,0.156,235.0,131.69407653808594,282.4188232421875,84.958251953125,45.0,65.0,51.0,0.0,-20.0
32,30,100,60,go_to_color_detect_down,red,true,false,joint 3 +,false,2024-03-03 16:31:13.283145,16.557,0.156,235.0,131.26980590820312,281.50897216796875,67.80765533447266,45.0,65.0,51.0,6.879999160766602,-20.0
32,30,100,60,go_to_color_detect_down,red,true,false,joint 3 +,false,2024-03-03 16:31:13.975386,16.557,0.155,235.0,129.16033935546875,276.9852294921875,43.40480422973633,45.0,65.0,51.0,16.600011825561523,-20.0
32,30,100,60,go_to_color_detect_down,red,true,false,joint 3 +,false,2024-03-03 16:31:15.362037,16.367,0.155,235.0,125.8459243774414,269.87744140625,22.693824768066406,45.0,65.0,51.0,25.240026473999023,-20.0
32,30,100,60,go_to_color_detect_down,red,true,false,joint 3 +,false,2024-03-03 16:31:16.056713,16.481,0.155,235.0,121.25421905517578,260.030517578125,3.3960342407226562,45.0,65.0,51.0,33.88003921508789,-20.0
32,30,100,60,go_to_color_detect_down,red,true,false,joint 3 +,false,2024-03-03 16:31:17.448015,16.405,0.155,235.0,114.69261169433594,245.95909118652344,-16.08099365234375,45.0,65.0,51.0,43.60005569458008,-20.0
32,30,100,60,go_to_color_detect_up_from_color_detect_down,red,true,false,joint 3 -,true,2024-03-03 16:31:18.147426,16.405,0.155,235.0,113.15946960449219,242.6712646484375,-19.781600952148438,45.0,65.0,51.0,45.25999450683594,-20.0
32,30,100,60,go_to_color_detect_up_from_color_detect_down,red,true,false,joint 3 -,true,2024-03-03 16:31:19.529757,22.804,0.156,235.0,119.43121337890625,256.1210632324219,-2.7279510498046875,45.0,65.0,51.0,36.439979553222656,-20.0
32,30,100,60,go_to_color_detect_up_from_color_detect_down,red,true,false,joint 3 -,true,2024-03-03 16:31:20.427296,22.234,0.203,235.0,124.9720230102539,268.00335693359375,18.45043182373047,45.0,65.0,51.0,26.71996307373047,-20.0
32,30,100,60,go_to_color_detect_up_from_color_detect_down,red,true,false,joint 3 -,true,2024-03-03 16:31:21.112806,22.348,0.203,235.0,128.56576538085938,275.71014404296875,38.898929595947266,45.0,65.0,51.0,18.07994842529297,-20.0
32,30,100,60,go_to_color_detect_up_from_color_detect_down,red,true,false,joint 3 -,true,2024-03-03 16:31:22.491600,22.253,0.203,235.0,130.61390686035156,280.1024169921875,57.66542053222656,45.0,65.0,51.0,10.519935607910156,-20.0
32,30,100,60,go_to_color_detect_up_from_color_detect_down,red,true,false,joint 3 -,true,2024-03-03 16:31:23.180287,22.272,0.203,235.0,131.69386291503906,282.41839599609375,84.5821304321289,45.0,65.0,51.0,0.059933602809906006,-20.0
32,30,100,60,go_to_green_up,green,true,false,joint 1 +,true,2024-03-03 16:31:24.553744,22.177,0.204,235.0,95.05188751220703,296.7640075683594,84.958251953125,52.240020751953125,72.4200210571289,51.0,0.0,-20.0
32,30,100,60,go_to_green_up,green,true,false,joint 1 +,true,2024-03-03 16:31:25.238615,22.177,0.204,235.0,49.391605377197266,307.67547607421875,84.958251953125,60.880035400390625,81.0600357055664,51.0,0.0,-20.0
32,30,100,60,go_to_green_up,green,true,false,joint 1 +,true,2024-03-03 16:31:25.930126,22.026,0.204,235.0,-4.242334842681885,311.5858459472656,84.958251953125,70.7800521850586,90.96005249023438,51.0,0.0,-20.0
32,30,100,60,go_to_green_up,green,true,false,joint 1 +,true,2024-03-03 16:31:27.379766,22.177,0.204,235.0,-51.00246047973633,307.4125671386719,84.958251953125,79.4200668334961,99.60006713867188,51.0,0.0,-20.0
32,30,100,60,go_to_pick_up_from_green,green,true,false,joint 1 -,false,2024-03-03 16:31:28.078720,22.177,0.204,235.0,-70.9456787109375,303.4311218261719,84.958251953125,83.15999603271484,102.97999572753906,51.0,0.0,-20.0
32,30,100,60,go_to_pick_up_from_green,green,true,false,joint 1 -,false,2024-03-03 16:31:29.515514,16.538,0.191,235.0,-18.69778823852539,311.0532531738281,84.958251953125,73.43997955322266,93.25997924804688,51.0,0.0,-20.0
32,30,100,60,go_to_pick_up_from_green,green,true,false,joint 1 -,false,2024-03-03 16:31:30.203223,16.538,0.191,235.0,28.24262046813965,310.33221435546875,84.958251953125,64.79996490478516,84.61996459960938,51.0,0.0,-20.0
32,30,100,60,go_to_pick_up_from_green,green,true,false,joint 1 -,false,2024-03-03 16:31:30.894909,16.576,0.157,235.0,74.5420150756836,302.5677185058594,84.958251953125,56.159950256347656,75.97994995117188,51.0,0.0,-20.0
32,30,100,60,go_to_pick_up_from_green,green,true,false,joint 1 -,false,2024-03-03 16:31:32.298545,16.614,0.157,235.0,124.55560302734375,285.63897705078125,84.958251953125,46.43993377685547,66.25993347167969,51.0,0.0,-20.0
32,30,100,60,go_to_pick_up_from_green,green,true,false,joint 1 -,false,2024-03-03 16:31:32.984081,16.614,0.157,235.0,166.88002014160156,263.16302490234375,84.958251953125,37.61991882324219,57.439918518066406,51.0,0.0,-20.0
32,30,100,60,go_to_pick_up_from_green,green,true,false,joint 1 -,false,2024-03-03 16:31:34.525922,16.386,0.157,235.0,204.52011108398438,235.10690307617188,84.958251953125,28.979904174804688,48.799903869628906,51.0,0.0,-20.0
32,30,100,60,go_to_pick_up_from_green,green,true,false,joint 1 -,false,2024-03-03 16:31:35.212818,16.386,0.157,235.0,241.27810668945312,197.20193481445312,84.958251953125,19.2598876953125,39.07988739013672,51.0,0.0,-20.0
32,30,100,60,go_to_pick_up_from_green,green,true,false,joint 1 -,false,2024-03-03 16:31:36.595408,16.538,0.157,235.0,268.1648254394531,158.7178192138672,84.958251953125,10.619873046875,30.43987274169922,51.0,0.0,-20.0
32,30,100,60,go_to_pick_up_from_green,green,true,false,joint 1 -,false,2024-03-03 16:31:37.280713,16.481,0.157,235.0,288.96514892578125,116.63135528564453,84.958251953125,1.9798583984375,21.79985809326172,51.0,0.0,-20.0
32,30,100,60,moving_belt,green,false,true,joint 1 -,false,2024-03-03 16:31:37.971412,16.519,0.157,235.0,292.8220520019531,106.5785140991211,84.958251953125,0.0,20.0,51.0,0.0,-20.0
32,30,100,60,moving_belt,green,false,true,joint 1 -,false,2024-03-03 16:31:39.354756,16.462,0.157,235.0,292.8220520019531,106.5785140991211,84.958251953125,0.0,20.0,51.0,0.0,-20.0
32,30,100,60,moving_belt,green,false,true,joint 1 -,false,2024-03-03 16:31:40.154243,16.462,0.158,235.0,292.8220520019531,106.5785140991211,84.958251953125,0.0,20.0,51.0,0.0,-20.0
32,30,100,60,moving_belt,green,false,true,joint 1 -,false,2024-03-03 16:31:41.530166,16.671,0.158,235.0,292.8220520019531,106.5785140991211,84.958251953125,0.0,20.0,51.0,0.0,-20.0
32,30,100,60,go_to_pick_down,green,true,false,joint 3 +,false,2024-03-03 16:31:42.230425,16.196,0.157,235.0,292.7362060546875,106.54727172851562,79.77674865722656,0.0,20.0,51.0,2.1999990940093994,-20.0
32,30,100,60,go_to_pick_down,green,true,false,joint 3 +,false,2024-03-03 16:31:42.941845,16.329,0.157,235.0,290.4381408691406,105.71084594726562,57.76610565185547,0.0,20.0,51.0,10.840001106262207,-20.0
32,30,100,60,go_to_pick_down,green,true,false,joint 3 +,false,2024-03-03 16:31:44.320833,16.348,0.157,235.0,284.17529296875,103.43135070800781,33.76621627807617,0.0,20.0,51.0,20.560016632080078,-20.0
32,30,100,60,go_to_pick_up_from_pick_down,green,true,false,joint 3 -,true,2024-03-03 16:31:45.024782,16.348,0.157,235.0,287.21551513671875,104.53790283203125,43.503299713134766,0.0,20.0,51.0,16.199993133544922,-20.0
32,30,100,60,go_to_pick_up_from_pick_down,green,true,false,joint 3 -,true,2024-03-03 16:31:46.399900,22.253,0.206,235.0,291.5635681152344,106.12046813964844,65.16064453125,0.0,20.0,51.0,7.5599799156188965,-20.0
32,30,100,60,go_to_color_detect_up_from_pick_up,green,true,false,joint 1 +,true,2024-03-03 16:31:47.087604,22.253,0.206,236.8,291.38262939453125,110.45317840576172,84.958251953125,0.7600021362304688,20.94000244140625,51.0,0.0,-20.0
32,30,100,60,go_to_color_detect_up_from_pick_up,green,true,false,joint 1 +,true,2024-03-03 16:31:48.465635,21.969,0.203,236.8,271.48297119140625,152.97293090820312,84.958251953125,9.400016784667969,29.58001708984375,51.0,0.0,-20.0
32,30,100,60,go_to_color_detect_up_from_pick_up,green,true,false,joint 1 +,true,2024-03-03 16:31:49.206510,22.102,0.203,235.0,245.421630859375,192.0207061767578,84.958251953125,18.04003143310547,38.22003173828125,51.0,0.0,-20.0
32,30,100,60,go_to_color_detect_up_from_pick_up,green,true,false,joint 1 +,true,2024-03-03 16:31:50.597789,22.007,0.203,235.0,209.4789276123047,230.69961547851562,84.958251953125,27.760047912597656,47.94004821777344,51.0,0.0,-20.0
32,30,100,60,go_to_color_detect_up_from_pick_up,green,true,false,joint 1 +,true,2024-03-03 16:31:51.287135,21.874,0.203,235.0,172.44464111328125,259.55072021484375,84.958251953125,36.400062561035156,56.58006286621094,51.0,0.0,-20.0
32,30,100,60,go_to_color_detect_down,green,true,false,joint 3 +,true,2024-03-03 16:31:51.993667,22.026,0.203,235.0,132.08790588378906,282.23486328125,84.958251953125,44.920074462890625,64.98007202148438,51.0,0.0,-20.0
32,30,100,60,go_to_color_detect_down,green,true,false,joint 3 +,true,2024-03-03 16:31:53.371406,21.969,0.203,235.0,131.0402374267578,281.01666259765625,63.68711853027344,45.0,65.0,51.0,8.499999046325684,-20.0
32,30,100,60,go_to_color_detect_down,green,true,false,joint 3 +,true,2024-03-03 16:31:54.085162,21.912,0.203,235.0,128.9921875,276.6246032714844,42.077728271484375,45.0,65.0,51.0,17.140012741088867,-20.0
32,30,100,60,go_to_color_detect_down,green,true,false,joint 3 +,true,2024-03-03 16:31:55.469705,21.836,0.2,235.0,125.59542083740234,269.3402404785156,21.44158172607422,45.0,65.0,51.0,25.780027389526367,-20.0
32,30,100,60,go_to_color_detect_down,green,true,false,joint 3 +,true,2024-03-03 16:31:56.159774,21.76,0.2,235.0,120.25907897949219,257.89642333984375,-0.028778076171875,45.0,65.0,51.0,35.50004196166992,-20.0
32,30,100,60,go_to_color_detect_down,green,true,false,joint 3 +,true,2024-03-03 16:31:56.908274,21.741,0.2,235.0,114.15245819091797,244.8007354736328,-17.414710998535156,45.0,65.0,51.0,44.3200569152832,-20.0
32,30,100,60,go_to_color_detect_up_from_color_detect_down,green,true,false,joint 3 -,false,2024-03-03 16:31:58.389320,22.102,0.2,236.8,113.8493881225586,244.15078735351562,-18.14856719970703,45.0,65.0,51.0,44.35999298095703,-20.0
32,30,100,60,go_to_color_detect_up_from_color_detect_down,green,true,false,joint 3 -,false,2024-03-03 16:31:59.096776,22.102,0.158,236.8,120.57062530517578,258.5645446777344,1.0212783813476562,45.0,65.0,51.0,34.639976501464844,-20.0
32,30,100,60,go_to_color_detect_up_from_color_detect_down,green,true,false,joint 3 -,false,2024-03-03 16:32:00.551497,16.443,0.158,235.0,125.23446655273438,268.566162109375,19.68890380859375,45.0,65.0,51.0,26.179962158203125,-20.0
32,30,100,60,go_to_color_detect_up_from_color_detect_down,green,true,false,joint 3 -,false,2024-03-03 16:32:01.247275,16.538,0.156,235.0,128.74659729003906,276.0979309082031,40.216636657714844,45.0,65.0,51.0,17.539947509765625,-20.0
32,30,100,60,go_to_color_detect_up_from_color_detect_down,green,true,false,joint 3 -,false,2024-03-03 16:32:02.129325,16.5,0.156,235.0,131.08949279785156,281.1222839355469,64.49998474121094,45.0,65.0,51.0,7.819931983947754,-20.0
32,30,100,60,detecting_color,green,false,false,detecting_color,false,2024-03-03 16:32:02.911455,16.5,0.156,235.0,131.69407653808594,282.4188232421875,84.958251953125,45.0,65.0,51.0,0.0,-20.0
32,30,100,60,detecting_color,green,false,false,detecting_color,false,2024-03-03 16:32:03.809778,16.405,0.157,235.0,131.69407653808594,282.4188232421875,84.958251953125,45.0,65.0,51.0,0.0,-20.0
32,30,100,60,go_to_color_detect_down,green,true,false,joint 3 +,false,2024-03-03 16:32:05.001790,16.405,0.157,235.0,131.61341857910156,282.245849609375,77.46984100341797,45.0,65.0,51.0,3.100001573562622,-20.0
32,30,100,60,go_to_color_detect_down,green,true,false,joint 3 +,false,2024-03-03 16:32:06.413862,16.348,0.156,235.0,130.4338836669922,279.71636962890625,55.50032043457031,45.0,65.0,51.0,11.740004539489746,-20.0
32,30,100,60,go_to_color_detect_down,green,true,false,joint 3 +,false,2024-03-03 16:32:07.136454,16.386,0.156,236.8,127.45826721191406,273.3351135253906,31.608081817626953,45.0,65.0,51.0,21.460020065307617,-20.0
32,30,100,60,go_to_color_detect_down,green,true,false,joint 3 +,false,2024-03-03 16:32:08.514106,16.405,0.156,236.8,123.41422271728516,264.6626281738281,11.636001586914062,45.0,65.0,51.0,30.100034713745117,-20.0
32,30,100,60,go_to_color_detect_down,green,true,false,joint 3 +,false,2024-03-03 16:32:09.211330,16.405,0.156,235.0,118.14807891845703,253.36935424804688,-6.6719207763671875,45.0,65.0,51.0,38.740047454833984,-20.0
32,30,100,60,go_to_color_detect_down,green,true,false,joint 3 +,false,2024-03-03 16:32:10.596907,16.215,0.156,235.0,111.1495361328125,238.36093139648438,-24.261260986328125,45.0,65.0,51.0,47.9933967590332,-20.0
32,30,100,60,go_to_color_detect_up_from_color_detect_down,green,true,false,joint 3 -,true,2024-03-03 16:32:11.290858,16.215,0.156,235.0,116.87968444824219,250.64927673339844,-10.315353393554688,45.0,65.0,51.0,40.21998596191406,-20.0
32,30,100,60,go_to_color_detect_up_from_color_detect_down,green,true,false,joint 3 -,true,2024-03-03 16:32:12.008059,22.747,0.156,235.0,122.39153289794922,262.469482421875,7.583045959472656,45.0,65.0,51.0,31.579971313476562,-20.0
32,30,100,60,go_to_color_detect_up_from_color_detect_down,green,true,false,joint 3 -,true,2024-03-03 16:32:13.458078,22.045,0.204,235.0,127.15413665771484,272.68292236328125,29.796043395996094,45.0,65.0,51.0,21.859954833984375,-20.0
32,30,100,60,go_to_color_detect_up_from_color_detect_down,green,true,false,joint 3 -,true,2024-03-03 16:32:14.233572,22.045,0.204,235.0,130.00279235839844,278.7919006347656,50.891456604003906,45.0,65.0,51.0,13.219940185546875,-20.0
32,30,100,60,go_to_color_detect_up_from_color_detect_down,green,true,false,joint 3 -,true,2024-03-03 16:32:15.143941,22.177,0.204,235.0,131.47982788085938,281.9593811035156,72.76004028320312,45.0,65.0,51.0,4.579935073852539,-20.0
32,30,100,60,go_to_blue_up,blue,true,false,joint 1 +,true,2024-03-03 16:32:16.537939,22.177,0.204,235.0,113.49833679199219,290.21002197265625,84.958251953125,48.6400146484375,68.82001495361328,51.0,0.0,-20.0
32,30,100,60,go_to_blue_up,blue,true,false,joint 1 +,true,2024-03-03 16:32:17.223368,22.102,0.204,235.0,68.61325073242188,303.967041015625,84.958251953125,57.280029296875,77.46002960205078,51.0,0.0,-20.0
32,30,100,60,go_to_pick_up_from_blue,blue,true,false,joint 1 -,false,2024-03-03 16:32:17.965489,22.102,0.204,235.0,27.159029006958008,310.4289245605469,84.958251953125,65.0,85.0,51.0,0.0,-20.0
32,30,100,60,go_to_pick_up_from_blue,blue,true,false,joint 1 -,false,2024-03-03 16:32:19.339107,20.507,0.203,235.0,75.59758758544922,302.30572509765625,84.958251953125,55.959983825683594,75.77998352050781,51.0,0.0,-20.0
32,30,100,60,go_to_pick_up_from_blue,blue,true,false,joint 1 -,false,2024-03-03 16:32:20.267011,20.507,0.203,235.0,121.05648803710938,287.1394348144531,84.958251953125,47.13996887207031,66.95996856689453,51.0,0.0,-20.0
32,30,100,60,go_to_pick_up_from_blue,blue,true,false,joint 1 -,false,2024-03-03 16:32:21.044411,16.367,0.157,235.0,162.8184356689453,265.6950988769531,84.958251953125,38.49995422363281,58.31995391845703,51.0,0.0,-20.0
32,30,100,60,go_to_pick_up_from_blue,blue,true,false,joint 1 -,false,2024-03-03 16:32:22.454952,16.405,0.157,235.0,200.885009765625,238.22036743164062,84.958251953125,29.859939575195312,49.67993927001953,51.0,0.0,-20.0
32,30,100,60,go_to_pick_up_from_blue,blue,true,false,joint 1 -,false,2024-03-03 16:32:23.152897,16.348,0.156,235.0,238.22084045410156,200.8844451904297,84.958251953125,20.139923095703125,39.959922790527344,51.0,0.0,-20.0
32,30,100,60,go_to_pick_up_from_blue,blue,true,false,joint 1 -,false,2024-03-03 16:32:24.532069,16.557,0.156,235.0,265.6954650878906,162.8178253173828,84.958251953125,11.499908447265625,31.319908142089844,51.0,0.0,-20.0
32,30,100,60,go_to_pick_up_from_blue,blue,true,false,joint 1 -,false,2024-03-03 16:32:25.227742,16.424,0.156,235.0,287.1397399902344,121.05577850341797,84.958251953125,2.859893798828125,22.679893493652344,51.0,0.0,-20.0
32,30,100,60,moving_belt,blue,false,true,joint 1 -,false,2024-03-03 16:32:25.923408,16.424,0.156,235.0,292.8220520019531,106.5785140991211,84.958251953125,0.0,20.0,51.0,0.0,-20.0
32,30,100,60,moving_belt,blue,false,true,joint 1 -,false,2024-03-03 16:32:27.346270,16.671,0.156,235.0,292.8220520019531,106.5785140991211,84.958251953125,0.0,20.0,51.0,0.0,-20.0
32,30,100,60,moving_belt,blue,false,true,joint 1 -,false,2024-03-03 16:32:28.048512,16.405,0.155,235.0,292.8220520019531,106.5785140991211,84.958251953125,0.0,20.0,51.0,0.0,-20.0
32,30,100,60,moving_belt,blue,false,true,joint 1 -,false,2024-03-03 16:32:29.430476,16.443,0.155,235.0,292.8220520019531,106.5785140991211,84.958251953125,0.0,20.0,51.0,0.0,-20.0
32,30,100,60,go_to_pick_down,blue,true,false,joint 3 +,false,2024-03-03 16:32:30.151604,16.386,0.157,235.0,292.795654296875,106.56890869140625,82.08492279052734,0.0,20.0,51.0,1.2999992370605469,-20.0
32,30,100,60,go_to_pick_down,blue,true,false,joint 3 +,false,2024-03-03 16:32:30.999641,16.386,0.157,235.0,290.82275390625,105.850830078125,60.03858947753906,0.0,20.0,51.0,9.9399995803833,-20.0
32,30,100,60,go_to_pick_down,blue,true,false,joint 3 +,false,2024-03-03 16:32:32.376668,16.158,0.154,235.0,284.9149169921875,103.70055389404297,35.93697738647461,0.0,20.0,51.0,19.660015106201172,-20.0
32,30,100,60,go_to_pick_up_from_pick_down,blue,true,false,joint 3 -,true,2024-03-03 16:32:33.110223,16.101,0.154,235.0,286.5872802734375,104.30924987792969,41.29315185546875,0.0,20.0,51.0,17.099994659423828,-20.0
32,30,100,60,go_to_pick_up_from_pick_down,blue,true,false,joint 3 -,true,2024-03-03 16:32:34.495388,22.102,0.208,235.0,291.25445556640625,106.0079574584961,62.87513732910156,0.0,20.0,51.0,8.459980010986328,-20.0
32,30,100,60,go_to_color_detect_up_from_pick_up,blue,true,false,joint 1 +,true,2024-03-03 16:32:35.183811,22.102,0.208,236.8,292.74755859375,106.78292846679688,84.958251953125,0.04000091552734375,20.1200008392334,51.0,0.0,-20.0
32,30,100,60,go_to_color_detect_up_from_pick_up,blue,true,false,joint 1 +,true,2024-03-03 16:32:36.558205,21.95,0.202,236.8,273.852294921875,148.68975830078125,84.958251953125,8.500015258789062,28.680015563964844,51.0,0.0,-20.0
32,30,100,60,go_to_color_detect_up_from_pick_up,blue,true,false,joint 1 +,true,2024-03-03 16:32:37.247853,21.95,0.202,235.0,248.40750122070312,188.14207458496094,84.958251953125,17.140029907226562,37.320030212402344,51.0,0.0,-20.0
32,30,100,60,go_to_color_detect_up_from_pick_up,blue,true,false,joint 1 +,true,2024-03-03 16:32:38.636379,21.969,0.202,235.0,213.07675170898438,227.3807830810547,84.958251953125,26.86004638671875,47.04004669189453,51.0,0.0,-20.0
32,30,100,60,go_to_color_detect_up_from_pick_up,blue,true,false,joint 1 +,true,2024-03-03 16:32:39.329071,22.007,0.202,236.8,176.500244140625,256.8100280761719,84.958251953125,35.50006103515625,55.68006134033203,51.0,0.0,-20.0
32,30,100,60,go_to_color_detect_up_from_pick_up,blue,true,false,joint 1 +,true,2024-03-03 16:32:40.333907,21.893,0.202,236.8,135.91773986816406,280.41058349609375,84.958251953125,44.14007568359375,64.32007598876953,51.0,0.0,-20.0
32,30,100,60,go_to_color_detect_down,blue,true,false,joint 3 +,true,2024-03-03 16:32:41.021630,21.969,0.202,236.8,131.14834594726562,281.24853515625,65.51657104492188,45.0,65.0,51.0,7.779998302459717,-20.0
32,30,100,60,go_to_color_detect_down,blue,true,false,joint 3 +,true,2024-03-03 16:32:42.470783,21.76,0.199,235.0,129.21519470214844,277.1028747558594,43.847991943359375,45.0,65.0,51.0,16.420011520385742,-20.0
32,30,100,60,go_to_color_detect_down,blue,true,false,joint 3 +,true,2024-03-03 16:32:43.176434,21.722,0.199,235.0,125.92831420898438,270.05413818359375,23.112472534179688,45.0,65.0,51.0,25.060026168823242,-20.0
32,30,100,60,go_to_color_detect_down,blue,true,false,joint 3 +,true,2024-03-03 16:32:44.557842,21.684,0.2,235.0,120.70641326904297,258.855712890625,1.485137939453125,45.0,65.0,51.0,34.7800407409668,-20.0
32,30,100,60,go_to_color_detect_down,blue,true,false,joint 3 +,true,2024-03-03 16:32:45.251120,21.76,0.2,235.0,114.8265380859375,246.2462921142578,-15.745063781738281,45.0,65.0,51.0,43.4200553894043,-20.0
32,30,100,60,go_to_color_detect_up_from_color_detect_down,blue,true,false,joint 3 -,false,2024-03-03 16:32:45.942881,21.532,0.2,235.0,113.02019500732422,242.37257385253906,-20.105117797851562,45.0,65.0,51.0,45.43999481201172,-20.0
32,30,100,60,go_to_color_detect_up_from_color_detect_down,blue,true,false,joint 3 -,false,2024-03-03 16:32:47.414825,19.5,0.189,235.0,119.89293670654297,257.1112365722656,-1.2384414672851562,45.0,65.0,51.0,35.71997833251953,-20.0
32,30,100,60,go_to_color_detect_up_from_color_detect_down,blue,true,false,joint 3 -,false,2024-03-03 16:32:48.123417,16.234,0.189,235.0,124.7943344116211,267.6222839355469,17.62805938720703,45.0,65.0,51.0,27.07996368408203,-20.0
32,30,100,60,go_to_color_detect_up_from_color_detect_down,blue,true,false,joint 3 -,false,2024-03-03 16:32:49.503383,16.291,0.155,235.0,128.44229125976562,275.44537353515625,38.02272033691406,45.0,65.0,51.0,18.43994903564453,-20.0
32,30,100,60,go_to_color_detect_up_from_color_detect_down,blue,true,false,joint 3 -,false,2024-03-03 16:32:50.192070,16.291,0.155,235.0,130.9460906982422,280.8147888183594,62.21599578857422,45.0,65.0,51.0,8.719932556152344,-20.0
32,30,100,60,go_to_color_detect_up_from_color_detect_down,blue,true,false,joint 3 -,false,2024-03-03 16:32:51.576252,16.386,0.156,235.0,131.693359375,282.4173278808594,84.25714874267578,45.0,65.0,51.0,0.14660002291202545,-20.0
32,30,100,60,detecting_color,blue,false,false,detecting_color,false,2024-03-03 16:32:52.274540,16.386,0.156,235.0,131.69407653808594,282.4188232421875,84.958251953125,45.0,65.0,51.0,0.0,-20.0
32,30,100,60,go_to_color_detect_down,blue,true,false,joint 3 +,false,2024-03-03 16:32:52.964232,16.158,0.156,235.0,131.6554718017578,282.3360595703125,79.77674102783203,45.0,65.0,51.0,2.2000012397766113,-20.0
32,30,100,60,go_to_color_detect_down,blue,true,false,joint 3 +,false,2024-03-03 16:32:54.354697,16.139,0.154,235.0,130.3944854736328,279.6318664550781,55.04801940917969,45.0,65.0,51.0,11.920004844665527,-20.0
32,30,100,60,go_to_color_detect_down,blue,true,false,joint 3 +,false,2024-03-03 16:32:55.043674,16.139,0.154,235.0,127.80526733398438,274.07928466796875,33.766212463378906,45.0,65.0,51.0,20.56001853942871,-20.0
32,30,100,60,go_to_color_detect_down,blue,true,false,joint 3 +,false,2024-03-03 16:32:56.462534,16.177,0.154,235.0,123.89429473876953,265.6921691894531,13.646293640136719,45.0,65.0,51.0,29.20003318786621,-20.0
32,30,100,60,go_to_color_detect_down,blue,true,false,joint 3 +,false,2024-03-03 16:32:57.198332,16.215,0.154,235.0,118.7503433227539,254.66091918945312,-4.855094909667969,45.0,65.0,51.0,37.84004592895508,-20.0
32,30,100,60,go_to_color_detect_down,blue,true,false,joint 3 +,false,2024-03-03 16:32:58.616566,16.082,0.154,236.8,111.63594055175781,239.40403747558594,-23.213401794433594,45.0,65.0,51.0,47.560062408447266,-20.0
32,30,100,60,go_to_color_detect_up_from_color_detect_down,blue,true,false,joint 3 -,true,2024-03-03 16:32:59.304330,17.582,0.154,236.8,116.24139404296875,249.28045654296875,-12.061973571777344,45.0,65.0,51.0,41.11998748779297,-20.0
32,30,100,60,go_to_color_detect_up_from_color_detect_down,blue,true,false,joint 3 -,true,2024-03-03 16:32:59.996844,22.177,0.207,236.8,121.87138366699219,261.35400390625,5.629364013671875,45.0,65.0,51.0,32.47997283935547,-20.0
32,30,100,60,go_to_color_detect_up_from_color_detect_down,blue,true,false,joint 3 -,true,2024-03-03 16:33:01.377414,21.95,0.207,236.8,126.78085327148438,271.88238525390625,27.66260528564453,45.0,65.0,51.0,22.75995635986328,-20.0
32,30,100,60,go_to_color_detect_up_from_color_detect_down,blue,true,false,joint 3 -,true,2024-03-03 16:33:02.070890,21.969,0.202,236.8,129.7692108154297,278.29095458984375,48.649539947509766,45.0,65.0,51.0,14.119941711425781,-20.0
32,30,100,60,go_to_color_detect_up_from_color_detect_down,blue,true,false,joint 3 -,true,2024-03-03 16:33:03.446084,22.026,0.202,235.0,131.39120483398438,281.76934814453125,70.46054077148438,45.0,65.0,51.0,5.479934215545654,-20.0
32,30,100,60,go_to_red_up,red,true,false,joint 1 +,true,2024-03-03 16:33:04.142754,21.931,0.202,235.0,118.94819641113281,288.0191955566406,84.958251953125,47.56001281738281,67.7400131225586,51.0,0.0,-20.0
32,30,100,60,go_to_red_up,red,true,false,joint 1 +,true,2024-03-03 16:33:05.551527,22.007,0.202,235.0,74.33038330078125,302.6197814941406,84.958251953125,56.20002746582031,76.3800277709961,51.0,0.0,-20.0
32,30,100,60,go_to_red_up,red,true,false,joint 1 +,true,2024-03-03 16:33:06.243770,21.798,0.202,235.0,28.02556610107422,310.3518981933594,84.958251953125,64.84004211425781,85.0200424194336,51.0,0.0,-20.0
32,30,100,60,go_to_red_up,red,true,false,joint 1 +,true,2024-03-03 16:33:07.621397,21.703,0.202,235.0,-24.77461051940918,310.6283264160156,84.958251953125,74.56005859375,94.74005889892578,51.0,0.0,-20.0
32,30,100,60,go_to_red_up,red,true,false,joint 1 +,true,2024-03-03 16:33:08.313083,21.703,0.2,235.0,-71.15788269042969,303.3814392089844,84.958251953125,83.2000732421875,103.38007354736328,51.0,0.0,-20.0
32,30,100,60,go_to_red_up,red,true,false,joint 1 +,true,2024-03-03 16:33:09.010781,21.836,0.2,235.0,-115.92610931396484,289.2488098144531,84.958251953125,91.840087890625,112.02008819580078,51.0,0.0,-20.0
32,30,100,60,go_to_red_up,red,true,false,joint 1 +,true,2024-03-03 16:33:10.388168,21.893,0.202,235.0,-163.09690856933594,265.52423095703125,84.958251953125,101.56010437011719,121.74010467529297,51.0,0.0,-20.0
32,30,100,60,go_to_pick_up_from_red,red,true,false,joint 1 -,false,2024-03-03 16:33:11.100793,21.893,0.202,235.0,-160.49343872070312,267.10595703125,84.958251953125,100.99999237060547,120.81999206542969,51.0,0.0,-20.0
32,30,100,60,go_to_pick_up_from_red,red,true,false,joint 1 -,false,2024-03-03 16:33:12.501702,16.405,0.155,235.0,-118.54586029052734,288.1850280761719,84.958251953125,92.35997772216797,112.17997741699219,51.0,0.0,-20.0
32,30,100,60,go_to_pick_up_from_red,red,true,false,joint 1 -,false,2024-03-03 16:33:13.216519,16.405,0.155,235.0,-68.1887435913086,304.0625305175781,84.958251953125,82.63996124267578,102.4599609375,51.0,0.0,-20.0
32,30,100,60,go_to_pick_up_from_red,red,true,false,joint 1 -,false,2024-03-03 16:33:13.962629,16.272,0.155,235.0,-21.73685073852539,310.85565185546875,84.958251953125,73.99994659423828,93.8199462890625,51.0,0.0,-20.0
32,30,100,60,go_to_pick_up_from_red,red,true,false,joint 1 -,false,2024-03-03 16:33:15.614179,16.215,0.154,235.0,25.208364486694336,310.5934143066406,84.958251953125,65.35993194580078,85.179931640625,51.0,0.0,-20.0
32,30,100,60,go_to_pick_up_from_red,red,true,false,joint 1 -,false,2024-03-03 16:33:16.407849,16.31,0.154,235.0,77.28512573242188,301.8786926269531,84.958251953125,55.639915466308594,75.45991516113281,51.0,0.0,-20.0
32,30,100,60,go_to_pick_up_from_red,red,true,false,joint 1 -,false,2024-03-03 16:33:17.228199,16.31,0.154,235.0,121.7580337524414,286.8426513671875,84.958251953125,46.999900817871094,66.81990051269531,51.0,0.0,-20.0
32,30,100,60,go_to_pick_up_from_red,red,true,false,joint 1 -,false,2024-03-03 16:33:18.609176,16.31,0.154,235.0,163.4674835205078,265.2962646484375,84.958251953125,38.359886169433594,58.17988586425781,51.0,0.0,-20.0
32,30,100,60,go_to_pick_up_from_red,red,true,false,joint 1 -,false,2024-03-03 16:33:19.298031,16.31,0.154,235.0,206.64556884765625,233.24093627929688,84.958251953125,28.459869384765625,48.279869079589844,51.0,0.0,-20.0
32,30,100,60,go_to_pick_up_from_red,red,true,false,joint 1 -,false,2024-03-03 16:33:19.989727,16.291,0.154,235.0,239.3393096923828,199.55055236816406,84.958251953125,19.819854736328125,39.639854431152344,51.0,0.0,-20.0
32,30,100,60,go_to_pick_up_from_red,red,true,false,joint 1 -,false,2024-03-03 16:33:21.374549,16.272,0.154,235.0,266.6008605957031,161.33103942871094,84.958251953125,11.179840087890625,30.999839782714844,51.0,0.0,-20.0
32,30,100,60,go_to_pick_up_from_red,red,true,false,joint 1 -,false,2024-03-03 16:33:22.063472,16.272,0.155,235.0,290.0118103027344,114.00384521484375,84.958251953125,1.4598236083984375,21.279823303222656,51.0,0.0,-20.0
32,30,100,60,moving_belt,red,false,true,joint 1 -,false,2024-03-03 16:33:23.452476,16.253,0.155,235.0,292.8220520019531,106.5785140991211,84.958251953125,0.0,20.0,51.0,0.0,-20.0
32,30,100,60,moving_belt,red,false,true,joint 1 -,false,2024-03-03 16:33:24.143351,16.462,0.157,235.0,292.8220520019531,106.5785140991211,84.958251953125,0.0,20.0,51.0,0.0,-20.0
32,30,100,60,moving_belt,red,false,true,joint 1 -,false,2024-03-03 16:33:25.535673,16.481,0.157,235.0,292.8220520019531,106.5785140991211,84.958251953125,0.0,20.0,51.0,0.0,-20.0
32,30,100,60,moving_belt,red,false,true,joint 1 -,false,2024-03-03 16:33:26.227135,16.405,0.155,235.0,292.8220520019531,106.5785140991211,84.958251953125,0.0,20.0,51.0,0.0,-20.0
32,30,100,60,go_to_pick_down,red,true,false,joint 3 +,false,2024-03-03 16:33:27.619531,16.519,0.155,235.0,292.7759704589844,106.56173706054688,81.16153717041016,0.0,20.0,51.0,1.659999132156372,-20.0
32,30,100,60,go_to_pick_down,red,true,false,joint 3 +,false,2024-03-03 16:33:28.315742,16.519,0.154,235.0,290.1912841796875,105.6209945678711,56.405799865722656,0.0,20.0,51.0,11.38000202178955,-20.0
32,30,100,60,go_to_pick_down,red,true,false,joint 3 +,false,2024-03-03 16:33:29.043900,16.215,0.154,235.0,284.6228942871094,103.59426879882812,35.06719207763672,0.0,20.0,51.0,20.020015716552734,-20.0
32,30,100,60,go_to_pick_up_from_pick_down,red,true,false,joint 3 -,true,2024-03-03 16:33:30.455837,16.12,0.18,235.0,286.9681396484375,104.44786071777344,42.61798095703125,0.0,20.0,51.0,16.559993743896484,-20.0
32,30,100,60,go_to_pick_up_from_pick_down,red,true,false,joint 3 -,true,2024-03-03 16:33:31.181096,22.652,0.18,235.0,291.7865295410156,106.20162200927734,66.9925765991211,0.0,20.0,51.0,6.839980602264404,-20.0
32,30,100,60,go_to_color_detect_up_from_pick_up,red,true,false,joint 1 +,true,2024-03-03 16:33:32.559493,21.969,0.202,235.0,292.373046875,107.80415344238281,84.958251953125,0.24000167846679688,20.400001525878906,51.0,0.0,-20.0
32,30,100,60,go_to_color_detect_up_from_pick_up,red,true,false,joint 1 +,true,2024-03-03 16:33:33.248190,21.893,0.202,235.0,272.43878173828125,151.26412963867188,84.958251953125,9.040016174316406,29.220016479492188,51.0,0.0,-20.0
32,30,100,60,go_to_color_detect_up_from_pick_up,red,true,false,joint 1 +,true,2024-03-03 16:33:34.633555,21.874,0.202,235.0,242.98931884765625,195.0895233154297,84.958251953125,18.760032653808594,38.940032958984375,51.0,0.0,-20.0
32,30,100,60,go_to_color_detect_up_from_pick_up,red,true,false,joint 1 +,true,2024-03-03 16:33:35.323876,21.874,0.202,235.0,210.92431640625,229.37887573242188,84.958251953125,27.400047302246094,47.580047607421875,51.0,0.0,-20.0
32,30,100,60,go_to_color_detect_up_from_pick_up,red,true,false,joint 1 +,true,2024-03-03 16:33:36.025538,21.874,0.202,235.0,174.07203674316406,258.46209716796875,84.958251953125,36.040061950683594,56.220062255859375,51.0,0.0,-20.0
32,30,100,60,go_to_color_detect_down,red,true,false,joint 3 +,true,2024-03-03 16:33:37.437893,22.083,0.2,235.0,131.69407653808594,282.4188232421875,84.958251953125,45.0,65.0,51.0,0.0,-20.0
32,30,100,60,go_to_color_detect_down,red,true,false,joint 3 +,true,2024-03-03 16:33:38.129591,22.083,0.2,235.0,131.0402374267578,281.01666259765625,63.68711853027344,45.0,65.0,51.0,8.499999046325684,-20.0
32,30,100,60,go_to_color_detect_down,red,true,false,joint 3 +,true,2024-03-03 16:33:39.569387,21.684,0.199,235.0,128.9921875,276.6246032714844,42.077728271484375,45.0,65.0,51.0,17.140012741088867,-20.0
32,30,100,60,go_to_color_detect_down,red,true,false,joint 3 +,true,2024-03-03 16:33:40.275027,21.684,0.199,235.0,125.07950592041016,268.2338562011719,18.954132080078125,45.0,65.0,51.0,26.860029220581055,-20.0
32,30,100,60,go_to_color_detect_down,red,true,false,joint 3 +,true,2024-03-03 16:33:41.019536,21.741,0.2,235.0,120.25907897949219,257.89642333984375,-0.028778076171875,45.0,65.0,51.0,35.50004196166992,-20.0
32,30,100,60,go_to_color_detect_down,red,true,false,joint 3 +,true,2024-03-03 16:33:42.429071,21.646,0.2,235.0,114.28816223144531,245.0917510986328,-17.082786560058594,45.0,65.0,51.0,44.14005661010742,-20.0
32,30,100,60,go_to_color_detect_up_from_color_detect_down,red,true,false,joint 3 -,false,2024-03-03 16:33:43.160249,21.646,0.199,235.0,114.52836608886719,245.6068572998047,-16.490097045898438,45.0,65.0,51.0,43.459991455078125,-20.0
32,30,100,60,go_to_color_detect_up_from_color_detect_down,red,true,false,joint 3 -,false,2024-03-03 16:33:44.028355,21.646,0.199,236.8,120.45892333984375,258.3249816894531,0.6425628662109375,45.0,65.0,51.0,34.819976806640625,-20.0
32,30,100,60,go_to_color_detect_up_from_color_detect_down,red,true,false,joint 3 -,false,2024-03-03 16:33:45.413258,16.272,0.155,236.8,125.23446655273438,268.566162109375,19.68890380859375,45.0,65.0,51.0,26.179962158203125,-20.0
32,30,100,60,go_to_color_detect_up_from_color_detect_down,red,true,false,joint 3 -,false,2024-03-03 16:33:46.103593,16.272,0.155,235.0,129.0924835205078,276.8397216796875,42.86385726928711,45.0,65.0,51.0,16.459945678710938,-20.0
32,30,100,60,go_to_color_detect_up_from_color_detect_down,red,true,false,joint 3 -,false,2024-03-03 16:33:47.484415,16.196,0.155,235.0,131.08949279785156,281.1222839355469,64.49998474121094,45.0,65.0,51.0,7.819931983947754,-20.0
32,30,100,60,detecting_color,red,false,false,detecting_color,false,2024-03-03 16:33:48.174697,16.329,0.155,235.0,131.69407653808594,282.4188232421875,84.958251953125,45.0,65.0,51.0,0.0,-20.0
32,30,100,60,detecting_color,red,false,false,detecting_color,false,2024-03-03 16:33:49.571017,16.215,0.155,236.8,131.69407653808594,282.4188232421875,84.958251953125,45.0,65.0,51.0,0.0,-20.0
32,30,100,60,detecting_color,red,false,false,detecting_color,false,2024-03-03 16:33:50.266700,16.253,0.155,236.8,131.69407653808594,282.4188232421875,84.958251953125,45.0,65.0,51.0,0.0,-20.0
32,30,100,60,detecting_color,red,false,false,detecting_color,false,2024-03-03 16:33:51.647074,16.12,0.155,235.0,131.69407653808594,282.4188232421875,84.958251953125,45.0,65.0,51.0,0.0,-20.0
32,30,100,60,go_to_color_detect_down,red,true,false,joint 3 +,false,2024-03-03 16:33:52.336776,16.12,0.154,235.0,131.69407653808594,282.4188232421875,84.958251953125,45.0,65.0,51.0,0.04000014066696167,-20.0
32,30,100,60,go_to_color_detect_down,red,true,false,joint 3 +,false,2024-03-03 16:33:53.025089,16.234,0.154,235.0,131.0402374267578,281.01666259765625,63.68711853027344,45.0,65.0,51.0,8.499999046325684,-20.0
32,30,100,60,go_to_color_detect_down,red,true,false,joint 3 +,false,2024-03-03 16:33:54.411673,16.215,0.154,235.0,128.64004516601562,275.86944580078125,39.435123443603516,45.0,65.0,51.0,18.220014572143555,-20.0
32,30,100,60,go_to_color_detect_down,red,true,false,joint 3 +,false,2024-03-03 16:33:55.102357,16.215,0.154,235.0,125.07950592041016,268.2338562011719,18.954132080078125,45.0,65.0,51.0,26.860029220581055,-20.0
32,30,100,60,go_to_color_detect_down,red,true,false,joint 3 +,false,2024-03-03 16:33:56.481278,16.196,0.154,235.0,120.25907897949219,257.89642333984375,-0.028778076171875,45.0,65.0,51.0,35.50004196166992,-20.0
32,30,100,60,go_to_color_detect_down,red,true,false,joint 3 +,false,2024-03-03 16:33:57.171595,16.196,0.154,235.0,113.46739196777344,243.33160400390625,-19.05908966064453,45.0,65.0,51.0,45.22005844116211,-20.0
32,30,100,60,go_to_color_detect_up_from_color_detect_down,red,true,false,joint 3 -,true,2024-03-03 16:33:58.553388,16.101,0.154,235.0,114.25808715820312,245.02725219726562,-17.156517028808594,45.0,65.0,51.0,43.81999206542969,-20.0
32,30,100,60,go_to_color_detect_up_from_color_detect_down,red,true,false,joint 3 -,true,2024-03-03 16:33:59.244710,22.481,0.192,235.0,120.34673309326172,258.0843811035156,0.26468658447265625,45.0,65.0,51.0,34.999977111816406,-20.0
32,30,100,60,go_to_color_detect_up_from_color_detect_down,red,true,false,joint 3 -,true,2024-03-03 16:34:00.660603,21.969,0.192,235.0,125.66087341308594,269.4805908203125,21.765857696533203,45.0,65.0,51.0,25.27996063232422,-20.0
32,30,100,60,go_to_color_detect_up_from_color_detect_down,red,true,false,joint 3 -,true,2024-03-03 16:34:01.349529,21.969,0.203,235.0,129.0363006591797,276.71923828125,42.42158889770508,45.0,65.0,51.0,16.63994598388672,-20.0
32,30,100,60,go_to_color_detect_up_from_color_detect_down,red,true,false,joint 3 -,true,2024-03-03 16:34:02.055827,21.741,0.203,235.0,131.06202697753906,281.06341552734375,64.04276275634766,45.0,65.0,51.0,7.999931812286377,-20.0
32,30,100,60,go_to_green_up,green,true,false,joint 1 +,true,2024-03-03 16:34:03.481413,21.931,0.202,235.0,130.50990295410156,282.968017578125,84.958251953125,45.24000549316406,65.40000915527344,51.0,0.0,-20.0
32,30,100,60,go_to_green_up,green,true,false,joint 1 +,true,2024-03-03 16:34:04.181710,21.931,0.202,235.0,86.62419128417969,299.33258056640625,84.958251953125,53.860023498535156,74.04002380371094,51.0,0.0,-20.0
32,30,100,60,go_to_green_up,green,true,false,joint 1 +,true,2024-03-03 16:34:05.558867,21.798,0.202,235.0,40.67363739013672,308.9488525390625,84.958251953125,62.500038146972656,82.68003845214844,51.0,0.0,-20.0
32,30,100,60,go_to_green_up,green,true,false,joint 1 +,true,2024-03-03 16:34:06.247563,21.836,0.202,235.0,-12.071187973022461,311.3808288574219,84.958251953125,72.22005462646484,92.40005493164062,51.0,0.0,-20.0
32,30,100,60,go_to_green_up,green,true,false,joint 1 +,true,2024-03-03 16:34:07.647284,21.874,0.202,235.0,-58.711666107177734,306.0337829589844,84.958251953125,80.86006927490234,101.04006958007812,51.0,0.0,-20.0
32,30,100,60,go_to_pick_up_from_green,green,true,false,joint 1 -,false,2024-03-03 16:34:08.342106,21.817,0.202,235.0,-64.25627136230469,304.9178161621094,84.958251953125,81.89999389648438,101.7199935913086,51.0,0.0,-20.0
32,30,100,60,go_to_pick_up_from_green,green,true,false,joint 1 -,false,2024-03-03 16:34:09.031790,21.817,0.202,235.0,-11.853442192077637,311.3891906738281,84.958251953125,72.17997741699219,91.9999771118164,51.0,0.0,-20.0
32,30,100,60,go_to_pick_up_from_green,green,true,false,joint 1 -,false,2024-03-03 16:34:10.409621,16.329,0.156,235.0,35.05979919433594,309.6361389160156,84.958251953125,63.53996276855469,83.3599624633789,51.0,0.0,-20.0
32,30,100,60,go_to_pick_up_from_green,green,true,false,joint 1 -,false,2024-03-03 16:34:11.099605,16.329,0.156,235.0,81.17730712890625,300.8554382324219,84.958251953125,54.89994812011719,74.7199478149414,51.0,0.0,-20.0
32,30,100,60,go_to_pick_up_from_green,green,true,false,joint 1 -,false,2024-03-03 16:34:12.485597,16.329,0.156,235.0,129.91732788085938,283.24053955078125,84.958251953125,45.35993194580078,65.179931640625,51.0,0.0,-20.0
32,30,100,60,go_to_pick_up_from_green,green,true,false,joint 1 -,false,2024-03-03 16:34:13.175290,16.424,0.156,235.0,170.99301147460938,260.50933837890625,84.958251953125,36.71991729736328,56.5399169921875,51.0,0.0,-20.0
32,30,100,60,go_to_pick_up_from_green,green,true,false,joint 1 -,false,2024-03-03 16:34:14.591096,16.424,0.155,235.0,208.18780517578125,231.8654327392578,84.958251953125,28.07990264892578,47.89990234375,51.0,0.0,-20.0
32,30,100,60,go_to_pick_up_from_green,green,true,false,joint 1 -,false,2024-03-03 16:34:15.280046,16.424,0.155,235.0,244.34588623046875,193.3877716064453,84.958251953125,18.359886169433594,38.17988586425781,51.0,0.0,-20.0
32,30,100,60,go_to_pick_up_from_green,green,true,false,joint 1 -,false,2024-03-03 16:34:16.661693,16.272,0.155,235.0,270.6247863769531,154.48606872558594,84.958251953125,9.719871520996094,29.539871215820312,51.0,0.0,-20.0
32,30,100,60,go_to_pick_up_from_green,green,true,false,joint 1 -,false,2024-03-03 16:34:17.355363,16.272,0.155,235.0,292.6317138671875,107.10002136230469,84.958251953125,0.10207557678222656,20.033185958862305,51.0,0.0,-20.0
32,30,100,60,moving_belt,green,false,true,joint 1 -,false,2024-03-03 16:34:18.050641,16.348,0.155,235.0,292.8220520019531,106.5785140991211,84.958251953125,0.0,20.0,51.0,0.0,-20.0
32,30,100,60,moving_belt,green,false,true,joint 1 -,false,2024-03-03 16:34:19.425628,16.386,0.155,235.0,292.8220520019531,106.5785140991211,84.958251953125,0.0,20.0,51.0,0.0,-20.0
32,30,100,60,moving_belt,green,false,true,joint 1 -,false,2024-03-03 16:34:20.125902,16.386,0.155,235.0,292.8220520019531,106.5785140991211,84.958251953125,0.0,20.0,51.0,0.0,-20.0
32,30,100,60,moving_belt,green,false,true,joint 1 -,false,2024-03-03 16:34:21.503269,16.196,0.155,235.0,292.8220520019531,106.5785140991211,84.958251953125,0.0,20.0,51.0,0.0,-20.0
32,30,100,60,go_to_pick_down,green,true,false,joint 3 +,false,2024-03-03 16:34:22.192600,16.69,0.155,235.0,292.66412353515625,106.52103424072266,77.93109893798828,0.0,20.0,51.0,2.919999361038208,-20.0
32,30,100,60,go_to_pick_down,green,true,false,joint 3 +,false,2024-03-03 16:34:23.576970,16.424,0.156,235.0,289.56854248046875,105.39433288574219,53.241817474365234,0.0,20.0,51.0,12.64000415802002,-20.0
