demetriskallis/dobot_magician_pick_and_place_and_color_sorting/Sampling/WholeSystemExperiments_training_data/payload_32g/joint_measurements__armv_100_arma_20_belts_60_cube_32g.csv
cube/weight,arm/velocity_ratio,arm/acceleration_ratio,belt/speed,dobot/operation,dobot/color,dobot/moving_arm,dobot/moving_belt,dobot/operation2,dobot/suction,meross/sample_timestamp,meross/power,meross/current,meross/voltage,dobot/pose_x,dobot/pose_y,dobot/pose_z,dobot/pose_rHead,dobot/pose_joint1Angle,dobot/pose_joint2Angle,dobot/pose_joint3Angle,dobot/pose_joint4Angle
32,100,20,60,homing,,,,homing,,,,,,190.14561462402344,68.8319091796875,75.55613708496094,-0.09995841979980469,19.500041961669922,3.385331630706787,23.75192642211914,-20.0
32,100,20,60,homing,,,,homing,,,,,,202.1316375732422,-5.998945713043213,75.55613708496094,-21.699949264526367,-2.0999484062194824,3.385331630706787,23.75192642211914,-20.0
32,100,20,60,homing,,,,homing,,,,,,188.91551208496094,-72.13958740234375,75.55613708496094,-40.899940490722656,-21.299938201904297,3.385331630706787,23.75192642211914,-20.0
32,100,20,60,homing,,,,homing,,2024-03-04 12:06:37.185603,16.234,0.149,236.8,154.6829833984375,-130.25498962402344,75.55613708496094,-60.09996032714844,-40.499961853027344,3.385331630706787,23.75192642211914,-20.0
32,100,20,60,homing,,,,homing,,2024-03-04 12:06:37.870758,16.234,0.149,236.8,95.87027740478516,-178.05076599121094,75.55613708496094,-81.70004272460938,-62.10004425048828,3.385331630706787,23.75192642211914,-20.0
32,100,20,60,homing,,,,homing,,2024-03-04 12:06:39.251458,16.158,0.149,236.8,31.982402801513672,-199.675537109375,75.55613708496094,-100.90011596679688,-81.30011749267578,3.385331630706787,23.75192642211914,-20.0
32,100,20,60,homing,,,,homing,,2024-03-04 12:06:39.936555,16.253,0.149,236.8,-35.46343994140625,-199.0867462158203,75.55613708496094,-120.10018920898438,-100.50019073486328,3.385331630706787,23.75192642211914,-20.0
32,100,20,60,homing,,,,homing,,2024-03-04 12:06:41.318006,16.291,0.15,236.8,-106.26203155517578,-172.0510711669922,75.55613708496094,-141.7002716064453,-122.10027313232422,3.385331630706787,23.75192642211914,-20.0
32,100,20,60,homing,,,,homing,,2024-03-04 12:06:42.009454,16.253,0.15,236.8,-147.17098999023438,-138.68629455566406,75.55613708496094,-156.7001190185547,-136.68011474609375,3.385331630706787,23.75192642211914,-20.0
32,100,20,60,homing,,,,homing,,2024-03-04 12:06:42.803609,16.253,0.15,236.8,-144.67828369140625,-141.2847442626953,75.55613708496094,-155.67990112304688,-135.65989685058594,3.385331630706787,23.75192642211914,-20.0
32,100,20,60,homing,,,,homing,,2024-03-04 12:06:44.177339,16.215,0.149,236.8,-131.3500213623047,-155.53688049316406,74.36891174316406,-149.75169372558594,-129.83290100097656,4.220652103424072,24.239273071289062,-19.540128707885742
32,100,20,60,homing,,,,homing,,2024-03-04 12:06:44.866878,16.12,0.149,236.8,-39.05938720703125,-209.6638641357422,64.95804595947266,-116.95539855957031,-99.95296478271484,10.07942008972168,27.65740203857422,-16.314693450927734
32,100,20,60,homing,,,,homing,,2024-03-04 12:06:46.239590,16.329,0.152,236.8,71.44135284423828,-216.69129943847656,46.38128662109375,-82.75120544433594,-71.15303802490234,19.988052368164062,33.43830871582031,-10.859681129455566
32,100,20,60,homing,,,,homing,,2024-03-04 12:06:46.935157,16.481,0.152,236.8,176.97988891601562,-164.7658233642578,22.07262420654297,-47.88456726074219,-42.353111267089844,30.940750122070312,39.828346252441406,-4.8298773765563965
32,100,20,60,homing,,,,homing,,2024-03-04 12:06:48.319669,16.519,0.153,236.8,244.15853881835938,-46.936744689941406,4.435111999511719,-11.840576171875,-10.376662254333496,38.053001403808594,43.977787017822266,-0.914360761642456
32,100,20,60,homing,,,,homing,,2024-03-04 12:06:49.261891,16.519,0.153,236.8,249.84364318847656,-0.6508330702781677,-0.2318572998046875,-0.14925295114517212,-0.11325295269489288,39.73133087158203,45.02925109863281,0.0
32,100,20,60,homing,,,,homing,,2024-03-04 12:06:49.995036,16.31,0.149,236.8,249.99998474121094,0.0,-7.62939453125e-06,0.0,0.0,39.71385955810547,44.94676971435547,0.0
32,100,20,60,homing,,,,homing,,2024-03-04 12:06:50.719057,16.006,0.149,236.8,249.99998474121094,0.0,-7.62939453125e-06,0.0,0.0,39.71385955810547,44.94676971435547,0.0
32,100,20,60,homing,,,,homing,,2024-03-04 12:06:52.092591,16.025,0.149,236.8,249.99998474121094,0.00017966009909287095,-7.62939453125e-06,4.117506250622682e-05,4.117506250622682e-05,39.71385955810547,44.94676971435547,0.0
32,100,20,60,homing,,,,homing,,2024-03-04 12:06:52.861953,16.025,0.148,236.8,249.99998474121094,0.00017966009909287095,-7.62939453125e-06,4.117506250622682e-05,4.117506250622682e-05,39.71385955810547,44.94676971435547,0.0
32,100,20,60,homing,,,,homing,,2024-03-04 12:06:54.243300,16.044,0.148,236.8,249.99998474121094,0.00017966009909287095,-7.62939453125e-06,4.117506250622682e-05,4.117506250622682e-05,39.71385955810547,44.94676971435547,0.0
32,100,20,60,homing,,,,homing,,2024-03-04 12:06:54.243300,16.044,0.148,236.8,249.99998474121094,0.00017966009909287095,-7.62939453125e-06,4.117506250622682e-05,4.117506250622682e-05,39.71385955810547,44.94676971435547,0.0
32,100,20,60,homing,,,,homing,,2024-03-04 12:06:55.336043,15.911,0.148,236.8,249.99998474121094,0.00017966009909287095,-7.62939453125e-06,4.117506250622682e-05,4.117506250622682e-05,39.71385955810547,44.94676971435547,0.0
32,100,20,60,homing,,,,homing,,2024-03-04 12:06:57.074296,16.025,0.148,236.8,250.87200927734375,3.6597797870635986,2.3993988037109375,4.118680953979492e-05,0.9081668853759766,39.236839294433594,43.91765213012695,-0.9081256985664368
32,100,20,60,homing,,,,homing,,2024-03-04 12:06:57.892828,16.025,0.148,236.8,258.2146911621094,33.891258239746094,21.450172424316406,4.100799560546875e-05,7.678792476654053,37.15592956542969,35.585838317871094,-7.678751468658447
32,100,20,60,homing,,,,homing,,2024-03-04 12:06:58.712406,16.348,0.148,236.8,270.8489685058594,85.90934753417969,54.23008728027344,4.1961669921875e-05,17.71636962890625,39.72324752807617,19.54722023010254,-17.716327667236328
32,100,20,60,homing,,,,homing,,2024-03-04 12:06:59.735236,16.804,0.152,236.8,274.9949951171875,102.97925567626953,64.98692321777344,4.1961669921875e-05,20.532567977905273,42.43574905395508,13.628554344177246,-20.53252601623535
32,100,20,60,go_to_pick_up_from_homing,nothing,,,go_to_pick_up_from_homing,,2024-03-04 12:07:01.163373,16.215,0.152,236.8,277.4543762207031,103.59236145019531,67.25975036621094,3.62396240234375e-05,20.471227645874023,43.43193817138672,12.043081283569336,-20.47119140625
32,100,20,60,go_to_pick_up_from_homing,nothing,,,go_to_pick_up_from_homing,,2024-03-04 12:07:01.871031,16.025,0.148,236.8,286.0888366699219,105.47193145751953,76.2116470336914,2.09808349609375e-05,20.23192024230957,47.27527618408203,5.9271674156188965,-20.231901168823242
32,100,20,60,go_to_pick_up_from_homing,nothing,,,go_to_pick_up_from_homing,,2024-03-04 12:07:02.587140,16.025,0.148,236.8,291.62353515625,106.41788482666016,83.22238159179688,7.62939453125e-06,20.04538345336914,50.27112579345703,1.1598538160324097,-20.04537582397461
32,100,20,60,moving_belt,nothing,false,true,go_to_pick_up_from_homing,,2024-03-04 12:07:03.399231,16.272,0.15,236.8,292.8220520019531,106.5785140991211,84.958251953125,0.0,20.0,51.0,0.0,-20.0
32,100,20,60,moving_belt,nothing,false,true,go_to_pick_up_from_homing,,2024-03-04 12:07:05.072172,15.968,0.15,236.8,292.8220520019531,106.5785140991211,84.958251953125,0.0,20.0,51.0,0.0,-20.0
32,100,20,60,moving_belt,nothing,false,true,go_to_pick_up_from_homing,,2024-03-04 12:07:05.763931,16.443,0.151,236.8,292.8220520019531,106.5785140991211,84.958251953125,0.0,20.0,51.0,0.0,-20.0
32,100,20,60,moving_belt,nothing,false,true,go_to_pick_up_from_homing,,2024-03-04 12:07:06.458255,16.443,0.151,236.8,292.8220520019531,106.5785140991211,84.958251953125,0.0,20.0,51.0,0.0,-20.0
32,100,20,60,moving_belt,nothing,false,true,go_to_pick_up_from_homing,,2024-03-04 12:07:07.345649,16.462,0.151,236.8,292.8220520019531,106.5785140991211,84.958251953125,0.0,20.0,51.0,0.0,-20.0
32,100,20,60,go_to_pick_down,nothing,true,false,joint 3 +,,2024-03-04 12:07:07.345649,16.462,0.151,236.8,292.802978515625,106.57157135009766,82.51588439941406,0.0,20.0,51.0,1.0080000162124634,-20.0
32,100,20,60,go_to_pick_down,nothing,true,false,joint 3 +,,2024-03-04 12:07:10.148167,16.272,0.152,236.8,292.1988220214844,106.35166931152344,71.00990295410156,0.0,20.0,51.0,5.57759952545166,-20.0
32,100,20,60,go_to_pick_down,nothing,true,false,joint 3 +,,2024-03-04 12:07:10.835330,16.329,0.15,236.8,289.0001525878906,105.18746185302734,50.6186637878418,0.0,20.0,51.0,13.673298835754395,-20.0
32,100,20,60,go_to_pick_down,nothing,true,false,joint 3 +,,2024-03-04 12:07:12.207832,16.158,0.15,236.8,284.427490234375,103.52314758300781,34.49458312988281,0.0,20.0,51.0,20.155094146728516,-20.0
32,100,20,60,go_to_pick_up_from_pick_down,nothing,true,false,joint 3 -,true,2024-03-04 12:07:12.896309,16.158,0.15,236.8,282.76446533203125,102.9178466796875,29.893321990966797,0.0,20.0,51.0,21.99989128112793,-20.0
32,100,20,60,go_to_pick_up_from_pick_down,nothing,true,false,joint 3 -,true,2024-03-04 12:07:14.272077,23.013,0.15,236.8,284.45849609375,103.53443145751953,34.584861755371094,0.0,20.0,51.0,19.96000099182129,-20.0
32,100,20,60,go_to_pick_up_from_pick_down,nothing,true,false,joint 3 -,true,2024-03-04 12:07:15.255664,22.348,0.197,236.8,288.48516845703125,105.0000228881836,48.41276550292969,0.0,20.0,51.0,14.238399505615234,-20.0
32,100,20,60,go_to_pick_up_from_pick_down,nothing,true,false,joint 3 -,true,2024-03-04 12:07:15.944495,22.253,0.197,236.8,291.9772644042969,106.27104187011719,68.72563934326172,0.0,20.0,51.0,6.198235511779785,-20.0
32,100,20,60,go_to_pick_up_from_pick_down,nothing,true,false,joint 3 -,true,2024-03-04 12:07:16.632524,22.253,0.197,236.8,292.7875061035156,106.56594848632812,81.67082214355469,0.0,20.0,51.0,1.2182050943374634,-20.0
32,100,20,60,go_to_color_detect_up_from_pick_up,nothing,true,false,joint 1 +,true,2024-03-04 12:07:18.152677,22.045,0.195,236.8,292.65802001953125,107.02813720703125,84.958251953125,0.08800125122070312,20.105600357055664,51.0,0.0,-20.0
32,100,20,60,go_to_color_detect_up_from_pick_up,nothing,true,false,joint 1 +,true,2024-03-04 12:07:18.152677,22.045,0.195,236.8,287.3974609375,120.442626953125,84.958251953125,2.737598419189453,22.831998825073242,51.0,0.0,-20.0
32,100,20,60,go_to_color_detect_up_from_pick_up,nothing,true,false,joint 1 +,true,2024-03-04 12:07:20.081115,22.102,0.194,236.8,272.3500671386719,151.42379760742188,84.958251953125,9.073600769042969,29.244800567626953,51.0,0.0,-20.0
32,100,20,60,go_to_color_detect_up_from_pick_up,nothing,true,false,joint 1 +,true,2024-03-04 12:07:20.768711,22.121,0.194,236.8,236.57177734375,202.8238983154297,84.958251953125,20.60800552368164,40.865604400634766,51.0,0.0,-20.0
32,100,20,60,go_to_color_detect_up_from_pick_up,nothing,true,false,joint 1 +,true,2024-03-04 12:07:22.148530,22.158,0.194,236.8,190.4869384765625,246.61398315429688,84.958251953125,32.317169189453125,52.517826080322266,51.0,0.0,-20.0
32,100,20,60,go_to_color_detect_up_from_pick_up,nothing,true,false,joint 1 +,true,2024-03-04 12:07:22.841577,22.177,0.194,236.8,155.12918090820312,270.25665283203125,84.958251953125,40.14387512207031,60.267730712890625,51.0,0.0,-20.0
32,100,20,60,go_to_color_detect_up_from_pick_up,nothing,true,false,joint 1 +,true,2024-03-04 12:07:24.218299,22.064,0.193,236.8,133.94485473632812,281.3583068847656,84.958251953125,44.542510986328125,64.57996368408203,51.0,0.0,-20.0
32,100,20,60,go_to_color_detect_down,nothing,true,false,joint 3 +,true,2024-03-04 12:07:24.912915,22.064,0.193,236.8,131.69277954101562,282.41607666015625,84.01000213623047,45.0,65.0,51.0,0.40480005741119385,-20.0
32,100,20,60,go_to_color_detect_down,nothing,true,false,joint 3 +,true,2024-03-04 12:07:26.286149,22.026,0.193,236.8,131.55284118652344,282.115966796875,75.05215454101562,45.0,65.0,51.0,3.9760003089904785,-20.0
32,100,20,60,go_to_color_detect_down,nothing,true,false,joint 3 +,true,2024-03-04 12:07:26.983756,22.045,0.193,236.8,130.29067993164062,279.40924072265625,53.88949203491211,45.0,65.0,51.0,12.400001525878906,-20.0
32,100,20,60,go_to_color_detect_down,nothing,true,false,joint 3 +,true,2024-03-04 12:07:27.686087,22.045,0.193,236.8,126.52863311767578,271.3415222167969,26.272499084472656,45.0,65.0,51.0,23.804800033569336,-20.0
32,100,20,60,go_to_color_detect_down,nothing,true,false,joint 3 +,true,2024-03-04 12:07:28.374516,22.045,0.193,236.8,120.38729095458984,258.1713562011719,0.4010162353515625,45.0,65.0,51.0,35.31724548339844,-20.0
32,100,20,60,go_to_color_detect_down,nothing,true,false,joint 3 +,true,2024-03-04 12:07:30.275904,22.102,0.193,236.8,114.44804382324219,245.43460083007812,-16.68903350830078,45.0,65.0,51.0,43.86308288574219,-20.0
32,100,20,60,go_to_color_detect_down,nothing,true,false,joint 3 +,true,2024-03-04 12:07:31.244662,22.045,0.193,236.8,111.50608825683594,239.12557983398438,-23.495315551757812,45.0,65.0,51.0,47.58004379272461,-20.0
32,100,20,60,go_to_color_detect_up_from_color_detect_down,nothing,true,false,joint 3 -,false,2024-03-04 12:07:31.931099,22.102,0.192,236.8,111.40887451171875,238.91708374023438,-23.705345153808594,45.0,65.0,51.0,47.630401611328125,-20.0
32,100,20,60,go_to_color_detect_up_from_color_detect_down,nothing,true,false,joint 3 -,false,2024-03-04 12:07:33.334607,18.133,0.192,236.8,114.07208251953125,244.62835693359375,-17.610336303710938,45.0,65.0,51.0,44.13600158691406,-20.0
32,100,20,60,go_to_color_detect_up_from_color_detect_down,nothing,true,false,joint 3 -,false,2024-03-04 12:07:34.022233,16.367,0.15,236.8,119.83233642578125,256.98126220703125,-1.4362258911132812,45.0,65.0,51.0,35.79840087890625,-20.0
32,100,20,60,go_to_color_detect_up_from_color_detect_down,nothing,true,false,joint 3 -,false,2024-03-04 12:07:34.711057,16.367,0.15,236.8,125.99019622802734,270.18682861328125,23.429248809814453,45.0,65.0,51.0,24.470401763916016,-20.0
32,100,20,60,go_to_color_detect_up_from_color_detect_down,nothing,true,false,joint 3 -,false,2024-03-04 12:07:36.085839,16.424,0.152,236.8,130.08006286621094,278.95758056640625,51.6683235168457,45.0,65.0,51.0,12.88501262664795,-20.0
32,100,20,60,go_to_color_detect_up_from_color_detect_down,nothing,true,false,joint 3 -,false,2024-03-04 12:07:36.774502,16.595,0.152,236.8,131.51344299316406,282.031494140625,73.7567138671875,45.0,65.0,51.0,4.252773284912109,-20.0
32,100,20,60,go_to_color_detect_up_from_color_detect_down,nothing,true,false,joint 3 -,false,2024-03-04 12:07:38.005812,16.367,0.152,236.8,131.69134521484375,282.4129943847656,83.5802001953125,45.0,65.0,51.0,0.49647170305252075,-20.0
32,100,20,60,detecting_color,nothing,false,false,detecting_color,false,2024-03-04 12:07:38.744354,16.329,0.152,236.8,131.69407653808594,282.4188232421875,84.958251953125,45.0,65.0,51.0,0.0,-20.0
32,100,20,60,go_to_color_detect_down,nothing,true,false,joint 3 +,false,2024-03-04 12:07:39.433721,16.329,0.152,235.0,131.69407653808594,282.4188232421875,84.958251953125,45.0,65.0,51.0,0.0,-20.0
32,100,20,60,go_to_color_detect_down,nothing,true,false,joint 3 +,false,2024-03-04 12:07:41.057678,16.348,0.151,235.0,131.6514892578125,282.3275146484375,79.51624298095703,45.0,65.0,51.0,2.2048001289367676,-20.0
32,100,20,60,go_to_color_detect_down,nothing,true,false,joint 3 +,false,2024-03-04 12:07:41.860680,16.291,0.151,235.0,131.1014862060547,281.1480407714844,64.70307922363281,45.0,65.0,51.0,8.079999923706055,-20.0
32,100,20,60,go_to_color_detect_down,nothing,true,false,joint 3 +,false,2024-03-04 12:07:43.235775,16.12,0.15,235.0,128.84970092773438,276.3190612792969,40.98749542236328,45.0,65.0,51.0,17.6416015625,-20.0
32,100,20,60,go_to_color_detect_down,nothing,true,false,joint 3 +,false,2024-03-04 12:07:43.924191,16.12,0.15,235.0,123.48933410644531,264.82373046875,11.94573974609375,45.0,65.0,51.0,30.021495819091797,-20.0
32,100,20,60,go_to_color_detect_down,nothing,true,false,joint 3 +,false,2024-03-04 12:07:45.304101,16.215,0.151,235.0,116.8187026977539,250.5185089111328,-10.484626770019531,45.0,65.0,51.0,40.64093780517578,-20.0
32,100,20,60,go_to_color_detect_down,nothing,true,false,joint 3 +,false,2024-03-04 12:07:45.999670,16.215,0.151,235.0,112.6574935913086,241.5947723388672,-20.93817138671875,45.0,65.0,51.0,46.16363525390625,-20.0
32,100,20,60,go_to_color_detect_up_from_color_detect_down,nothing,true,false,joint 3 -,true,2024-03-04 12:07:46.692250,16.234,0.151,235.0,111.13943481445312,238.3392791748047,-24.282798767089844,45.0,65.0,51.0,47.99993133544922,-20.0
32,100,20,60,go_to_color_detect_up_from_color_detect_down,nothing,true,false,joint 3 -,true,2024-03-04 12:07:48.068280,16.253,0.151,235.0,112.69354248046875,241.6720733642578,-20.855972290039062,45.0,65.0,51.0,45.96000289916992,-20.0
32,100,20,60,go_to_color_detect_up_from_color_detect_down,nothing,true,false,joint 3 -,true,2024-03-04 12:07:48.764811,22.576,0.151,235.0,116.8830337524414,250.65646362304688,-10.305999755859375,45.0,65.0,51.0,40.2384033203125,-20.0
32,100,20,60,go_to_color_detect_up_from_color_detect_down,nothing,true,false,joint 3 -,true,2024-03-04 12:07:50.154074,22.272,0.196,235.0,123.56587982177734,264.9878845214844,12.263145446777344,45.0,65.0,51.0,29.395200729370117,-20.0
32,100,20,60,go_to_color_detect_up_from_color_detect_down,nothing,true,false,joint 3 -,true,2024-03-04 12:07:50.842430,22.272,0.196,235.0,128.89451599121094,276.4151611328125,41.32709884643555,45.0,65.0,51.0,17.03188133239746,-20.0
32,100,20,60,go_to_color_detect_up_from_color_detect_down,nothing,true,false,joint 3 -,true,2024-03-04 12:07:52.215219,22.272,0.196,235.0,131.1153564453125,281.1777648925781,64.94036102294922,45.0,65.0,51.0,7.669179916381836,-20.0
32,100,20,60,go_to_color_detect_up_from_color_detect_down,nothing,true,false,joint 3 -,true,2024-03-04 12:07:52.901420,22.064,0.196,235.0,131.66943359375,282.3659973144531,80.81890106201172,45.0,65.0,51.0,1.5425411462783813,-20.0
32,100,20,60,go_to_red_up,red,true,false,joint 1 +,true,2024-03-04 12:07:54.283528,22.177,0.195,235.0,131.69407653808594,282.4188232421875,84.958251953125,45.0,65.00160217285156,51.0,0.0,-20.0
32,100,20,60,go_to_red_up,red,true,false,joint 1 +,true,2024-03-04 12:07:54.974602,21.969,0.195,235.0,122.35009002685547,286.59063720703125,84.958251953125,46.881591796875,66.95999145507812,51.0,0.0,-20.0
32,100,20,60,go_to_red_up,red,true,false,joint 1 +,true,2024-03-04 12:07:55.781031,21.969,0.194,235.0,88.99974822998047,298.6348571777344,84.958251953125,53.40478515625,73.56958770751953,51.0,0.0,-20.0
32,100,20,60,go_to_red_up,red,true,false,joint 1 +,true,2024-03-04 12:07:57.188385,21.988,0.194,235.0,37.32844924926758,309.370849609375,84.958251953125,63.1199951171875,83.3615951538086,51.0,0.0,-20.0
32,100,20,60,go_to_red_up,red,true,false,joint 1 +,true,2024-03-04 12:07:57.910002,22.064,0.195,235.0,-35.18923568725586,309.6214599609375,84.958251953125,76.48397827148438,96.7852554321289,51.0,0.0,-20.0
32,100,20,60,go_to_red_up,red,true,false,joint 1 +,true,2024-03-04 12:07:58.700484,21.874,0.195,235.0,-108.94308471679688,291.9505615234375,84.958251953125,90.4633560180664,110.67823028564453,51.0,0.0,-20.0
32,100,20,60,go_to_red_up,red,true,false,joint 1 +,true,2024-03-04 12:08:00.010659,21.988,0.195,235.0,-150.94387817382812,272.6163635253906,84.958251953125,98.97268676757812,119.11076354980469,51.0,0.0,-20.0
32,100,20,60,go_to_red_up,red,true,false,joint 1 +,true,2024-03-04 12:08:00.703092,22.007,0.195,235.0,-173.32992553710938,258.9603576660156,84.958251953125,103.79557800292969,123.85685729980469,51.0,0.0,-20.0
32,100,20,60,go_to_pick_up_from_red,red,true,false,joint 1 -,false,2024-03-04 12:08:02.087822,21.912,0.193,235.0,-178.3426055908203,255.53404235839844,84.958251953125,104.91200256347656,124.89440155029297,51.0,0.0,-20.0
32,100,20,60,go_to_pick_up_from_red,red,true,false,joint 1 -,false,2024-03-04 12:08:02.781925,21.912,0.193,235.0,-166.76580810546875,263.2354431152344,84.958251953125,102.35520935058594,122.26241302490234,51.0,0.0,-20.0
32,100,20,60,go_to_pick_up_from_red,red,true,false,joint 1 -,false,2024-03-04 12:08:04.311348,16.215,0.15,235.0,-136.2431182861328,280.2526550292969,84.958251953125,95.9264144897461,115.75521087646484,51.0,0.0,-20.0
32,100,20,60,go_to_pick_up_from_red,red,true,false,joint 1 -,false,2024-03-04 12:08:05.058830,16.31,0.15,235.0,-77.45333862304688,301.8355712890625,84.958251953125,84.39200592041016,104.13440704345703,51.0,0.0,-20.0
32,100,20,60,go_to_pick_up_from_red,red,true,false,joint 1 -,false,2024-03-04 12:08:05.939592,16.158,0.15,236.8,-1.209640383720398,311.61236572265625,84.958251953125,70.222412109375,89.88801574707031,51.0,0.0,-20.0
32,100,20,60,go_to_pick_up_from_red,red,true,false,joint 1 -,false,2024-03-04 12:08:06.758578,16.158,0.149,236.8,94.39693450927734,296.9729919433594,84.958251953125,52.366424560546875,71.95787048339844,51.0,0.0,-20.0
32,100,20,60,go_to_pick_up_from_red,red,true,false,joint 1 -,false,2024-03-04 12:08:07.474964,16.177,0.149,236.8,189.29319763183594,247.5314483642578,84.958251953125,32.593994140625,52.2718391418457,51.0,0.0,-20.0
32,100,20,60,go_to_pick_up_from_red,red,true,false,joint 1 -,false,2024-03-04 12:08:09.226481,16.177,0.149,236.8,242.39138793945312,195.83192443847656,84.958251953125,18.935302734375,38.689945220947266,51.0,0.0,-20.0
32,100,20,60,go_to_pick_up_from_red,red,true,false,joint 1 -,false,2024-03-04 12:08:10.059389,16.215,0.149,236.8,272.641845703125,150.89781188964844,84.958251953125,8.963008880615234,28.794452667236328,51.0,0.0,-20.0
32,100,20,60,go_to_pick_up_from_red,red,true,false,joint 1 -,false,2024-03-04 12:08:10.751495,16.215,0.149,236.8,288.6163635253906,117.49185943603516,84.958251953125,2.1505813598632812,22.06842613220215,51.0,0.0,-20.0
32,100,20,60,go_to_pick_up_from_red,red,true,false,joint 1 -,false,2024-03-04 12:08:11.684503,16.234,0.15,236.8,292.7999267578125,106.63926696777344,84.958251953125,0.011888504028320312,20.006532669067383,51.0,0.0,-20.0
32,100,20,60,moving_belt,red,false,true,joint 1 -,false,2024-03-04 12:08:13.124269,16.082,0.15,235.0,292.8220520019531,106.5785140991211,84.958251953125,0.0,20.0,51.0,0.0,-20.0
32,100,20,60,moving_belt,red,false,true,joint 1 -,false,2024-03-04 12:08:13.812960,16.595,0.153,235.0,292.8220520019531,106.5785140991211,84.958251953125,0.0,20.0,51.0,0.0,-20.0
32,100,20,60,moving_belt,red,false,true,joint 1 -,false,2024-03-04 12:08:15.188722,16.405,0.153,236.8,292.8220520019531,106.5785140991211,84.958251953125,0.0,20.0,51.0,0.0,-20.0
32,100,20,60,moving_belt,red,false,true,joint 1 -,false,2024-03-04 12:08:15.879679,16.424,0.151,236.8,292.8220520019531,106.5785140991211,84.958251953125,0.0,20.0,51.0,0.0,-20.0
32,100,20,60,go_to_pick_down,red,true,false,joint 3 +,false,2024-03-04 12:08:16.814528,16.424,0.151,236.8,292.818603515625,106.57726287841797,83.91969299316406,0.0,20.0,51.0,0.4415999948978424,-20.0
32,100,20,60,go_to_pick_down,red,true,false,joint 3 +,false,2024-03-04 12:08:18.199769,16.462,0.149,236.8,292.4895935058594,106.45751190185547,74.7654800415039,0.0,20.0,51.0,4.089599609375,-20.0
32,100,20,60,go_to_pick_down,red,true,false,joint 3 +,false,2024-03-04 12:08:18.899722,16.082,0.149,236.8,290.1766662597656,105.61567687988281,56.32720184326172,0.0,20.0,51.0,11.41606616973877,-20.0
32,100,20,60,go_to_pick_down,red,true,false,joint 3 +,false,2024-03-04 12:08:19.588860,16.253,0.149,236.8,285.35687255859375,103.86141204833984,37.287471771240234,0.0,20.0,51.0,19.021060943603516,-20.0
32,100,20,60,go_to_pick_down,red,true,false,joint 3 +,false,2024-03-04 12:08:21.188169,16.177,0.15,236.8,282.9052734375,102.96910095214844,30.26565170288086,0.0,20.0,51.0,21.864259719848633,-20.0
32,100,20,60,go_to_pick_up_from_pick_down,red,true,false,joint 3 -,true,2024-03-04 12:08:21.873334,16.177,0.15,236.8,283.42474365234375,103.15817260742188,31.665512084960938,0.0,20.0,51.0,21.20639991760254,-20.0
32,100,20,60,go_to_pick_up_from_pick_down,red,true,false,joint 3 -,true,2024-03-04 12:08:23.245474,22.177,0.198,235.0,287.27789306640625,104.56060791015625,43.729793548583984,0.0,20.0,51.0,16.152000427246094,-20.0
32,100,20,60,go_to_pick_up_from_pick_down,red,true,false,joint 3 -,true,2024-03-04 12:08:24.064772,22.102,0.198,235.0,291.36590576171875,106.04852294921875,63.67010498046875,0.0,20.0,51.0,8.164267539978027,-20.0
32,100,20,60,go_to_pick_up_from_pick_down,red,true,false,joint 3 -,true,2024-03-04 12:08:25.225010,22.177,0.193,235.0,292.7073974609375,106.53678131103516,78.96990966796875,0.0,20.0,51.0,2.249070644378662,-20.0
32,100,20,60,go_to_pick_up_from_pick_down,red,true,false,joint 3 -,true,2024-03-04 12:08:25.917620,22.083,0.193,235.0,292.8220520019531,106.5785140991211,84.95797729492188,0.0,20.0,51.0,0.0,-20.0
32,100,20,60,go_to_color_detect_up_from_pick_up,red,true,false,joint 1 +,true,2024-03-04 12:08:27.301710,21.836,0.193,235.0,289.6197814941406,114.99616241455078,84.958251953125,1.6560001373291016,21.72960090637207,51.0,0.0,-20.0
32,100,20,60,go_to_color_detect_up_from_pick_up,red,true,false,joint 1 +,true,2024-03-04 12:08:28.029416,21.969,0.193,235.0,277.6665344238281,141.43910217285156,84.958251953125,6.993598937988281,27.143999099731445,51.0,0.0,-20.0
32,100,20,60,go_to_color_detect_up_from_pick_up,red,true,false,joint 1 +,true,2024-03-04 12:08:28.834193,21.836,0.193,235.0,247.53541564941406,189.28802490234375,84.958251953125,17.404804229736328,37.641605377197266,51.0,0.0,-20.0
32,100,20,60,go_to_color_detect_up_from_pick_up,red,true,false,joint 1 +,true,2024-03-04 12:08:29.524789,21.893,0.193,235.0,203.03854370117188,236.3875732421875,84.958251953125,29.339981079101562,49.56303787231445,51.0,0.0,-20.0
32,100,20,60,go_to_color_detect_up_from_pick_up,red,true,false,joint 1 +,true,2024-03-04 12:08:31.176785,22.045,0.192,235.0,164.0135040283203,264.95904541015625,84.958251953125,38.24188995361328,58.388145446777344,51.0,0.0,-20.0
32,100,20,60,go_to_color_detect_up_from_pick_up,red,true,false,joint 1 +,true,2024-03-04 12:08:31.863569,21.931,0.192,235.0,137.33506774902344,279.7191467285156,84.958251953125,43.85012435913086,63.90998077392578,51.0,0.0,-20.0
32,100,20,60,go_to_color_detect_down,red,true,false,joint 3 +,true,2024-03-04 12:08:33.244003,21.931,0.193,235.0,131.69406127929688,282.4187927246094,84.84331512451172,45.0,65.0,51.0,0.057600002735853195,-20.0
32,100,20,60,go_to_color_detect_down,red,true,false,joint 3 +,true,2024-03-04 12:08:34.165580,21.931,0.193,235.0,131.6366424560547,282.2956848144531,78.63847351074219,45.0,65.0,51.0,2.553600311279297,-20.0
32,100,20,60,go_to_color_detect_down,red,true,false,joint 3 +,true,2024-03-04 12:08:35.117618,21.912,0.193,235.0,130.82553100585938,280.5562438964844,60.463478088378906,45.0,65.0,51.0,9.768000602722168,-20.0
32,100,20,60,go_to_color_detect_down,red,true,false,joint 3 +,true,2024-03-04 12:08:35.808566,21.912,0.192,235.0,128.00482177734375,274.5072326660156,35.055641174316406,45.0,65.0,51.0,20.09760093688965,-20.0
32,100,20,60,go_to_color_detect_down,red,true,false,joint 3 +,true,2024-03-04 12:08:37.188172,21.893,0.192,235.0,122.18766021728516,262.03228759765625,6.8091888427734375,45.0,65.0,51.0,32.340057373046875,-20.0
32,100,20,60,go_to_color_detect_down,red,true,false,joint 3 +,true,2024-03-04 12:08:37.875992,21.817,0.192,235.0,115.76799011230469,248.26524353027344,-13.322395324707031,45.0,65.0,51.0,42.095497131347656,-20.0
32,100,20,60,go_to_color_detect_down,red,true,false,joint 3 +,true,2024-03-04 12:08:38.838750,21.798,0.192,235.0,112.1054916381836,240.41099548339844,-22.18036651611328,45.0,65.0,51.0,46.850196838378906,-20.0
32,100,20,60,go_to_color_detect_up_from_color_detect_down,red,true,false,joint 3 -,false,2024-03-04 12:08:40.226120,21.779,0.192,235.0,111.15817260742188,238.37945556640625,-24.242835998535156,45.0,65.0,51.0,47.966400146484375,-20.0
32,100,20,60,go_to_color_detect_up_from_color_detect_down,red,true,false,joint 3 -,false,2024-03-04 12:08:40.913636,20.753,0.192,235.0,113.3691177368164,243.120849609375,-19.290786743164062,45.0,65.0,51.0,45.07200241088867,-20.0
32,100,20,60,go_to_color_detect_up_from_color_detect_down,red,true,false,joint 3 -,false,2024-03-04 12:08:42.297637,16.291,0.15,235.0,118.0158920288086,253.0858917236328,-7.0629119873046875,45.0,65.0,51.0,38.58240509033203,-20.0
32,100,20,60,go_to_color_detect_up_from_color_detect_down,red,true,false,joint 3 -,false,2024-03-04 12:08:43.002846,16.405,0.15,235.0,124.08468627929688,266.1004638671875,14.464439392089844,45.0,65.0,51.0,28.406400680541992,-20.0
32,100,20,60,go_to_color_detect_up_from_color_detect_down,red,true,false,joint 3 -,false,2024-03-04 12:08:43.694154,16.405,0.15,235.0,129.57846069335938,277.88189697265625,46.922813415527344,45.0,65.0,51.0,14.77731990814209,-20.0
32,100,20,60,go_to_color_detect_up_from_color_detect_down,red,true,false,joint 3 -,false,2024-03-04 12:08:44.565681,16.462,0.151,235.0,131.31602478027344,281.6081237792969,68.76591491699219,45.0,65.0,51.0,6.182617664337158,-20.0
32,100,20,60,go_to_color_detect_up_from_color_detect_down,red,true,false,joint 3 -,false,2024-03-04 12:08:45.903270,16.462,0.151,235.0,131.67710876464844,282.3824768066406,81.52325439453125,45.0,65.0,51.0,1.2743160724639893,-20.0
32,100,20,60,detecting_color,red,false,false,detecting_color,false,2024-03-04 12:08:47.283756,16.291,0.15,235.0,131.69407653808594,282.4188232421875,84.958251953125,45.0,65.0,51.0,0.0,-20.0
32,100,20,60,detecting_color,red,false,false,detecting_color,false,2024-03-04 12:08:47.982627,16.234,0.15,235.0,131.69407653808594,282.4188232421875,84.958251953125,45.0,65.0,51.0,0.0,-20.0
32,100,20,60,detecting_color,red,false,false,detecting_color,false,2024-03-04 12:08:49.361350,16.139,0.15,236.8,131.69407653808594,282.4188232421875,84.958251953125,45.0,65.0,51.0,0.0,-20.0
32,100,20,60,detecting_color,red,false,false,detecting_color,false,2024-03-04 12:08:50.057378,16.139,0.15,236.8,131.69407653808594,282.4188232421875,84.958251953125,45.0,65.0,51.0,0.0,-20.0
32,100,20,60,go_to_color_detect_down,red,true,false,joint 3 +,false,2024-03-04 12:08:50.745336,16.177,0.15,236.8,131.6888427734375,282.4075927734375,83.04947662353516,45.0,65.0,51.0,0.7936000227928162,-20.0
32,100,20,60,go_to_color_detect_down,red,true,false,joint 3 +,false,2024-03-04 12:08:52.127230,16.234,0.15,235.0,131.4642791748047,281.9260559082031,72.32630157470703,45.0,65.0,51.0,5.056000232696533,-20.0
32,100,20,60,go_to_color_detect_down,red,true,false,joint 3 +,false,2024-03-04 12:08:52.819798,16.234,0.151,235.0,129.83692932128906,278.4361877441406,49.28421401977539,45.0,65.0,51.0,14.257601737976074,-20.0
32,100,20,60,go_to_color_detect_down,red,true,false,joint 3 +,false,2024-03-04 12:08:53.530741,16.196,0.151,235.0,125.41664123535156,268.95684814453125,20.566131591796875,45.0,65.0,51.0,26.243650436401367,-20.0
32,100,20,60,go_to_color_detect_down,red,true,false,joint 3 +,false,2024-03-04 12:08:55.281186,16.215,0.15,235.0,119.14151763916016,255.4998016357422,-3.6428146362304688,45.0,65.0,51.0,37.251808166503906,-20.0
32,100,20,60,go_to_color_detect_down,red,true,false,joint 3 +,false,2024-03-04 12:08:55.968979,16.139,0.15,236.8,113.62535858154297,243.6703643798828,-18.684471130371094,45.0,65.0,51.0,44.93364715576172,-20.0
32,100,20,60,go_to_color_detect_down,red,true,false,joint 3 +,false,2024-03-04 12:08:57.348545,16.139,0.15,236.8,111.2820053100586,238.64500427246094,-23.97809600830078,45.0,65.0,51.0,47.84514617919922,-20.0
32,100,20,60,go_to_color_detect_up_from_color_detect_down,red,true,false,joint 3 -,true,2024-03-04 12:08:58.036624,16.405,0.15,236.8,111.73482513427734,239.6160888671875,-22.99762725830078,45.0,65.0,51.0,47.20640563964844,-20.0
32,100,20,60,go_to_color_detect_up_from_color_detect_down,red,true,false,joint 3 -,true,2024-03-04 12:08:58.731687,16.405,0.15,235.0,114.95236206054688,246.51612854003906,-15.427536010742188,45.0,65.0,51.0,42.944000244140625,-20.0
32,100,20,60,go_to_color_detect_up_from_color_detect_down,red,true,false,joint 3 -,true,2024-03-04 12:09:00.115374,22.045,0.194,235.0,121.10020446777344,259.7001953125,2.8522109985351562,45.0,65.0,51.0,33.742401123046875,-20.0
32,100,20,60,go_to_color_detect_up_from_color_detect_down,red,true,false,joint 3 -,true,2024-03-04 12:09:00.803803,22.14,0.194,235.0,127.16183471679688,272.6994323730469,29.841110229492188,45.0,65.0,51.0,21.756351470947266,-20.0
32,100,20,60,go_to_color_detect_up_from_color_detect_down,red,true,false,joint 3 -,true,2024-03-04 12:09:02.180891,22.083,0.194,235.0,130.5272216796875,279.9165344238281,56.60136413574219,45.0,65.0,51.0,10.934450149536133,-20.0
32,100,20,60,go_to_color_detect_up_from_color_detect_down,red,true,false,joint 3 -,true,2024-03-04 12:09:03.400331,22.177,0.194,235.0,131.59307861328125,282.2022399902344,76.57916259765625,45.0,65.0,51.0,3.166210651397705,-20.0
32,100,20,60,go_to_color_detect_up_from_color_detect_down,red,true,false,joint 3 -,true,2024-03-04 12:09:04.090373,22.102,0.194,235.0,131.6936798095703,282.4179992675781,84.43854522705078,45.0,65.0,51.0,0.17790912091732025,-20.0
32,100,20,60,go_to_green_up,green,true,false,joint 1 +,true,2024-03-04 12:09:05.127417,21.988,0.194,235.0,128.4837188720703,283.89373779296875,84.958251953125,45.64959716796875,65.69599914550781,51.0,0.0,-20.0
32,100,20,60,go_to_green_up,green,true,false,joint 1 +,true,2024-03-04 12:09:05.815991,21.836,0.192,235.0,104.30213928222656,293.6405944824219,84.958251953125,50.444786071777344,70.57758331298828,51.0,0.0,-20.0
32,100,20,60,go_to_green_up,green,true,false,joint 1 +,true,2024-03-04 12:09:07.197168,21.988,0.192,235.0,61.464969635009766,305.4927062988281,84.958251953125,58.624000549316406,78.83360290527344,51.0,0.0,-20.0
32,100,20,60,go_to_green_up,green,true,false,joint 1 +,true,2024-03-04 12:09:07.889059,21.988,0.192,235.0,0.9524062871932983,311.61328125,84.958251953125,69.82488250732422,90.04444885253906,51.0,0.0,-20.0
32,100,20,60,go_to_green_up,green,true,false,joint 1 +,true,2024-03-04 12:09:09.294584,21.988,0.192,235.0,-50.8505859375,307.4377136230469,84.958251953125,79.39176177978516,99.5249252319336,51.0,0.0,-20.0
32,100,20,60,go_to_green_up,green,true,false,joint 1 +,true,2024-03-04 12:09:09.294584,21.988,0.192,235.0,-75.2749252319336,302.3861999511719,84.958251953125,83.97886657714844,104.03523254394531,51.0,0.0,-20.0
32,100,20,60,go_to_pick_up_from_green,green,true,false,joint 1 -,false,2024-03-04 12:09:11.103167,21.703,0.192,235.0,-80.2735595703125,301.0978088378906,84.958251953125,84.9280014038086,104.91200256347656,51.0,0.0,-20.0
32,100,20,60,go_to_pick_up_from_green,green,true,false,joint 1 -,false,2024-03-04 12:09:11.792170,21.703,0.192,235.0,-63.04243469238281,305.17108154296875,84.958251953125,81.67201232910156,101.5680160522461,51.0,0.0,-20.0
32,100,20,60,go_to_pick_up_from_green,green,true,false,joint 1 -,false,2024-03-04 12:09:13.249881,16.291,0.149,236.8,-26.482818603515625,310.4873352050781,84.958251953125,74.87520599365234,94.69440460205078,51.0,0.0,-20.0
32,100,20,60,go_to_pick_up_from_green,green,true,false,joint 1 -,false,2024-03-04 12:09:13.995446,16.291,0.149,236.8,30.45156478881836,310.1232604980469,84.958251953125,64.39199829101562,84.1343994140625,51.0,0.0,-20.0
32,100,20,60,go_to_pick_up_from_green,green,true,false,joint 1 -,false,2024-03-04 12:09:14.814535,16.006,0.15,236.8,115.76400756835938,289.313720703125,84.958251953125,48.19200897216797,67.84800720214844,51.0,0.0,-20.0
32,100,20,60,go_to_pick_up_from_green,green,true,false,joint 1 -,false,2024-03-04 12:09:15.695758,16.139,0.15,235.0,193.92178344726562,243.92227172851562,84.958251953125,31.51477813720703,51.19801330566406,51.0,0.0,-20.0
32,100,20,60,go_to_pick_up_from_green,green,true,false,joint 1 -,false,2024-03-04 12:09:17.153382,16.158,0.15,235.0,245.17041015625,192.34136962890625,84.958251953125,18.114933013916016,37.874969482421875,51.0,0.0,-20.0
32,100,20,60,go_to_pick_up_from_green,green,true,false,joint 1 -,false,2024-03-04 12:09:17.842842,16.158,0.15,236.8,276.53985595703125,143.6295166015625,84.958251953125,7.446500778198242,27.292936325073242,51.0,0.0,-20.0
32,100,20,60,go_to_pick_up_from_green,green,true,false,joint 1 -,false,2024-03-04 12:09:19.244952,16.158,0.149,236.8,289.16748046875,116.1288070678711,84.958251953125,1.8802471160888672,21.803483963012695,51.0,0.0,-20.0
32,100,20,60,moving_belt,green,false,true,joint 1 -,false,2024-03-04 12:09:19.951074,16.196,0.149,236.8,292.8213195800781,106.58053588867188,84.958251953125,0.000396728515625,20.0,51.0,0.0,-20.0
32,100,20,60,moving_belt,green,false,true,joint 1 -,false,2024-03-04 12:09:21.356326,16.253,0.154,236.8,292.8220520019531,106.5785140991211,84.958251953125,0.0,20.0,51.0,0.0,-20.0
32,100,20,60,moving_belt,green,false,true,joint 1 -,false,2024-03-04 12:09:22.046384,16.31,0.154,236.8,292.8220520019531,106.5785140991211,84.958251953125,0.0,20.0,51.0,0.0,-20.0
32,100,20,60,moving_belt,green,false,true,joint 1 -,false,2024-03-04 12:09:22.739709,16.31,0.154,236.8,292.8220520019531,106.5785140991211,84.958251953125,0.0,20.0,51.0,0.0,-20.0
32,100,20,60,moving_belt,green,false,true,joint 1 -,false,2024-03-04 12:09:24.120271,16.31,0.152,236.8,292.8220520019531,106.5785140991211,84.958251953125,0.0,20.0,51.0,0.0,-20.0
32,100,20,60,go_to_pick_down,green,true,false,joint 3 +,false,2024-03-04 12:09:24.811346,16.595,0.152,236.8,292.8163757324219,106.57644653320312,83.62413787841797,0.0,20.0,51.0,0.5615999698638916,-20.0
32,100,20,60,go_to_pick_down,green,true,false,joint 3 +,false,2024-03-04 12:09:26.216612,16.177,0.149,236.8,292.4293212890625,106.4355697631836,73.88111877441406,0.0,20.0,51.0,4.439999580383301,-20.0
32,100,20,60,go_to_pick_down,green,true,false,joint 3 +,false,2024-03-04 12:09:26.905366,16.234,0.149,236.8,289.3694763183594,105.3218765258789,52.297725677490234,0.0,20.0,51.0,13.00756549835205,-20.0
32,100,20,60,go_to_pick_down,green,true,false,joint 3 +,false,2024-03-04 12:09:28.289595,16.253,0.149,236.8,285.1280822753906,103.77813720703125,36.58304214477539,0.0,20.0,51.0,19.3067626953125,-20.0
32,100,20,60,go_to_pick_down,green,true,false,joint 3 +,false,2024-03-04 12:09:28.997780,16.253,0.149,236.8,282.8512878417969,102.94945526123047,30.122554779052734,0.0,20.0,51.0,21.919557571411133,-20.0
32,100,20,60,go_to_pick_up_from_pick_down,green,true,false,joint 3 -,true,2024-03-04 12:09:29.696344,16.215,0.149,236.8,283.91485595703125,103.33655548095703,33.026248931884766,0.0,20.0,51.0,20.622400283813477,-20.0
32,100,20,60,go_to_pick_up_from_pick_down,green,true,false,joint 3 -,true,2024-03-04 12:09:31.351981,22.045,0.187,236.8,287.6460266113281,104.69459533691406,45.09502410888672,0.0,20.0,51.0,15.592000007629395,-20.0
32,100,20,60,go_to_pick_up_from_pick_down,green,true,false,joint 3 -,true,2024-03-04 12:09:32.039484,22.045,0.187,236.8,291.58087158203125,106.12676239013672,65.29643249511719,0.0,20.0,51.0,7.530534744262695,-20.0
32,100,20,60,go_to_pick_up_from_pick_down,green,true,false,joint 3 -,true,2024-03-04 12:09:33.416692,21.95,0.192,236.8,292.771484375,106.56011199951172,80.98104858398438,0.0,20.0,51.0,1.4807381629943848,-20.0
32,100,20,60,go_to_color_detect_up_from_pick_up,green,true,false,joint 1 +,true,2024-03-04 12:09:34.145441,21.779,0.192,236.8,292.8190612792969,106.5866928100586,84.958251953125,0.0016002655029296875,20.00480079650879,51.0,0.0,-20.0
32,100,20,60,go_to_color_detect_up_from_pick_up,green,true,false,joint 1 +,true,2024-03-04 12:09:34.837159,21.779,0.192,236.8,289.00555419921875,116.53118133544922,84.958251953125,1.9599990844726562,22.03999900817871,51.0,0.0,-20.0
32,100,20,60,go_to_color_detect_up_from_pick_up,green,true,false,joint 1 +,true,2024-03-04 12:09:36.216196,21.684,0.192,236.8,273.6715087890625,149.02224731445312,84.958251953125,8.569601058959961,28.73600196838379,51.0,0.0,-20.0
32,100,20,60,go_to_color_detect_up_from_pick_up,green,true,false,joint 1 +,true,2024-03-04 12:09:36.907425,21.684,0.191,236.8,244.34005737304688,193.39511108398438,84.958251953125,18.36160659790039,38.60480499267578,51.0,0.0,-20.0
32,100,20,60,go_to_color_detect_up_from_pick_up,green,true,false,joint 1 +,true,2024-03-04 12:09:38.283779,21.779,0.191,235.0,199.3731231689453,239.48715209960938,84.958251953125,30.222606658935547,50.43926239013672,51.0,0.0,-20.0
32,100,20,60,go_to_color_detect_up_from_pick_up,green,true,false,joint 1 +,true,2024-03-04 12:09:39.005923,21.817,0.192,235.0,157.5353240966797,268.8612060546875,84.958251953125,39.632450103759766,59.7627067565918,51.0,0.0,-20.0
32,100,20,60,go_to_color_detect_up_from_pick_up,green,true,false,joint 1 +,true,2024-03-04 12:09:40.383465,21.95,0.192,236.8,136.21197509765625,280.2677917480469,84.958251953125,44.07994842529297,64.13340759277344,51.0,0.0,-20.0
32,100,20,60,go_to_color_detect_down,green,true,false,joint 3 +,true,2024-03-04 12:09:41.082292,21.798,0.192,236.8,131.69400024414062,282.418701171875,84.73247528076172,45.0,65.0,51.0,0.10560000687837601,-20.0
32,100,20,60,go_to_color_detect_down,green,true,false,joint 3 +,true,2024-03-04 12:09:41.768639,21.722,0.192,236.8,131.5893096923828,282.19415283203125,76.42462158203125,45.0,65.0,51.0,3.4320003986358643,-20.0
32,100,20,60,go_to_color_detect_down,green,true,false,joint 3 +,true,2024-03-04 12:09:43.148174,21.855,0.192,236.8,130.72662353515625,280.3441162109375,59.11669921875,45.0,65.0,51.0,10.305601119995117,-20.0
32,100,20,60,go_to_color_detect_down,green,true,false,joint 3 +,true,2024-03-04 12:09:43.850051,21.836,0.192,236.8,127.7187271118164,273.8936767578125,33.21831512451172,45.0,65.0,51.0,20.865602493286133,-20.0
32,100,20,60,go_to_color_detect_down,green,true,false,joint 3 +,true,2024-03-04 12:09:45.230596,21.817,0.192,236.8,121.02466583251953,259.5382080078125,2.587432861328125,45.0,65.0,51.0,34.28996276855469,-20.0
32,100,20,60,go_to_color_detect_down,green,true,false,joint 3 +,true,2024-03-04 12:09:45.922765,21.817,0.192,235.0,115.37197875976562,247.41598510742188,-14.354774475097656,45.0,65.0,51.0,42.63252258300781,-20.0
32,100,20,60,go_to_color_detect_down,green,true,false,joint 3 +,true,2024-03-04 12:09:47.311071,21.722,0.191,235.0,111.91845703125,240.0098876953125,-22.59442138671875,45.0,65.0,51.0,47.08002471923828,-20.0
32,100,20,60,go_to_color_detect_up_from_color_detect_down,green,true,false,joint 3 -,false,2024-03-04 12:09:48.012686,21.722,0.191,236.8,111.31388092041016,238.71337890625,-23.909698486328125,45.0,65.0,51.0,47.75520324707031,-20.0
32,100,20,60,go_to_color_detect_up_from_color_detect_down,green,true,false,joint 3 -,false,2024-03-04 12:09:49.396461,16.291,0.15,236.8,113.82807922363281,244.10508728027344,-18.19977569580078,45.0,65.0,51.0,44.46240234375,-20.0
32,100,20,60,go_to_color_detect_up_from_color_detect_down,green,true,false,joint 3 -,false,2024-03-04 12:09:50.160623,16.291,0.15,236.8,118.72756958007812,254.61207580566406,-4.92486572265625,45.0,65.0,51.0,37.51200485229492,-20.0
32,100,20,60,go_to_color_detect_up_from_color_detect_down,green,true,false,joint 3 -,false,2024-03-04 12:09:50.848410,16.367,0.15,236.8,124.85655212402344,267.7557067871094,17.914596557617188,45.0,65.0,51.0,26.875200271606445,-20.0
32,100,20,60,go_to_color_detect_up_from_color_detect_down,green,true,false,joint 3 -,false,2024-03-04 12:09:52.259413,16.519,0.152,236.8,129.9239959716797,278.6228942871094,50.11802291870117,45.0,65.0,51.0,13.501381874084473,-20.0
32,100,20,60,go_to_color_detect_up_from_color_detect_down,green,true,false,joint 3 -,false,2024-03-04 12:09:52.944517,16.519,0.152,236.8,131.40814208984375,281.8056640625,70.87062072753906,45.0,65.0,51.0,5.3674798011779785,-20.0
32,100,20,60,go_to_color_detect_up_from_color_detect_down,green,true,false,joint 3 -,false,2024-03-04 12:09:54.342139,16.348,0.152,236.8,131.68983459472656,282.4097595214844,83.24266052246094,45.0,65.0,51.0,0.62324059009552,-20.0
32,100,20,60,detecting_color,green,false,false,detecting_color,false,2024-03-04 12:09:55.035939,16.348,0.152,236.8,131.69407653808594,282.4188232421875,84.958251953125,45.0,65.0,51.0,0.0,-20.0
32,100,20,60,detecting_color,green,false,false,detecting_color,false,2024-03-04 12:09:55.729948,16.272,0.152,236.8,131.69407653808594,282.4188232421875,84.958251953125,45.0,65.0,51.0,0.0,-20.0
32,100,20,60,go_to_color_detect_down,green,true,false,joint 3 +,false,2024-03-04 12:09:57.163672,16.329,0.15,236.8,131.67933654785156,282.3872375488281,81.756591796875,45.0,65.0,51.0,1.312000036239624,-20.0
32,100,20,60,go_to_color_detect_down,green,true,false,joint 3 +,false,2024-03-04 12:09:57.852214,16.329,0.15,236.8,131.33946228027344,281.6583557128906,69.274169921875,45.0,65.0,51.0,6.265600204467773,-20.0
32,100,20,60,go_to_color_detect_down,green,true,false,joint 3 +,false,2024-03-04 12:09:59.251735,16.386,0.15,236.8,129.6638946533203,278.06512451171875,47.685611724853516,45.0,65.0,51.0,14.905601501464844,-20.0
32,100,20,60,go_to_color_detect_down,green,true,false,joint 3 +,false,2024-03-04 12:09:59.942315,16.386,0.15,236.8,124.26704406738281,266.49151611328125,15.259834289550781,45.0,65.0,51.0,28.553556442260742,-20.0
32,100,20,60,go_to_color_detect_down,green,true,false,joint 3 +,false,2024-03-04 12:10:01.338773,16.234,0.149,236.8,118.29930114746094,253.6936492919922,-6.221221923828125,45.0,65.0,51.0,38.51080322265625,-20.0
32,100,20,60,go_to_color_detect_down,green,true,false,joint 3 +,false,2024-03-04 12:10:02.063455,16.367,0.149,236.8,113.54895782470703,243.5065155029297,-18.866004943847656,45.0,65.0,51.0,45.03190231323242,-20.0
32,100,20,60,go_to_color_detect_down,green,true,false,joint 3 +,false,2024-03-04 12:10:02.783794,16.367,0.149,236.8,111.1792221069336,238.4246063232422,-24.197967529296875,45.0,65.0,51.0,47.96173858642578,-20.0
32,100,20,60,go_to_color_detect_up_from_color_detect_down,green,true,false,joint 3 -,true,2024-03-04 12:10:04.422471,19.234,0.149,236.8,111.99024200439453,240.16383361816406,-22.435897827148438,45.0,65.0,51.0,46.875205993652344,-20.0
32,100,20,60,go_to_color_detect_up_from_color_detect_down,green,true,false,joint 3 -,true,2024-03-04 12:10:05.242048,22.158,0.193,236.8,115.5274429321289,247.74937438964844,-13.951820373535156,45.0,65.0,51.0,42.152000427246094,-20.0
32,100,20,60,go_to_color_detect_up_from_color_detect_down,green,true,false,joint 3 -,true,2024-03-04 12:10:06.050276,22.045,0.193,236.8,121.8746337890625,261.3609924316406,5.6414031982421875,45.0,65.0,51.0,32.43199920654297,-20.0
32,100,20,60,go_to_color_detect_up_from_color_detect_down,green,true,false,joint 3 -,true,2024-03-04 12:10:07.432126,22.007,0.192,236.8,127.87220764160156,274.2228088378906,34.19456481933594,45.0,65.0,51.0,19.948556900024414,-20.0
32,100,20,60,go_to_color_detect_up_from_color_detect_down,green,true,false,joint 3 -,true,2024-03-04 12:10:08.121591,22.064,0.192,236.8,130.7799835205078,280.45855712890625,59.834022521972656,45.0,65.0,51.0,9.66425609588623,-20.0
32,100,20,60,go_to_color_detect_up_from_color_detect_down,green,true,false,joint 3 -,true,2024-03-04 12:10:08.813693,22.026,0.192,236.8,131.63055419921875,282.2826232910156,78.31277465820312,45.0,65.0,51.0,2.500816583633423,-20.0
32,100,20,60,go_to_color_detect_up_from_color_detect_down,green,true,false,joint 3 -,true,2024-03-04 12:10:10.191414,21.931,0.193,236.8,131.69403076171875,282.41876220703125,84.79515075683594,45.0,65.0,51.0,0.05011528730392456,-20.0
32,100,20,60,go_to_blue_up,blue,true,false,joint 1 +,true,2024-03-04 12:10:10.951285,21.874,0.193,236.8,126.70541381835938,284.69189453125,84.958251953125,46.00799560546875,66.06559753417969,51.0,0.0,-20.0
32,100,20,60,go_to_blue_up,blue,true,false,joint 1 +,true,2024-03-04 12:10:12.329541,21.722,0.192,236.8,99.35124206542969,295.3524475097656,84.958251953125,51.407989501953125,71.55198669433594,51.0,0.0,-20.0
32,100,20,60,go_to_blue_up,blue,true,false,joint 1 +,true,2024-03-04 12:10:13.030735,21.722,0.192,236.8,59.09352493286133,305.96026611328125,84.958251953125,59.06842803955078,79.20539855957031,51.0,0.0,-20.0
32,100,20,60,go_to_blue_up,blue,true,false,joint 1 +,true,2024-03-04 12:10:13.720722,21.76,0.19,236.8,33.44751739501953,309.814453125,84.958251953125,63.838218688964844,83.89839172363281,51.0,0.0,-20.0
32,100,20,60,go_to_pick_up_from_blue,blue,true,false,joint 1 -,false,2024-03-04 12:10:15.258215,21.76,0.19,236.8,27.835102081298828,310.3690490722656,84.958251953125,64.87519836425781,84.85440063476562,51.0,0.0,-20.0
32,100,20,60,go_to_pick_up_from_blue,blue,true,false,joint 1 -,false,2024-03-04 12:10:15.946388,21.76,0.166,236.8,42.9804801940918,308.6363830566406,84.958251953125,62.07201385498047,81.97441101074219,51.0,0.0,-20.0
32,100,20,60,go_to_pick_up_from_blue,blue,true,false,joint 1 -,false,2024-03-04 12:10:17.326979,16.12,0.166,236.8,77.58809661865234,301.80096435546875,84.958251953125,55.58240509033203,75.40800476074219,51.0,0.0,-20.0
32,100,20,60,go_to_pick_up_from_blue,blue,true,false,joint 1 -,false,2024-03-04 12:10:18.014474,16.291,0.149,236.8,137.212646484375,279.77923583984375,84.958251953125,43.87519836425781,63.61439895629883,51.0,0.0,-20.0
32,100,20,60,go_to_pick_up_from_blue,blue,true,false,joint 1 -,false,2024-03-04 12:10:19.397016,16.177,0.149,236.8,201.6322479248047,237.58824157714844,84.958251953125,29.679977416992188,49.372596740722656,51.0,0.0,-20.0
32,100,20,60,go_to_pick_up_from_blue,blue,true,false,joint 1 -,false,2024-03-04 12:10:19.397016,16.177,0.149,236.8,250.49386596679688,185.35520935058594,84.958251953125,16.499923706054688,36.27094268798828,51.0,0.0,-20.0
32,100,20,60,go_to_pick_up_from_blue,blue,true,false,joint 1 -,false,2024-03-04 12:10:21.325257,16.177,0.15,236.8,279.0575256347656,138.67454528808594,84.958251953125,6.424570083618164,26.28199005126953,51.0,0.0,-20.0
32,100,20,60,go_to_pick_up_from_blue,blue,true,false,joint 1 -,false,2024-03-04 12:10:22.014055,16.12,0.15,236.8,290.15948486328125,113.6275405883789,84.958251953125,1.385498046875,21.319717407226562,51.0,0.0,-20.0
32,100,20,60,moving_belt,blue,false,true,joint 1 -,false,2024-03-04 12:10:23.396474,16.063,0.148,236.8,292.8220520019531,106.5785140991211,84.958251953125,0.0,20.0,51.0,0.0,-20.0
32,100,20,60,moving_belt,blue,false,true,joint 1 -,false,2024-03-04 12:10:24.083636,16.443,0.148,236.8,292.8220520019531,106.5785140991211,84.958251953125,0.0,20.0,51.0,0.0,-20.0
32,100,20,60,moving_belt,blue,false,true,joint 1 -,false,2024-03-04 12:10:24.810184,16.443,0.152,236.8,292.8220520019531,106.5785140991211,84.958251953125,0.0,20.0,51.0,0.0,-20.0
32,100,20,60,moving_belt,blue,false,true,joint 1 -,false,2024-03-04 12:10:26.214769,16.519,0.152,236.8,292.8220520019531,106.5785140991211,84.958251953125,0.0,20.0,51.0,0.0,-20.0
32,100,20,60,moving_belt,blue,false,true,joint 1 -,false,2024-03-04 12:10:26.900435,16.367,0.152,236.8,292.8220520019531,106.5785140991211,84.958251953125,0.0,20.0,51.0,0.0,-20.0
32,100,20,60,go_to_pick_down,blue,true,false,joint 3 +,false,2024-03-04 12:10:28.315456,16.253,0.152,236.8,292.8103942871094,106.57427215576172,83.04947662353516,0.0,20.0,51.0,0.7935999631881714,-20.0
32,100,20,60,go_to_pick_down,blue,true,false,joint 3 +,false,2024-03-04 12:10:29.002814,16.177,0.152,236.8,292.13616943359375,106.32887268066406,70.3276138305664,0.0,20.0,51.0,5.847999572753906,-20.0
32,100,20,60,go_to_pick_down,blue,true,false,joint 3 +,false,2024-03-04 12:10:30.381172,16.063,0.149,236.8,288.72088623046875,105.08580780029297,49.40428161621094,0.0,20.0,51.0,14.15579891204834,-20.0
32,100,20,60,go_to_pick_down,blue,true,false,joint 3 +,false,2024-03-04 12:10:31.069975,16.063,0.149,236.8,284.6270751953125,103.59578704833984,35.07939147949219,0.0,20.0,51.0,19.917394638061523,-20.0
32,100,20,60,go_to_pick_down,blue,true,false,joint 3 +,false,2024-03-04 12:10:32.456153,16.234,0.149,236.8,282.775390625,102.92182922363281,29.92211151123047,0.0,20.0,51.0,21.992589950561523,-20.0
32,100,20,60,go_to_pick_up_from_pick_down,blue,true,false,joint 3 -,true,2024-03-04 12:10:33.149067,16.291,0.149,236.8,284.0276184082031,103.37760925292969,33.34513854980469,0.0,20.0,51.0,20.486400604248047,-20.0
32,100,20,60,go_to_pick_up_from_pick_down,blue,true,false,joint 3 -,true,2024-03-04 12:10:33.836221,22.443,0.192,236.8,288.39166259765625,104.96598052978516,48.027217864990234,0.0,20.0,51.0,14.3951997756958,-20.0
32,100,20,60,go_to_pick_up_from_pick_down,blue,true,false,joint 3 -,true,2024-03-04 12:10:35.419775,22.102,0.192,236.8,291.9386901855469,106.25700378417969,68.36045837402344,0.0,20.0,51.0,6.339868545532227,-20.0
32,100,20,60,go_to_pick_up_from_pick_down,blue,true,false,joint 3 -,true,2024-03-04 12:10:36.229264,22.102,0.192,236.8,292.7800598144531,106.563232421875,81.33413696289062,0.0,20.0,51.0,1.3462716341018677,-20.0
32,100,20,60,go_to_color_detect_up_from_pick_up,blue,true,false,joint 1 +,true,2024-03-04 12:10:36.968861,22.045,0.192,236.8,292.7147521972656,106.87284088134766,84.958251953125,0.05760002136230469,20.07200050354004,51.0,0.0,-20.0
32,100,20,60,go_to_color_detect_up_from_pick_up,blue,true,false,joint 1 +,true,2024-03-04 12:10:38.355502,21.646,0.19,236.8,287.78277587890625,119.51905822753906,84.958251953125,2.553598403930664,22.644798278808594,51.0,0.0,-20.0
32,100,20,60,go_to_color_detect_up_from_pick_up,blue,true,false,joint 1 +,true,2024-03-04 12:10:39.050346,21.76,0.19,236.8,270.4949035644531,154.71334838867188,84.958251953125,9.768001556396484,29.945602416992188,51.0,0.0,-20.0
32,100,20,60,go_to_color_detect_up_from_pick_up,blue,true,false,joint 1 +,true,2024-03-04 12:10:40.424299,21.855,0.192,236.8,238.36917114257812,200.70843505859375,84.958251953125,20.097606658935547,40.35200500488281,51.0,0.0,-20.0
32,100,20,60,go_to_color_detect_up_from_pick_up,blue,true,false,joint 1 +,true,2024-03-04 12:10:41.166950,22.007,0.192,236.8,193.1083526611328,244.56675720214844,84.958251953125,31.70560073852539,51.91105651855469,51.0,0.0,-20.0
32,100,20,60,go_to_color_detect_up_from_pick_up,blue,true,false,joint 1 +,true,2024-03-04 12:10:41.851372,21.855,0.192,236.8,153.39605712890625,271.2441101074219,84.958251953125,40.510643005371094,60.62969970703125,51.0,0.0,-20.0
32,100,20,60,go_to_color_detect_up_from_pick_up,blue,true,false,joint 1 +,true,2024-03-04 12:10:43.240916,21.874,0.192,236.8,134.5435333251953,281.0725402832031,84.958251953125,44.42053985595703,64.46279907226562,51.0,0.0,-20.0
32,100,20,60,go_to_color_detect_down,blue,true,false,joint 3 +,true,2024-03-04 12:10:43.931319,21.817,0.192,236.8,131.693359375,282.4173278808594,84.25629425048828,45.0,65.0,51.0,0.30400004982948303,-20.0
32,100,20,60,go_to_color_detect_down,blue,true,false,joint 3 +,true,2024-03-04 12:10:45.304642,21.836,0.191,236.8,131.52685546875,282.06024169921875,74.1799545288086,45.0,65.0,51.0,4.321599960327148,-20.0
32,100,20,60,go_to_color_detect_down,blue,true,false,joint 3 +,true,2024-03-04 12:10:45.992840,21.722,0.191,236.8,130.4217071533203,279.6902160644531,55.35958480834961,45.0,65.0,51.0,11.809600830078125,-20.0
32,100,20,60,go_to_color_detect_down,blue,true,false,joint 3 +,true,2024-03-04 12:10:47.364654,21.798,0.191,235.0,126.87606811523438,272.08660888671875,28.197864532470703,45.0,65.0,51.0,22.98400115966797,-20.0
32,100,20,60,go_to_color_detect_down,blue,true,false,joint 3 +,true,2024-03-04 12:10:48.340095,21.798,0.191,235.0,120.0090560913086,257.3602294921875,-0.857635498046875,45.0,65.0,51.0,35.91441345214844,-20.0
32,100,20,60,go_to_color_detect_down,blue,true,false,joint 3 +,true,2024-03-04 12:10:49.028177,21.95,0.192,235.0,114.7149658203125,246.00701904296875,-16.02508544921875,45.0,65.0,51.0,43.51071548461914,-20.0
32,100,20,60,go_to_color_detect_down,blue,true,false,joint 3 +,true,2024-03-04 12:10:49.718071,21.874,0.192,236.8,111.6385726928711,239.40968322753906,-23.207664489746094,45.0,65.0,51.0,47.42061996459961,-20.0
32,100,20,60,go_to_color_detect_up_from_color_detect_down,blue,true,false,joint 3 -,false,2024-03-04 12:10:51.182486,21.893,0.191,236.8,111.46398162841797,239.03526306152344,-23.586387634277344,45.0,65.0,51.0,47.55840301513672,-20.0
32,100,20,60,go_to_color_detect_up_from_color_detect_down,blue,true,false,joint 3 -,false,2024-03-04 12:10:51.872572,21.703,0.191,236.8,114.24000549316406,244.9884796142578,-17.200820922851562,45.0,65.0,51.0,43.910400390625,-20.0
32,100,20,60,go_to_color_detect_up_from_color_detect_down,blue,true,false,joint 3 -,false,2024-03-04 12:10:53.249960,16.367,0.15,236.8,119.33634185791016,255.9176025390625,-3.0291900634765625,45.0,65.0,51.0,36.57600402832031,-20.0
32,100,20,60,go_to_color_detect_up_from_color_detect_down,blue,true,false,joint 3 -,false,2024-03-04 12:10:53.943474,16.329,0.15,236.8,126.23667907714844,270.7154235839844,24.710792541503906,45.0,65.0,51.0,23.91840171813965,-20.0
32,100,20,60,go_to_color_detect_up_from_color_detect_down,blue,true,false,joint 3 -,false,2024-03-04 12:10:55.324968,16.367,0.152,236.8,130.1782684326172,279.1681823730469,52.684017181396484,45.0,65.0,51.0,12.482100486755371,-20.0
32,100,20,60,go_to_color_detect_up_from_color_detect_down,blue,true,false,joint 3 -,false,2024-03-04 12:10:56.013720,16.367,0.152,236.8,131.47108459472656,281.94061279296875,72.5143051147461,45.0,65.0,51.0,4.732198715209961,-20.0
32,100,20,60,go_to_color_detect_up_from_color_detect_down,blue,true,false,joint 3 -,false,2024-03-04 12:10:57.424033,16.329,0.152,236.8,131.6920928955078,282.41461181640625,83.78470611572266,45.0,65.0,51.0,0.419959157705307,-20.0
32,100,20,60,detecting_color,blue,false,false,detecting_color,false,2024-03-04 12:10:58.159894,16.329,0.151,236.8,131.69407653808594,282.4188232421875,84.958251953125,45.0,65.0,51.0,0.0,-20.0
32,100,20,60,go_to_color_detect_down,blue,true,false,joint 3 +,false,2024-03-04 12:10:58.845200,16.234,0.151,236.8,131.69407653808594,282.4188232421875,84.958251953125,45.0,65.0,51.0,0.0,-20.0
32,100,20,60,go_to_color_detect_down,blue,true,false,joint 3 +,false,2024-03-04 12:11:00.243833,16.272,0.15,236.8,131.65773010253906,282.34088134765625,79.93058776855469,45.0,65.0,51.0,2.0400002002716064,-20.0
32,100,20,60,go_to_color_detect_down,blue,true,false,joint 3 +,false,2024-03-04 12:11:00.934835,16.272,0.15,236.8,131.1476593017578,281.2470397949219,65.50435638427734,45.0,65.0,51.0,7.761600017547607,-20.0
32,100,20,60,go_to_color_detect_down,blue,true,false,joint 3 +,false,2024-03-04 12:11:02.314181,16.31,0.151,236.8,128.99977111816406,276.640869140625,42.13665771484375,45.0,65.0,51.0,17.169601440429688,-20.0
32,100,20,60,go_to_color_detect_down,blue,true,false,joint 3 +,false,2024-03-04 12:11:03.001240,16.31,0.151,236.8,122.96865844726562,263.7071228027344,9.833755493164062,45.0,65.0,51.0,30.968120574951172,-20.0
32,100,20,60,go_to_color_detect_down,blue,true,false,joint 3 +,false,2024-03-04 12:11:04.381511,16.272,0.151,236.8,117.03856658935547,250.989990234375,-9.871841430664062,45.0,65.0,51.0,40.33082580566406,-20.0
32,100,20,60,go_to_color_detect_down,blue,true,false,joint 3 +,false,2024-03-04 12:11:05.107359,16.329,0.151,236.8,112.7820816040039,241.86195373535156,-20.653549194335938,45.0,65.0,51.0,46.00712203979492,-20.0
32,100,20,60,go_to_color_detect_up_from_color_detect_down,blue,true,false,joint 3 -,true,2024-03-04 12:11:05.795536,16.329,0.151,236.8,111.13883972167969,238.33799743652344,-24.284042358398438,45.0,65.0,51.0,47.9984016418457,-20.0
32,100,20,60,go_to_color_detect_up_from_color_detect_down,blue,true,false,joint 3 -,true,2024-03-04 12:11:07.175503,22.728,0.151,236.8,112.63230895996094,241.54075622558594,-20.995506286621094,45.0,65.0,51.0,46.04000473022461,-20.0
32,100,20,60,go_to_color_detect_up_from_color_detect_down,blue,true,false,joint 3 -,true,2024-03-04 12:11:07.867391,22.728,0.151,236.8,116.77381134033203,250.42222595214844,-10.608909606933594,45.0,65.0,51.0,40.39520263671875,-20.0
32,100,20,60,go_to_color_detect_up_from_color_detect_down,blue,true,false,joint 3 -,true,2024-03-04 12:11:09.258908,21.969,0.192,236.8,123.43585205078125,264.7090148925781,11.72503662109375,45.0,65.0,51.0,29.63840103149414,-20.0
32,100,20,60,go_to_color_detect_up_from_color_detect_down,blue,true,false,joint 3 -,true,2024-03-04 12:11:09.951360,22.121,0.192,236.8,128.81809997558594,276.25128173828125,40.74961853027344,45.0,65.0,51.0,17.266138076782227,-20.0
32,100,20,60,go_to_color_detect_up_from_color_detect_down,blue,true,false,joint 3 -,true,2024-03-04 12:11:11.371639,22.196,0.193,236.8,131.09164428710938,281.1269226074219,64.5361557006836,45.0,65.0,51.0,7.82663631439209,-20.0
32,100,20,60,go_to_color_detect_up_from_color_detect_down,blue,true,false,joint 3 -,true,2024-03-04 12:11:12.060737,22.064,0.193,236.8,131.6533966064453,282.33160400390625,79.63948059082031,45.0,65.0,51.0,1.9928786754608154,-20.0
32,100,20,60,go_to_red_up,red,true,false,joint 1 +,true,2024-03-04 12:11:13.297117,21.988,0.193,236.8,131.69407653808594,282.4188232421875,84.958251953125,45.0,65.00160217285156,51.0,0.0,-20.0
32,100,20,60,go_to_red_up,red,true,false,joint 1 +,true,2024-03-04 12:11:13.986315,21.855,0.193,236.8,122.35009002685547,286.59063720703125,84.958251953125,46.881591796875,66.95999145507812,51.0,0.0,-20.0
32,100,20,60,go_to_red_up,red,true,false,joint 1 +,true,2024-03-04 12:11:15.369978,21.665,0.191,236.8,93.96578216552734,297.10968017578125,84.958251953125,52.4495849609375,72.60478210449219,51.0,0.0,-20.0
32,100,20,60,go_to_red_up,red,true,false,joint 1 +,true,2024-03-04 12:11:16.060849,21.779,0.191,236.8,37.32844924926758,309.370849609375,84.958251953125,63.1199951171875,83.3615951538086,51.0,0.0,-20.0
32,100,20,60,go_to_red_up,red,true,false,joint 1 +,true,2024-03-04 12:11:16.989845,21.798,0.191,236.8,-35.18923568725586,309.6214599609375,84.958251953125,76.48397827148438,96.7852554321289,51.0,0.0,-20.0
32,100,20,60,go_to_red_up,red,true,false,joint 1 +,true,2024-03-04 12:11:18.223126,21.817,0.191,236.8,-102.17399597167969,294.38787841796875,84.958251953125,89.14048767089844,109.3649673461914,51.0,0.0,-20.0
32,100,20,60,go_to_red_up,red,true,false,joint 1 +,true,2024-03-04 12:11:18.910142,21.817,0.191,236.8,-150.94387817382812,272.6163635253906,84.958251953125,98.97268676757812,119.11076354980469,51.0,0.0,-20.0
32,100,20,60,go_to_red_up,red,true,false,joint 1 +,true,2024-03-04 12:11:20.281732,21.95,0.191,236.8,-173.32992553710938,258.9603576660156,84.958251953125,103.79557800292969,123.85685729980469,51.0,0.0,-20.0
32,100,20,60,go_to_pick_up_from_red,red,true,false,joint 1 -,false,2024-03-04 12:11:20.969852,21.912,0.191,236.8,-178.6279296875,255.3346710205078,84.958251953125,104.97599792480469,124.96640014648438,51.0,0.0,-20.0
32,100,20,60,go_to_pick_up_from_red,red,true,false,joint 1 -,false,2024-03-04 12:11:22.348003,16.766,0.191,235.0,-165.9048614501953,263.7789001464844,84.958251953125,102.16801452636719,122.07201385498047,51.0,0.0,-20.0
32,100,20,60,go_to_pick_up_from_red,red,true,false,joint 1 -,false,2024-03-04 12:11:23.034143,16.766,0.191,235.0,-135.40509033203125,280.65850830078125,84.958251953125,95.75521087646484,115.58241271972656,51.0,0.0,-20.0
32,100,20,60,go_to_pick_up_from_red,red,true,false,joint 1 -,false,2024-03-04 12:11:24.286950,16.158,0.149,235.0,-82.78479766845703,300.41705322265625,84.958251953125,85.40640258789062,105.15520477294922,51.0,0.0,-20.0
32,100,20,60,go_to_pick_up_from_red,red,true,false,joint 1 -,false,2024-03-04 12:11:25.341171,16.177,0.149,236.8,2.436420202255249,311.6051940917969,84.958251953125,69.55201721191406,89.21441650390625,51.0,0.0,-20.0
32,100,20,60,go_to_pick_up_from_red,red,true,false,joint 1 -,false,2024-03-04 12:11:26.025662,16.12,0.149,236.8,98.61415100097656,295.599365234375,84.958251953125,51.55091094970703,71.14555358886719,51.0,0.0,-20.0
32,100,20,60,go_to_pick_up_from_red,red,true,false,joint 1 -,false,2024-03-04 12:11:27.405674,16.31,0.149,236.8,183.6083221435547,251.77711486816406,84.958251953125,33.89862060546875,53.570064544677734,51.0,0.0,-20.0
32,100,20,60,go_to_pick_up_from_red,red,true,false,joint 1 -,false,2024-03-04 12:11:28.247789,16.31,0.15,236.8,244.05429077148438,193.75558471679688,84.958251953125,18.446189880371094,38.20403289794922,51.0,0.0,-20.0
32,100,20,60,go_to_pick_up_from_red,red,true,false,joint 1 -,false,2024-03-04 12:11:28.940533,16.139,0.15,235.0,273.5207824707031,149.2987060546875,84.958251953125,8.627496719360352,28.462141036987305,51.0,0.0,-20.0
32,100,20,60,go_to_pick_up_from_red,red,true,false,joint 1 -,false,2024-03-04 12:11:30.314936,16.31,0.15,235.0,287.9044494628906,119.22570037841797,84.958251953125,2.4952049255371094,22.406648635864258,51.0,0.0,-20.0
32,100,20,60,go_to_pick_up_from_red,red,true,false,joint 1 -,false,2024-03-04 12:11:31.004984,16.196,0.15,235.0,292.81689453125,106.59270477294922,84.958251953125,0.002777099609375,20.000621795654297,51.0,0.0,-20.0
32,100,20,60,moving_belt,red,false,true,joint 1 -,false,2024-03-04 12:11:32.383226,16.367,0.15,236.8,292.8220520019531,106.5785140991211,84.958251953125,0.0,20.0,51.0,0.0,-20.0
32,100,20,60,moving_belt,red,false,true,joint 1 -,false,2024-03-04 12:11:33.111722,16.367,0.154,236.8,292.8220520019531,106.5785140991211,84.958251953125,0.0,20.0,51.0,0.0,-20.0
32,100,20,60,moving_belt,red,false,true,joint 1 -,false,2024-03-04 12:11:33.823095,16.576,0.154,236.8,292.8220520019531,106.5785140991211,84.958251953125,0.0,20.0,51.0,0.0,-20.0
32,100,20,60,moving_belt,red,false,true,joint 1 -,false,2024-03-04 12:11:35.212820,16.652,0.152,236.8,292.8220520019531,106.5785140991211,84.958251953125,0.0,20.0,51.0,0.0,-20.0
32,100,20,60,go_to_pick_down,red,true,false,joint 3 +,false,2024-03-04 12:11:35.901329,16.462,0.152,236.8,292.8200988769531,106.57780456542969,84.17830657958984,0.0,20.0,51.0,0.335999995470047,-20.0
32,100,20,60,go_to_pick_down,red,true,false,joint 3 +,false,2024-03-04 12:11:37.394501,16.31,0.15,236.8,292.4293212890625,106.4355697631836,73.88111877441406,0.0,20.0,51.0,4.439999580383301,-20.0
32,100,20,60,go_to_pick_down,red,true,false,joint 3 +,false,2024-03-04 12:11:38.091056,16.31,0.15,236.8,289.91229248046875,105.51944732666016,54.945220947265625,0.0,20.0,51.0,11.960966110229492,-20.0
32,100,20,60,go_to_pick_down,red,true,false,joint 3 +,false,2024-03-04 12:11:38.810142,16.348,0.15,236.8,285.5934143066406,103.947509765625,38.02812194824219,0.0,20.0,51.0,18.720962524414062,-20.0
32,100,20,60,go_to_pick_down,red,true,false,joint 3 +,false,2024-03-04 12:11:40.443184,16.291,0.151,236.8,282.8512878417969,102.94945526123047,30.122554779052734,0.0,20.0,51.0,21.919557571411133,-20.0
32,100,20,60,go_to_pick_up_from_pick_down,red,true,false,joint 3 -,true,2024-03-04 12:11:41.215176,16.348,0.151,236.8,283.55853271484375,103.20687103271484,32.03297424316406,0.0,20.0,51.0,21.04800033569336,-20.0
32,100,20,60,go_to_pick_up_from_pick_down,red,true,false,joint 3 -,true,2024-03-04 12:11:41.910826,22.804,0.202,236.8,287.0052795410156,104.46138763427734,42.74967956542969,0.0,20.0,51.0,16.555198669433594,-20.0
32,100,20,60,go_to_pick_up_from_pick_down,red,true,false,joint 3 -,true,2024-03-04 12:11:43.154319,21.95,0.202,236.8,291.5295104980469,106.10807037353516,64.89571380615234,0.0,20.0,51.0,7.686567783355713,-20.0
32,100,20,60,go_to_pick_up_from_pick_down,red,true,false,joint 3 -,true,2024-03-04 12:11:43.844545,22.045,0.194,236.8,292.7308349609375,106.5453109741211,79.61622619628906,0.0,20.0,51.0,2.0017709732055664,-20.0
32,100,20,60,go_to_color_detect_up_from_pick_up,red,true,false,joint 1 +,true,2024-03-04 12:11:45.304377,21.95,0.194,236.8,292.8220520019531,106.5785140991211,84.93924713134766,0.0,20.0,51.0,0.003374021966010332,-20.0
32,100,20,60,go_to_color_detect_up_from_pick_up,red,true,false,joint 1 +,true,2024-03-04 12:11:45.997670,22.045,0.192,236.8,289.3201599121094,115.7479248046875,84.958251953125,1.804800033569336,21.88159942626953,51.0,0.0,-20.0
32,100,20,60,go_to_color_detect_up_from_pick_up,red,true,false,joint 1 +,true,2024-03-04 12:11:47.374708,22.026,0.192,236.8,276.9161682128906,142.90261840820312,84.958251953125,7.295999526977539,27.449600219726562,51.0,0.0,-20.0
32,100,20,60,go_to_color_detect_up_from_pick_up,red,true,false,joint 1 +,true,2024-03-04 12:11:48.063823,22.026,0.193,236.8,250.57899475097656,185.24012756347656,84.958251953125,16.47360610961914,36.70400619506836,51.0,0.0,-20.0
32,100,20,60,go_to_color_detect_up_from_pick_up,red,true,false,joint 1 +,true,2024-03-04 12:11:49.445879,21.893,0.193,236.8,200.28395080566406,238.72593688964844,84.958251953125,30.004348754882812,50.22260665893555,51.0,0.0,-20.0
32,100,20,60,go_to_color_detect_up_from_pick_up,red,true,false,joint 1 +,true,2024-03-04 12:11:49.445879,21.893,0.193,236.8,162.001953125,266.1936950683594,84.958251953125,38.67585754394531,58.81731414794922,51.0,0.0,-20.0
32,100,20,60,go_to_color_detect_up_from_pick_up,red,true,false,joint 1 +,true,2024-03-04 12:11:51.422953,21.969,0.193,236.8,138.2578125,279.26422119140625,84.958251953125,43.66095733642578,63.72561264038086,51.0,0.0,-20.0
32,100,20,60,go_to_color_detect_down,red,true,false,joint 3 +,true,2024-03-04 12:11:52.109933,21.741,0.193,236.8,131.69403076171875,282.41876220703125,84.77352905273438,45.0,65.0,51.0,0.08800000697374344,-20.0
32,100,20,60,go_to_color_detect_down,red,true,false,joint 3 +,true,2024-03-04 12:11:53.489527,21.912,0.193,236.8,131.62789916992188,282.27691650390625,78.1750717163086,45.0,65.0,51.0,2.737600326538086,-20.0
32,100,20,60,go_to_color_detect_down,red,true,false,joint 3 +,true,2024-03-04 12:11:54.174168,21.741,0.193,236.8,130.94540405273438,280.8133239746094,62.205684661865234,45.0,65.0,51.0,9.073600769042969,-20.0
32,100,20,60,go_to_color_detect_down,red,true,false,joint 3 +,true,2024-03-04 12:11:54.861912,21.874,0.191,236.8,127.81584167480469,274.1019592285156,33.83359909057617,45.0,65.0,51.0,20.608001708984375,-20.0
32,100,20,60,go_to_color_detect_down,red,true,false,joint 3 +,true,2024-03-04 12:11:56.242186,21.969,0.191,236.8,121.927978515625,261.4753723144531,5.83868408203125,45.0,65.0,51.0,32.784568786621094,-20.0
32,100,20,60,go_to_color_detect_down,red,true,false,joint 3 +,true,2024-03-04 12:11:56.931133,21.893,0.191,236.8,116.1781997680664,249.1449432373047,-12.231918334960938,45.0,65.0,51.0,41.532875061035156,-20.0
32,100,20,60,go_to_color_detect_down,red,true,false,joint 3 +,true,2024-03-04 12:11:58.314533,21.855,0.191,236.8,112.31196594238281,240.85377502441406,-21.71930694580078,45.0,65.0,51.0,46.59477233886719,-20.0
32,100,20,60,go_to_color_detect_up_from_color_detect_down,red,true,false,joint 3 -,false,2024-03-04 12:11:59.008525,21.855,0.191,236.8,111.17494201660156,238.41542053222656,-24.20709991455078,45.0,65.0,51.0,47.94240188598633,-20.0
32,100,20,60,go_to_color_detect_up_from_color_detect_down,red,true,false,joint 3 -,false,2024-03-04 12:12:00.266832,21.912,0.191,236.8,113.08523559570312,242.51205444335938,-19.95429229736328,45.0,65.0,51.0,45.44640350341797,-20.0
32,100,20,60,go_to_color_detect_up_from_color_detect_down,red,true,false,joint 3 -,false,2024-03-04 12:12:00.956525,16.234,0.151,236.8,117.55424499511719,252.09588623046875,-8.407402038574219,45.0,65.0,51.0,39.26400375366211,-20.0
32,100,20,60,go_to_color_detect_up_from_color_detect_down,red,true,false,joint 3 -,false,2024-03-04 12:12:02.343307,16.5,0.151,236.8,124.34300231933594,266.6544189453125,15.5946044921875,45.0,65.0,51.0,27.902400970458984,-20.0
32,100,20,60,go_to_color_detect_up_from_color_detect_down,red,true,false,joint 3 -,false,2024-03-04 12:12:03.036237,16.519,0.151,236.8,129.32183837890625,277.33154296875,44.7242431640625,45.0,65.0,51.0,15.659944534301758,-20.0
32,100,20,60,go_to_color_detect_up_from_color_detect_down,red,true,false,joint 3 -,false,2024-03-04 12:12:04.412724,16.614,0.152,236.8,131.34889221191406,281.6785888671875,69.48345947265625,45.0,65.0,51.0,5.904505252838135,-20.0
32,100,20,60,go_to_color_detect_up_from_color_detect_down,red,true,false,joint 3 -,false,2024-03-04 12:12:05.099663,16.614,0.152,236.8,131.68019104003906,282.3890686035156,81.850830078125,45.0,65.0,51.0,1.1498035192489624,-20.0
32,100,20,60,detecting_color,red,false,false,detecting_color,false,2024-03-04 12:12:06.431267,16.519,0.151,236.8,131.69407653808594,282.4188232421875,84.958251953125,45.0,65.0,51.0,0.0,-20.0
32,100,20,60,detecting_color,red,false,false,detecting_color,false,2024-03-04 12:12:07.120020,16.386,0.151,236.8,131.69407653808594,282.4188232421875,84.958251953125,45.0,65.0,51.0,0.0,-20.0
32,100,20,60,detecting_color,red,false,false,detecting_color,false,2024-03-04 12:12:08.490183,16.234,0.151,236.8,131.69407653808594,282.4188232421875,84.958251953125,45.0,65.0,51.0,0.0,-20.0
32,100,20,60,detecting_color,red,false,false,detecting_color,false,2024-03-04 12:12:09.176948,16.31,0.151,236.8,131.69407653808594,282.4188232421875,84.958251953125,45.0,65.0,51.0,0.0,-20.0
32,100,20,60,go_to_color_detect_down,red,true,false,joint 3 +,false,2024-03-04 12:12:09.869887,16.31,0.151,236.8,131.6939239501953,282.41851806640625,84.6380615234375,45.0,65.0,51.0,0.14560002088546753,-20.0
32,100,20,60,go_to_color_detect_down,red,true,false,joint 3 +,false,2024-03-04 12:12:11.273456,16.272,0.151,236.8,131.57569885253906,282.16497802734375,75.88782501220703,45.0,65.0,51.0,3.6448004245758057,-20.0
32,100,20,60,go_to_color_detect_down,red,true,false,joint 3 +,false,2024-03-04 12:12:11.959058,16.405,0.151,236.8,130.65615844726562,280.1930236816406,58.19989776611328,45.0,65.0,51.0,10.672000885009766,-20.0
32,100,20,60,go_to_color_detect_down,red,true,false,joint 3 +,false,2024-03-04 12:12:13.335507,16.367,0.151,236.8,127.51912689208984,273.46563720703125,31.97936248779297,45.0,65.0,51.0,21.385601043701172,-20.0
32,100,20,60,go_to_color_detect_down,red,true,false,joint 3 +,false,2024-03-04 12:12:14.024283,16.329,0.151,236.8,120.76878356933594,258.9894714355469,1.6994476318359375,45.0,65.0,51.0,34.7056770324707,-20.0
32,100,20,60,go_to_color_detect_down,red,true,false,joint 3 +,false,2024-03-04 12:12:15.402523,16.329,0.15,236.8,115.27526092529297,247.2085723876953,-14.603912353515625,45.0,65.0,51.0,42.762779235839844,-20.0
32,100,20,60,go_to_color_detect_down,red,true,false,joint 3 +,false,2024-03-04 12:12:16.090390,16.329,0.15,236.8,111.87474822998047,239.91615295410156,-22.69066619873047,45.0,65.0,51.0,47.133480072021484,-20.0
32,100,20,60,go_to_color_detect_up_from_color_detect_down,red,true,false,joint 3 -,true,2024-03-04 12:12:17.473638,16.329,0.151,236.8,111.29332733154297,238.66929626464844,-23.953826904296875,45.0,65.0,51.0,47.78240203857422,-20.0
32,100,20,60,go_to_color_detect_up_from_color_detect_down,red,true,false,joint 3 -,true,2024-03-04 12:12:18.183799,19.158,0.151,236.8,113.67073059082031,243.76766967773438,-18.576370239257812,45.0,65.0,51.0,44.672000885009766,-20.0
32,100,20,60,go_to_color_detect_up_from_color_detect_down,red,true,false,joint 3 -,true,2024-03-04 12:12:18.876160,22.234,0.193,236.8,118.48792266845703,254.09815979003906,-5.653938293457031,45.0,65.0,51.0,37.875205993652344,-20.0
32,100,20,60,go_to_color_detect_up_from_color_detect_down,red,true,false,joint 3 -,true,2024-03-04 12:12:20.264643,22.196,0.193,236.8,125.3647689819336,268.8456115722656,20.314834594726562,45.0,65.0,51.0,25.82240104675293,-20.0
32,100,20,60,go_to_color_detect_up_from_color_detect_down,red,true,false,joint 3 -,true,2024-03-04 12:12:20.954970,22.026,0.194,236.8,129.81387329101562,278.3867492675781,49.06684875488281,45.0,65.0,51.0,13.920294761657715,-20.0
32,100,20,60,go_to_color_detect_up_from_color_detect_down,red,true,false,joint 3 -,true,2024-03-04 12:12:22.334406,22.102,0.194,236.8,131.37954711914062,281.74432373046875,70.18504333496094,45.0,65.0,51.0,5.6327924728393555,-20.0
32,100,20,60,go_to_color_detect_up_from_color_detect_down,red,true,false,joint 3 -,true,2024-03-04 12:12:23.020958,22.102,0.193,236.8,131.6885528564453,282.406982421875,82.99711608886719,45.0,65.0,51.0,0.7157531976699829,-20.0
32,100,20,60,go_to_green_up,green,true,false,joint 1 +,true,2024-03-04 12:12:24.427352,21.931,0.193,236.8,130.8654022216797,282.80377197265625,84.958251953125,45.167999267578125,65.19200134277344,51.0,0.0,-20.0
32,100,20,60,go_to_green_up,green,true,false,joint 1 +,true,2024-03-04 12:12:25.115388,21.836,0.191,236.8,116.1033706665039,289.1777038574219,84.958251953125,48.124786376953125,68.2255859375,51.0,0.0,-20.0
32,100,20,60,go_to_green_up,green,true,false,joint 1 +,true,2024-03-04 12:12:26.041208,21.931,0.191,236.8,76.1376724243164,302.1701354980469,84.958251953125,55.85759735107422,76.0447998046875,51.0,0.0,-20.0
32,100,20,60,go_to_green_up,green,true,false,joint 1 +,true,2024-03-04 12:12:27.423123,21.893,0.191,236.8,18.573095321655273,311.06072998046875,84.958251953125,66.5829849243164,86.824951171875,51.0,0.0,-20.0
32,100,20,60,go_to_green_up,green,true,false,joint 1 +,true,2024-03-04 12:12:28.122773,21.969,0.191,236.8,-35.58723831176758,309.57598876953125,84.958251953125,76.55763244628906,96.72119903564453,51.0,0.0,-20.0
32,100,20,60,go_to_green_up,green,true,false,joint 1 +,true,2024-03-04 12:12:29.506197,21.912,0.191,236.8,-70.63066101074219,303.5046081542969,84.958251953125,83.10052490234375,103.17768859863281,51.0,0.0,-20.0
32,100,20,60,go_to_green_up,green,true,false,joint 1 +,true,2024-03-04 12:12:30.199739,21.703,0.191,236.8,-80.64984130859375,300.9972229003906,84.958251953125,84.99961853027344,104.99998474121094,51.0,0.0,-20.0
32,100,20,60,go_to_pick_up_from_green,green,true,false,joint 1 -,false,2024-03-04 12:12:30.889164,21.95,0.191,236.8,-72.67313385009766,303.02203369140625,84.958251953125,83.48640441894531,103.41600799560547,51.0,0.0,-20.0
32,100,20,60,go_to_pick_up_from_green,green,true,false,joint 1 -,false,2024-03-04 12:12:32.352428,16.405,0.15,236.8,-40.10881805419922,309.0226745605469,84.958251953125,77.39521026611328,97.23841094970703,51.0,0.0,-20.0
32,100,20,60,go_to_pick_up_from_green,green,true,false,joint 1 -,false,2024-03-04 12:12:33.038467,16.253,0.15,236.8,10.527329444885254,311.43682861328125,84.958251953125,68.06399536132812,87.83039855957031,51.0,0.0,-20.0
32,100,20,60,go_to_pick_up_from_green,green,true,false,joint 1 -,false,2024-03-04 12:12:34.412772,16.272,0.15,236.8,80.40802764892578,301.0619201660156,84.958251953125,55.04640197753906,74.73600006103516,51.0,0.0,-20.0
32,100,20,60,go_to_pick_up_from_green,green,true,false,joint 1 -,false,2024-03-04 12:12:35.104267,16.272,0.15,236.8,172.18106079101562,259.72564697265625,84.958251953125,36.45823287963867,56.117469787597656,51.0,0.0,-20.0
32,100,20,60,go_to_pick_up_from_green,green,true,false,joint 1 -,false,2024-03-04 12:12:36.491726,16.329,0.15,236.8,231.91525268554688,208.13229370117188,84.958251953125,21.906383514404297,41.64242172241211,51.0,0.0,-20.0
32,100,20,60,go_to_pick_up_from_green,green,true,false,joint 1 -,false,2024-03-04 12:12:37.176792,16.291,0.15,236.8,266.9911804199219,160.6842498779297,84.958251953125,11.040935516357422,30.853771209716797,51.0,0.0,-20.0
32,100,20,60,go_to_pick_up_from_green,green,true,false,joint 1 -,false,2024-03-04 12:12:37.873749,16.291,0.15,236.8,286.36529541015625,122.87655639648438,84.958251953125,3.2237014770507812,23.12293815612793,51.0,0.0,-20.0
32,100,20,60,go_to_pick_up_from_green,green,true,false,joint 1 -,false,2024-03-04 12:12:39.252581,16.31,0.151,236.8,292.4635314941406,107.55840301513672,84.958251953125,0.1918506622314453,20.16788673400879,51.0,0.0,-20.0
32,100,20,60,moving_belt,green,false,true,joint 1 -,false,2024-03-04 12:12:39.937311,16.31,0.151,236.8,292.8220520019531,106.5785140991211,84.958251953125,0.0,20.0,51.0,0.0,-20.0
32,100,20,60,moving_belt,green,false,true,joint 1 -,false,2024-03-04 12:12:41.312745,16.367,0.153,236.8,292.8220520019531,106.5785140991211,84.958251953125,0.0,20.0,51.0,0.0,-20.0
32,100,20,60,moving_belt,green,false,true,joint 1 -,false,2024-03-04 12:12:41.999031,16.386,0.153,235.0,292.8220520019531,106.5785140991211,84.958251953125,0.0,20.0,51.0,0.0,-20.0
32,100,20,60,moving_belt,green,false,true,joint 1 -,false,2024-03-04 12:12:43.382225,16.329,0.152,235.0,292.8220520019531,106.5785140991211,84.958251953125,0.0,20.0,51.0,0.0,-20.0
32,100,20,60,go_to_pick_down,green,true,false,joint 3 +,false,2024-03-04 12:12:44.073041,16.329,0.152,236.8,292.8218994140625,106.57846069335938,84.73247528076172,0.0,20.0,51.0,0.10559999942779541,-20.0
32,100,20,60,go_to_pick_down,green,true,false,joint 3 +,false,2024-03-04 12:12:45.449715,16.12,0.15,236.8,292.6643981933594,106.5211410522461,77.93724060058594,0.0,20.0,51.0,2.8320000171661377,-20.0
32,100,20,60,go_to_pick_down,green,true,false,joint 3 +,false,2024-03-04 12:12:46.138018,16.12,0.15,236.8,291.0935363769531,105.94938659667969,61.77589797973633,0.0,20.0,51.0,9.244799613952637,-20.0
32,100,20,60,go_to_pick_down,green,true,false,joint 3 +,false,2024-03-04 12:12:47.517755,16.253,0.15,236.8,286.34393310546875,104.22067260742188,40.469215393066406,0.0,20.0,51.0,17.734262466430664,-20.0
32,100,20,60,go_to_pick_down,green,true,false,joint 3 +,false,2024-03-04 12:12:48.206338,16.234,0.15,236.8,283.2471923828125,103.09354400634766,31.18230438232422,0.0,20.0,51.0,21.49905776977539,-20.0
32,100,20,60,go_to_pick_up_from_pick_down,green,true,false,joint 3 -,true,2024-03-04 12:12:48.901688,16.234,0.15,236.8,283.0092468261719,103.00694274902344,30.542552947998047,0.0,20.0,51.0,21.696001052856445,-20.0
32,100,20,60,go_to_pick_up_from_pick_down,green,true,false,joint 3 -,true,2024-03-04 12:12:50.290432,22.462,0.169,235.0,286.2130126953125,104.17301940917969,40.03276824951172,0.0,20.0,51.0,17.67840003967285,-20.0
32,100,20,60,go_to_pick_up_from_pick_down,green,true,false,joint 3 -,true,2024-03-04 12:12:51.059520,21.836,0.169,235.0,290.5523986816406,105.75242614746094,58.420166015625,0.0,20.0,51.0,10.219067573547363,-20.0
32,100,20,60,go_to_pick_up_from_pick_down,green,true,false,joint 3 -,true,2024-03-04 12:12:52.443163,21.969,0.193,236.8,292.5663146972656,106.48542785644531,76.01714324951172,0.0,20.0,51.0,3.382270097732544,-20.0
32,100,20,60,go_to_pick_up_from_pick_down,green,true,false,joint 3 -,true,2024-03-04 12:12:53.140524,21.931,0.193,236.8,292.8217468261719,106.57840728759766,84.66139221191406,0.0,20.0,51.0,0.09727348387241364,-20.0
32,100,20,60,go_to_color_detect_up_from_pick_up,green,true,false,joint 1 +,true,2024-03-04 12:12:54.522795,21.893,0.192,236.8,291.0108642578125,111.42896270751953,84.958251953125,0.9519996643066406,21.007999420166016,51.0,0.0,-20.0
32,100,20,60,go_to_color_detect_up_from_pick_up,green,true,false,joint 1 +,true,2024-03-04 12:12:55.209653,21.836,0.192,236.8,281.3879699707031,133.882568359375,84.958251953125,5.444801330566406,25.577600479125977,51.0,0.0,-20.0
32,100,20,60,go_to_color_detect_up_from_pick_up,green,true,false,joint 1 +,true,2024-03-04 12:12:55.921501,21.684,0.19,236.8,255.553955078125,178.31407165527344,84.958251953125,14.90560531616211,35.12480545043945,51.0,0.0,-20.0
32,100,20,60,go_to_color_detect_up_from_pick_up,green,true,false,joint 1 +,true,2024-03-04 12:12:57.359772,21.817,0.19,236.8,213.39120483398438,227.08572387695312,84.958251953125,26.78076171875,47.021419525146484,51.0,0.0,-20.0
32,100,20,60,go_to_color_detect_up_from_pick_up,green,true,false,joint 1 +,true,2024-03-04 12:12:58.087017,21.76,0.191,236.8,171.86709594726562,259.9335021972656,84.958251953125,36.5274658203125,56.691322326660156,51.0,0.0,-20.0
32,100,20,60,go_to_color_detect_up_from_pick_up,green,true,false,joint 1 +,true,2024-03-04 12:12:59.475197,21.779,0.191,236.8,141.05270385742188,277.863037109375,84.958251953125,43.08610534667969,63.1635627746582,51.0,0.0,-20.0
32,100,20,60,go_to_color_detect_down,green,true,false,joint 3 +,true,2024-03-04 12:13:00.165595,21.779,0.19,236.8,131.69801330566406,282.4169921875,84.958251953125,44.99919891357422,64.9998550415039,51.0,0.0,-20.0
32,100,20,60,go_to_color_detect_down,green,true,false,joint 3 +,true,2024-03-04 12:13:00.858861,21.76,0.19,235.0,131.6703338623047,282.3679504394531,80.89480590820312,45.0,65.0,51.0,1.6560001373291016,-20.0
32,100,20,60,go_to_color_detect_down,green,true,false,joint 3 +,true,2024-03-04 12:13:02.245464,21.741,0.191,235.0,131.1249237060547,281.19830322265625,65.10567474365234,45.0,65.0,51.0,7.920000076293945,-20.0
32,100,20,60,go_to_color_detect_down,green,true,false,joint 3 +,true,2024-03-04 12:13:02.939675,21.741,0.191,235.0,128.9254913330078,276.4815979003906,41.56367874145508,45.0,65.0,51.0,17.404802322387695,-20.0
32,100,20,60,go_to_color_detect_down,green,true,false,joint 3 +,true,2024-03-04 12:13:04.320149,21.608,0.191,235.0,123.61932373046875,265.10247802734375,12.485847473144531,45.0,65.0,51.0,29.780839920043945,-20.0
32,100,20,60,go_to_color_detect_down,green,true,false,joint 3 +,true,2024-03-04 12:13:05.008560,21.817,0.191,235.0,116.92823791503906,250.75340270996094,-10.180152893066406,45.0,65.0,51.0,40.4866828918457,-20.0
32,100,20,60,go_to_color_detect_down,green,true,false,joint 3 +,true,2024-03-04 12:13:06.382465,21.798,0.191,235.0,112.71920013427734,241.72708129882812,-20.797393798828125,45.0,65.0,51.0,46.086177825927734,-20.0
32,100,20,60,go_to_color_detect_up_from_color_detect_down,green,true,false,joint 3 -,false,2024-03-04 12:13:07.082920,21.646,0.191,235.0,111.14125061035156,238.34317016601562,-24.2789306640625,45.0,65.0,51.0,47.99927520751953,-20.0
32,100,20,60,go_to_color_detect_up_from_color_detect_down,green,true,false,joint 3 -,false,2024-03-04 12:13:08.474332,21.836,0.191,235.0,112.69354248046875,241.6720733642578,-20.855972290039062,45.0,65.0,51.0,45.96000289916992,-20.0
32,100,20,60,go_to_color_detect_up_from_color_detect_down,green,true,false,joint 3 -,false,2024-03-04 12:13:09.168385,16.405,0.151,235.0,116.8830337524414,250.65646362304688,-10.305999755859375,45.0,65.0,51.0,40.2384033203125,-20.0
32,100,20,60,go_to_color_detect_up_from_color_detect_down,green,true,false,joint 3 -,false,2024-03-04 12:13:09.859132,16.405,0.151,235.0,122.78483581542969,263.3128967285156,9.106956481933594,45.0,65.0,51.0,30.830400466918945,-20.0
32,100,20,60,go_to_color_detect_up_from_color_detect_down,green,true,false,joint 3 -,false,2024-03-04 12:13:11.235350,16.519,0.153,235.0,128.89451599121094,276.4151611328125,41.32709884643555,45.0,65.0,51.0,17.03188133239746,-20.0
32,100,20,60,go_to_color_detect_up_from_color_detect_down,green,true,false,joint 3 -,false,2024-03-04 12:13:11.925203,16.481,0.153,235.0,131.1153564453125,281.1777648925781,64.94036102294922,45.0,65.0,51.0,7.669179916381836,-20.0
32,100,20,60,go_to_color_detect_up_from_color_detect_down,green,true,false,joint 3 -,false,2024-03-04 12:13:13.314290,16.538,0.152,235.0,131.6533966064453,282.33160400390625,79.63948059082031,45.0,65.0,51.0,1.9928786754608154,-20.0
32,100,20,60,detecting_color,green,false,false,detecting_color,false,2024-03-04 12:13:14.005302,16.348,0.152,235.0,131.69407653808594,282.4188232421875,84.958251953125,45.0,65.0,51.0,0.0,-20.0
32,100,20,60,detecting_color,green,false,false,detecting_color,false,2024-03-04 12:13:15.514586,16.291,0.151,235.0,131.69407653808594,282.4188232421875,84.958251953125,45.0,65.0,51.0,0.0,-20.0
32,100,20,60,detecting_color,green,false,false,detecting_color,false,2024-03-04 12:13:16.211723,16.291,0.151,235.0,131.69407653808594,282.4188232421875,84.958251953125,45.0,65.0,51.0,0.0,-20.0
32,100,20,60,go_to_color_detect_down,green,true,false,joint 3 +,false,2024-03-04 12:13:16.904589,16.405,0.151,235.0,131.67779541015625,282.3839416503906,81.59243774414062,45.0,65.0,51.0,1.377600073814392,-20.0
32,100,20,60,go_to_color_detect_down,green,true,false,joint 3 +,false,2024-03-04 12:13:18.289799,16.234,0.15,235.0,131.32298278808594,281.6230163574219,68.9150390625,45.0,65.0,51.0,6.4079999923706055,-20.0
32,100,20,60,go_to_color_detect_down,green,true,false,joint 3 +,false,2024-03-04 12:13:18.978909,16.234,0.15,235.0,129.21376037597656,277.09979248046875,43.83619689941406,45.0,65.0,51.0,16.473600387573242,-20.0
32,100,20,60,go_to_color_detect_down,green,true,false,joint 3 +,false,2024-03-04 12:13:20.362926,16.177,0.15,235.0,124.13787078857422,266.2145080566406,14.6951904296875,45.0,65.0,51.0,28.802213668823242,-20.0
32,100,20,60,go_to_color_detect_down,green,true,false,joint 3 +,false,2024-03-04 12:13:21.056086,16.177,0.15,236.8,118.06401062011719,253.1890869140625,-6.9208984375,45.0,65.0,51.0,38.856117248535156,-20.0
32,100,20,60,go_to_color_detect_down,green,true,false,joint 3 +,false,2024-03-04 12:13:22.433641,16.405,0.151,236.8,112.97763061523438,242.28131103515625,-20.203590393066406,45.0,65.0,51.0,45.760353088378906,-20.0
32,100,20,60,go_to_color_detect_down,green,true,false,joint 3 +,false,2024-03-04 12:13:23.123251,16.31,0.151,236.8,111.16141510009766,238.3863983154297,-24.2359619140625,45.0,65.0,51.0,47.98065185546875,-20.0
32,100,20,60,go_to_color_detect_up_from_color_detect_down,green,true,false,joint 3 -,true,2024-03-04 12:13:24.504747,16.272,0.202,236.8,112.085205078125,240.36749267578125,-22.225440979003906,45.0,65.0,51.0,46.75200653076172,-20.0
32,100,20,60,go_to_color_detect_up_from_color_detect_down,green,true,false,joint 3 -,true,2024-03-04 12:13:25.192407,22.253,0.202,235.0,116.34485626220703,249.50233459472656,-11.7825927734375,45.0,65.0,51.0,41.00640106201172,-20.0
32,100,20,60,go_to_color_detect_up_from_color_detect_down,green,true,false,joint 3 -,true,2024-03-04 12:13:26.144341,21.893,0.202,235.0,122.13421630859375,261.91766357421875,6.608070373535156,45.0,65.0,51.0,31.98240089416504,-20.0
32,100,20,60,go_to_color_detect_up_from_color_detect_down,green,true,false,joint 3 -,true,2024-03-04 12:13:27.544647,22.045,0.193,235.0,127.96653747558594,274.42510986328125,34.80533218383789,45.0,65.0,51.0,19.696701049804688,-20.0
32,100,20,60,go_to_color_detect_up_from_color_detect_down,green,true,false,joint 3 -,true,2024-03-04 12:13:28.230444,22.045,0.193,235.0,130.98941040039062,280.90765380859375,62.88037109375,45.0,65.0,51.0,8.472461700439453,-20.0
32,100,20,60,go_to_color_detect_up_from_color_detect_down,green,true,false,joint 3 -,true,2024-03-04 12:13:28.927853,22.026,0.194,235.0,131.63491821289062,282.2919616699219,78.54410552978516,45.0,65.0,51.0,2.4121603965759277,-20.0
32,100,20,60,go_to_color_detect_up_from_color_detect_down,green,true,false,joint 3 -,true,2024-03-04 12:13:30.315014,21.893,0.194,236.8,131.69406127929688,282.4187927246094,84.82967376708984,45.0,65.0,51.0,0.03825901821255684,-20.0
32,100,20,60,go_to_blue_up,blue,true,false,joint 1 +,true,2024-03-04 12:13:31.001461,21.893,0.193,236.8,124.18826293945312,285.79888916015625,84.958251953125,46.51359558105469,66.58399200439453,51.0,0.0,-20.0
32,100,20,60,go_to_blue_up,blue,true,false,joint 1 +,true,2024-03-04 12:13:31.693257,21.779,0.193,236.8,97.85712432861328,295.850830078125,84.958251953125,51.69758605957031,71.84478759765625,51.0,0.0,-20.0
32,100,20,60,go_to_blue_up,blue,true,false,joint 1 +,true,2024-03-04 12:13:33.396693,21.665,0.192,236.8,57.63856506347656,306.2377014160156,84.958251953125,59.34076690673828,79.47454071044922,51.0,0.0,-20.0
32,100,20,60,go_to_blue_up,blue,true,false,joint 1 +,true,2024-03-04 12:13:34.085239,21.836,0.192,236.8,31.0859375,310.0603332519531,84.958251953125,64.27478790283203,84.32215881347656,51.0,0.0,-20.0
32,100,20,60,go_to_pick_up_from_blue,blue,true,false,joint 1 -,false,2024-03-04 12:13:35.494007,21.779,0.191,236.8,28.199113845825195,310.336181640625,84.958251953125,64.80799865722656,84.78240203857422,51.0,0.0,-20.0
32,100,20,60,go_to_pick_up_from_blue,blue,true,false,joint 1 -,false,2024-03-04 12:13:36.197199,16.614,0.191,235.0,44.58297348022461,308.4089660644531,84.958251953125,61.7744140625,81.67201232910156,51.0,0.0,-20.0
32,100,20,60,go_to_pick_up_from_blue,blue,true,false,joint 1 -,false,2024-03-04 12:13:36.885536,16.614,0.191,235.0,86.12682342529297,299.4760437011719,84.958251953125,53.9552001953125,73.76640319824219,51.0,0.0,-20.0
32,100,20,60,go_to_pick_up_from_blue,blue,true,false,joint 1 -,false,2024-03-04 12:13:38.270842,16.253,0.149,236.8,141.0435333251953,277.86767578125,84.958251953125,43.08799743652344,62.8223991394043,51.0,0.0,-20.0
32,100,20,60,go_to_pick_up_from_blue,blue,true,false,joint 1 -,false,2024-03-04 12:13:38.960186,16.367,0.149,236.8,205.41018676757812,234.3296661376953,84.958251953125,28.76263427734375,48.460052490234375,51.0,0.0,-20.0
32,100,20,60,go_to_pick_up_from_blue,blue,true,false,joint 1 -,false,2024-03-04 12:13:40.331600,16.253,0.15,236.8,256.15228271484375,177.45346069335938,84.958251953125,14.712879180908203,34.496700286865234,51.0,0.0,-20.0
32,100,20,60,go_to_pick_up_from_blue,blue,true,false,joint 1 -,false,2024-03-04 12:13:41.023957,16.215,0.15,236.8,279.74041748046875,137.29177856445312,84.958251953125,6.141010284423828,26.001628875732422,51.0,0.0,-20.0
32,100,20,60,go_to_pick_up_from_blue,blue,true,false,joint 1 -,false,2024-03-04 12:13:42.402715,16.31,0.15,236.8,290.41644287109375,112.9690933227539,84.958251953125,1.2555370330810547,21.192956924438477,51.0,0.0,-20.0
32,100,20,60,moving_belt,blue,false,true,joint 1 -,false,2024-03-04 12:13:43.156204,16.31,0.15,235.0,292.8220520019531,106.5785140991211,84.958251953125,0.0,20.0,51.0,0.0,-20.0
32,100,20,60,moving_belt,blue,false,true,joint 1 -,false,2024-03-04 12:13:43.931462,16.234,0.15,235.0,292.8220520019531,106.5785140991211,84.958251953125,0.0,20.0,51.0,0.0,-20.0
32,100,20,60,moving_belt,blue,false,true,joint 1 -,false,2024-03-04 12:13:45.559759,16.405,0.153,236.8,292.8220520019531,106.5785140991211,84.958251953125,0.0,20.0,51.0,0.0,-20.0
32,100,20,60,moving_belt,blue,false,true,joint 1 -,false,2024-03-04 12:13:46.356851,16.386,0.153,236.8,292.8220520019531,106.5785140991211,84.958251953125,0.0,20.0,51.0,0.0,-20.0
32,100,20,60,moving_belt,blue,false,true,joint 1 -,false,2024-03-04 12:13:47.051252,16.386,0.153,236.8,292.8220520019531,106.5785140991211,84.958251953125,0.0,20.0,51.0,0.0,-20.0
32,100,20,60,go_to_pick_down,blue,true,false,joint 3 +,false,2024-03-04 12:13:48.423675,16.329,0.151,236.8,292.802978515625,106.57157135009766,82.51588439941406,0.0,20.0,51.0,1.0080000162124634,-20.0
32,100,20,60,go_to_pick_down,blue,true,false,joint 3 +,false,2024-03-04 12:13:49.110677,16.329,0.151,236.8,291.9969177246094,106.27819061279297,68.9150390625,0.0,20.0,51.0,6.407999515533447,-20.0
32,100,20,60,go_to_pick_down,blue,true,false,joint 3 +,false,2024-03-04 12:13:49.796018,16.253,0.151,235.0,288.5340270996094,105.01780700683594,48.616004943847656,0.0,20.0,51.0,14.469465255737305,-20.0
32,100,20,60,go_to_pick_down,blue,true,false,joint 3 +,false,2024-03-04 12:13:51.281279,16.158,0.15,235.0,284.49298095703125,103.5469741821289,34.68556213378906,0.0,20.0,51.0,20.07746124267578,-20.0
32,100,20,60,go_to_pick_up_from_pick_down,blue,true,false,joint 3 -,true,2024-03-04 12:13:51.968493,16.158,0.15,236.8,282.76361083984375,102.91754913330078,29.89107894897461,0.0,20.0,51.0,21.99839973449707,-20.0
32,100,20,60,go_to_pick_up_from_pick_down,blue,true,false,joint 3 -,true,2024-03-04 12:13:53.359667,22.747,0.156,236.8,284.3298034667969,103.48758697509766,34.21097183227539,0.0,20.0,51.0,20.11840057373047,-20.0
32,100,20,60,go_to_pick_up_from_pick_down,blue,true,false,joint 3 -,true,2024-03-04 12:13:54.046094,22.747,0.156,236.8,288.85858154296875,105.13592529296875,49.99748992919922,0.0,20.0,51.0,13.595199584960938,-20.0
32,100,20,60,go_to_pick_up_from_pick_down,blue,true,false,joint 3 -,true,2024-03-04 12:13:55.430406,21.931,0.193,236.8,292.1190490722656,106.32264709472656,70.14653015136719,0.0,20.0,51.0,5.647702217102051,-20.0
32,100,20,60,go_to_pick_up_from_pick_down,blue,true,false,joint 3 -,true,2024-03-04 12:13:56.117346,21.893,0.193,236.8,292.7967529296875,106.56930541992188,82.14510345458984,0.0,20.0,51.0,1.0381052494049072,-20.0
32,100,20,60,go_to_color_detect_up_from_pick_up,blue,true,false,joint 1 +,true,2024-03-04 12:13:57.528954,21.741,0.192,236.8,292.5502624511719,107.3222885131836,84.958251953125,0.145599365234375,20.167999267578125,51.0,0.0,-20.0
32,100,20,60,go_to_color_detect_up_from_pick_up,blue,true,false,joint 1 +,true,2024-03-04 12:13:58.242468,21.665,0.192,236.8,286.7884216308594,121.88572692871094,84.958251953125,3.0256004333496094,23.124799728393555,51.0,0.0,-20.0
32,100,20,60,go_to_color_detect_up_from_pick_up,blue,true,false,joint 1 +,true,2024-03-04 12:13:58.931691,21.76,0.192,236.8,270.9688720703125,153.88172912597656,84.958251953125,9.592000961303711,29.768001556396484,51.0,0.0,-20.0
32,100,20,60,go_to_color_detect_up_from_pick_up,blue,true,false,joint 1 +,true,2024-03-04 12:14:00.312030,21.665,0.192,236.8,238.36917114257812,200.70843505859375,84.958251953125,20.097606658935547,40.35200500488281,51.0,0.0,-20.0
32,100,20,60,go_to_color_detect_up_from_pick_up,blue,true,false,joint 1 +,true,2024-03-04 12:14:01.007504,21.817,0.192,236.8,187.90628051757812,248.58592224121094,84.958251953125,32.914337158203125,53.11019515991211,51.0,0.0,-20.0
32,100,20,60,go_to_color_detect_up_from_pick_up,blue,true,false,joint 1 +,true,2024-03-04 12:14:02.490745,21.817,0.192,236.8,153.39605712890625,271.2441101074219,84.958251953125,40.510643005371094,60.62969970703125,51.0,0.0,-20.0
32,100,20,60,go_to_color_detect_up_from_pick_up,blue,true,false,joint 1 +,true,2024-03-04 12:14:03.179861,21.665,0.192,236.8,134.5435333251953,281.0725402832031,84.958251953125,44.42053985595703,64.46279907226562,51.0,0.0,-20.0
32,100,20,60,go_to_color_detect_down,blue,true,false,joint 3 +,true,2024-03-04 12:14:04.556647,21.855,0.191,236.8,131.69189453125,282.4141540527344,83.72676086425781,45.0,65.0,51.0,0.5200000405311584,-20.0
32,100,20,60,go_to_color_detect_down,blue,true,false,joint 3 +,true,2024-03-04 12:14:05.245004,21.855,0.191,236.8,131.52685546875,282.06024169921875,74.1799545288086,45.0,65.0,51.0,4.321599960327148,-20.0
32,100,20,60,go_to_color_detect_down,blue,true,false,joint 3 +,true,2024-03-04 12:14:05.934802,21.798,0.191,236.8,130.4217071533203,279.6902160644531,55.35958480834961,45.0,65.0,51.0,11.809600830078125,-20.0
32,100,20,60,go_to_color_detect_down,blue,true,false,joint 3 +,true,2024-03-04 12:14:07.324297,21.646,0.191,236.8,126.16434478759766,270.560302734375,24.331317901611328,45.0,65.0,51.0,24.631711959838867,-20.0
32,100,20,60,go_to_color_detect_down,blue,true,false,joint 3 +,true,2024-03-04 12:14:08.014655,21.646,0.191,236.8,120.0090560913086,257.3602294921875,-0.857635498046875,45.0,65.0,51.0,35.91441345214844,-20.0
32,100,20,60,go_to_color_detect_down,blue,true,false,joint 3 +,true,2024-03-04 12:14:09.395618,21.741,0.191,236.8,114.7149658203125,246.00701904296875,-16.02508544921875,45.0,65.0,51.0,43.51071548461914,-20.0
32,100,20,60,go_to_color_detect_down,blue,true,false,joint 3 +,true,2024-03-04 12:14:10.530830,21.646,0.192,236.8,111.4474105834961,238.99972534179688,-23.62220001220703,45.0,65.0,51.0,47.65015411376953,-20.0
32,100,20,60,go_to_color_detect_up_from_color_detect_down,blue,true,false,joint 3 -,false,2024-03-04 12:14:11.557599,21.76,0.192,236.8,111.43579864501953,238.97483825683594,-23.647262573242188,45.0,65.0,51.0,47.5952033996582,-20.0
32,100,20,60,go_to_color_detect_up_from_color_detect_down,blue,true,false,joint 3 -,false,2024-03-04 12:14:12.258568,16.386,0.151,236.8,114.15553283691406,244.80731201171875,-17.407241821289062,45.0,65.0,51.0,44.02400207519531,-20.0
32,100,20,60,go_to_color_detect_up_from_color_detect_down,blue,true,false,joint 3 -,false,2024-03-04 12:14:12.953732,16.386,0.151,236.8,119.95745086669922,257.24957275390625,-1.0272064208984375,45.0,65.0,51.0,35.60000228881836,-20.0
32,100,20,60,go_to_color_detect_up_from_color_detect_down,blue,true,false,joint 3 -,false,2024-03-04 12:14:14.337177,16.253,0.151,236.8,126.11372375488281,270.4517517089844,24.06745147705078,45.0,65.0,51.0,24.195201873779297,-20.0
32,100,20,60,go_to_color_detect_up_from_color_detect_down,blue,true,false,joint 3 -,false,2024-03-04 12:14:15.028677,16.481,0.151,236.8,130.12974548339844,279.0641174316406,52.1779670715332,45.0,65.0,51.0,12.682756423950195,-20.0
32,100,20,60,go_to_color_detect_up_from_color_detect_down,blue,true,false,joint 3 -,false,2024-03-04 12:14:16.419588,16.462,0.151,236.8,131.5230255126953,282.0520324707031,74.05720520019531,45.0,65.0,51.0,4.1369171142578125,-20.0
32,100,20,60,go_to_color_detect_up_from_color_detect_down,blue,true,false,joint 3 -,false,2024-03-04 12:14:17.230891,16.329,0.152,236.8,131.69174194335938,282.413818359375,83.68450164794922,45.0,65.0,51.0,0.4574154317378998,-20.0
32,100,20,60,detecting_color,blue,false,false,detecting_color,false,2024-03-04 12:14:18.177238,16.329,0.152,236.8,131.69407653808594,282.4188232421875,84.958251953125,45.0,65.0,51.0,0.0,-20.0
