demetriskallis/dobot_magician_pick_and_place_and_color_sorting/Sampling/WholeSystemExperiments_training_data/payload_32g/joint_measurements__armv_40_arma_100_belts_60_cube_32g.csv
cube/weight,arm/velocity_ratio,arm/acceleration_ratio,belt/speed,dobot/operation,dobot/color,dobot/moving_arm,dobot/moving_belt,dobot/operation2,dobot/suction,meross/sample_timestamp,meross/power,meross/current,meross/voltage,dobot/pose_x,dobot/pose_y,dobot/pose_z,dobot/pose_rHead,dobot/pose_joint1Angle,dobot/pose_joint2Angle,dobot/pose_joint3Angle,dobot/pose_joint4Angle
32,40,100,60,homing,,,,homing,,,,,,220.3057861328125,78.63875579833984,71.62486267089844,-0.3558387756347656,19.24416160583496,16.784889221191406,23.07881736755371,-20.0
32,40,100,60,homing,,,,homing,,,,,,233.91323852539062,1.8133893013000488,71.62486267089844,-19.555828094482422,0.04417097568511963,16.784889221191406,23.07881736755371,-20.0
32,40,100,60,homing,,,,homing,,,,,,221.49851989746094,-75.2137222290039,71.62486267089844,-38.755821228027344,-19.155820846557617,16.784889221191406,23.07881736755371,-20.0
32,40,100,60,homing,,,,homing,,2024-03-03 16:43:25.529147,16.386,0.155,235.0,178.2560577392578,-151.47103881835938,71.62486267089844,-60.355838775634766,-40.75584030151367,16.784889221191406,23.07881736755371,-20.0
32,40,100,60,homing,,,,homing,,2024-03-03 16:43:26.215445,16.386,0.155,235.0,118.5267562866211,-201.6682891845703,71.62486267089844,-79.555908203125,-59.95591354370117,16.784889221191406,23.07881736755371,-20.0
32,40,100,60,homing,,,,homing,,2024-03-03 16:43:27.587824,16.519,0.158,235.0,45.61163330078125,-229.43032836914062,71.62486267089844,-98.7559814453125,-79.1559829711914,16.784889221191406,23.07881736755371,-20.0
32,40,100,60,homing,,,,homing,,2024-03-03 16:43:28.274127,16.443,0.158,235.0,-42.05065155029297,-230.109619140625,71.62486267089844,-120.35606384277344,-100.75606536865234,16.784889221191406,23.07881736755371,-20.0
32,40,100,60,homing,,,,homing,,2024-03-03 16:43:29.644147,16.538,0.156,235.0,-115.3873291015625,-203.48085021972656,71.62486267089844,-139.55613708496094,-119.95613861083984,16.784889221191406,23.07881736755371,-20.0
32,40,100,60,homing,,,,homing,,2024-03-03 16:43:30.330086,16.443,0.156,235.0,-170.11761474609375,-160.5574493408203,71.62486267089844,-156.65602111816406,-136.63601684570312,16.784889221191406,23.07881736755371,-20.0
32,40,100,60,homing,,,,homing,,2024-03-03 16:43:31.213946,16.443,0.156,235.0,-167.06048583984375,-163.73602294921875,71.62486267089844,-155.57579040527344,-135.5557861328125,16.784889221191406,23.07881736755371,-20.0
32,40,100,60,homing,,,,homing,,2024-03-03 16:43:32.593331,16.443,0.155,235.0,-146.82347106933594,-183.15484619140625,69.744140625,-148.15872192382812,-128.32090759277344,17.46481704711914,23.727283477783203,-19.406925201416016
32,40,100,60,homing,,,,homing,,2024-03-03 16:43:33.280693,16.424,0.155,235.0,-48.60657501220703,-233.62454223632812,59.94129180908203,-118.32772064208984,-101.15296173095703,20.80992317199707,26.917591094970703,-16.48912811279297
32,40,100,60,homing,,,,homing,,2024-03-03 16:43:34.688805,16.709,0.158,235.0,86.41927337646484,-229.3438720703125,38.2686767578125,-79.79090881347656,-68.75304412841797,27.911001205444336,33.6900749206543,-10.295150756835938
32,40,100,60,homing,,,,homing,,2024-03-03 16:43:35.374503,16.823,0.158,235.0,189.05653381347656,-161.77285766601562,16.757827758789062,-45.084590911865234,-39.95311737060547,34.630367279052734,40.09850311279297,-4.434122085571289
32,40,100,60,homing,,,,homing,,2024-03-03 16:43:36.752892,16.766,0.159,235.0,244.4641571044922,-51.64073944091797,3.898406982421875,-12.978853225708008,-11.398778915405273,38.56235885620117,43.84856033325195,-1.0044069290161133
32,40,100,60,homing,,,,homing,,2024-03-03 16:43:37.488195,16.766,0.159,235.0,250.0086669921875,-0.1872052103281021,-0.36663055419921875,-0.04290277510881424,-0.021025938913226128,39.7692985534668,44.99974822998047,0.0
32,40,100,60,homing,,,,homing,,2024-03-03 16:43:38.177888,16.519,0.155,235.0,249.99998474121094,0.0,-7.62939453125e-06,0.0,0.0,39.71385955810547,44.94676971435547,0.0
32,40,100,60,homing,,,,homing,,2024-03-03 16:43:39.557845,16.253,0.155,235.0,249.99998474121094,0.00017966009909287095,-7.62939453125e-06,4.117506250622682e-05,4.117506250622682e-05,39.71385955810547,44.94676971435547,0.0
32,40,100,60,homing,,,,homing,,2024-03-03 16:43:40.245782,16.462,0.157,235.0,249.99998474121094,0.00017966009909287095,-7.62939453125e-06,4.117506250622682e-05,4.117506250622682e-05,39.71385955810547,44.94676971435547,0.0
32,40,100,60,homing,,,,homing,,2024-03-03 16:43:41.646106,16.405,0.157,235.0,249.99998474121094,0.00017966009909287095,-7.62939453125e-06,4.117506250622682e-05,4.117506250622682e-05,39.71385955810547,44.94676971435547,0.0
32,40,100,60,homing,,,,homing,,2024-03-03 16:43:42.336404,16.405,0.157,235.0,249.99998474121094,0.00017966009909287095,-7.62939453125e-06,4.117506250622682e-05,4.117506250622682e-05,39.71385955810547,44.94676971435547,0.0
32,40,100,60,homing,,,,homing,,2024-03-03 16:43:43.704496,16.424,0.155,235.0,249.99998474121094,0.0,-7.62939453125e-06,0.0,0.0,39.71385955810547,44.94676971435547,0.0
32,40,100,60,homing,,,,homing,,2024-03-03 16:43:44.391866,16.101,0.155,235.0,249.99998474121094,1.0159153518429775e-09,-7.62939453125e-06,2.3283064365386963e-10,2.3283064365386963e-10,39.71385955810547,44.94676971435547,0.0
32,40,100,60,homing,,,,homing,,2024-03-03 16:43:45.762203,16.196,0.154,235.0,254.26931762695312,17.891027450561523,11.287185668945312,4.100799560546875e-05,4.31642484664917,37.90205001831055,39.95424270629883,-4.3163838386535645
32,40,100,60,homing,,,,homing,,2024-03-03 16:43:46.448012,16.823,0.154,235.0,269.7638244628906,81.50286102294922,51.433021545410156,4.1961669921875e-05,17.049333572387695,39.24786376953125,20.83173179626465,-17.049291610717773
32,40,100,60,go_to_pick_up_from_homing,nothing,,,go_to_pick_up_from_homing,,2024-03-03 16:43:47.132713,16.823,0.16,235.0,285.2499084472656,105.30390930175781,75.17120361328125,2.86102294921875e-05,20.241823196411133,47.10374450683594,6.4270853996276855,-20.241796493530273
32,40,100,60,moving_belt,nothing,false,true,go_to_pick_up_from_homing,,2024-03-03 16:43:48.548561,17.07,0.16,235.0,292.8220520019531,106.5785140991211,84.958251953125,0.0,20.0,51.0,0.0,-20.0
32,40,100,60,moving_belt,nothing,false,true,go_to_pick_up_from_homing,,2024-03-03 16:43:49.233194,16.747,0.16,235.0,292.8220520019531,106.5785140991211,84.958251953125,0.0,20.0,51.0,0.0,-20.0
32,40,100,60,moving_belt,nothing,false,true,go_to_pick_up_from_homing,,2024-03-03 16:43:50.606369,16.804,0.16,235.0,292.8220520019531,106.5785140991211,84.958251953125,0.0,20.0,51.0,0.0,-20.0
32,40,100,60,moving_belt,nothing,false,true,go_to_pick_up_from_homing,,2024-03-03 16:43:51.394210,16.614,0.16,235.0,292.8220520019531,106.5785140991211,84.958251953125,0.0,20.0,51.0,0.0,-20.0
32,40,100,60,go_to_pick_down,nothing,true,false,joint 3 +,,2024-03-03 16:43:52.110429,16.614,0.157,235.0,292.8220520019531,106.5785140991211,84.958251953125,0.0,20.0,51.0,0.0,-20.0
32,40,100,60,go_to_pick_down,nothing,true,false,joint 3 +,,2024-03-03 16:43:53.512859,16.481,0.157,235.0,288.1898193359375,104.89252471923828,47.20933532714844,0.0,20.0,51.0,15.199994087219238,-20.0
32,40,100,60,go_to_pick_up_from_pick_down,nothing,true,false,joint 3 -,true,2024-03-03 16:43:54.460032,16.367,0.154,235.0,286.7579650878906,104.37137603759766,41.88147735595703,0.0,20.0,51.0,16.720001220703125,-20.0
32,40,100,60,go_to_pick_up_from_pick_down,nothing,true,false,joint 3 -,true,2024-03-03 16:43:55.152520,18.342,0.154,236.8,292.7626953125,106.5569076538086,80.6485824584961,0.0,20.0,51.0,1.3600080013275146,-20.0
32,40,100,60,go_to_color_detect_up_from_pick_up,nothing,true,false,joint 1 +,true,2024-03-03 16:43:56.611156,22.158,0.205,236.8,263.337890625,166.60394287109375,84.958251953125,12.319992065429688,32.639991760253906,51.0,0.0,-20.0
32,40,100,60,go_to_color_detect_up_from_pick_up,nothing,true,false,joint 1 +,true,2024-03-03 16:43:57.356305,22.158,0.205,235.0,211.0846710205078,229.2313232421875,84.958251953125,27.35997772216797,47.67997741699219,51.0,0.0,-20.0
32,40,100,60,go_to_color_detect_up_from_pick_up,nothing,true,false,joint 1 +,true,2024-03-03 16:43:58.729280,22.102,0.202,235.0,142.82545471191406,276.95599365234375,84.958251953125,42.71996307373047,63.03996276855469,51.0,0.0,-20.0
32,40,100,60,go_to_color_detect_down,nothing,true,false,joint 3 +,true,2024-03-03 16:43:59.416973,22.064,0.202,235.0,130.40769958496094,279.6601867675781,55.198768615722656,45.0,65.0,51.0,11.999999046325684,-20.0
32,40,100,60,go_to_color_detect_down,nothing,true,false,joint 3 +,true,2024-03-03 16:44:00.105666,22.064,0.203,235.0,124.9031753540039,267.855712890625,18.13025665283203,45.0,65.0,51.0,27.3599853515625,-20.0
32,40,100,60,go_to_color_detect_down,nothing,true,false,joint 3 +,true,2024-03-03 16:44:01.483887,22.045,0.203,235.0,115.4456558227539,247.57400512695312,-14.164146423339844,45.0,65.0,51.0,42.719970703125,-20.0
32,40,100,60,go_to_color_detect_up_from_color_detect_down,nothing,true,false,joint 3 -,false,2024-03-03 16:44:02.170589,22.083,0.202,235.0,117.49246978759766,251.96340942382812,-8.584854125976562,45.0,65.0,51.0,39.20000457763672,-20.0
32,40,100,60,go_to_color_detect_up_from_color_detect_down,nothing,true,false,joint 3 -,false,2024-03-03 16:44:03.554563,16.614,0.202,235.0,126.25230407714844,270.7489318847656,24.793140411376953,45.0,65.0,51.0,23.84001922607422,-20.0
32,40,100,60,go_to_color_detect_up_from_color_detect_down,nothing,true,false,joint 3 -,false,2024-03-03 16:44:04.243971,16.614,0.202,235.0,130.96275329589844,280.85052490234375,62.46924591064453,45.0,65.0,51.0,8.480033874511719,-20.0
32,40,100,60,detecting_color,nothing,false,false,detecting_color,false,2024-03-03 16:44:05.627547,16.481,0.157,235.0,131.69407653808594,282.4188232421875,84.958251953125,45.0,65.0,51.0,0.0,-20.0
32,40,100,60,detecting_color,nothing,false,false,detecting_color,false,2024-03-03 16:44:06.316276,16.481,0.157,235.0,131.69407653808594,282.4188232421875,84.958251953125,45.0,65.0,51.0,0.0,-20.0
32,40,100,60,go_to_color_detect_down,nothing,true,false,joint 3 +,false,2024-03-03 16:44:07.691273,16.386,0.155,235.0,130.79490661621094,280.4905700683594,60.0385856628418,45.0,65.0,51.0,10.080000877380371,-20.0
32,40,100,60,go_to_color_detect_down,nothing,true,false,joint 3 +,false,2024-03-03 16:44:08.424821,16.367,0.155,235.0,125.81835174560547,269.81829833984375,22.554500579833984,45.0,65.0,51.0,25.439987182617188,-20.0
32,40,100,60,go_to_color_detect_down,nothing,true,false,joint 3 +,false,2024-03-03 16:44:09.108533,16.367,0.155,235.0,116.82342529296875,250.52862548828125,-10.471534729003906,45.0,65.0,51.0,40.79997253417969,-20.0
32,40,100,60,go_to_color_detect_up_from_color_detect_down,nothing,true,false,joint 3 -,true,2024-03-03 16:44:10.507434,16.443,0.155,235.0,115.91069793701172,248.57127380371094,-12.94549560546875,45.0,65.0,51.0,41.44000244140625,-20.0
32,40,100,60,go_to_color_detect_up_from_color_detect_down,nothing,true,false,joint 3 -,true,2024-03-03 16:44:11.217262,16.804,0.211,235.0,125.21517181396484,268.5247802734375,19.596839904785156,45.0,65.0,51.0,26.08001708984375,-20.0
32,40,100,60,go_to_color_detect_up_from_color_detect_down,nothing,true,false,joint 3 -,true,2024-03-03 16:44:12.619410,22.348,0.211,235.0,130.54437255859375,279.9532775878906,56.80851745605469,45.0,65.0,51.0,10.72003173828125,-20.0
32,40,100,60,go_to_red_up,red,true,false,joint 1 +,true,2024-03-03 16:44:13.310099,22.405,0.204,235.0,116.53118133544922,289.00555419921875,84.958251953125,48.040000915527344,68.36000061035156,51.0,0.0,-20.0
32,40,100,60,go_to_red_up,red,true,false,joint 1 +,true,2024-03-03 16:44:14.686151,22.14,0.204,235.0,35.81619644165039,309.549560546875,84.958251953125,63.399986267089844,83.71998596191406,51.0,0.0,-20.0
32,40,100,60,go_to_red_up,red,true,false,joint 1 +,true,2024-03-03 16:44:15.377430,22.083,0.203,235.0,-57.74938201904297,306.2168273925781,84.958251953125,80.67996978759766,100.99996948242188,51.0,0.0,-20.0
32,40,100,60,go_to_red_up,red,true,false,joint 1 +,true,2024-03-03 16:44:16.120063,22.215,0.203,235.0,-136.7981719970703,279.98211669921875,84.958251953125,96.03995513916016,116.35995483398438,51.0,0.0,-20.0
32,40,100,60,go_to_pick_up_from_red,red,true,false,joint 1 -,false,2024-03-03 16:44:17.601286,22.196,0.204,235.0,-166.42018127441406,263.4540710449219,84.958251953125,102.2800064086914,121.96000671386719,51.0,0.0,-20.0
32,40,100,60,go_to_pick_up_from_red,red,true,false,joint 1 -,false,2024-03-03 16:44:18.288631,20.639,0.204,235.0,-80.65192413330078,300.9966735839844,84.958251953125,85.0000228881836,104.68002319335938,51.0,0.0,-20.0
32,40,100,60,go_to_pick_up_from_red,red,true,false,joint 1 -,false,2024-03-03 16:44:19.669196,16.424,0.155,235.0,1.9577140808105469,311.60858154296875,84.958251953125,69.6400375366211,89.32003784179688,51.0,0.0,-20.0
32,40,100,60,go_to_pick_up_from_red,red,true,false,joint 1 -,false,2024-03-03 16:44:20.389879,16.386,0.155,235.0,84.42750549316406,299.9595642089844,84.958251953125,54.280052185058594,73.96005249023438,51.0,0.0,-20.0
32,40,100,60,go_to_pick_up_from_red,red,true,false,joint 1 -,false,2024-03-03 16:44:21.369598,16.386,0.155,235.0,169.7172088623047,261.34228515625,84.958251953125,37.00006866455078,56.68006896972656,51.0,0.0,-20.0
32,40,100,60,go_to_pick_up_from_red,red,true,false,joint 1 -,false,2024-03-03 16:44:22.740489,16.31,0.156,235.0,232.8800811767578,207.05215454101562,84.958251953125,21.64008331298828,41.32008361816406,51.0,0.0,-20.0
32,40,100,60,go_to_pick_up_from_red,red,true,false,joint 1 -,false,2024-03-03 16:44:23.472092,16.348,0.156,235.0,279.4062805175781,137.970458984375,84.958251953125,6.280097961425781,25.960098266601562,51.0,0.0,-20.0
32,40,100,60,moving_belt,red,false,true,joint 1 -,false,2024-03-03 16:44:24.163719,16.31,0.156,235.0,292.8220520019531,106.5785140991211,84.958251953125,0.0,20.0,51.0,0.0,-20.0
32,40,100,60,moving_belt,red,false,true,joint 1 -,false,2024-03-03 16:44:25.542498,16.861,0.156,235.0,292.8220520019531,106.5785140991211,84.958251953125,0.0,20.0,51.0,0.0,-20.0
32,40,100,60,moving_belt,red,false,true,joint 1 -,false,2024-03-03 16:44:26.233256,16.861,0.156,235.0,292.8220520019531,106.5785140991211,84.958251953125,0.0,20.0,51.0,0.0,-20.0
32,40,100,60,moving_belt,red,false,true,joint 1 -,false,2024-03-03 16:44:27.617617,16.557,0.157,235.0,292.8220520019531,106.5785140991211,84.958251953125,0.0,20.0,51.0,0.0,-20.0
32,40,100,60,go_to_pick_down,red,true,false,joint 3 +,false,2024-03-03 16:44:28.302554,16.576,0.157,235.0,292.8217468261719,106.57840728759766,84.65037536621094,0.0,20.0,51.0,0.23999986052513123,-20.0
32,40,100,60,go_to_pick_down,red,true,false,joint 3 +,false,2024-03-03 16:44:29.270065,16.538,0.156,235.0,288.1898193359375,104.89252471923828,47.20933532714844,0.0,20.0,51.0,15.199994087219238,-20.0
32,40,100,60,go_to_pick_up_from_pick_down,red,true,false,joint 3 -,true,2024-03-03 16:44:30.641302,16.5,0.156,235.0,288.0400390625,104.83800506591797,46.614540100097656,0.0,20.0,51.0,14.800003051757812,-20.0
32,40,100,60,go_to_pick_up_from_pick_down,red,true,false,joint 3 -,true,2024-03-03 16:44:31.331085,23.127,0.176,235.0,292.8211364746094,106.57817840576172,84.41944885253906,0.0,20.0,51.0,0.1000073254108429,-20.0
32,40,100,60,go_to_color_detect_up_from_pick_up,red,true,false,joint 1 +,true,2024-03-03 16:44:32.716279,22.102,0.176,235.0,263.337890625,166.60394287109375,84.958251953125,12.319992065429688,32.639991760253906,51.0,0.0,-20.0
32,40,100,60,go_to_color_detect_up_from_pick_up,red,true,false,joint 1 +,true,2024-03-03 16:44:33.402532,22.158,0.203,235.0,201.96377563476562,237.30648803710938,84.958251953125,29.5999755859375,49.91997528076172,51.0,0.0,-20.0
32,40,100,60,go_to_color_detect_up_from_pick_up,red,true,false,joint 1 +,true,2024-03-03 16:44:34.779539,22.14,0.203,235.0,133.3678436279297,281.6322937011719,84.958251953125,44.65995788574219,64.8049545288086,51.0,0.0,-20.0
32,40,100,60,go_to_color_detect_down,red,true,false,joint 3 +,true,2024-03-03 16:44:35.464453,22.14,0.203,235.0,130.40769958496094,279.6601867675781,55.198768615722656,45.0,65.0,51.0,11.999999046325684,-20.0
32,40,100,60,go_to_color_detect_down,red,true,false,joint 3 +,true,2024-03-03 16:44:36.442772,21.874,0.203,236.8,123.92585754394531,265.75982666015625,13.781051635742188,45.0,65.0,51.0,29.279983520507812,-20.0
32,40,100,60,go_to_color_detect_down,red,true,false,joint 3 +,true,2024-03-03 16:44:37.195526,21.969,0.202,236.8,114.01639556884766,244.50892639160156,-17.745460510253906,45.0,65.0,51.0,44.63996887207031,-20.0
32,40,100,60,go_to_color_detect_up_from_color_detect_down,red,true,false,joint 3 -,false,2024-03-03 16:44:38.572931,20.032,0.202,235.0,117.27093505859375,251.48831176757812,-9.216705322265625,45.0,65.0,51.0,39.52000427246094,-20.0
32,40,100,60,go_to_color_detect_up_from_color_detect_down,red,true,false,joint 3 -,false,2024-03-03 16:44:39.256654,20.032,0.158,235.0,126.10940551757812,270.4424743652344,24.044998168945312,45.0,65.0,51.0,24.160018920898438,-20.0
32,40,100,60,go_to_color_detect_up_from_color_detect_down,red,true,false,joint 3 -,false,2024-03-03 16:44:40.635472,16.69,0.158,235.0,131.24673461914062,281.4595031738281,67.34899139404297,45.0,65.0,51.0,6.560033321380615,-20.0
32,40,100,60,detecting_color,red,false,false,detecting_color,false,2024-03-03 16:44:41.357656,16.671,0.158,235.0,131.69407653808594,282.4188232421875,84.958251953125,45.0,65.0,51.0,0.0,-20.0
32,40,100,60,detecting_color,red,false,false,detecting_color,false,2024-03-03 16:44:42.740033,16.519,0.158,235.0,131.69407653808594,282.4188232421875,84.958251953125,45.0,65.0,51.0,0.0,-20.0
32,40,100,60,detecting_color,red,false,false,detecting_color,false,2024-03-03 16:44:43.427724,16.519,0.158,235.0,131.69407653808594,282.4188232421875,84.958251953125,45.0,65.0,51.0,0.0,-20.0
32,40,100,60,detecting_color,red,false,false,detecting_color,false,2024-03-03 16:44:44.166262,16.481,0.156,235.0,131.69407653808594,282.4188232421875,84.958251953125,45.0,65.0,51.0,0.0,-20.0
32,40,100,60,go_to_color_detect_down,red,true,false,joint 3 +,false,2024-03-03 16:44:45.550631,16.519,0.156,235.0,131.28732299804688,281.54656982421875,68.16443634033203,45.0,65.0,51.0,6.880002021789551,-20.0
32,40,100,60,go_to_color_detect_down,red,true,false,joint 3 +,false,2024-03-03 16:44:46.236926,16.31,0.155,235.0,127.20282745361328,272.7873229980469,30.081462860107422,45.0,65.0,51.0,22.239990234375,-20.0
32,40,100,60,go_to_color_detect_down,red,true,false,joint 3 +,false,2024-03-03 16:44:47.612877,16.329,0.155,235.0,117.93108367919922,252.9040069580078,-7.3123321533203125,45.0,65.0,51.0,39.199974060058594,-20.0
32,40,100,60,go_to_color_detect_up_from_color_detect_down,red,true,false,joint 3 -,true,2024-03-03 16:44:48.299774,16.329,0.156,235.0,113.28291320800781,242.93597412109375,-19.49317169189453,45.0,65.0,51.0,44.959999084472656,-20.0
32,40,100,60,go_to_color_detect_up_from_color_detect_down,red,true,false,joint 3 -,true,2024-03-03 16:44:49.732897,23.032,0.156,235.0,123.41422271728516,264.6626281738281,11.636039733886719,45.0,65.0,51.0,29.600013732910156,-20.0
32,40,100,60,go_to_color_detect_up_from_color_detect_down,red,true,false,joint 3 -,true,2024-03-03 16:44:50.421385,22.481,0.204,235.0,130.1884307861328,279.1899719238281,52.79097366333008,45.0,65.0,51.0,12.320030212402344,-20.0
32,40,100,60,go_to_green_up,green,true,false,joint 1 +,true,2024-03-03 16:44:51.800358,22.329,0.204,235.0,131.49684143066406,282.5107116699219,84.958251953125,45.040000915527344,65.12000274658203,51.0,0.0,-20.0
32,40,100,60,go_to_green_up,green,true,false,joint 1 +,true,2024-03-03 16:44:52.513998,22.158,0.202,235.0,54.75398635864258,306.7665710449219,84.958251953125,59.87998962402344,80.19998931884766,51.0,0.0,-20.0
32,40,100,60,go_to_green_up,green,true,false,joint 1 +,true,2024-03-03 16:44:53.198708,22.177,0.202,235.0,-38.8397331237793,309.18475341796875,84.958251953125,77.15997314453125,97.47997283935547,51.0,0.0,-20.0
32,40,100,60,go_to_pick_up_from_green,green,true,false,joint 1 -,false,2024-03-03 16:44:54.577645,22.083,0.202,235.0,-61.16641616821289,305.5526123046875,84.958251953125,81.32000732421875,101.00000762939453,51.0,0.0,-20.0
32,40,100,60,go_to_pick_up_from_green,green,true,false,joint 1 -,false,2024-03-03 16:44:55.265508,19.633,0.202,235.0,23.689722061157227,310.71295166015625,84.958251953125,65.64002227783203,85.32002258300781,51.0,0.0,-20.0
32,40,100,60,go_to_pick_up_from_green,green,true,false,joint 1 -,false,2024-03-03 16:44:56.166091,16.424,0.202,235.0,114.91505432128906,289.6519775390625,84.958251953125,48.36003875732422,68.0400390625,51.0,0.0,-20.0
32,40,100,60,go_to_pick_up_from_green,green,true,false,joint 1 -,false,2024-03-03 16:44:57.547164,16.424,0.156,235.0,187.5341796875,248.86676025390625,84.958251953125,33.00005340576172,52.6800537109375,51.0,0.0,-20.0
32,40,100,60,go_to_pick_up_from_green,green,true,false,joint 1 -,false,2024-03-03 16:44:58.422246,16.424,0.156,235.0,246.75607299804688,190.30282592773438,84.958251953125,17.64006805419922,37.320068359375,51.0,0.0,-20.0
32,40,100,60,go_to_pick_up_from_green,green,true,false,joint 1 -,false,2024-03-03 16:44:59.796648,16.367,0.156,235.0,291.8330383300781,109.25753784179688,84.958251953125,0.5250816345214844,20.3400821685791,51.0,0.0,-20.0
32,40,100,60,moving_belt,green,false,true,joint 1 -,false,2024-03-03 16:45:00.485588,16.367,0.156,235.0,292.8220520019531,106.5785140991211,84.958251953125,0.0,20.0,51.0,0.0,-20.0
32,40,100,60,moving_belt,green,false,true,joint 1 -,false,2024-03-03 16:45:01.171242,16.785,0.158,235.0,292.8220520019531,106.5785140991211,84.958251953125,0.0,20.0,51.0,0.0,-20.0
32,40,100,60,moving_belt,green,false,true,joint 1 -,false,2024-03-03 16:45:02.552822,16.519,0.158,235.0,292.8220520019531,106.5785140991211,84.958251953125,0.0,20.0,51.0,0.0,-20.0
32,40,100,60,moving_belt,green,false,true,joint 1 -,false,2024-03-03 16:45:03.237707,16.519,0.158,235.0,292.8220520019531,106.5785140991211,84.958251953125,0.0,20.0,51.0,0.0,-20.0
32,40,100,60,go_to_pick_down,green,true,false,joint 3 +,false,2024-03-03 16:45:04.613754,16.576,0.156,235.0,292.5845947265625,106.4920883178711,76.34266662597656,0.0,20.0,51.0,3.6799988746643066,-20.0
32,40,100,60,go_to_pick_down,green,true,false,joint 3 +,false,2024-03-03 16:45:05.305271,16.405,0.156,235.0,284.22564697265625,103.44967651367188,33.91061019897461,0.0,20.0,51.0,20.639989852905273,-20.0
32,40,100,60,go_to_pick_up_from_pick_down,green,true,false,joint 3 -,true,2024-03-03 16:45:06.679430,16.272,0.155,235.0,290.1536865234375,105.60731506347656,56.20447540283203,0.0,20.0,51.0,10.960006713867188,-20.0
32,40,100,60,go_to_color_detect_up_from_pick_up,green,true,false,joint 1 +,true,2024-03-03 16:45:07.405086,23.032,0.155,235.0,291.2281188964844,110.85991668701172,84.958251953125,0.8400020599365234,21.12000274658203,51.0,0.0,-20.0
32,40,100,60,go_to_color_detect_up_from_pick_up,green,true,false,joint 1 +,true,2024-03-03 16:45:08.779702,22.083,0.204,235.0,245.2876739501953,192.19178771972656,84.958251953125,18.079986572265625,38.399986267089844,51.0,0.0,-20.0
32,40,100,60,go_to_color_detect_up_from_pick_up,green,true,false,joint 1 +,true,2024-03-03 16:45:09.471980,22.083,0.204,235.0,185.61785888671875,250.29930114746094,84.958251953125,33.439971923828125,53.759971618652344,51.0,0.0,-20.0
32,40,100,60,go_to_color_detect_down,green,true,false,joint 3 +,true,2024-03-03 16:45:10.167214,21.969,0.202,235.0,131.69256591796875,282.41558837890625,83.9320068359375,45.0,65.0,51.0,0.6000005602836609,-20.0
32,40,100,60,go_to_color_detect_down,green,true,false,joint 3 +,true,2024-03-03 16:45:11.591169,21.893,0.202,236.8,128.94134521484375,276.5155944824219,41.6852912902832,45.0,65.0,51.0,17.43999481201172,-20.0
32,40,100,60,go_to_color_detect_down,green,true,false,joint 3 +,true,2024-03-03 16:45:12.318929,21.893,0.2,236.8,121.9764404296875,261.5793151855469,6.018531799316406,45.0,65.0,51.0,32.79998016357422,-20.0
32,40,100,60,go_to_color_detect_up_from_color_detect_down,green,true,false,joint 3 -,false,2024-03-03 16:45:13.726070,21.893,0.2,235.0,111.13883972167969,238.33799743652344,-24.284042358398438,45.0,65.0,51.0,48.0,-20.0
32,40,100,60,go_to_color_detect_up_from_color_detect_down,green,true,false,joint 3 -,false,2024-03-03 16:45:14.421742,18.798,0.2,235.0,120.82926940917969,259.11920166015625,1.9080810546875,45.0,65.0,51.0,34.08000946044922,-20.0
32,40,100,60,go_to_color_detect_up_from_color_detect_down,green,true,false,joint 3 -,false,2024-03-03 16:45:15.800855,16.633,0.2,235.0,128.29527282714844,275.1300964355469,37.00265121459961,45.0,65.0,51.0,18.72002410888672,-20.0
32,40,100,60,go_to_color_detect_up_from_color_detect_down,green,true,false,joint 3 -,false,2024-03-03 16:45:16.579856,16.633,0.157,235.0,131.5872802734375,282.1898193359375,76.34257507324219,45.0,65.0,51.0,3.040032148361206,-20.0
32,40,100,60,detecting_color,green,false,false,detecting_color,false,2024-03-03 16:45:17.265571,16.595,0.157,235.0,131.69407653808594,282.4188232421875,84.958251953125,45.0,65.0,51.0,0.0,-20.0
32,40,100,60,go_to_color_detect_down,green,true,false,joint 3 +,false,2024-03-03 16:45:18.639987,16.386,0.156,235.0,131.60665893554688,282.2313537597656,77.16238403320312,45.0,65.0,51.0,3.3600006103515625,-20.0
32,40,100,60,go_to_color_detect_down,green,true,false,joint 3 +,false,2024-03-03 16:45:19.324787,16.405,0.156,235.0,128.51800537109375,275.6077575683594,38.55785369873047,45.0,65.0,51.0,18.719993591308594,-20.0
32,40,100,60,go_to_color_detect_down,green,true,false,joint 3 +,false,2024-03-03 16:45:20.699445,16.405,0.155,235.0,121.21812438964844,259.9530944824219,3.2681350708007812,45.0,65.0,51.0,34.079978942871094,-20.0
32,40,100,60,go_to_color_detect_up_from_color_detect_down,green,true,false,joint 3 -,true,2024-03-03 16:45:21.387748,16.405,0.155,235.0,111.23545837402344,238.54519653320312,-24.077789306640625,45.0,65.0,51.0,47.7599983215332,-20.0
32,40,100,60,go_to_color_detect_up_from_color_detect_down,green,true,false,joint 3 -,true,2024-03-03 16:45:22.762901,22.747,0.208,235.0,121.60051727294922,260.77313232421875,4.6382598876953125,45.0,65.0,51.0,32.800010681152344,-20.0
32,40,100,60,go_to_color_detect_up_from_color_detect_down,green,true,false,joint 3 -,true,2024-03-03 16:45:23.452801,22.747,0.208,235.0,128.7333526611328,276.0695495605469,40.11870193481445,45.0,65.0,51.0,17.440025329589844,-20.0
32,40,100,60,go_to_color_detect_up_from_color_detect_down,green,true,false,joint 3 -,true,2024-03-03 16:45:24.196314,22.291,0.208,235.0,131.690673828125,282.4115295410156,83.41881561279297,45.0,65.0,51.0,0.40003257989883423,-20.0
32,40,100,60,go_to_blue_up,blue,true,false,joint 1 +,true,2024-03-03 16:45:25.573629,22.026,0.204,235.0,71.79273986816406,303.2318115234375,84.958251953125,56.67999267578125,76.99999237060547,51.0,0.0,-20.0
32,40,100,60,go_to_pick_up_from_blue,blue,true,false,joint 1 -,false,2024-03-03 16:45:26.259703,22.026,0.204,235.0,47.02753448486328,308.0456848144531,84.958251953125,61.31999969482422,81.0,51.0,0.0,-20.0
32,40,100,60,go_to_pick_up_from_blue,blue,true,false,joint 1 -,false,2024-03-03 16:45:27.665550,16.253,0.183,235.0,136.40725708007812,280.17279052734375,84.958251953125,44.040016174316406,63.72001647949219,51.0,0.0,-20.0
32,40,100,60,go_to_pick_up_from_blue,blue,true,false,joint 1 -,false,2024-03-03 16:45:28.628329,16.253,0.183,235.0,205.74781799316406,234.03326416015625,84.958251953125,28.680030822753906,48.36003112792969,51.0,0.0,-20.0
32,40,100,60,go_to_pick_up_from_blue,blue,true,false,joint 1 -,false,2024-03-03 16:45:29.313644,16.253,0.154,235.0,260.3899841308594,171.17469787597656,84.958251953125,13.320045471191406,33.00004577636719,51.0,0.0,-20.0
32,40,100,60,moving_belt,blue,false,true,joint 1 -,false,2024-03-03 16:45:30.810472,16.329,0.154,235.0,292.8220520019531,106.5785140991211,84.958251953125,0.0,20.0,51.0,0.0,-20.0
32,40,100,60,moving_belt,blue,false,true,joint 1 -,false,2024-03-03 16:45:31.500300,16.652,0.16,235.0,292.8220520019531,106.5785140991211,84.958251953125,0.0,20.0,51.0,0.0,-20.0
32,40,100,60,moving_belt,blue,false,true,joint 1 -,false,2024-03-03 16:45:32.251895,16.652,0.16,235.0,292.8220520019531,106.5785140991211,84.958251953125,0.0,20.0,51.0,0.0,-20.0
32,40,100,60,moving_belt,blue,false,true,joint 1 -,false,2024-03-03 16:45:33.379116,16.462,0.16,235.0,292.8220520019531,106.5785140991211,84.958251953125,0.0,20.0,51.0,0.0,-20.0
32,40,100,60,moving_belt,blue,false,true,joint 1 -,false,2024-03-03 16:45:34.250200,16.728,0.157,235.0,292.8220520019531,106.5785140991211,84.958251953125,0.0,20.0,51.0,0.0,-20.0
32,40,100,60,go_to_pick_down,blue,true,false,joint 3 +,false,2024-03-03 16:45:35.819520,16.557,0.157,235.0,291.5308837890625,106.10856628417969,64.90638732910156,0.0,20.0,51.0,8.160000801086426,-20.0
32,40,100,60,go_to_pick_up_from_pick_down,blue,true,false,joint 3 -,true,2024-03-03 16:45:36.760435,16.291,0.155,235.0,282.8717041015625,102.9568862915039,30.17666244506836,0.0,20.0,51.0,21.759998321533203,-20.0
32,40,100,60,go_to_pick_up_from_pick_down,blue,true,false,joint 3 -,true,2024-03-03 16:45:37.631845,20.772,0.155,235.0,291.7568664550781,106.1908187866211,66.7378921508789,0.0,20.0,51.0,6.800008773803711,-20.0
32,40,100,60,go_to_color_detect_up_from_pick_up,blue,true,false,joint 1 +,true,2024-03-03 16:45:38.321538,22.253,0.206,235.0,282.5107116699219,131.4968719482422,84.958251953125,4.959999084472656,25.279998779296875,51.0,0.0,-20.0
32,40,100,60,go_to_color_detect_up_from_pick_up,blue,true,false,joint 1 +,true,2024-03-03 16:45:39.701257,21.912,0.206,235.0,237.58836364746094,201.63211059570312,84.958251953125,20.319984436035156,40.639984130859375,51.0,0.0,-20.0
32,40,100,60,go_to_color_detect_up_from_pick_up,blue,true,false,joint 1 +,true,2024-03-03 16:45:40.388988,22.045,0.202,235.0,165.4995880126953,264.0333557128906,84.958251953125,37.91996765136719,58.239967346191406,51.0,0.0,-20.0
32,40,100,60,go_to_color_detect_down,blue,true,false,joint 3 +,true,2024-03-03 16:45:41.758840,21.893,0.202,235.0,131.46142578125,281.919921875,72.24859619140625,45.0,65.0,51.0,5.280001163482666,-20.0
32,40,100,60,go_to_color_detect_down,blue,true,false,joint 3 +,true,2024-03-03 16:45:42.464018,21.95,0.2,235.0,127.82791900634766,274.1278381347656,33.910606384277344,45.0,65.0,51.0,20.639991760253906,-20.0
32,40,100,60,go_to_color_detect_down,blue,true,false,joint 3 +,true,2024-03-03 16:45:43.831382,21.836,0.2,235.0,118.79010772705078,254.74618530273438,-4.733039855957031,45.0,65.0,51.0,37.91997528076172,-20.0
32,40,100,60,go_to_color_detect_up_from_color_detect_down,blue,true,false,joint 3 -,false,2024-03-03 16:45:44.550733,21.836,0.2,235.0,112.53719329833984,241.33677673339844,-21.211502075195312,45.0,65.0,51.0,45.91999816894531,-20.0
32,40,100,60,go_to_color_detect_up_from_color_detect_down,blue,true,false,joint 3 -,false,2024-03-03 16:45:45.235704,21.893,0.2,235.0,122.88749694824219,263.5330810546875,9.511695861816406,45.0,65.0,51.0,30.560012817382812,-20.0
32,40,100,60,go_to_color_detect_up_from_color_detect_down,blue,true,false,joint 3 -,false,2024-03-03 16:45:46.625868,16.481,0.157,235.0,129.9521484375,278.68328857421875,50.39228439331055,45.0,65.0,51.0,13.280029296875,-20.0
32,40,100,60,detecting_color,blue,false,false,detecting_color,false,2024-03-03 16:45:47.313568,16.576,0.157,235.0,131.69407653808594,282.4188232421875,84.958251953125,45.0,65.0,51.0,0.0,-20.0
32,40,100,60,detecting_color,blue,false,false,detecting_color,false,2024-03-03 16:45:48.687635,16.671,0.157,235.0,131.69407653808594,282.4188232421875,84.958251953125,45.0,65.0,51.0,0.0,-20.0
32,40,100,60,go_to_color_detect_down,blue,true,false,joint 3 +,false,2024-03-03 16:45:49.376322,16.671,0.156,235.0,131.06509399414062,281.07000732421875,64.09336853027344,45.0,65.0,51.0,8.480002403259277,-20.0
32,40,100,60,go_to_color_detect_down,blue,true,false,joint 3 +,false,2024-03-03 16:45:50.750548,16.405,0.156,235.0,126.53279876708984,271.3504333496094,26.29511260986328,45.0,65.0,51.0,23.839988708496094,-20.0
32,40,100,60,go_to_color_detect_down,blue,true,false,joint 3 +,false,2024-03-03 16:45:51.434476,16.291,0.155,235.0,117.93108367919922,252.9040069580078,-7.3123321533203125,45.0,65.0,51.0,39.199974060058594,-20.0
32,40,100,60,go_to_color_detect_up_from_color_detect_down,blue,true,false,joint 3 -,true,2024-03-03 16:45:52.141112,16.367,0.155,235.0,114.73734283447266,246.0550079345703,-15.969024658203125,45.0,65.0,51.0,43.040000915527344,-20.0
32,40,100,60,go_to_color_detect_up_from_color_detect_down,blue,true,false,joint 3 -,true,2024-03-03 16:45:53.578620,22.766,0.211,235.0,124.42219543457031,266.8242492675781,15.945892333984375,45.0,65.0,51.0,27.680015563964844,-20.0
32,40,100,60,go_to_color_detect_up_from_color_detect_down,blue,true,false,joint 3 -,true,2024-03-03 16:45:54.297276,22.007,0.211,235.0,130.1884307861328,279.1899719238281,52.79097366333008,45.0,65.0,51.0,12.320030212402344,-20.0
32,40,100,60,go_to_red_up,red,true,false,joint 1 +,true,2024-03-03 16:45:55.800836,22.234,0.204,235.0,124.55525970458984,285.6391296386719,84.958251953125,46.44000244140625,66.76000213623047,51.0,0.0,-20.0
32,40,100,60,go_to_red_up,red,true,false,joint 1 +,true,2024-03-03 16:45:56.486157,22.14,0.204,235.0,44.445316314697266,308.4288330078125,84.958251953125,61.79998779296875,82.11998748779297,51.0,0.0,-20.0
32,40,100,60,go_to_red_up,red,true,false,joint 1 +,true,2024-03-03 16:45:57.171873,22.045,0.204,235.0,-38.8397331237793,309.18475341796875,84.958251953125,77.15997314453125,97.47997283935547,51.0,0.0,-20.0
32,40,100,60,go_to_red_up,red,true,false,joint 1 +,true,2024-03-03 16:45:58.609924,22.158,0.202,235.0,-128.92727661132812,283.6925964355469,84.958251953125,94.43995666503906,114.75995635986328,51.0,0.0,-20.0
32,40,100,60,go_to_pick_up_from_red,red,true,false,joint 1 -,false,2024-03-03 16:45:59.559746,22.158,0.202,235.0,-172.2637481689453,259.6708068847656,84.958251953125,103.56000518798828,123.24000549316406,51.0,0.0,-20.0
32,40,100,60,go_to_pick_up_from_red,red,true,false,joint 1 -,false,2024-03-03 16:46:00.271997,22.083,0.203,235.0,-97.32827758789062,296.0252380371094,84.958251953125,88.20001983642578,107.88002014160156,51.0,0.0,-20.0
32,40,100,60,go_to_pick_up_from_red,red,true,false,joint 1 -,false,2024-03-03 16:46:01.652090,16.462,0.155,235.0,-5.0036234855651855,311.5745544433594,84.958251953125,70.92003631591797,90.60003662109375,51.0,0.0,-20.0
32,40,100,60,go_to_pick_up_from_red,red,true,false,joint 1 -,false,2024-03-03 16:46:02.373826,16.405,0.155,235.0,77.70584869384766,301.7706604003906,84.958251953125,55.56005096435547,75.24005126953125,51.0,0.0,-20.0
32,40,100,60,go_to_pick_up_from_red,red,true,false,joint 1 -,false,2024-03-03 16:46:03.821243,16.329,0.155,235.0,154.8640594482422,270.4086608886719,84.958251953125,40.20006561279297,59.88006591796875,51.0,0.0,-20.0
32,40,100,60,go_to_pick_up_from_red,red,true,false,joint 1 -,false,2024-03-03 16:46:04.519146,16.31,0.155,235.0,228.19679260253906,212.20263671875,84.958251953125,22.920082092285156,42.60008239746094,51.0,0.0,-20.0
32,40,100,60,go_to_pick_up_from_red,red,true,false,joint 1 -,false,2024-03-03 16:46:05.211048,16.31,0.155,235.0,276.2545471191406,144.17750549316406,84.958251953125,7.560096740722656,27.240097045898438,51.0,0.0,-20.0
32,40,100,60,moving_belt,red,false,true,joint 1 -,false,2024-03-03 16:46:06.620905,16.31,0.155,235.0,292.8220520019531,106.5785140991211,84.958251953125,0.0,20.0,51.0,0.0,-20.0
32,40,100,60,moving_belt,red,false,true,joint 1 -,false,2024-03-03 16:46:07.322152,16.557,0.155,235.0,292.8220520019531,106.5785140991211,84.958251953125,0.0,20.0,51.0,0.0,-20.0
32,40,100,60,moving_belt,red,false,true,joint 1 -,false,2024-03-03 16:46:08.752447,16.481,0.157,235.0,292.8220520019531,106.5785140991211,84.958251953125,0.0,20.0,51.0,0.0,-20.0
32,40,100,60,moving_belt,red,false,true,joint 1 -,false,2024-03-03 16:46:09.451719,16.5,0.157,235.0,292.8220520019531,106.5785140991211,84.958251953125,0.0,20.0,51.0,0.0,-20.0
32,40,100,60,go_to_pick_down,red,true,false,joint 3 +,false,2024-03-03 16:46:10.826309,16.671,0.158,235.0,292.8220520019531,106.5785140991211,84.958251953125,0.0,20.0,51.0,0.0,-20.0
32,40,100,60,go_to_pick_down,red,true,false,joint 3 +,false,2024-03-03 16:46:11.510565,16.671,0.158,235.0,289.1282043457031,105.23406219482422,51.190887451171875,0.0,20.0,51.0,13.599995613098145,-20.0
32,40,100,60,go_to_pick_up_from_pick_down,red,true,false,joint 3 -,true,2024-03-03 16:46:12.246187,16.424,0.158,235.0,286.52984619140625,104.28833770751953,41.097190856933594,0.0,20.0,51.0,17.040000915527344,-20.0
32,40,100,60,go_to_pick_up_from_pick_down,red,true,false,joint 3 -,true,2024-03-03 16:46:13.655602,18.836,0.168,235.0,292.7379150390625,106.54788970947266,79.8280029296875,0.0,20.0,51.0,1.6800079345703125,-20.0
32,40,100,60,go_to_color_detect_up_from_pick_up,red,true,false,joint 1 +,true,2024-03-03 16:46:14.345286,22.633,0.168,235.0,270.51654052734375,154.67555236816406,84.958251953125,9.759994506835938,30.079994201660156,51.0,0.0,-20.0
32,40,100,60,go_to_color_detect_up_from_pick_up,red,true,false,joint 1 +,true,2024-03-03 16:46:15.718336,22.007,0.203,235.0,212.36166381835938,228.04881286621094,84.958251953125,27.03997802734375,47.35997772216797,51.0,0.0,-20.0
32,40,100,60,go_to_color_detect_up_from_pick_up,red,true,false,joint 1 +,true,2024-03-03 16:46:16.404858,22.007,0.203,235.0,144.37002563476562,276.15399169921875,84.958251953125,42.39996337890625,62.71996307373047,51.0,0.0,-20.0
32,40,100,60,go_to_color_detect_down,red,true,false,joint 3 +,true,2024-03-03 16:46:17.827486,22.102,0.203,235.0,130.9087371826172,280.7346496582031,61.658348083496094,45.0,65.0,51.0,9.440001487731934,-20.0
32,40,100,60,go_to_color_detect_down,red,true,false,joint 3 +,true,2024-03-03 16:46:18.521769,21.665,0.203,235.0,125.36859893798828,268.85382080078125,20.33330535888672,45.0,65.0,51.0,26.399986267089844,-20.0
32,40,100,60,go_to_color_detect_down,red,true,false,joint 3 +,true,2024-03-03 16:46:19.207156,21.665,0.202,235.0,116.14108276367188,249.06533813476562,-12.331497192382812,45.0,65.0,51.0,41.759971618652344,-20.0
32,40,100,60,go_to_color_detect_up_from_color_detect_down,red,true,false,joint 3 -,false,2024-03-03 16:46:20.593997,22.064,0.202,235.0,115.44564819335938,247.573974609375,-14.164199829101562,45.0,65.0,51.0,42.08000183105469,-20.0
32,40,100,60,go_to_color_detect_up_from_color_detect_down,red,true,false,joint 3 -,false,2024-03-03 16:46:21.279864,22.064,0.202,235.0,125.8183364868164,269.81829833984375,22.554428100585938,45.0,65.0,51.0,24.800018310546875,-20.0
32,40,100,60,go_to_color_detect_up_from_color_detect_down,red,true,false,joint 3 -,false,2024-03-03 16:46:22.653418,16.671,0.158,235.0,130.85276794433594,280.6146545410156,60.84800720214844,45.0,65.0,51.0,9.120033264160156,-20.0
32,40,100,60,detecting_color,red,false,false,detecting_color,false,2024-03-03 16:46:23.673640,16.671,0.158,235.0,131.69407653808594,282.4188232421875,84.958251953125,45.0,65.0,51.0,0.0,-20.0
32,40,100,60,detecting_color,red,false,false,detecting_color,false,2024-03-03 16:46:24.359335,16.671,0.158,235.0,131.69407653808594,282.4188232421875,84.958251953125,45.0,65.0,51.0,0.0,-20.0
32,40,100,60,detecting_color,red,false,false,detecting_color,false,2024-03-03 16:46:25.838969,16.633,0.157,235.0,131.69407653808594,282.4188232421875,84.958251953125,45.0,65.0,51.0,0.0,-20.0
32,40,100,60,detecting_color,red,false,false,detecting_color,false,2024-03-03 16:46:26.526670,16.405,0.157,235.0,131.69407653808594,282.4188232421875,84.958251953125,45.0,65.0,51.0,0.0,-20.0
32,40,100,60,detecting_color,red,false,false,detecting_color,false,2024-03-03 16:46:27.223981,16.405,0.157,235.0,131.69407653808594,282.4188232421875,84.958251953125,45.0,65.0,51.0,0.0,-20.0
32,40,100,60,go_to_color_detect_down,red,true,false,joint 3 +,false,2024-03-03 16:46:28.613336,16.538,0.157,235.0,131.20420837402344,281.3683166503906,66.53425598144531,45.0,65.0,51.0,7.520002365112305,-20.0
32,40,100,60,go_to_color_detect_down,red,true,false,joint 3 +,false,2024-03-03 16:46:29.306656,16.462,0.157,235.0,126.94017028808594,272.22406005859375,28.561622619628906,45.0,65.0,51.0,22.879989624023438,-20.0
32,40,100,60,go_to_color_detect_down,red,true,false,joint 3 +,false,2024-03-03 16:46:30.683216,16.443,0.156,235.0,117.27095794677734,251.48837280273438,-9.216644287109375,45.0,65.0,51.0,40.15997314453125,-20.0
32,40,100,60,go_to_color_detect_up_from_color_detect_down,red,true,false,joint 3 -,true,2024-03-03 16:46:31.368923,16.519,0.156,235.0,114.01636505126953,244.50888061523438,-17.745513916015625,45.0,65.0,51.0,44.0,-20.0
32,40,100,60,go_to_color_detect_up_from_color_detect_down,red,true,false,joint 3 -,true,2024-03-03 16:46:32.746126,22.975,0.212,235.0,124.90314483642578,267.85565185546875,18.13018798828125,45.0,65.0,51.0,26.720016479492188,-20.0
32,40,100,60,go_to_color_detect_up_from_color_detect_down,red,true,false,joint 3 -,true,2024-03-03 16:46:33.435828,22.348,0.212,235.0,130.40768432617188,279.66015625,55.198692321777344,45.0,65.0,51.0,11.360031127929688,-20.0
32,40,100,60,go_to_green_up,green,true,false,joint 1 +,true,2024-03-03 16:46:34.812821,22.462,0.205,235.0,129.7191619873047,283.3313903808594,84.958251953125,45.40000915527344,65.60000610351562,51.0,0.0,-20.0
32,40,100,60,go_to_green_up,green,true,false,joint 1 +,true,2024-03-03 16:46:35.530071,22.462,0.205,235.0,40.99746322631836,308.9060363769531,84.958251953125,62.43998718261719,82.7599868774414,51.0,0.0,-20.0
32,40,100,60,go_to_green_up,green,true,false,joint 1 +,true,2024-03-03 16:46:36.214972,22.121,0.205,235.0,-42.29084014892578,308.73162841796875,84.958251953125,77.79997253417969,98.1199722290039,51.0,0.0,-20.0
32,40,100,60,go_to_pick_up_from_green,green,true,false,joint 1 -,false,2024-03-03 16:46:37.603891,22.158,0.204,235.0,-54.325660705566406,306.84271240234375,84.958251953125,80.04000854492188,99.72000885009766,51.0,0.0,-20.0
32,40,100,60,go_to_pick_up_from_green,green,true,false,joint 1 -,false,2024-03-03 16:46:38.733178,21.874,0.204,235.0,39.27134323120117,309.1302185058594,84.958251953125,62.76002502441406,82.44002532958984,51.0,0.0,-20.0
32,40,100,60,go_to_pick_up_from_green,green,true,false,joint 1 -,false,2024-03-03 16:46:39.421234,16.424,0.157,235.0,119.75187683105469,287.68597412109375,84.958251953125,47.40003967285156,67.08003997802734,51.0,0.0,-20.0
32,40,100,60,go_to_pick_up_from_green,green,true,false,joint 1 -,false,2024-03-03 16:46:40.810122,16.481,0.157,235.0,191.6774444580078,245.6898193359375,84.958251953125,32.04005432128906,51.720054626464844,51.0,0.0,-20.0
32,40,100,60,go_to_pick_up_from_green,green,true,false,joint 1 -,false,2024-03-03 16:46:41.498423,16.5,0.157,235.0,255.00979614257812,179.09140014648438,84.958251953125,15.080070495605469,34.76007080078125,51.0,0.0,-20.0
32,40,100,60,go_to_pick_up_from_green,green,true,false,joint 1 -,false,2024-03-03 16:46:42.185127,16.5,0.157,235.0,292.4574890136719,107.57489776611328,84.958251953125,0.1950817108154297,20.0900821685791,51.0,0.0,-20.0
32,40,100,60,moving_belt,green,false,true,joint 1 -,false,2024-03-03 16:46:43.586668,16.5,0.157,235.0,292.8220520019531,106.5785140991211,84.958251953125,0.0,20.0,51.0,0.0,-20.0
32,40,100,60,moving_belt,green,false,true,joint 1 -,false,2024-03-03 16:46:44.272003,16.747,0.157,235.0,292.8220520019531,106.5785140991211,84.958251953125,0.0,20.0,51.0,0.0,-20.0
32,40,100,60,moving_belt,green,false,true,joint 1 -,false,2024-03-03 16:46:45.641009,16.519,0.157,235.0,292.8220520019531,106.5785140991211,84.958251953125,0.0,20.0,51.0,0.0,-20.0
32,40,100,60,moving_belt,green,false,true,joint 1 -,false,2024-03-03 16:46:46.327481,16.633,0.157,235.0,292.8220520019531,106.5785140991211,84.958251953125,0.0,20.0,51.0,0.0,-20.0
32,40,100,60,go_to_pick_down,green,true,false,joint 3 +,false,2024-03-03 16:46:47.700541,16.557,0.156,235.0,292.0853576660156,106.31037902832031,69.79670715332031,0.0,20.0,51.0,6.239999771118164,-20.0
32,40,100,60,go_to_pick_down,green,true,false,joint 3 +,false,2024-03-03 16:46:48.387244,16.557,0.156,235.0,283.4561767578125,103.16961669921875,31.751625061035156,0.0,20.0,51.0,21.449989318847656,-20.0
32,40,100,60,go_to_pick_up_from_pick_down,green,true,false,joint 3 -,true,2024-03-03 16:46:49.770012,23.279,0.213,235.0,290.302490234375,105.6614761352539,57.01005554199219,0.0,20.0,51.0,10.640007019042969,-20.0
32,40,100,60,go_to_color_detect_up_from_pick_up,green,true,false,joint 1 +,true,2024-03-03 16:46:50.454712,23.279,0.213,235.0,287.4344482421875,120.3543472290039,84.958251953125,2.720001220703125,23.040000915527344,51.0,0.0,-20.0
32,40,100,60,go_to_color_detect_up_from_pick_up,green,true,false,joint 1 +,true,2024-03-03 16:46:51.825166,22.177,0.203,235.0,245.2876739501953,192.19178771972656,84.958251953125,18.079986572265625,38.399986267089844,51.0,0.0,-20.0
32,40,100,60,go_to_color_detect_up_from_pick_up,green,true,false,joint 1 +,true,2024-03-03 16:46:52.513481,22.045,0.203,235.0,178.55674743652344,255.3844451904297,84.958251953125,35.03997039794922,55.35997009277344,51.0,0.0,-20.0
32,40,100,60,go_to_color_detect_down,green,true,false,joint 3 +,true,2024-03-03 16:46:53.219120,22.045,0.203,235.0,131.6531524658203,282.3310852050781,79.6229019165039,45.0,65.0,51.0,2.400000810623169,-20.0
32,40,100,60,go_to_color_detect_down,green,true,false,joint 3 +,true,2024-03-03 16:46:54.602494,22.026,0.203,235.0,128.83827209472656,276.2945556640625,40.90134811401367,45.0,65.0,51.0,17.759994506835938,-20.0
32,40,100,60,go_to_color_detect_down,green,true,false,joint 3 +,true,2024-03-03 16:46:55.285209,22.083,0.203,235.0,120.63245391845703,258.6971130371094,1.232025146484375,45.0,65.0,51.0,35.03997802734375,-20.0
32,40,100,60,go_to_color_detect_up_from_color_detect_down,green,true,false,joint 3 -,false,2024-03-03 16:46:56.784195,21.969,0.202,235.0,111.13883972167969,238.33799743652344,-24.284042358398438,45.0,65.0,51.0,47.959999084472656,-20.0
32,40,100,60,go_to_color_detect_up_from_color_detect_down,green,true,false,joint 3 -,false,2024-03-03 16:46:57.468505,21.817,0.202,235.0,121.21810913085938,259.95306396484375,3.2680740356445312,45.0,65.0,51.0,33.44001007080078,-20.0
32,40,100,60,go_to_color_detect_up_from_color_detect_down,green,true,false,joint 3 -,false,2024-03-03 16:46:58.279782,16.766,0.159,235.0,129.14190673828125,276.9457092285156,43.257137298583984,45.0,65.0,51.0,16.16002655029297,-20.0
32,40,100,60,go_to_color_detect_up_from_color_detect_down,green,true,false,joint 3 -,false,2024-03-03 16:46:59.654912,16.728,0.159,235.0,131.67445373535156,282.37677001953125,81.26404571533203,45.0,65.0,51.0,1.120032548904419,-20.0
32,40,100,60,detecting_color,green,false,false,detecting_color,false,2024-03-03 16:47:00.348593,16.728,0.159,235.0,131.69407653808594,282.4188232421875,84.958251953125,45.0,65.0,51.0,0.0,-20.0
32,40,100,60,go_to_color_detect_down,green,true,false,joint 3 +,false,2024-03-03 16:47:01.727970,16.614,0.158,235.0,131.68740844726562,282.404541015625,82.80319213867188,45.0,65.0,51.0,1.1200010776519775,-20.0
32,40,100,60,go_to_color_detect_down,green,true,false,joint 3 +,false,2024-03-03 16:47:02.414908,16.633,0.158,235.0,128.62660217285156,275.84063720703125,39.33760452270508,45.0,65.0,51.0,18.399993896484375,-20.0
32,40,100,60,go_to_color_detect_down,green,true,false,joint 3 +,false,2024-03-03 16:47:03.816230,16.443,0.156,235.0,121.41014099121094,260.3648681640625,3.95196533203125,45.0,65.0,51.0,33.759979248046875,-20.0
32,40,100,60,go_to_color_detect_up_from_color_detect_down,green,true,false,joint 3 -,true,2024-03-03 16:47:04.508920,16.595,0.156,235.0,111.17109680175781,238.4071807861328,-24.215301513671875,45.0,65.0,51.0,47.999969482421875,-20.0
32,40,100,60,go_to_color_detect_up_from_color_detect_down,green,true,false,joint 3 -,true,2024-03-03 16:47:05.880094,21.494,0.156,235.0,121.41012573242188,260.3648376464844,3.9519119262695312,45.0,65.0,51.0,33.12001037597656,-20.0
32,40,100,60,go_to_color_detect_up_from_color_detect_down,green,true,false,joint 3 -,true,2024-03-03 16:47:06.570437,22.386,0.156,235.0,128.6265869140625,275.8406066894531,39.337528228759766,45.0,65.0,51.0,17.760025024414062,-20.0
32,40,100,60,go_to_color_detect_up_from_color_detect_down,green,true,false,joint 3 -,true,2024-03-03 16:47:07.256229,22.31,0.205,235.0,131.62408447265625,282.26873779296875,77.98226928710938,45.0,65.0,51.0,2.4000322818756104,-20.0
32,40,100,60,go_to_blue_up,blue,true,false,joint 1 +,true,2024-03-03 16:47:08.645828,22.348,0.205,235.0,75.17533111572266,302.4109802246094,84.958251953125,56.03999328613281,76.35999298095703,51.0,0.0,-20.0
32,40,100,60,go_to_pick_up_from_blue,blue,true,false,joint 1 -,false,2024-03-03 16:47:09.337105,21.988,0.203,235.0,43.58378982543945,308.5517578125,84.958251953125,61.959999084472656,81.63999938964844,51.0,0.0,-20.0
32,40,100,60,go_to_pick_up_from_blue,blue,true,false,joint 1 -,false,2024-03-03 16:47:10.720639,19.386,0.203,235.0,123.75706481933594,285.9858703613281,84.958251953125,46.600013732910156,66.28001403808594,51.0,0.0,-20.0
32,40,100,60,go_to_pick_up_from_blue,blue,true,false,joint 1 -,false,2024-03-03 16:47:11.405886,16.329,0.157,235.0,203.120849609375,236.3168487548828,84.958251953125,29.320030212402344,49.000030517578125,51.0,0.0,-20.0
32,40,100,60,go_to_pick_up_from_blue,blue,true,false,joint 1 -,false,2024-03-03 16:47:12.786402,16.652,0.157,235.0,258.4617614746094,174.0725555419922,84.958251953125,13.960044860839844,33.640045166015625,51.0,0.0,-20.0
32,40,100,60,moving_belt,blue,false,true,joint 1 -,false,2024-03-03 16:47:13.473716,16.652,0.157,235.0,292.82196044921875,106.57878112792969,84.958251953125,5.340576171875e-05,20.0,51.0,0.0,-20.0
32,40,100,60,moving_belt,blue,false,true,joint 1 -,false,2024-03-03 16:47:14.165588,16.443,0.157,235.0,292.8220520019531,106.5785140991211,84.958251953125,0.0,20.0,51.0,0.0,-20.0
32,40,100,60,moving_belt,blue,false,true,joint 1 -,false,2024-03-03 16:47:15.582848,16.823,0.157,235.0,292.8220520019531,106.5785140991211,84.958251953125,0.0,20.0,51.0,0.0,-20.0
32,40,100,60,moving_belt,blue,false,true,joint 1 -,false,2024-03-03 16:47:16.269551,16.614,0.157,235.0,292.8220520019531,106.5785140991211,84.958251953125,0.0,20.0,51.0,0.0,-20.0
32,40,100,60,moving_belt,blue,false,true,joint 1 -,false,2024-03-03 16:47:17.642558,16.633,0.157,235.0,292.8220520019531,106.5785140991211,84.958251953125,0.0,20.0,51.0,0.0,-20.0
32,40,100,60,go_to_pick_down,blue,true,false,joint 3 +,false,2024-03-03 16:47:18.334244,16.633,0.156,235.0,291.63397216796875,106.1460952758789,65.72002410888672,0.0,20.0,51.0,7.840000629425049,-20.0
32,40,100,60,go_to_pick_up_from_pick_down,blue,true,false,joint 3 -,true,2024-03-03 16:47:19.705292,16.481,0.156,235.0,282.8717041015625,102.9568862915039,30.17666244506836,0.0,20.0,51.0,21.759998321533203,-20.0
32,40,100,60,go_to_pick_up_from_pick_down,blue,true,false,joint 3 -,true,2024-03-03 16:47:20.443341,16.367,0.176,235.0,291.7568664550781,106.1908187866211,66.7378921508789,0.0,20.0,51.0,6.800008773803711,-20.0
32,40,100,60,go_to_color_detect_up_from_pick_up,blue,true,false,joint 1 +,true,2024-03-03 16:47:21.817590,22.045,0.176,235.0,282.5107116699219,131.4968719482422,84.958251953125,4.959999084472656,25.279998779296875,51.0,0.0,-20.0
32,40,100,60,go_to_color_detect_up_from_pick_up,blue,true,false,joint 1 +,true,2024-03-03 16:47:22.502885,22.045,0.203,235.0,230.69949340820312,209.47906494140625,84.958251953125,22.23998260498047,42.55998229980469,51.0,0.0,-20.0
32,40,100,60,go_to_color_detect_up_from_pick_up,blue,true,false,joint 1 +,true,2024-03-03 16:47:23.187596,22.007,0.203,235.0,166.97164916992188,263.1048889160156,84.958251953125,37.59996795654297,57.91996765136719,51.0,0.0,-20.0
32,40,100,60,go_to_color_detect_down,blue,true,false,joint 3 +,true,2024-03-03 16:47:24.621628,22.14,0.202,235.0,131.490478515625,281.9822082519531,73.06671142578125,45.0,65.0,51.0,4.960000991821289,-20.0
32,40,100,60,go_to_color_detect_down,blue,true,false,joint 3 +,true,2024-03-03 16:47:25.338816,22.14,0.202,235.0,127.9474868774414,274.3842468261719,34.681304931640625,45.0,65.0,51.0,20.319992065429688,-20.0
32,40,100,60,go_to_color_detect_down,blue,true,false,joint 3 +,true,2024-03-03 16:47:26.711839,21.836,0.2,235.0,118.79010772705078,254.74618530273438,-4.733039855957031,45.0,65.0,51.0,37.91997528076172,-20.0
32,40,100,60,go_to_color_detect_up_from_color_detect_down,blue,true,false,joint 3 -,false,2024-03-03 16:47:27.397160,21.988,0.2,235.0,112.53719329833984,241.33677673339844,-21.211502075195312,45.0,65.0,51.0,45.91999816894531,-20.0
32,40,100,60,go_to_color_detect_up_from_color_detect_down,blue,true,false,joint 3 -,false,2024-03-03 16:47:28.779356,17.886,0.2,235.0,122.88749694824219,263.5330810546875,9.511695861816406,45.0,65.0,51.0,30.560012817382812,-20.0
32,40,100,60,go_to_color_detect_up_from_color_detect_down,blue,true,false,joint 3 -,false,2024-03-03 16:47:29.465024,16.709,0.157,235.0,129.9521484375,278.68328857421875,50.39228439331055,45.0,65.0,51.0,13.280029296875,-20.0
32,40,100,60,detecting_color,blue,false,false,detecting_color,false,2024-03-03 16:47:30.862540,16.69,0.157,235.0,131.69407653808594,282.4188232421875,84.958251953125,45.0,65.0,51.0,0.0,-20.0
32,40,100,60,detecting_color,blue,false,false,detecting_color,false,2024-03-03 16:47:31.555223,16.69,0.159,235.0,131.69407653808594,282.4188232421875,84.958251953125,45.0,65.0,51.0,0.0,-20.0
32,40,100,60,go_to_color_detect_down,blue,true,false,joint 3 +,false,2024-03-03 16:47:32.244919,16.462,0.159,235.0,131.014892578125,280.9623107910156,63.28101348876953,45.0,65.0,51.0,8.800002098083496,-20.0
32,40,100,60,go_to_color_detect_down,blue,true,false,joint 3 +,false,2024-03-03 16:47:33.621195,16.253,0.156,235.0,126.39344024658203,271.0516052246094,25.543231964111328,45.0,65.0,51.0,24.159988403320312,-20.0
32,40,100,60,go_to_color_detect_down,blue,true,false,joint 3 +,false,2024-03-03 16:47:34.353755,16.253,0.156,235.0,117.7125473022461,252.43536376953125,-7.95001220703125,45.0,65.0,51.0,39.51997375488281,-20.0
32,40,100,60,go_to_color_detect_up_from_color_detect_down,blue,true,false,joint 3 -,true,2024-03-03 16:47:35.723377,16.519,0.156,235.0,115.21096801757812,247.07070922851562,-14.768928527832031,45.0,65.0,51.0,42.400001525878906,-20.0
32,40,100,60,go_to_color_detect_up_from_color_detect_down,blue,true,false,joint 3 -,true,2024-03-03 16:47:36.409083,16.519,0.156,235.0,124.74455261230469,267.5155334472656,17.39997100830078,45.0,65.0,51.0,27.040016174316406,-20.0
32,40,100,60,go_to_color_detect_up_from_color_detect_down,blue,true,false,joint 3 -,true,2024-03-03 16:47:37.788973,22.102,0.204,235.0,130.33648681640625,279.5074768066406,54.39515686035156,45.0,65.0,51.0,11.680030822753906,-20.0
32,40,100,60,go_to_red_up,red,true,false,joint 1 +,true,2024-03-03 16:47:38.475864,22.14,0.204,235.0,121.35692596435547,287.0126037597656,84.958251953125,47.08000183105469,67.4000015258789,51.0,0.0,-20.0
32,40,100,60,go_to_red_up,red,true,false,joint 1 +,true,2024-03-03 16:47:39.862820,22.007,0.203,235.0,40.99746322631836,308.9060363769531,84.958251953125,62.43998718261719,82.7599868774414,51.0,0.0,-20.0
32,40,100,60,go_to_red_up,red,true,false,joint 1 +,true,2024-03-03 16:47:40.588547,21.969,0.203,235.0,-42.29084014892578,308.73162841796875,84.958251953125,77.79997253417969,98.1199722290039,51.0,0.0,-20.0
32,40,100,60,go_to_red_up,red,true,false,joint 1 +,true,2024-03-03 16:47:41.304143,22.121,0.203,235.0,-132.08807373046875,282.23480224609375,84.958251953125,95.0799560546875,115.39995574951172,51.0,0.0,-20.0
32,40,100,60,go_to_pick_up_from_red,red,true,false,joint 1 -,false,2024-03-03 16:47:42.694529,22.045,0.203,235.0,-172.2637481689453,259.6708068847656,84.958251953125,103.56000518798828,123.24000549316406,51.0,0.0,-20.0
32,40,100,60,go_to_pick_up_from_red,red,true,false,joint 1 -,false,2024-03-03 16:47:43.383852,20.601,0.203,235.0,-97.32827758789062,296.0252380371094,84.958251953125,88.20001983642578,107.88002014160156,51.0,0.0,-20.0
32,40,100,60,go_to_pick_up_from_red,red,true,false,joint 1 -,false,2024-03-03 16:47:44.786374,16.234,0.155,235.0,-5.0036234855651855,311.5745544433594,84.958251953125,70.92003631591797,90.60003662109375,51.0,0.0,-20.0
32,40,100,60,go_to_pick_up_from_red,red,true,false,joint 1 -,false,2024-03-03 16:47:45.600721,16.424,0.155,235.0,77.70584869384766,301.7706604003906,84.958251953125,55.56005096435547,75.24005126953125,51.0,0.0,-20.0
32,40,100,60,go_to_pick_up_from_red,red,true,false,joint 1 -,false,2024-03-03 16:47:46.290491,16.424,0.156,235.0,163.8369140625,265.0682678222656,84.958251953125,38.280067443847656,57.96006774902344,51.0,0.0,-20.0
32,40,100,60,go_to_pick_up_from_red,red,true,false,joint 1 -,false,2024-03-03 16:47:47.663709,16.386,0.156,235.0,228.19679260253906,212.20263671875,84.958251953125,22.920082092285156,42.60008239746094,51.0,0.0,-20.0
32,40,100,60,go_to_pick_up_from_red,red,true,false,joint 1 -,false,2024-03-03 16:47:48.357586,16.367,0.156,235.0,276.2545471191406,144.17750549316406,84.958251953125,7.560096740722656,27.240097045898438,51.0,0.0,-20.0
32,40,100,60,moving_belt,red,false,true,joint 1 -,false,2024-03-03 16:47:49.752562,16.443,0.156,235.0,292.8220520019531,106.5785140991211,84.958251953125,0.0,20.0,51.0,0.0,-20.0
32,40,100,60,moving_belt,red,false,true,joint 1 -,false,2024-03-03 16:47:50.439446,16.823,0.156,235.0,292.8220520019531,106.5785140991211,84.958251953125,0.0,20.0,51.0,0.0,-20.0
32,40,100,60,moving_belt,red,false,true,joint 1 -,false,2024-03-03 16:47:51.817430,16.215,0.159,235.0,292.8220520019531,106.5785140991211,84.958251953125,0.0,20.0,51.0,0.0,-20.0
32,40,100,60,moving_belt,red,false,true,joint 1 -,false,2024-03-03 16:47:52.509726,16.215,0.159,235.0,292.8220520019531,106.5785140991211,84.958251953125,0.0,20.0,51.0,0.0,-20.0
32,40,100,60,go_to_pick_down,red,true,false,joint 3 +,false,2024-03-03 16:47:53.882137,16.481,0.158,235.0,292.8220520019531,106.5785140991211,84.958251953125,0.0,20.0,51.0,0.0,-20.0
32,40,100,60,go_to_pick_down,red,true,false,joint 3 +,false,2024-03-03 16:47:54.612283,16.405,0.158,235.0,288.9488830566406,105.1688003540039,50.392372131347656,0.0,20.0,51.0,13.919995307922363,-20.0
32,40,100,60,go_to_pick_up_from_pick_down,red,true,false,joint 3 -,true,2024-03-03 16:47:55.303817,16.405,0.155,235.0,285.5762939453125,103.94126892089844,37.97398376464844,0.0,20.0,51.0,18.31999969482422,-20.0
32,40,100,60,go_to_pick_up_from_pick_down,red,true,false,joint 3 -,true,2024-03-03 16:47:56.680802,23.013,0.155,235.0,292.78314208984375,106.56434631347656,81.46929931640625,0.0,20.0,51.0,1.0500080585479736,-20.0
32,40,100,60,go_to_color_detect_up_from_pick_up,red,true,false,joint 1 +,true,2024-03-03 16:47:57.396408,22.158,0.205,235.0,268.7719421386719,157.68753051757812,84.958251953125,10.399993896484375,30.719993591308594,51.0,0.0,-20.0
32,40,100,60,go_to_color_detect_up_from_pick_up,red,true,false,joint 1 +,true,2024-03-03 16:47:58.777097,22.007,0.205,235.0,217.40289306640625,223.2480926513672,84.958251953125,25.759979248046875,46.079978942871094,51.0,0.0,-20.0
32,40,100,60,go_to_color_detect_up_from_pick_up,red,true,false,joint 1 +,true,2024-03-03 16:47:59.466973,22.064,0.203,235.0,141.27639770507812,277.7493591308594,84.958251953125,43.03996276855469,63.359962463378906,51.0,0.0,-20.0
32,40,100,60,go_to_color_detect_down,red,true,false,joint 3 +,true,2024-03-03 16:48:00.868286,21.95,0.203,235.0,130.73513793945312,280.3623962402344,59.2298583984375,45.0,65.0,51.0,10.40000057220459,-20.0
32,40,100,60,go_to_color_detect_down,red,true,false,joint 3 +,true,2024-03-03 16:48:01.567548,21.912,0.2,235.0,125.67017364501953,269.50054931640625,21.81212615966797,45.0,65.0,51.0,25.759986877441406,-20.0
32,40,100,60,go_to_color_detect_down,red,true,false,joint 3 +,true,2024-03-03 16:48:02.305043,21.95,0.2,235.0,115.21099090576172,247.0707550048828,-14.768867492675781,45.0,65.0,51.0,43.03997039794922,-20.0
32,40,100,60,go_to_color_detect_up_from_color_detect_down,red,true,false,joint 3 -,false,2024-03-03 16:48:03.696558,21.798,0.202,235.0,116.14105224609375,249.06527709960938,-12.331558227539062,45.0,65.0,51.0,41.12000274658203,-20.0
32,40,100,60,go_to_color_detect_up_from_color_detect_down,red,true,false,joint 3 -,false,2024-03-03 16:48:04.391341,19.994,0.202,235.0,125.36858367919922,268.8537902832031,20.333236694335938,45.0,65.0,51.0,25.76001739501953,-20.0
32,40,100,60,go_to_color_detect_up_from_color_detect_down,red,true,false,joint 3 -,false,2024-03-03 16:48:05.765744,16.709,0.158,235.0,130.96275329589844,280.85052490234375,62.46924591064453,45.0,65.0,51.0,8.480033874511719,-20.0
32,40,100,60,detecting_color,red,false,false,detecting_color,false,2024-03-03 16:48:06.451459,16.671,0.158,235.0,131.69407653808594,282.4188232421875,84.958251953125,45.0,65.0,51.0,0.0,-20.0
32,40,100,60,detecting_color,red,false,false,detecting_color,false,2024-03-03 16:48:07.829870,16.424,0.158,235.0,131.69407653808594,282.4188232421875,84.958251953125,45.0,65.0,51.0,0.0,-20.0
32,40,100,60,detecting_color,red,false,false,detecting_color,false,2024-03-03 16:48:08.517192,16.424,0.156,235.0,131.69407653808594,282.4188232421875,84.958251953125,45.0,65.0,51.0,0.0,-20.0
32,40,100,60,detecting_color,red,false,false,detecting_color,false,2024-03-03 16:48:09.895770,16.481,0.156,235.0,131.69407653808594,282.4188232421875,84.958251953125,45.0,65.0,51.0,0.0,-20.0
32,40,100,60,go_to_color_detect_down,red,true,false,joint 3 +,false,2024-03-03 16:48:10.586450,16.443,0.157,235.0,131.3627471923828,281.70831298828125,69.79670715332031,45.0,65.0,51.0,6.240001678466797,-20.0
32,40,100,60,go_to_color_detect_down,red,true,false,joint 3 +,false,2024-03-03 16:48:11.390303,16.443,0.157,235.0,127.45828247070312,273.33514404296875,31.608154296875,45.0,65.0,51.0,21.599990844726562,-20.0
32,40,100,60,go_to_color_detect_down,red,true,false,joint 3 +,false,2024-03-03 16:48:12.763742,16.443,0.155,235.0,118.14811706542969,253.36944580078125,-6.671775817871094,45.0,65.0,51.0,38.879974365234375,-20.0
32,40,100,60,go_to_color_detect_up_from_color_detect_down,red,true,false,joint 3 -,true,2024-03-03 16:48:13.449684,16.443,0.155,235.0,113.03569793701172,242.40582275390625,-20.069229125976562,45.0,65.0,51.0,45.279998779296875,-20.0
32,40,100,60,go_to_color_detect_up_from_color_detect_down,red,true,false,joint 3 -,true,2024-03-03 16:48:14.828508,22.861,0.21,235.0,123.24032592773438,264.28973388671875,10.925605773925781,45.0,65.0,51.0,29.920013427734375,-20.0
32,40,100,60,go_to_color_detect_up_from_color_detect_down,red,true,false,joint 3 -,true,2024-03-03 16:48:15.517785,22.272,0.21,235.0,130.11154174804688,279.0251159667969,51.99037551879883,45.0,65.0,51.0,12.640029907226562,-20.0
32,40,100,60,go_to_green_up,green,true,false,joint 1 +,true,2024-03-03 16:48:16.912710,22.272,0.204,235.0,131.49684143066406,282.5107116699219,84.958251953125,45.040000915527344,65.12000274658203,51.0,0.0,-20.0
32,40,100,60,go_to_green_up,green,true,false,joint 1 +,true,2024-03-03 16:48:17.609893,22.064,0.204,235.0,56.466434478759766,306.45599365234375,84.958251953125,59.55998992919922,79.87998962402344,51.0,0.0,-20.0
32,40,100,60,go_to_green_up,green,true,false,joint 1 +,true,2024-03-03 16:48:18.295341,22.045,0.204,235.0,-37.1123161315918,309.3968505859375,84.958251953125,76.83997344970703,97.15997314453125,51.0,0.0,-20.0
32,40,100,60,go_to_pick_up_from_green,green,true,false,joint 1 -,false,2024-03-03 16:48:19.671727,22.007,0.202,235.0,-62.8719482421875,305.2062683105469,84.958251953125,81.64000701904297,101.32000732421875,51.0,0.0,-20.0
32,40,100,60,go_to_pick_up_from_green,green,true,false,joint 1 -,false,2024-03-03 16:48:20.362585,18.399,0.202,235.0,9.787933349609375,311.4609680175781,84.958251953125,68.20001983642578,87.88002014160156,51.0,0.0,-20.0
32,40,100,60,go_to_pick_up_from_green,green,true,false,joint 1 -,false,2024-03-03 16:48:21.733998,16.576,0.156,235.0,111.67253112792969,290.91748046875,84.958251953125,49.000038146972656,68.68003845214844,51.0,0.0,-20.0
32,40,100,60,go_to_pick_up_from_green,green,true,false,joint 1 -,false,2024-03-03 16:48:22.422686,16.576,0.156,235.0,184.74264526367188,250.9459686279297,84.958251953125,33.640052795410156,53.32005310058594,51.0,0.0,-20.0
32,40,100,60,go_to_pick_up_from_green,green,true,false,joint 1 -,false,2024-03-03 16:48:23.794680,16.215,0.156,235.0,244.6150360107422,193.04718017578125,84.958251953125,18.280067443847656,37.96006774902344,51.0,0.0,-20.0
32,40,100,60,go_to_pick_up_from_green,green,true,false,joint 1 -,false,2024-03-03 16:48:24.530221,16.462,0.156,235.0,290.88800048828125,111.74930572509766,84.958251953125,1.0150833129882812,20.75008201599121,51.0,0.0,-20.0
32,40,100,60,moving_belt,green,false,true,joint 1 -,false,2024-03-03 16:48:25.901695,16.386,0.155,235.0,292.8220520019531,106.5785140991211,84.958251953125,0.0,20.0,51.0,0.0,-20.0
32,40,100,60,moving_belt,green,false,true,joint 1 -,false,2024-03-03 16:48:26.585626,16.595,0.155,235.0,292.8220520019531,106.5785140991211,84.958251953125,0.0,20.0,51.0,0.0,-20.0
32,40,100,60,moving_belt,green,false,true,joint 1 -,false,2024-03-03 16:48:27.273495,16.595,0.155,235.0,292.8220520019531,106.5785140991211,84.958251953125,0.0,20.0,51.0,0.0,-20.0
32,40,100,60,moving_belt,green,false,true,joint 1 -,false,2024-03-03 16:48:28.696508,16.557,0.158,235.0,292.8220520019531,106.5785140991211,84.958251953125,0.0,20.0,51.0,0.0,-20.0
32,40,100,60,go_to_pick_down,green,true,false,joint 3 +,false,2024-03-03 16:48:29.384208,16.5,0.158,235.0,292.627685546875,106.50776672363281,77.16238403320312,0.0,20.0,51.0,3.359998941421509,-20.0
32,40,100,60,go_to_pick_down,green,true,false,joint 3 +,false,2024-03-03 16:48:30.797072,16.652,0.158,235.0,284.22564697265625,103.44967651367188,33.91061019897461,0.0,20.0,51.0,20.639989852905273,-20.0
32,40,100,60,go_to_pick_up_from_pick_down,green,true,false,joint 3 -,true,2024-03-03 16:48:31.598989,16.291,0.158,235.0,289.84344482421875,105.494384765625,54.59600830078125,0.0,20.0,51.0,11.600006103515625,-20.0
32,40,100,60,go_to_color_detect_up_from_pick_up,green,true,false,joint 1 +,true,2024-03-03 16:48:32.289861,22.766,0.211,235.0,292.373046875,107.80415344238281,84.958251953125,0.24000167846679688,20.400001525878906,51.0,0.0,-20.0
32,40,100,60,go_to_color_detect_up_from_pick_up,green,true,false,joint 1 +,true,2024-03-03 16:48:33.717911,22.31,0.211,235.0,248.47329711914062,188.05517578125,84.958251953125,17.11998748779297,37.43998718261719,51.0,0.0,-20.0
32,40,100,60,go_to_color_detect_up_from_pick_up,green,true,false,joint 1 +,true,2024-03-03 16:48:34.658764,21.893,0.203,235.0,189.785400390625,247.15426635742188,84.958251953125,32.47997283935547,52.79997253417969,51.0,0.0,-20.0
32,40,100,60,go_to_color_detect_down,green,true,false,joint 3 +,true,2024-03-03 16:48:35.358211,22.215,0.203,235.0,131.69406127929688,282.4187927246094,84.85562896728516,45.0,65.0,51.0,0.12000010907649994,-20.0
32,40,100,60,go_to_color_detect_down,green,true,false,joint 3 +,true,2024-03-03 16:48:36.745469,21.969,0.203,235.0,129.1419219970703,276.9457092285156,43.25720977783203,45.0,65.0,51.0,16.79999542236328,-20.0
32,40,100,60,go_to_color_detect_down,green,true,false,joint 3 +,true,2024-03-03 16:48:37.439319,21.855,0.203,235.0,122.34580993652344,262.3714294433594,7.408592224121094,45.0,65.0,51.0,32.15998077392578,-20.0
32,40,100,60,go_to_color_detect_down,green,true,false,joint 3 +,true,2024-03-03 16:48:38.832264,21.76,0.2,235.0,111.81124114990234,239.77996826171875,-22.830230712890625,45.0,65.0,51.0,47.399967193603516,-20.0
32,40,100,60,go_to_color_detect_up_from_color_detect_down,green,true,false,joint 3 -,false,2024-03-03 16:48:39.526528,21.76,0.2,235.0,120.63243103027344,258.69708251953125,1.231964111328125,45.0,65.0,51.0,34.40000915527344,-20.0
32,40,100,60,go_to_color_detect_up_from_color_detect_down,green,true,false,joint 3 -,false,2024-03-03 16:48:40.907525,16.538,0.158,235.0,128.29527282714844,275.1300964355469,37.00265121459961,45.0,65.0,51.0,18.72002410888672,-20.0
32,40,100,60,go_to_color_detect_up_from_color_detect_down,green,true,false,joint 3 -,false,2024-03-03 16:48:41.605833,16.538,0.158,235.0,131.56597900390625,282.1441345214844,75.52312469482422,45.0,65.0,51.0,3.360032081604004,-20.0
32,40,100,60,detecting_color,green,false,false,detecting_color,false,2024-03-03 16:48:42.334397,16.69,0.158,235.0,131.69407653808594,282.4188232421875,84.958251953125,45.0,65.0,51.0,0.0,-20.0
32,40,100,60,go_to_color_detect_down,green,true,false,joint 3 +,false,2024-03-03 16:48:43.755642,16.595,0.157,235.0,131.6822052001953,282.3934020996094,82.08492279052734,45.0,65.0,51.0,1.4400010108947754,-20.0
32,40,100,60,go_to_color_detect_down,green,true,false,joint 3 +,false,2024-03-03 16:48:44.441998,16.595,0.157,235.0,128.51800537109375,275.6077575683594,38.55785369873047,45.0,65.0,51.0,18.719993591308594,-20.0
32,40,100,60,go_to_color_detect_down,green,true,false,joint 3 +,false,2024-03-03 16:48:45.822343,16.348,0.156,235.0,121.21812438964844,259.9530944824219,3.2681350708007812,45.0,65.0,51.0,34.079978942871094,-20.0
32,40,100,60,go_to_color_detect_up_from_color_detect_down,green,true,false,joint 3 -,true,2024-03-03 16:48:46.534159,16.348,0.156,235.0,111.13887023925781,238.3380584716797,-24.28398895263672,45.0,65.0,51.0,48.0,-20.0
32,40,100,60,go_to_color_detect_up_from_color_detect_down,green,true,false,joint 3 -,true,2024-03-03 16:48:47.914779,22.766,0.176,235.0,121.78927612304688,261.1779479980469,5.327125549316406,45.0,65.0,51.0,32.480010986328125,-20.0
32,40,100,60,go_to_color_detect_up_from_color_detect_down,green,true,false,joint 3 -,true,2024-03-03 16:48:48.599690,22.766,0.176,235.0,128.83827209472656,276.2945251464844,40.901275634765625,45.0,65.0,51.0,17.120025634765625,-20.0
32,40,100,60,go_to_color_detect_up_from_color_detect_down,green,true,false,joint 3 -,true,2024-03-03 16:48:49.295967,22.272,0.176,235.0,131.6531524658203,282.3310852050781,79.6228256225586,45.0,65.0,51.0,1.7600324153900146,-20.0
32,40,100,60,go_to_blue_up,blue,true,false,joint 1 +,true,2024-03-03 16:48:50.670779,22.064,0.204,235.0,71.79273986816406,303.2318115234375,84.958251953125,56.67999267578125,76.99999237060547,51.0,0.0,-20.0
32,40,100,60,go_to_pick_up_from_blue,blue,true,false,joint 1 -,false,2024-03-03 16:48:51.365458,22.064,0.204,235.0,45.30638885498047,308.30352783203125,84.958251953125,61.63999938964844,81.31999969482422,51.0,0.0,-20.0
32,40,100,60,go_to_pick_up_from_blue,blue,true,false,joint 1 -,false,2024-03-03 16:48:52.926272,16.519,0.202,235.0,125.35237884521484,285.29022216796875,84.958251953125,46.28001403808594,65.96001434326172,51.0,0.0,-20.0
32,40,100,60,go_to_pick_up_from_blue,blue,true,false,joint 1 -,false,2024-03-03 16:48:53.612984,16.519,0.202,235.0,204.4375,235.17872619628906,84.958251953125,29.000030517578125,48.680030822753906,51.0,0.0,-20.0
32,40,100,60,go_to_pick_up_from_blue,blue,true,false,joint 1 -,false,2024-03-03 16:48:54.299270,16.329,0.157,235.0,259.4299011230469,172.62632751464844,84.958251953125,13.640045166015625,33.320045471191406,51.0,0.0,-20.0
32,40,100,60,moving_belt,blue,false,true,joint 1 -,false,2024-03-03 16:48:54.987516,16.329,0.157,235.0,292.8220520019531,106.5785140991211,84.958251953125,0.0,20.0,51.0,0.0,-20.0
32,40,100,60,moving_belt,blue,false,true,joint 1 -,false,2024-03-03 16:48:56.268625,16.462,0.157,235.0,292.8220520019531,106.5785140991211,84.958251953125,0.0,20.0,51.0,0.0,-20.0
32,40,100,60,moving_belt,blue,false,true,joint 1 -,false,2024-03-03 16:48:57.647939,16.614,0.156,235.0,292.8220520019531,106.5785140991211,84.958251953125,0.0,20.0,51.0,0.0,-20.0
32,40,100,60,moving_belt,blue,false,true,joint 1 -,false,2024-03-03 16:48:58.338267,16.481,0.157,235.0,292.8220520019531,106.5785140991211,84.958251953125,0.0,20.0,51.0,0.0,-20.0
32,40,100,60,moving_belt,blue,false,true,joint 1 -,false,2024-03-03 16:48:59.748308,16.69,0.157,235.0,292.8220520019531,106.5785140991211,84.958251953125,0.0,20.0,51.0,0.0,-20.0
32,40,100,60,go_to_pick_down,blue,true,false,joint 3 +,false,2024-03-03 16:49:00.440603,16.671,0.158,235.0,291.827392578125,106.21648406982422,67.34907531738281,0.0,20.0,51.0,7.200000286102295,-20.0
32,40,100,60,go_to_pick_up_from_pick_down,blue,true,false,joint 3 -,true,2024-03-03 16:49:01.847895,16.557,0.158,235.0,282.76361083984375,102.91754913330078,29.89107894897461,0.0,20.0,51.0,21.959999084472656,-20.0
32,40,100,60,go_to_pick_up_from_pick_down,blue,true,false,joint 3 -,true,2024-03-03 16:49:02.532184,20.545,0.202,235.0,291.4507751464844,106.07940673828125,64.29654693603516,0.0,20.0,51.0,7.760009288787842,-20.0
32,40,100,60,go_to_color_detect_up_from_pick_up,blue,true,false,joint 1 +,true,2024-03-03 16:49:03.935945,22.557,0.202,235.0,283.9618835449219,128.33306884765625,84.958251953125,4.319999694824219,24.639999389648438,51.0,0.0,-20.0
32,40,100,60,go_to_color_detect_up_from_pick_up,blue,true,false,joint 1 +,true,2024-03-03 16:49:04.626635,22.121,0.204,235.0,234.1768035888672,205.58444213867188,84.958251953125,21.279983520507812,41.59998321533203,51.0,0.0,-20.0
32,40,100,60,go_to_color_detect_up_from_pick_up,blue,true,false,joint 1 +,true,2024-03-03 16:49:05.314301,22.196,0.204,235.0,171.3563690185547,260.2704772949219,84.958251953125,36.63996887207031,56.95996856689453,51.0,0.0,-20.0
32,40,100,60,go_to_color_detect_down,blue,true,false,joint 3 +,true,2024-03-03 16:49:06.700463,22.158,0.204,235.0,131.56597900390625,282.1441345214844,75.52320861816406,45.0,65.0,51.0,4.000000476837158,-20.0
32,40,100,60,go_to_color_detect_down,blue,true,false,joint 3 +,true,2024-03-03 16:49:07.396202,22.102,0.204,235.0,127.45828247070312,273.33514404296875,31.608154296875,45.0,65.0,51.0,21.599990844726562,-20.0
32,40,100,60,go_to_color_detect_down,blue,true,false,joint 3 +,true,2024-03-03 16:49:08.836921,22.007,0.203,235.0,119.62455749511719,256.5356750488281,-2.1089859008789062,45.0,65.0,51.0,36.639976501464844,-20.0
32,40,100,60,go_to_color_detect_up_from_color_detect_down,blue,true,false,joint 3 -,false,2024-03-03 16:49:09.524685,21.988,0.203,235.0,111.46013641357422,239.0270233154297,-23.594696044921875,45.0,65.0,51.0,47.39999771118164,-20.0
32,40,100,60,go_to_color_detect_up_from_color_detect_down,blue,true,false,joint 3 -,false,2024-03-03 16:49:10.760066,22.064,0.203,235.0,123.06474304199219,263.9131774902344,10.217483520507812,45.0,65.0,51.0,30.240013122558594,-20.0
32,40,100,60,go_to_color_detect_up_from_color_detect_down,blue,true,false,joint 3 -,false,2024-03-03 16:49:11.449325,16.69,0.159,235.0,129.52072143554688,277.7580871582031,46.41637420654297,45.0,65.0,51.0,14.880027770996094,-20.0
32,40,100,60,detecting_color,blue,false,false,detecting_color,false,2024-03-03 16:49:12.872223,16.785,0.159,235.0,131.69256591796875,282.41558837890625,83.93192291259766,45.0,65.0,51.0,0.24003258347511292,-20.0
32,40,100,60,detecting_color,blue,false,false,detecting_color,false,2024-03-03 16:49:13.568901,16.766,0.159,235.0,131.69407653808594,282.4188232421875,84.958251953125,45.0,65.0,51.0,0.0,-20.0
32,40,100,60,go_to_color_detect_down,blue,true,false,joint 3 +,false,2024-03-03 16:49:14.949856,16.652,0.159,235.0,131.3627471923828,281.70831298828125,69.79670715332031,45.0,65.0,51.0,6.240001678466797,-20.0
32,40,100,60,go_to_color_detect_down,blue,true,false,joint 3 +,false,2024-03-03 16:49:15.636669,16.652,0.157,235.0,126.67037200927734,271.6454772949219,27.048812866210938,45.0,65.0,51.0,23.519989013671875,-20.0
32,40,100,60,go_to_color_detect_down,blue,true,false,joint 3 +,false,2024-03-03 16:49:16.327453,16.633,0.157,235.0,118.14811706542969,253.36944580078125,-6.671775817871094,45.0,65.0,51.0,38.879974365234375,-20.0
32,40,100,60,go_to_color_detect_up_from_color_detect_down,blue,true,false,joint 3 -,true,2024-03-03 16:49:17.748698,16.595,0.157,235.0,113.03569793701172,242.40582275390625,-20.069229125976562,45.0,65.0,51.0,45.279998779296875,-20.0
32,40,100,60,go_to_color_detect_up_from_color_detect_down,blue,true,false,joint 3 -,true,2024-03-03 16:49:18.436196,20.374,0.157,235.0,124.25845336914062,266.47308349609375,15.222068786621094,45.0,65.0,51.0,28.000015258789062,-20.0
32,40,100,60,go_to_color_detect_up_from_color_detect_down,blue,true,false,joint 3 -,true,2024-03-03 16:49:19.814800,22.5,0.157,235.0,130.11154174804688,279.0251159667969,51.99037551879883,45.0,65.0,51.0,12.640029907226562,-20.0
32,40,100,60,go_to_red_up,red,true,false,joint 1 +,true,2024-03-03 16:49:20.502730,22.443,0.205,235.0,131.10227966308594,282.69403076171875,84.958251953125,45.12000274658203,65.24000549316406,51.0,0.0,-20.0
32,40,100,60,go_to_red_up,red,true,false,joint 1 +,true,2024-03-03 16:49:21.881120,22.158,0.205,235.0,44.445316314697266,308.4288330078125,84.958251953125,61.79998779296875,82.11998748779297,51.0,0.0,-20.0
32,40,100,60,go_to_red_up,red,true,false,joint 1 +,true,2024-03-03 16:49:22.574800,22.158,0.204,235.0,-38.8397331237793,309.18475341796875,84.958251953125,77.15997314453125,97.47997283935547,51.0,0.0,-20.0
32,40,100,60,go_to_red_up,red,true,false,joint 1 +,true,2024-03-03 16:49:23.955067,22.234,0.204,235.0,-119.35004425048828,287.8529052734375,84.958251953125,92.51995849609375,112.83995819091797,51.0,0.0,-20.0
32,40,100,60,go_to_pick_up_from_red,red,true,false,joint 1 -,false,2024-03-03 16:49:24.663687,22.196,0.205,235.0,-172.2637481689453,259.6708068847656,84.958251953125,103.56000518798828,123.24000549316406,51.0,0.0,-20.0
32,40,100,60,go_to_pick_up_from_red,red,true,false,joint 1 -,false,2024-03-03 16:49:25.354387,22.196,0.205,235.0,-97.32827758789062,296.0252380371094,84.958251953125,88.20001983642578,107.88002014160156,51.0,0.0,-20.0
32,40,100,60,go_to_pick_up_from_red,red,true,false,joint 1 -,false,2024-03-03 16:49:26.803943,16.462,0.157,235.0,-15.439788818359375,311.23199462890625,84.958251953125,72.84003448486328,92.52003479003906,51.0,0.0,-20.0
32,40,100,60,go_to_pick_up_from_red,red,true,false,joint 1 -,false,2024-03-03 16:49:27.496618,16.462,0.157,235.0,77.70584869384766,301.7706604003906,84.958251953125,55.56005096435547,75.24005126953125,51.0,0.0,-20.0
32,40,100,60,go_to_pick_up_from_red,red,true,false,joint 1 -,false,2024-03-03 16:49:28.896521,16.538,0.158,235.0,154.8640594482422,270.4086608886719,84.958251953125,40.20006561279297,59.88006591796875,51.0,0.0,-20.0
32,40,100,60,go_to_pick_up_from_red,red,true,false,joint 1 -,false,2024-03-03 16:49:29.584992,16.538,0.158,235.0,220.95901489257812,219.72903442382812,84.958251953125,24.84008026123047,44.52008056640625,51.0,0.0,-20.0
32,40,100,60,go_to_pick_up_from_red,red,true,false,joint 1 -,false,2024-03-03 16:49:30.276286,16.538,0.158,235.0,276.2545471191406,144.17750549316406,84.958251953125,7.560096740722656,27.240097045898438,51.0,0.0,-20.0
32,40,100,60,moving_belt,red,false,true,joint 1 -,false,2024-03-03 16:49:31.658916,16.595,0.158,235.0,292.8220520019531,106.5785140991211,84.958251953125,0.0,20.0,51.0,0.0,-20.0
32,40,100,60,moving_belt,red,false,true,joint 1 -,false,2024-03-03 16:49:32.363768,16.595,0.158,235.0,292.8220520019531,106.5785140991211,84.958251953125,0.0,20.0,51.0,0.0,-20.0
32,40,100,60,moving_belt,red,false,true,joint 1 -,false,2024-03-03 16:49:33.749873,16.481,0.154,235.0,292.8220520019531,106.5785140991211,84.958251953125,0.0,20.0,51.0,0.0,-20.0
32,40,100,60,moving_belt,red,false,true,joint 1 -,false,2024-03-03 16:49:34.437164,16.69,0.154,235.0,292.8220520019531,106.5785140991211,84.958251953125,0.0,20.0,51.0,0.0,-20.0
32,40,100,60,go_to_pick_down,red,true,false,joint 3 +,false,2024-03-03 16:49:35.836796,16.272,0.156,235.0,292.8220520019531,106.5785140991211,84.958251953125,0.0,20.0,51.0,0.0,-20.0
32,40,100,60,go_to_pick_down,red,true,false,joint 3 +,false,2024-03-03 16:49:36.521506,16.557,0.156,235.0,288.3858337402344,104.9638671875,48.00339126586914,0.0,20.0,51.0,14.87999439239502,-20.0
32,40,100,60,go_to_pick_up_from_pick_down,red,true,false,joint 3 -,true,2024-03-03 16:49:37.899022,16.538,0.157,235.0,286.52984619140625,104.28833770751953,41.097190856933594,0.0,20.0,51.0,17.040000915527344,-20.0
32,40,100,60,go_to_pick_up_from_pick_down,red,true,false,joint 3 -,true,2024-03-03 16:49:38.587718,16.538,0.157,235.0,292.7379150390625,106.54788970947266,79.8280029296875,0.0,20.0,51.0,1.6800079345703125,-20.0
32,40,100,60,go_to_color_detect_up_from_pick_up,red,true,false,joint 1 +,true,2024-03-03 16:49:39.964711,22.215,0.204,235.0,265.1824035644531,163.652099609375,84.958251953125,11.67999267578125,31.99999237060547,51.0,0.0,-20.0
32,40,100,60,go_to_color_detect_up_from_pick_up,red,true,false,joint 1 +,true,2024-03-03 16:49:40.651400,22.064,0.204,235.0,212.36166381835938,228.04881286621094,84.958251953125,27.03997802734375,47.35997772216797,51.0,0.0,-20.0
32,40,100,60,go_to_color_detect_up_from_pick_up,red,true,false,joint 1 +,true,2024-03-03 16:49:41.339351,22.064,0.204,235.0,144.37002563476562,276.15399169921875,84.958251953125,42.39996337890625,62.71996307373047,51.0,0.0,-20.0
32,40,100,60,go_to_color_detect_down,red,true,false,joint 3 +,true,2024-03-03 16:49:42.728886,22.14,0.203,235.0,130.5443878173828,279.95330810546875,56.80859375,45.0,65.0,51.0,11.359999656677246,-20.0
32,40,100,60,go_to_color_detect_down,red,true,false,joint 3 +,true,2024-03-03 16:49:43.447076,21.969,0.203,235.0,125.2151870727539,268.5248107910156,19.59691619873047,45.0,65.0,51.0,26.719985961914062,-20.0
32,40,100,60,go_to_color_detect_down,red,true,false,joint 3 +,true,2024-03-03 16:49:44.822511,22.064,0.202,235.0,116.14108276367188,249.06533813476562,-12.331497192382812,45.0,65.0,51.0,41.759971618652344,-20.0
32,40,100,60,go_to_color_detect_up_from_color_detect_down,red,true,false,joint 3 -,false,2024-03-03 16:49:45.508208,21.969,0.202,235.0,116.597412109375,250.0439453125,-11.094589233398438,45.0,65.0,51.0,40.480003356933594,-20.0
32,40,100,60,go_to_color_detect_up_from_color_detect_down,red,true,false,joint 3 -,false,2024-03-03 16:49:46.887387,17.677,0.185,235.0,125.670166015625,269.5005187988281,21.812053680419922,45.0,65.0,51.0,25.120018005371094,-20.0
32,40,100,60,go_to_color_detect_up_from_color_detect_down,red,true,false,joint 3 -,false,2024-03-03 16:49:47.597595,16.766,0.185,235.0,130.73513793945312,280.3623962402344,59.22978210449219,45.0,65.0,51.0,9.760032653808594,-20.0
32,40,100,60,detecting_color,red,false,false,detecting_color,false,2024-03-03 16:49:48.287280,16.766,0.158,235.0,131.69407653808594,282.4188232421875,84.958251953125,45.0,65.0,51.0,0.0,-20.0
32,40,100,60,detecting_color,red,false,false,detecting_color,false,2024-03-03 16:49:49.684626,16.747,0.158,235.0,131.69407653808594,282.4188232421875,84.958251953125,45.0,65.0,51.0,0.0,-20.0
32,40,100,60,detecting_color,red,false,false,detecting_color,false,2024-03-03 16:49:50.371339,16.538,0.156,235.0,131.69407653808594,282.4188232421875,84.958251953125,45.0,65.0,51.0,0.0,-20.0
32,40,100,60,detecting_color,red,false,false,detecting_color,false,2024-03-03 16:49:51.746730,16.652,0.156,235.0,131.69407653808594,282.4188232421875,84.958251953125,45.0,65.0,51.0,0.0,-20.0
32,40,100,60,go_to_color_detect_down,red,true,false,joint 3 +,false,2024-03-03 16:49:52.488249,16.5,0.156,235.0,131.24673461914062,281.4595031738281,67.34907531738281,45.0,65.0,51.0,7.200002193450928,-20.0
32,40,100,60,go_to_color_detect_down,red,true,false,joint 3 +,false,2024-03-03 16:49:53.867825,16.424,0.157,235.0,127.07239532470703,272.5075988769531,29.320674896240234,45.0,65.0,51.0,22.55998992919922,-20.0
32,40,100,60,go_to_color_detect_down,red,true,false,joint 3 +,false,2024-03-03 16:49:54.554753,16.424,0.157,235.0,118.79010772705078,254.74618530273438,-4.733039855957031,45.0,65.0,51.0,37.91997528076172,-20.0
32,40,100,60,go_to_color_detect_up_from_color_detect_down,red,true,false,joint 3 -,true,2024-03-03 16:49:55.950676,16.747,0.157,235.0,114.01636505126953,244.50888061523438,-17.745513916015625,45.0,65.0,51.0,44.0,-20.0
32,40,100,60,go_to_color_detect_up_from_color_detect_down,red,true,false,joint 3 -,true,2024-03-03 16:49:56.644356,16.747,0.157,235.0,123.92584228515625,265.75982666015625,13.780975341796875,45.0,65.0,51.0,28.6400146484375,-20.0
32,40,100,60,go_to_color_detect_up_from_color_detect_down,red,true,false,joint 3 -,true,2024-03-03 16:49:57.333239,22.5,0.206,235.0,129.9521484375,278.68328857421875,50.39228439331055,45.0,65.0,51.0,13.280029296875,-20.0
32,40,100,60,go_to_green_up,green,true,false,joint 1 +,true,2024-03-03 16:49:58.709309,22.329,0.206,235.0,128.72940063476562,283.7824401855469,84.958251953125,45.600006103515625,65.84000396728516,51.0,0.0,-20.0
32,40,100,60,go_to_green_up,green,true,false,joint 1 +,true,2024-03-03 16:49:59.397606,22.329,0.205,235.0,49.606632232666016,307.6408996582031,84.958251953125,60.839988708496094,81.15998840332031,51.0,0.0,-20.0
32,40,100,60,go_to_green_up,green,true,false,joint 1 +,true,2024-03-03 16:50:00.771021,22.102,0.205,235.0,-33.654029846191406,309.7920837402344,84.958251953125,76.1999740600586,96.51997375488281,51.0,0.0,-20.0
32,40,100,60,go_to_pick_up_from_green,green,true,false,joint 1 -,false,2024-03-03 16:50:01.463296,22.083,0.203,235.0,-54.325660705566406,306.84271240234375,84.958251953125,80.04000854492188,99.72000885009766,51.0,0.0,-20.0
32,40,100,60,go_to_pick_up_from_green,green,true,false,joint 1 -,false,2024-03-03 16:50:02.893253,16.823,0.203,235.0,28.8922176361084,310.27239990234375,84.958251953125,64.68002319335938,84.36002349853516,51.0,0.0,-20.0
32,40,100,60,go_to_pick_up_from_green,green,true,false,joint 1 -,false,2024-03-03 16:50:03.579965,16.823,0.156,235.0,110.04600524902344,291.5366516113281,84.958251953125,49.320037841796875,69.00003814697266,51.0,0.0,-20.0
32,40,100,60,go_to_pick_up_from_green,green,true,false,joint 1 -,false,2024-03-03 16:50:04.969115,16.443,0.156,235.0,191.6774444580078,245.6898193359375,84.958251953125,32.04005432128906,51.720054626464844,51.0,0.0,-20.0
32,40,100,60,go_to_pick_up_from_green,green,true,false,joint 1 -,false,2024-03-03 16:50:05.660865,16.443,0.157,235.0,249.90985107421875,186.14186096191406,84.958251953125,16.680068969726562,36.360069274902344,51.0,0.0,-20.0
32,40,100,60,go_to_pick_up_from_green,green,true,false,joint 1 -,false,2024-03-03 16:50:06.348161,16.443,0.157,235.0,290.28900146484375,113.29619598388672,84.958251953125,1.3200836181640625,21.01508331298828,51.0,0.0,-20.0
32,40,100,60,moving_belt,green,false,true,joint 1 -,false,2024-03-03 16:50:07.035425,16.443,0.157,235.0,292.8220520019531,106.5785140991211,84.958251953125,0.0,20.0,51.0,0.0,-20.0
32,40,100,60,moving_belt,green,false,true,joint 1 -,false,2024-03-03 16:50:08.730448,16.272,0.159,235.0,292.8220520019531,106.5785140991211,84.958251953125,0.0,20.0,51.0,0.0,-20.0
32,40,100,60,moving_belt,green,false,true,joint 1 -,false,2024-03-03 16:50:09.419135,16.272,0.159,235.0,292.8220520019531,106.5785140991211,84.958251953125,0.0,20.0,51.0,0.0,-20.0
32,40,100,60,moving_belt,green,false,true,joint 1 -,false,2024-03-03 16:50:10.802158,16.614,0.156,235.0,292.8220520019531,106.5785140991211,84.958251953125,0.0,20.0,51.0,0.0,-20.0
32,40,100,60,go_to_pick_down,green,true,false,joint 3 +,false,2024-03-03 16:50:11.492258,16.557,0.156,235.0,292.3693542480469,106.41374206542969,73.06671905517578,0.0,20.0,51.0,4.959999084472656,-20.0
32,40,100,60,go_to_pick_down,green,true,false,joint 3 +,false,2024-03-03 16:50:12.884600,16.405,0.155,235.0,284.49151611328125,103.54644775390625,34.681312561035156,0.0,20.0,51.0,20.319990158081055,-20.0
32,40,100,60,go_to_pick_up_from_pick_down,green,true,false,joint 3 -,true,2024-03-03 16:50:13.574293,17.411,0.155,235.0,290.5873718261719,105.7651596069336,58.62382125854492,0.0,20.0,51.0,10.000007629394531,-20.0
32,40,100,60,go_to_color_detect_up_from_pick_up,green,true,false,joint 1 +,true,2024-03-03 16:50:14.959651,22.462,0.204,235.0,289.4105529785156,115.52167510986328,84.958251953125,1.7600021362304688,22.080001831054688,51.0,0.0,-20.0
32,40,100,60,go_to_color_detect_up_from_pick_up,green,true,false,joint 1 +,true,2024-03-03 16:50:15.645164,22.007,0.204,235.0,248.47329711914062,188.05517578125,84.958251953125,17.11998748779297,37.43998718261719,51.0,0.0,-20.0
32,40,100,60,go_to_color_detect_up_from_pick_up,green,true,false,joint 1 +,true,2024-03-03 16:50:16.337018,21.931,0.204,235.0,181.398193359375,253.3740692138672,84.958251953125,34.39997100830078,54.719970703125,51.0,0.0,-20.0
32,40,100,60,go_to_color_detect_down,green,true,false,joint 3 +,true,2024-03-03 16:50:17.717619,21.893,0.202,235.0,131.67445373535156,282.37677001953125,81.26412200927734,45.0,65.0,51.0,1.7600009441375732,-20.0
32,40,100,60,go_to_color_detect_down,green,true,false,joint 3 +,true,2024-03-03 16:50:17.717619,21.893,0.202,235.0,128.40757751464844,275.37091064453125,37.7795524597168,45.0,65.0,51.0,19.039993286132812,-20.0
32,40,100,60,go_to_color_detect_down,green,true,false,joint 3 +,true,2024-03-03 16:50:19.910234,21.779,0.202,235.0,121.02450561523438,259.5378723144531,2.58685302734375,45.0,65.0,51.0,34.39997863769531,-20.0
32,40,100,60,go_to_color_detect_up_from_color_detect_down,green,true,false,joint 3 -,false,2024-03-03 16:50:20.608120,21.836,0.2,235.0,111.13883972167969,238.33799743652344,-24.284042358398438,45.0,65.0,51.0,48.0,-20.0
32,40,100,60,go_to_color_detect_up_from_color_detect_down,green,true,false,joint 3 -,false,2024-03-03 16:50:21.295831,21.893,0.2,235.0,121.78927612304688,261.1779479980469,5.327125549316406,45.0,65.0,51.0,32.480010986328125,-20.0
32,40,100,60,go_to_color_detect_up_from_color_detect_down,green,true,false,joint 3 -,false,2024-03-03 16:50:22.692567,16.633,0.2,235.0,128.7333526611328,276.0695495605469,40.11870193481445,45.0,65.0,51.0,17.440025329589844,-20.0
32,40,100,60,go_to_color_detect_up_from_color_detect_down,green,true,false,joint 3 -,false,2024-03-03 16:50:23.382670,16.633,0.158,235.0,131.63958740234375,282.3019714355469,78.80244445800781,45.0,65.0,51.0,2.0800323486328125,-20.0
32,40,100,60,detecting_color,green,false,false,detecting_color,false,2024-03-03 16:50:24.775562,16.709,0.158,235.0,131.69407653808594,282.4188232421875,84.958251953125,45.0,65.0,51.0,0.0,-20.0
32,40,100,60,go_to_color_detect_down,green,true,false,joint 3 +,false,2024-03-03 16:50:25.617736,16.424,0.156,235.0,131.54275512695312,282.0943298339844,74.70404815673828,45.0,65.0,51.0,4.320000648498535,-20.0
32,40,100,60,go_to_color_detect_down,green,true,false,joint 3 +,false,2024-03-03 16:50:26.376310,16.424,0.156,235.0,127.45828247070312,273.33514404296875,31.608154296875,45.0,65.0,51.0,21.599990844726562,-20.0
32,40,100,60,go_to_color_detect_down,green,true,false,joint 3 +,false,2024-03-03 16:50:27.218684,16.31,0.156,235.0,119.41828155517578,256.09332275390625,-2.7691268920898438,45.0,65.0,51.0,36.95997619628906,-20.0
32,40,100,60,go_to_color_detect_up_from_color_detect_down,green,true,false,joint 3 -,true,2024-03-03 16:50:28.844886,16.348,0.155,235.0,111.81121826171875,239.7799072265625,-22.83026885986328,45.0,65.0,51.0,46.87999725341797,-20.0
32,40,100,60,go_to_color_detect_up_from_color_detect_down,green,true,false,joint 3 -,true,2024-03-03 16:50:29.533184,19.253,0.211,235.0,123.41422271728516,264.6626281738281,11.636039733886719,45.0,65.0,51.0,29.600013732910156,-20.0
32,40,100,60,go_to_color_detect_up_from_color_detect_down,green,true,false,joint 3 -,true,2024-03-03 16:50:30.921808,22.386,0.211,235.0,129.6989288330078,278.1402282714844,48.0033073425293,45.0,65.0,51.0,14.240028381347656,-20.0
32,40,100,60,go_to_blue_up,blue,true,false,joint 1 +,true,2024-03-03 16:50:31.606446,22.045,0.211,235.0,131.69406127929688,282.4187927246094,84.85554504394531,45.0,65.0,51.0,3.2607465982437134e-05,-20.0
32,40,100,60,go_to_blue_up,blue,true,false,joint 1 +,true,2024-03-03 16:50:32.985011,21.969,0.203,235.0,54.75398635864258,306.7665710449219,84.958251953125,59.87998962402344,80.19998931884766,51.0,0.0,-20.0
32,40,100,60,go_to_pick_up_from_blue,blue,true,false,joint 1 -,false,2024-03-03 16:50:33.673931,21.969,0.203,235.0,62.445701599121094,305.2937316894531,84.958251953125,58.44000244140625,78.12000274658203,51.0,0.0,-20.0
32,40,100,60,go_to_pick_up_from_blue,blue,true,false,joint 1 -,false,2024-03-03 16:50:34.365617,20.639,0.196,235.0,141.08224487304688,277.8480224609375,84.958251953125,43.08001708984375,62.76001739501953,51.0,0.0,-20.0
32,40,100,60,go_to_pick_up_from_blue,blue,true,false,joint 1 -,false,2024-03-03 16:50:35.753973,16.31,0.196,235.0,217.24676513671875,223.40003967285156,84.958251953125,25.800033569335938,45.48003387451172,51.0,0.0,-20.0
32,40,100,60,go_to_pick_up_from_blue,blue,true,false,joint 1 -,false,2024-03-03 16:50:36.443663,16.367,0.156,235.0,268.6616516113281,157.8754119873047,84.958251953125,10.440048217773438,30.12004852294922,51.0,0.0,-20.0
32,40,100,60,moving_belt,blue,false,true,joint 1 -,false,2024-03-03 16:50:37.839778,16.386,0.156,235.0,292.8220520019531,106.5785140991211,84.958251953125,0.0,20.0,51.0,0.0,-20.0
32,40,100,60,moving_belt,blue,false,true,joint 1 -,false,2024-03-03 16:50:38.528474,16.386,0.157,235.0,292.8220520019531,106.5785140991211,84.958251953125,0.0,20.0,51.0,0.0,-20.0
32,40,100,60,moving_belt,blue,false,true,joint 1 -,false,2024-03-03 16:50:39.904916,16.69,0.157,235.0,292.8220520019531,106.5785140991211,84.958251953125,0.0,20.0,51.0,0.0,-20.0
32,40,100,60,moving_belt,blue,false,true,joint 1 -,false,2024-03-03 16:50:40.595179,16.538,0.156,235.0,292.8220520019531,106.5785140991211,84.958251953125,0.0,20.0,51.0,0.0,-20.0
32,40,100,60,moving_belt,blue,false,true,joint 1 -,false,2024-03-03 16:50:41.995678,16.576,0.156,235.0,292.8220520019531,106.5785140991211,84.958251953125,0.0,20.0,51.0,0.0,-20.0
32,40,100,60,go_to_pick_down,blue,true,false,joint 3 +,false,2024-03-03 16:50:42.688370,16.443,0.156,235.0,290.41131591796875,105.7010726928711,57.614845275878906,0.0,20.0,51.0,11.039998054504395,-20.0
32,40,100,60,go_to_pick_up_from_pick_down,blue,true,false,joint 3 -,true,2024-03-03 16:50:43.378003,16.443,0.156,235.0,283.5084533691406,103.18864440917969,31.895137786865234,0.0,20.0,51.0,20.87999725341797,-20.0
32,40,100,60,go_to_pick_up_from_pick_down,blue,true,false,joint 3 -,true,2024-03-03 16:50:44.789916,23.07,0.211,235.0,292.1051330566406,106.31757354736328,70.0008544921875,0.0,20.0,51.0,5.520008087158203,-20.0
32,40,100,60,go_to_color_detect_up_from_pick_up,blue,true,false,joint 1 +,true,2024-03-03 16:50:45.488434,23.07,0.211,235.0,275.54693603515625,145.5253448486328,84.958251953125,7.839996337890625,28.159996032714844,51.0,0.0,-20.0
32,40,100,60,go_to_color_detect_up_from_pick_up,blue,true,false,joint 1 +,true,2024-03-03 16:50:46.862650,21.874,0.202,235.0,227.1574249267578,213.31488037109375,84.958251953125,23.199981689453125,43.519981384277344,51.0,0.0,-20.0
32,40,100,60,go_to_color_detect_up_from_pick_up,blue,true,false,joint 1 +,true,2024-03-03 16:50:47.578405,21.855,0.202,235.0,162.54006958007812,265.865478515625,84.958251953125,38.559967041015625,58.879966735839844,51.0,0.0,-20.0
32,40,100,60,go_to_color_detect_down,blue,true,false,joint 3 +,true,2024-03-03 16:50:48.953660,21.893,0.202,235.0,131.1597442626953,281.2729797363281,65.72002410888672,45.0,65.0,51.0,7.840002536773682,-20.0
32,40,100,60,go_to_color_detect_down,blue,true,false,joint 3 +,true,2024-03-03 16:50:49.642477,21.76,0.202,235.0,126.80616760253906,271.9366760253906,27.80432891845703,45.0,65.0,51.0,23.199989318847656,-20.0
32,40,100,60,go_to_color_detect_down,blue,true,false,joint 3 +,true,2024-03-03 16:50:50.330781,21.817,0.202,235.0,118.36363983154297,253.83163452148438,-6.0283660888671875,45.0,65.0,51.0,38.559974670410156,-20.0
32,40,100,60,go_to_color_detect_up_from_color_detect_down,blue,true,false,joint 3 -,false,2024-03-03 16:50:51.799472,21.779,0.2,235.0,114.25808715820312,245.02725219726562,-17.156532287597656,45.0,65.0,51.0,43.68000030517578,-20.0
32,40,100,60,go_to_color_detect_up_from_color_detect_down,blue,true,false,joint 3 -,false,2024-03-03 16:50:52.489174,19.139,0.2,235.0,124.0929946899414,266.1182556152344,14.50042724609375,45.0,65.0,51.0,28.32001495361328,-20.0
32,40,100,60,go_to_color_detect_up_from_color_detect_down,blue,true,false,joint 3 -,false,2024-03-03 16:50:53.709201,19.139,0.2,235.0,130.0327911376953,278.8562316894531,51.19080352783203,45.0,65.0,51.0,12.960029602050781,-20.0
32,40,100,60,detecting_color,blue,false,false,detecting_color,false,2024-03-03 16:50:54.404883,16.367,0.157,235.0,131.69407653808594,282.4188232421875,84.958251953125,45.0,65.0,51.0,0.0,-20.0
32,40,100,60,detecting_color,blue,false,false,detecting_color,false,2024-03-03 16:50:56.011524,16.519,0.156,235.0,131.69407653808594,282.4188232421875,84.958251953125,45.0,65.0,51.0,0.0,-20.0
32,40,100,60,go_to_color_detect_down,blue,true,false,joint 3 +,false,2024-03-03 16:50:56.699341,16.519,0.156,235.0,130.73513793945312,280.3623962402344,59.2298583984375,45.0,65.0,51.0,10.40000057220459,-20.0
32,40,100,60,go_to_color_detect_down,blue,true,false,joint 3 +,false,2024-03-03 16:50:57.414943,16.272,0.156,235.0,125.67017364501953,269.50054931640625,21.81212615966797,45.0,65.0,51.0,25.759986877441406,-20.0
32,40,100,60,go_to_color_detect_down,blue,true,false,joint 3 +,false,2024-03-03 16:50:58.795553,16.12,0.155,235.0,116.5974349975586,250.0439910888672,-11.094528198242188,45.0,65.0,51.0,41.119972229003906,-20.0
32,40,100,60,go_to_color_detect_up_from_color_detect_down,blue,true,false,joint 3 -,true,2024-03-03 16:50:59.485850,16.12,0.155,235.0,116.14105224609375,249.06527709960938,-12.331558227539062,45.0,65.0,51.0,41.12000274658203,-20.0
32,40,100,60,go_to_color_detect_up_from_color_detect_down,blue,true,false,joint 3 -,true,2024-03-03 16:51:00.866096,22.69,0.174,235.0,125.36858367919922,268.8537902832031,20.333236694335938,45.0,65.0,51.0,25.76001739501953,-20.0
32,40,100,60,go_to_color_detect_up_from_color_detect_down,blue,true,false,joint 3 -,true,2024-03-03 16:51:01.552960,22.215,0.174,235.0,130.60986328125,280.09375,57.61476135253906,45.0,65.0,51.0,10.400032043457031,-20.0
32,40,100,60,go_to_red_up,red,true,false,joint 1 +,true,2024-03-03 16:51:02.944560,22.234,0.205,235.0,116.53118133544922,289.00555419921875,84.958251953125,48.040000915527344,68.36000061035156,51.0,0.0,-20.0
32,40,100,60,go_to_red_up,red,true,false,joint 1 +,true,2024-03-03 16:51:03.630888,21.969,0.205,235.0,35.81619644165039,309.549560546875,84.958251953125,63.399986267089844,83.71998596191406,51.0,0.0,-20.0
32,40,100,60,go_to_red_up,red,true,false,joint 1 +,true,2024-03-03 16:51:05.015564,21.855,0.202,235.0,-47.45752716064453,307.979736328125,84.958251953125,78.75997161865234,99.07997131347656,51.0,0.0,-20.0
32,40,100,60,go_to_red_up,red,true,false,joint 1 +,true,2024-03-03 16:51:05.703263,22.045,0.202,235.0,-136.7981719970703,279.98211669921875,84.958251953125,96.03995513916016,116.35995483398438,51.0,0.0,-20.0
32,40,100,60,go_to_pick_up_from_red,red,true,false,joint 1 -,false,2024-03-03 16:51:06.424678,21.988,0.202,235.0,-166.42018127441406,263.4540710449219,84.958251953125,102.2800064086914,121.96000671386719,51.0,0.0,-20.0
32,40,100,60,go_to_pick_up_from_red,red,true,false,joint 1 -,false,2024-03-03 16:51:07.813351,21.38,0.202,235.0,-89.02483367919922,298.62738037109375,84.958251953125,86.60002136230469,106.28002166748047,51.0,0.0,-20.0
32,40,100,60,go_to_pick_up_from_red,red,true,false,joint 1 -,false,2024-03-03 16:51:08.547194,16.386,0.156,235.0,3.6979944705963135,311.5927734375,84.958251953125,69.32003784179688,89.00003814697266,51.0,0.0,-20.0
32,40,100,60,go_to_pick_up_from_red,red,true,false,joint 1 -,false,2024-03-03 16:51:09.929786,16.405,0.156,235.0,86.10147094726562,299.48333740234375,84.958251953125,53.960052490234375,73.64005279541016,51.0,0.0,-20.0
32,40,100,60,go_to_pick_up_from_red,red,true,false,joint 1 -,false,2024-03-03 16:51:10.615491,16.405,0.156,235.0,162.35394287109375,265.97918701171875,84.958251953125,38.600067138671875,58.280067443847656,51.0,0.0,-20.0
32,40,100,60,go_to_pick_up_from_red,red,true,false,joint 1 -,false,2024-03-03 16:51:12.013697,16.196,0.155,235.0,234.0328369140625,205.74827575683594,84.958251953125,21.320083618164062,41.000083923339844,51.0,0.0,-20.0
32,40,100,60,go_to_pick_up_from_red,red,true,false,joint 1 -,false,2024-03-03 16:51:12.710887,16.196,0.155,235.0,280.1725158691406,136.40782165527344,84.958251953125,5.9600982666015625,25.640098571777344,51.0,0.0,-20.0
32,40,100,60,moving_belt,red,false,true,joint 1 -,false,2024-03-03 16:51:13.399165,16.31,0.155,235.0,292.8220520019531,106.5785140991211,84.958251953125,0.0,20.0,51.0,0.0,-20.0
