demetriskallis/dobot_magician_pick_and_place_and_color_sorting/Sampling/WholeSystemExperiments_training_data/payload_32g/joint_measurements__armv_100_arma_100_belts_30_cube_32g_v1_green_failed.csv
cube/weight,arm/velocity_ratio,arm/acceleration_ratio,belt/speed,dobot/operation,dobot/color,dobot/moving_arm,dobot/moving_belt,dobot/operation2,dobot/suction,meross/sample_timestamp,meross/power,meross/current,meross/voltage,dobot/pose_x,dobot/pose_y,dobot/pose_z,dobot/pose_rHead,dobot/pose_joint1Angle,dobot/pose_joint2Angle,dobot/pose_joint3Angle,dobot/pose_joint4Angle
32,100,100,30,homing,,,,homing,,,,,,173.3205566,61.86724472,57.93791962,-0.355838776,19.24416161,-0.361531734,31.61531448,-20
32,100,100,30,homing,,,,homing,,,,,,184.0259094,1.426642537,57.93791962,-19.55582809,0.044170976,-0.361531734,31.61531448,-20
32,100,100,30,homing,,,,homing,,,,,,174.2589111,-59.17267609,57.93791962,-38.75582123,-19.15582085,-0.361531734,31.61531448,-20
32,100,100,30,homing,,,,homing,,,,,,141.0673981,-118.1844254,57.93791962,-59.95583725,-40.35583878,-0.361531734,31.61531448,-20
32,100,100,30,homing,,,,homing,,20:51.3,16.177,0.157,236.8,94.35359192,-158.003067,57.93791962,-79.15591431,-59.55591202,-0.361531734,31.61531448,-20
32,100,100,30,homing,,,,homing,,20:52.0,16.177,0.157,235,37.14315414,-180.2441559,57.93791962,-98.35597992,-78.75598145,-0.361531734,31.61531448,-20
32,100,100,30,homing,,,,homing,,20:53.4,16.215,0.156,235,-31.81772995,-181.2600403,57.93791962,-119.9560623,-100.3560638,-0.361531734,31.61531448,-20
32,100,100,30,homing,,,,homing,,20:54.1,16.101,0.156,235,-89.65853119,-160.7137604,57.93791962,-139.1561279,-119.5561371,-0.361531734,31.61531448,-20
32,100,100,30,homing,,,,homing,,20:55.5,16.158,0.157,235,-133.880249,-126.2681503,57.93791962,-156.6760254,-136.6560211,-0.361531734,31.61531448,-20
32,100,100,30,homing,,,,homing,,20:56.1,16.291,0.157,235,-131.4759827,-128.7696838,57.93791962,-155.5957947,-135.5757904,-0.361531734,31.61531448,-20
32,100,100,30,homing,,,,homing,,20:57.5,16.177,0.157,236.8,-116.4403381,-145.2534332,57.11753082,-148.1587219,-128.3209076,0.826852202,32.01064301,-19.4069252
32,100,100,30,homing,,,,homing,,20:58.2,16.177,0.157,236.8,-38.16753006,-193.594101,51.97849274,-117.6420898,-100.5529633,6.847149849,34.01335526,-16.40243912
32,100,100,30,homing,,,,homing,,20:59.6,16.576,0.157,235,67.98719025,-206.2143555,38.90322113,-82.75120544,-71.15303802,17.95356178,37.708004,-10.85968113
32,100,100,30,homing,,,,homing,,21:00.3,16.595,0.158,235,184.3601227,-151.1826324,17.2234726,-43.69094467,-38.75312042,31.21269035,42.11877823,-4.242587566
32,100,100,30,homing,,,,homing,,21:01.0,16.595,0.158,235,243.1692352,-46.74656296,4.000656128,-11.84057617,-10.37666225,37.88169861,44.33728409,-0.914360762
32,100,100,30,homing,,,,homing,,21:02.4,16.424,0.158,235,254.2658539,-0.906497777,-1.17350769,-0.204267591,-0.196811646,41.2976532,44.23835373,0
32,100,100,30,homing,,,,homing,,21:03.1,16.424,0.158,235,249.9999847,0.00017966,-7.63E-06,4.12E-05,4.12E-05,39.71385956,44.94676971,0
32,100,100,30,homing,,,,homing,,21:04.4,16.253,0.156,235,249.9999847,0.00017966,-7.63E-06,4.12E-05,4.12E-05,39.71385956,44.94676971,0
32,100,100,30,homing,,,,homing,,21:05.1,16.196,0.156,235,249.9999847,0.00017966,-7.63E-06,4.12E-05,4.12E-05,39.71385956,44.94676971,0
32,100,100,30,homing,,,,homing,,21:06.5,16.196,0.156,235,249.9999847,0.00017966,-7.63E-06,4.12E-05,4.12E-05,39.71385956,44.94676971,0
32,100,100,30,homing,,,,homing,,21:07.2,16.063,0.156,235,249.9999847,0.00017966,-7.63E-06,4.12E-05,4.12E-05,39.71385956,44.94676971,0
32,100,100,30,homing,,,,homing,,21:08.6,16.177,0.156,235,249.9999847,0.00017966,-7.63E-06,4.12E-05,4.12E-05,39.71385956,44.94676971,0
32,100,100,30,homing,,,,homing,,21:09.3,16.177,0.156,235,249.9999847,0.00017966,-7.63E-06,4.12E-05,4.12E-05,39.71385956,44.94676971,0
32,100,100,30,homing,,,,homing,,21:10.0,16.063,0.156,235,249.9999847,0.00017966,-7.63E-06,4.12E-05,4.12E-05,39.71385956,44.94676971,0
32,100,100,30,homing,,,,homing,,21:11.4,16.31,0.157,235,249.9999847,0.00017966,-7.63E-06,4.12E-05,4.12E-05,39.71385956,44.94676971,0
32,100,100,30,homing,,,,homing,,21:12.1,16.31,0.157,235,249.9999847,0.00017966,-7.63E-06,4.12E-05,4.12E-05,39.71385956,44.94676971,0
32,100,100,30,homing,,,,homing,,21:13.4,16.12,0.157,235,249.9999847,0.00017966,-7.63E-06,4.12E-05,4.12E-05,39.71385956,44.94676971,0
32,100,100,30,homing,,,,homing,,21:14.1,16.006,0.156,235,249.9999847,0.00017966,-7.63E-06,4.12E-05,4.12E-05,39.71385956,44.94676971,0
32,100,100,30,homing,,,,homing,,21:15.5,16.139,0.156,235,251.0473633,4.376187801,2.871078491,4.12E-05,1.179275751,39.10563278,43.60620117,-1.179234624
32,100,100,30,homing,,,,homing,,21:16.2,16.443,0.157,235,271.9902954,90.60756683,57.1932869,4.20E-05,18.64139557,40.47680283,17.70725632,-18.64135361
32,100,100,30,go_to_pick_up_from_homing,nothing,,,go_to_pick_up_from_homing,,21:16.9,16.443,0.157,235,290.6334229,106.2708893,81.85865784,3.81E-06,20.06955719,49.88284683,1.777727485,-20.06955528
32,100,100,30,moving_belt,nothing,FALSE,TRUE,go_to_pick_up_from_homing,,21:18.3,16.804,0.161,235,292.822052,106.5785141,84.95825195,0,20,51,0,-20
32,100,100,30,moving_belt,nothing,FALSE,TRUE,go_to_pick_up_from_homing,,21:19.0,17.298,0.161,236.8,292.822052,106.5785141,84.95825195,0,20,51,0,-20
32,100,100,30,moving_belt,nothing,FALSE,TRUE,go_to_pick_up_from_homing,,21:20.4,17.601,0.167,236.8,292.822052,106.5785141,84.95825195,0,20,51,0,-20
32,100,100,30,moving_belt,nothing,FALSE,TRUE,go_to_pick_up_from_homing,,21:21.1,17.715,0.167,236.8,292.822052,106.5785141,84.95825195,0,20,51,0,-20
32,100,100,30,moving_belt,nothing,FALSE,TRUE,go_to_pick_up_from_homing,,21:22.5,17.506,0.167,236.8,292.822052,106.5785141,84.95825195,0,20,51,0,-20
32,100,100,30,moving_belt,nothing,FALSE,TRUE,go_to_pick_up_from_homing,,21:23.2,17.582,0.167,236.8,292.822052,106.5785141,84.95825195,0,20,51,0,-20
32,100,100,30,moving_belt,nothing,FALSE,TRUE,go_to_pick_up_from_homing,,21:24.6,17.544,0.168,236.8,292.822052,106.5785141,84.95825195,0,20,51,0,-20
32,100,100,30,moving_belt,nothing,FALSE,TRUE,go_to_pick_up_from_homing,,21:25.3,17.544,0.168,236.8,292.822052,106.5785141,84.95825195,0,20,51,0,-20
32,100,100,30,moving_belt,nothing,FALSE,TRUE,go_to_pick_up_from_homing,,21:26.0,17.544,0.168,235,292.822052,106.5785141,84.95825195,0,20,51,0,-20
32,100,100,30,go_to_pick_down,nothing,TRUE,FALSE,joint 3 +,TRUE,21:27.4,17.62,0.168,235,282.7709961,102.9202271,29.91052246,0,20,51,22,-20
32,100,100,30,go_to_color_detect_up_from_pick_up,nothing,TRUE,FALSE,joint 1 +,TRUE,21:28.1,16.253,0.168,235,292.8217468,106.5784073,84.649086,0,20,51,0.044337414,-20
32,100,100,30,go_to_color_detect_up_from_pick_up,nothing,TRUE,FALSE,joint 1 +,TRUE,21:29.4,23.583,0.212,235,183.7216797,251.6944122,84.95825195,33.87281799,54.79610062,51,0,-20
32,100,100,30,go_to_color_detect_down,nothing,TRUE,FALSE,joint 3 +,TRUE,21:30.1,22.69,0.212,235,129.5434113,277.8067322,46.61455154,45,65,51,16.23999786,-20
32,100,100,30,go_to_color_detect_up_from_color_detect_down,nothing,TRUE,FALSE,joint 3 -,FALSE,21:31.0,22.291,0.212,235,111.3318787,238.7519684,-23.87106323,45,65,51,47.59999847,-20
32,100,100,30,go_to_color_detect_up_from_color_detect_down,nothing,TRUE,FALSE,joint 3 -,FALSE,21:32.5,16.88,0.206,235,131.3155365,281.6070557,68.75533295,45,65,51,5.636942863,-20
32,100,100,30,detecting_color,nothing,FALSE,FALSE,detecting_color,FALSE,21:33.2,16.88,0.161,235,131.6940765,282.4188232,84.95825195,45,65,51,-4.66E-10,-20
32,100,100,30,go_to_color_detect_down,nothing,TRUE,FALSE,joint 3 +,FALSE,21:34.6,16.234,0.161,235,131.6744537,282.37677,81.26412964,45,65,51,1.799999595,-20
32,100,100,30,go_to_color_detect_down,nothing,TRUE,FALSE,joint 3 +,FALSE,21:35.3,16.196,0.161,235,111.8780518,239.923233,-22.6834259,45,65,51,47.32715607,-20
32,100,100,30,go_to_color_detect_up_from_color_detect_down,nothing,TRUE,FALSE,joint 3 -,TRUE,21:35.9,16.196,0.157,235,127.8706589,274.2195129,34.18457794,45,65,51,18.95487976,-20
32,100,100,30,go_to_red_up,red,TRUE,FALSE,joint 1 +,TRUE,21:37.3,23.583,0.157,235,113.4983368,290.210022,84.95825195,48.64000702,69.20000458,51,-4.66E-10,-20
32,100,100,30,go_to_red_up,red,TRUE,FALSE,joint 1 +,TRUE,21:38.0,22.5,0.21,235,-169.7779083,261.3028564,84.95825195,103.0132294,123.3916168,51,-4.66E-10,-20
32,100,100,30,go_to_pick_up_from_red,red,TRUE,FALSE,joint 1 -,FALSE,21:39.4,22.709,0.21,235,-60.52626419,305.6800842,84.95825195,81.19999695,99.79999542,51,-4.66E-10,-20
32,100,100,30,go_to_pick_up_from_red,red,TRUE,FALSE,joint 1 -,FALSE,21:40.1,16.367,0.165,235,275.1394653,146.29422,84.95825195,7.999992371,27.21999168,51,-4.66E-10,-20
32,100,100,30,moving_belt,red,FALSE,TRUE,joint 1 -,FALSE,21:41.5,16.215,0.165,235,292.822052,106.5785141,84.95825195,0,20,51,-4.66E-10,-20
32,100,100,30,moving_belt,red,FALSE,TRUE,joint 1 -,FALSE,21:42.1,16.215,0.169,235,292.822052,106.5785141,84.95825195,0,20,51,-4.66E-10,-20
32,100,100,30,moving_belt,red,FALSE,TRUE,joint 1 -,FALSE,21:43.5,17.715,0.169,235,292.822052,106.5785141,84.95825195,0,20,51,-4.66E-10,-20
32,100,100,30,moving_belt,red,FALSE,TRUE,joint 1 -,FALSE,21:44.2,17.715,0.167,235,292.822052,106.5785141,84.95825195,0,20,51,-4.66E-10,-20
32,100,100,30,moving_belt,red,FALSE,TRUE,joint 1 -,FALSE,21:44.9,17.449,0.167,235,292.822052,106.5785141,84.95825195,0,20,51,-4.66E-10,-20
32,100,100,30,moving_belt,red,FALSE,TRUE,joint 1 -,FALSE,21:46.3,17.62,0.166,235,292.822052,106.5785141,84.95825195,0,20,51,-4.66E-10,-20
32,100,100,30,moving_belt,red,FALSE,TRUE,joint 1 -,FALSE,21:47.0,17.563,0.166,235,292.822052,106.5785141,84.95825195,0,20,51,-4.66E-10,-20
32,100,100,30,moving_belt,red,FALSE,TRUE,joint 1 -,FALSE,21:48.4,17.563,0.165,235,292.822052,106.5785141,84.95825195,0,20,51,-4.66E-10,-20
32,100,100,30,moving_belt,red,FALSE,TRUE,joint 1 -,FALSE,21:49.1,17.563,0.165,235,292.822052,106.5785141,84.95825195,0,20,51,-4.66E-10,-20
32,100,100,30,go_to_pick_down,red,TRUE,FALSE,joint 3 +,FALSE,21:50.5,16.918,0.165,236.8,284.6309814,103.5972061,35.0909729,0,20,51,20.2263279,-20
32,100,100,30,go_to_pick_up_from_pick_down,red,TRUE,FALSE,joint 3 -,TRUE,21:51.2,16.918,0.157,236.8,292.5497437,106.4794006,75.73231506,0,20,51,3.082166433,-20
32,100,100,30,go_to_color_detect_up_from_pick_up,red,TRUE,FALSE,joint 1 +,TRUE,21:52.6,22.975,0.157,235,234.749939,204.9297638,84.95825195,21.11999893,42.43999863,51,0,-20
32,100,100,30,go_to_color_detect_down,red,TRUE,FALSE,joint 3 +,TRUE,21:53.3,22.994,0.21,235,131.4761963,281.9515991,72.65760803,45,65,51,5.439999104,-20
32,100,100,30,go_to_color_detect_down,red,TRUE,FALSE,joint 3 +,TRUE,21:54.0,22.994,0.21,235,111.6781311,239.4945068,-23.12142944,45,65,51,47.53843689,-20
32,100,100,30,go_to_color_detect_up_from_color_detect_down,red,TRUE,FALSE,joint 3 -,FALSE,21:55.3,22.121,0.207,235,130.4863892,279.828949,56.11413574,45,65,51,10.3846302,-20
32,100,100,30,detecting_color,red,FALSE,FALSE,detecting_color,FALSE,21:56.0,22.121,0.207,235,131.6940765,282.4188232,84.95825195,45,65,51,-4.66E-10,-20
32,100,100,30,go_to_color_detect_down,red,TRUE,FALSE,joint 3 +,FALSE,21:57.4,17.146,0.156,235,131.6940765,282.4188232,84.95825195,45,65,51,-4.66E-10,-20
32,100,100,30,go_to_color_detect_down,red,TRUE,FALSE,joint 3 +,FALSE,21:58.1,16.234,0.156,236.8,115.472641,247.6318665,-14.0941925,45,65,51,43.01434326,-20
32,100,100,30,go_to_color_detect_up_from_color_detect_down,red,TRUE,FALSE,joint 3 -,TRUE,21:59.5,16.253,0.162,236.8,121.7422409,261.0770569,5.154693604,45,65,51,31.76000214,-20
32,100,100,30,go_to_green_up,green,TRUE,FALSE,joint 1 +,TRUE,22:00.2,23.659,0.162,235,126.1485901,284.9390564,84.95825195,46.12000275,66.44000244,51,-4.66E-10,-20
32,100,100,30,go_to_green_up,green,TRUE,FALSE,joint 1 +,TRUE,22:01.6,23.127,0.212,235,-74.30796814,302.6252747,84.95825195,83.79573059,104.085556,51,-4.66E-10,-20
32,100,100,30,go_to_pick_up_from_green,green,TRUE,FALSE,joint 1 -,FALSE,22:02.2,23.127,0.212,235,70.73384857,303.4805603,84.95825195,56.87998962,75.35999298,51,-4.66E-10,-20
32,100,100,30,go_to_pick_up_from_green,green,TRUE,FALSE,joint 1 -,FALSE,22:03.6,18.228,0.158,235,291.1213684,111.1399307,84.95825195,0.895103455,20.64728546,51,-4.66E-10,-20
32,100,100,30,moving_belt,green,FALSE,TRUE,joint 1 -,FALSE,22:04.3,16.31,0.158,235,292.822052,106.5785141,84.95825195,0,20,51,-4.66E-10,-20
32,100,100,30,moving_belt,green,FALSE,TRUE,joint 1 -,FALSE,22:05.0,17.753,0.158,235,292.822052,106.5785141,84.95825195,0,20,51,-4.66E-10,-20
32,100,100,30,moving_belt,green,FALSE,TRUE,joint 1 -,FALSE,22:06.4,17.601,0.167,235,292.822052,106.5785141,84.95825195,0,20,51,-4.66E-10,-20
32,100,100,30,moving_belt,green,FALSE,TRUE,joint 1 -,FALSE,22:07.1,17.601,0.167,235,292.822052,106.5785141,84.95825195,0,20,51,-4.66E-10,-20
32,100,100,30,moving_belt,green,FALSE,TRUE,joint 1 -,FALSE,22:08.4,17.753,0.166,235,292.822052,106.5785141,84.95825195,0,20,51,-4.66E-10,-20
32,100,100,30,moving_belt,green,FALSE,TRUE,joint 1 -,FALSE,22:09.1,17.753,0.166,235,292.822052,106.5785141,84.95825195,0,20,51,-4.66E-10,-20
32,100,100,30,moving_belt,green,FALSE,TRUE,joint 1 -,FALSE,22:10.5,17.658,0.167,235,292.822052,106.5785141,84.95825195,0,20,51,-4.66E-10,-20
32,100,100,30,moving_belt,green,FALSE,TRUE,joint 1 -,FALSE,22:11.2,17.411,0.167,235,292.822052,106.5785141,84.95825195,0,20,51,-4.66E-10,-20
32,100,100,30,go_to_pick_down,green,TRUE,FALSE,joint 3 +,FALSE,22:12.6,17.582,0.167,235,292.822052,106.5785141,84.95825195,0,20,51,0.039999999,-20
32,100,100,30,go_to_pick_up_from_pick_down,green,TRUE,FALSE,joint 3 -,TRUE,22:13.4,17.393,0.167,235,282.7636108,102.9175491,29.89107895,0,20,51,22,-20
32,100,100,30,go_to_color_detect_up_from_pick_up,green,TRUE,FALSE,joint 1 +,TRUE,22:14.4,17.393,0.167,235,292.822052,106.5785141,84.93728638,0,20,51,0,-20
32,100,100,30,go_to_color_detect_up_from_pick_up,green,TRUE,FALSE,joint 1 +,TRUE,22:15.1,22.405,0.215,235,152.2978363,271.8622742,84.95825195,40.74235153,61.30563354,51,0,-20
32,100,100,30,go_to_color_detect_down,green,TRUE,FALSE,joint 3 +,TRUE,22:16.5,22.633,0.215,236.8,128.4491882,275.4601746,38.07123947,45,65,51,19.83999634,-20
32,100,100,30,go_to_color_detect_up_from_color_detect_down,green,TRUE,FALSE,joint 3 -,FALSE,22:17.2,22.158,0.203,236.8,111.4601364,239.0270233,-23.59469604,45,65,51,47.39999771,-20
32,100,100,30,go_to_color_detect_up_from_color_detect_down,green,TRUE,FALSE,joint 3 -,FALSE,22:18.6,21.855,0.203,236.8,131.642746,282.3087463,78.98388672,45,65,51,1.917972565,-20
32,100,100,30,detecting_color,green,FALSE,FALSE,detecting_color,FALSE,22:19.3,17.241,0.164,236.8,131.6940765,282.4188232,84.95825195,45,65,51,-4.66E-10,-20
32,100,100,30,go_to_color_detect_down,green,TRUE,FALSE,joint 3 +,FALSE,22:20.6,16.177,0.164,236.8,131.4142609,281.8187866,71.02216339,45,65,51,6.119998932,-20
32,100,100,30,go_to_color_detect_down,green,TRUE,FALSE,joint 3 +,FALSE,22:21.3,16.177,0.157,236.8,111.6781311,239.4945068,-23.12142944,45,65,51,47.53843689,-20
32,100,100,30,go_to_color_detect_up_from_color_detect_down,green,TRUE,FALSE,joint 3 -,TRUE,22:22.0,16.139,0.157,236.8,128.7387848,276.0812073,40.15884018,45,65,51,16.57231712,-20
32,100,100,30,go_to_blue_up,blue,TRUE,FALSE,joint 1 +,TRUE,22:23.4,22.937,0.213,236.8,84.63713074,299.9004822,84.95825195,54.24000549,75.12000275,51,-4.66E-10,-20
32,100,100,30,go_to_pick_up_from_blue,blue,TRUE,FALSE,joint 1 -,FALSE,22:24.1,22.937,0.213,236.8,76.65227509,302.0400085,84.95825195,55.75999451,74.87999725,51,-4.66E-10,-20
32,100,100,30,go_to_pick_up_from_blue,blue,TRUE,FALSE,joint 1 -,FALSE,22:25.5,16.367,0.157,236.8,287.9406128,119.1382675,84.95825195,2.477807999,22.05290413,51,-4.66E-10,-20
32,100,100,30,moving_belt,blue,FALSE,TRUE,joint 1 -,FALSE,22:26.2,16.367,0.157,236.8,292.822052,106.5785141,84.95825195,0,20,51,-4.66E-10,-20
32,100,100,30,moving_belt,blue,FALSE,TRUE,joint 1 -,FALSE,22:27.6,17.317,0.167,236.8,292.822052,106.5785141,84.95825195,0,20,51,-4.66E-10,-20
32,100,100,30,moving_belt,blue,FALSE,TRUE,joint 1 -,FALSE,22:28.2,17.582,0.167,236.8,292.822052,106.5785141,84.95825195,0,20,51,-4.66E-10,-20
32,100,100,30,moving_belt,blue,FALSE,TRUE,joint 1 -,FALSE,22:29.6,17.639,0.166,235,292.822052,106.5785141,84.95825195,0,20,51,-4.66E-10,-20
32,100,100,30,moving_belt,blue,FALSE,TRUE,joint 1 -,FALSE,22:30.3,17.506,0.166,235,292.822052,106.5785141,84.95825195,0,20,51,-4.66E-10,-20
32,100,100,30,moving_belt,blue,FALSE,TRUE,joint 1 -,FALSE,22:31.0,17.506,0.166,236.8,292.822052,106.5785141,84.95825195,0,20,51,-4.66E-10,-20
32,100,100,30,moving_belt,blue,FALSE,TRUE,joint 1 -,FALSE,22:32.4,17.487,0.166,236.8,292.822052,106.5785141,84.95825195,0,20,51,-4.66E-10,-20
32,100,100,30,moving_belt,blue,FALSE,TRUE,joint 1 -,FALSE,22:33.1,17.487,0.166,235,292.822052,106.5785141,84.95825195,0,20,51,-4.66E-10,-20
32,100,100,30,moving_belt,blue,FALSE,TRUE,joint 1 -,FALSE,22:34.5,17.582,0.166,235,292.822052,106.5785141,84.95825195,0,20,51,-4.66E-10,-20
32,100,100,30,go_to_pick_down,blue,TRUE,FALSE,joint 3 +,FALSE,22:35.1,17.658,0.166,235,282.8036194,102.932106,29.99657059,0,20,51,21.99182701,-20
32,100,100,30,go_to_color_detect_up_from_pick_up,blue,TRUE,FALSE,joint 1 +,TRUE,22:36.5,16.291,0.193,235,292.8217468,106.5784073,84.649086,0,20,51,0.044337414,-20
32,100,100,30,go_to_color_detect_up_from_pick_up,blue,TRUE,FALSE,joint 1 +,TRUE,22:37.2,23.336,0.193,235,183.7216797,251.6944122,84.95825195,33.87281799,54.79610062,51,0,-20
32,100,100,30,go_to_color_detect_down,blue,TRUE,FALSE,joint 3 +,TRUE,22:38.0,22.633,0.193,235,129.5434113,277.8067322,46.61455154,45,65,51,16.23999786,-20
32,100,100,30,go_to_color_detect_up_from_color_detect_down,blue,TRUE,FALSE,joint 3 -,FALSE,22:39.4,22.177,0.205,235,111.2354584,238.5451965,-24.07778931,45,65,51,47.75999832,-20
32,100,100,30,go_to_color_detect_up_from_color_detect_down,blue,TRUE,FALSE,joint 3 -,FALSE,22:40.1,22.291,0.205,235,131.223114,281.4088745,66.89193726,45,65,51,6.328224182,-20
32,100,100,30,detecting_color,blue,FALSE,FALSE,detecting_color,FALSE,22:41.5,16.937,0.162,235,131.6940765,282.4188232,84.95825195,45,65,51,-4.66E-10,-20
32,100,100,30,go_to_color_detect_down,blue,TRUE,FALSE,joint 3 +,FALSE,22:42.2,16.215,0.162,235,131.6634216,282.3530884,80.34087372,45,65,51,2.199999571,-20
32,100,100,30,go_to_color_detect_down,blue,TRUE,FALSE,joint 3 +,FALSE,22:43.6,16.253,0.156,235,111.6781311,239.4945068,-23.12142944,45,65,51,47.53843689,-20
32,100,100,30,go_to_color_detect_up_from_color_detect_down,blue,TRUE,FALSE,joint 3 -,TRUE,22:44.3,18.855,0.156,236.8,128.7387848,276.0812073,40.15884018,45,65,51,16.57231712,-20
32,100,100,30,go_to_red_up,red,TRUE,FALSE,joint 1 +,TRUE,22:45.7,23.374,0.216,236.8,107.5999832,292.4482422,84.95825195,49.80000305,70.44000244,51,-4.66E-10,-20
32,100,100,30,go_to_red_up,red,TRUE,FALSE,joint 1 +,TRUE,22:46.3,22.576,0.216,236.8,-173.0334625,259.1585388,84.95825195,103.7300034,124.028389,51,-4.66E-10,-20
32,100,100,30,go_to_pick_up_from_red,red,TRUE,FALSE,joint 1 -,FALSE,22:47.0,22.747,0.205,236.8,-37.32840347,309.3708496,84.95825195,76.87998962,95.35999298,51,-4.66E-10,-20
32,100,100,30,go_to_pick_up_from_red,red,TRUE,FALSE,joint 1 -,FALSE,22:48.4,16.253,0.205,236.8,280.5999146,135.5264282,84.95825195,5.77999115,25.1199913,51,-4.66E-10,-20
32,100,100,30,moving_belt,red,FALSE,TRUE,joint 1 -,FALSE,22:49.1,16.253,0.205,236.8,292.822052,106.5785141,84.95825195,0,20,51,-4.66E-10,-20
32,100,100,30,moving_belt,red,FALSE,TRUE,joint 1 -,FALSE,22:50.5,16.424,0.157,236.8,292.822052,106.5785141,84.95825195,0,20,51,-4.66E-10,-20
32,100,100,30,moving_belt,red,FALSE,TRUE,joint 1 -,FALSE,22:51.2,17.62,0.157,236.8,292.822052,106.5785141,84.95825195,0,20,51,-4.66E-10,-20
32,100,100,30,moving_belt,red,FALSE,TRUE,joint 1 -,FALSE,22:52.6,17.639,0.166,236.8,292.822052,106.5785141,84.95825195,0,20,51,-4.66E-10,-20
32,100,100,30,moving_belt,red,FALSE,TRUE,joint 1 -,FALSE,22:53.3,17.62,0.166,236.8,292.822052,106.5785141,84.95825195,0,20,51,-4.66E-10,-20
32,100,100,30,moving_belt,red,FALSE,TRUE,joint 1 -,FALSE,22:54.0,17.658,0.168,236.8,292.822052,106.5785141,84.95825195,0,20,51,-4.66E-10,-20
32,100,100,30,moving_belt,red,FALSE,TRUE,joint 1 -,FALSE,22:55.4,17.62,0.168,235,292.822052,106.5785141,84.95825195,0,20,51,-4.66E-10,-20
32,100,100,30,moving_belt,red,FALSE,TRUE,joint 1 -,FALSE,22:56.1,17.62,0.167,235,292.822052,106.5785141,84.95825195,0,20,51,-4.66E-10,-20
32,100,100,30,moving_belt,red,FALSE,TRUE,joint 1 -,FALSE,22:57.5,17.639,0.167,235,292.822052,106.5785141,84.95825195,0,20,51,-4.66E-10,-20
32,100,100,30,go_to_pick_down,red,TRUE,FALSE,joint 3 +,FALSE,22:58.2,17.639,0.168,235,283.7345581,103.2709351,32.52097702,0,20,51,21.17482758,-20
32,100,100,30,go_to_pick_up_from_pick_down,red,TRUE,FALSE,joint 3 -,TRUE,22:59.6,16.5,0.168,236.8,292.7558594,106.5544205,80.40839386,0,20,51,1.41750145,-20
32,100,100,30,go_to_color_detect_up_from_pick_up,red,TRUE,FALSE,joint 1 +,TRUE,23:00.3,23.374,0.209,236.8,215.3290558,225.249054,84.95825195,26.28984451,47.49312592,51,0,-20
32,100,100,30,go_to_color_detect_down,red,TRUE,FALSE,joint 3 +,TRUE,23:01.6,22.31,0.209,235,130.88797,280.6901245,61.35441971,45,65,51,10.11999893,-20
32,100,100,30,go_to_color_detect_up_from_color_detect_down,red,TRUE,FALSE,joint 3 -,FALSE,23:02.4,22.31,0.203,235,111.1430054,238.3469391,-24.27519226,45,65,51,48,-20
32,100,100,30,go_to_color_detect_up_from_color_detect_down,red,TRUE,FALSE,joint 3 -,FALSE,23:03.1,22.14,0.203,235,130.4863892,279.828949,56.11413574,45,65,51,10.3846302,-20
32,100,100,30,detecting_color,red,FALSE,FALSE,detecting_color,FALSE,23:04.4,18.342,0.16,235,131.6940765,282.4188232,84.95825195,45,65,51,-4.66E-10,-20
32,100,100,30,go_to_color_detect_down,red,TRUE,FALSE,joint 3 +,FALSE,23:05.1,16.557,0.16,235,131.6939392,282.4185486,84.65037537,45,65,51,0.23999995,-20
32,100,100,30,go_to_color_detect_down,red,TRUE,FALSE,joint 3 +,FALSE,23:06.5,16.158,0.16,235,116.4977417,249.8302002,-11.36716461,45,65,51,41.67177963,-20
32,100,100,30,go_to_color_detect_up_from_color_detect_down,red,TRUE,FALSE,joint 3 -,TRUE,23:07.2,16.386,0.157,235,124.9818192,268.024353,18.49610138,45,65,51,25.56000519,-20
32,100,100,30,go_to_green_up,green,TRUE,FALSE,joint 1 +,TRUE,23:08.6,23.469,0.157,235,122.7580948,286.4161072,84.95825195,46.80000305,67.20000458,51,-4.66E-10,-20
32,100,100,30,go_to_green_up,green,TRUE,FALSE,joint 1 +,TRUE,23:09.3,22.329,0.204,235,-77.15497589,301.9119873,84.95825195,84.33538055,104.5452042,51,-4.66E-10,-20
32,100,100,30,go_to_pick_up_from_green,green,TRUE,FALSE,joint 1 -,FALSE,23:10.7,22.462,0.204,236.8,138.5548859,279.1169434,84.95825195,43.59999466,61.75999451,51,-4.66E-10,-20
32,100,100,30,moving_belt,green,FALSE,TRUE,joint 1 -,FALSE,23:11.4,16.272,0.157,236.8,292.822052,106.5785141,84.95825195,0,20,51,-4.66E-10,-20
32,100,100,30,moving_belt,green,FALSE,TRUE,joint 1 -,FALSE,23:12.1,16.272,0.157,236.8,292.822052,106.5785141,84.95825195,0,20,51,-4.66E-10,-20
32,100,100,30,moving_belt,green,FALSE,TRUE,joint 1 -,FALSE,23:13.4,17.696,0.167,236.8,292.822052,106.5785141,84.95825195,0,20,51,-4.66E-10,-20
32,100,100,30,moving_belt,green,FALSE,TRUE,joint 1 -,FALSE,23:14.1,17.696,0.167,236.8,292.822052,106.5785141,84.95825195,0,20,51,-4.66E-10,-20
32,100,100,30,moving_belt,green,FALSE,TRUE,joint 1 -,FALSE,23:15.5,17.506,0.168,236.8,292.822052,106.5785141,84.95825195,0,20,51,-4.66E-10,-20
32,100,100,30,moving_belt,green,FALSE,TRUE,joint 1 -,FALSE,23:16.2,17.601,0.168,236.8,292.822052,106.5785141,84.95825195,0,20,51,-4.66E-10,-20
32,100,100,30,moving_belt,green,FALSE,TRUE,joint 1 -,FALSE,23:17.6,17.525,0.167,236.8,292.822052,106.5785141,84.95825195,0,20,51,-4.66E-10,-20
32,100,100,30,moving_belt,green,FALSE,TRUE,joint 1 -,FALSE,23:18.4,17.582,0.167,236.8,292.822052,106.5785141,84.95825195,0,20,51,-4.66E-10,-20
32,100,100,30,moving_belt,green,FALSE,TRUE,joint 1 -,FALSE,23:19.1,17.506,0.167,236.8,292.822052,106.5785141,84.95825195,0,20,51,-4.66E-10,-20
32,100,100,30,go_to_pick_down,green,TRUE,FALSE,joint 3 +,FALSE,23:20.5,17.544,0.166,236.8,292.8217468,106.5784073,84.65037537,0,20,51,0.24000001,-20
32,100,100,30,go_to_pick_up_from_pick_down,green,TRUE,FALSE,joint 3 -,TRUE,23:21.2,17.544,0.166,236.8,283.5084534,103.1886444,31.89513779,0,20,51,20.87999725,-20
32,100,100,30,go_to_color_detect_up_from_pick_up,green,TRUE,FALSE,joint 1 +,TRUE,23:22.5,23.45,0.17,236.8,292.0708618,108.6202011,84.95825195,0.400001526,20.60000229,51,0,-20
32,100,100,30,go_to_color_detect_up_from_pick_up,green,TRUE,FALSE,joint 1 +,TRUE,23:23.3,22.234,0.17,236.8,152.2978363,271.8622742,84.95825195,40.74235153,61.30563354,51,0,-20
32,100,100,30,go_to_color_detect_down,green,TRUE,FALSE,joint 3 +,TRUE,23:24.0,22.234,0.203,236.8,125.1656494,268.4185791,19.36129761,45,65,51,27.7938385,-20
32,100,100,30,go_to_color_detect_up_from_color_detect_down,green,TRUE,FALSE,joint 3 -,FALSE,23:25.4,22.158,0.203,235,113.5900192,243.594574,-18.76850891,45,65,51,44.3599968,-20
32,100,100,30,go_to_color_detect_up_from_color_detect_down,green,TRUE,FALSE,joint 3 -,FALSE,23:26.2,17.108,0.203,235,131.6714325,282.3703003,80.99049377,45,65,51,1.215409517,-20
32,100,100,30,detecting_color,green,FALSE,FALSE,detecting_color,FALSE,23:27.5,16.481,0.161,235,131.6940765,282.4188232,84.95825195,45,65,51,-4.66E-10,-20
32,100,100,30,go_to_color_detect_down,green,TRUE,FALSE,joint 3 +,FALSE,23:28.2,16.481,0.161,235,131.2519073,281.4706116,67.45097351,45,65,51,7.599998474,-20
32,100,100,30,go_to_color_detect_up_from_color_detect_down,green,TRUE,FALSE,joint 3 -,TRUE,23:29.6,16.158,0.157,235,111.2668076,238.6124268,-24.01065826,45,65,51,47.93228149,-20
32,100,100,30,go_to_color_detect_up_from_color_detect_down,green,TRUE,FALSE,joint 3 -,TRUE,23:30.3,16.348,0.157,235,130.4863892,279.828949,56.11413574,45,65,51,10.3846302,-20
32,100,100,30,go_to_blue_up,blue,TRUE,FALSE,joint 1 +,TRUE,23:31.7,23.336,0.215,235,84.63713074,299.9004822,84.95825195,54.24000549,75.12000275,51,-4.66E-10,-20
32,100,100,30,go_to_pick_up_from_blue,blue,TRUE,FALSE,joint 1 -,FALSE,23:32.4,22.158,0.215,235,107.1915665,292.5982056,84.95825195,49.87999725,68.75999451,51,-4.66E-10,-20
32,100,100,30,go_to_pick_up_from_blue,blue,TRUE,FALSE,joint 1 -,FALSE,23:33.1,19.177,0.173,235,291.8267517,109.2743912,84.95825195,0.528388977,20.34348679,51,-4.66E-10,-20
32,100,100,30,moving_belt,blue,FALSE,TRUE,joint 1 -,FALSE,23:34.4,16.253,0.173,235,292.822052,106.5785141,84.95825195,0,20,51,-4.66E-10,-20
32,100,100,30,moving_belt,blue,FALSE,TRUE,joint 1 -,FALSE,23:35.1,17.677,0.168,235,292.822052,106.5785141,84.95825195,0,20,51,-4.66E-10,-20
32,100,100,30,moving_belt,blue,FALSE,TRUE,joint 1 -,FALSE,23:36.5,17.582,0.168,235,292.822052,106.5785141,84.95825195,0,20,51,-4.66E-10,-20
32,100,100,30,moving_belt,blue,FALSE,TRUE,joint 1 -,FALSE,23:37.2,17.582,0.167,235,292.822052,106.5785141,84.95825195,0,20,51,-4.66E-10,-20
32,100,100,30,moving_belt,blue,FALSE,TRUE,joint 1 -,FALSE,23:38.6,17.563,0.167,236.8,292.822052,106.5785141,84.95825195,0,20,51,-4.66E-10,-20
32,100,100,30,moving_belt,blue,FALSE,TRUE,joint 1 -,FALSE,23:39.3,17.563,0.167,236.8,292.822052,106.5785141,84.95825195,0,20,51,-4.66E-10,-20
32,100,100,30,moving_belt,blue,FALSE,TRUE,joint 1 -,FALSE,23:40.6,17.563,0.167,236.8,292.822052,106.5785141,84.95825195,0,20,51,-4.66E-10,-20
32,100,100,30,moving_belt,blue,FALSE,TRUE,joint 1 -,FALSE,23:41.3,17.525,0.167,236.8,292.822052,106.5785141,84.95825195,0,20,51,-4.66E-10,-20
32,100,100,30,go_to_pick_down,blue,TRUE,FALSE,joint 3 +,FALSE,23:42.0,17.696,0.168,236.8,292.822052,106.5785141,84.95825195,0,20,51,-4.66E-10,-20
32,100,100,30,go_to_pick_up_from_pick_down,blue,TRUE,FALSE,joint 3 -,TRUE,23:43.4,17.013,0.168,236.8,282.8036194,102.932106,29.99657059,0,20,51,21.99182701,-20
32,100,100,30,go_to_color_detect_up_from_pick_up,blue,TRUE,FALSE,joint 1 +,TRUE,23:44.1,17.013,0.156,236.8,292.822052,106.5785141,84.95825195,0,20.04000092,51,0,-20
32,100,100,30,go_to_color_detect_up_from_pick_up,blue,TRUE,FALSE,joint 1 +,TRUE,23:45.5,22.576,0.156,236.8,164.7188873,264.5210876,84.95825195,38.08922577,58.81250763,51,0,-20
32,100,100,30,go_to_color_detect_down,blue,TRUE,FALSE,joint 3 +,TRUE,23:46.2,22.576,0.209,236.8,129.8381958,278.4388733,49.29616547,45,65,51,15.11999893,-20
32,100,100,30,go_to_color_detect_up_from_color_detect_down,blue,TRUE,FALSE,joint 3 -,FALSE,23:47.6,22.272,0.209,236.8,112.0333176,240.2562103,-22.34053802,45,65,51,46.55999756,-20
32,100,100,30,go_to_color_detect_up_from_color_detect_down,blue,TRUE,FALSE,joint 3 -,FALSE,23:48.3,20.62,0.202,236.8,131.5572662,282.1254578,75.20805359,45,65,51,3.271817207,-20
32,100,100,30,detecting_color,blue,FALSE,FALSE,detecting_color,FALSE,23:49.6,16.918,0.202,236.8,131.6940765,282.4188232,84.95825195,45,65,51,-4.66E-10,-20
32,100,100,30,go_to_color_detect_down,blue,TRUE,FALSE,joint 3 +,FALSE,23:50.3,16.918,0.158,236.8,131.6019897,282.221344,76.95742798,45,65,51,3.63999939,-20
32,100,100,30,go_to_color_detect_down,blue,TRUE,FALSE,joint 3 +,FALSE,23:51.0,16.139,0.158,236.8,112.3698502,240.9779053,-21.58929443,45,65,51,46.78459167,-20
32,100,100,30,go_to_color_detect_up_from_color_detect_down,blue,TRUE,FALSE,joint 3 -,TRUE,23:52.6,16.234,0.169,236.8,129.7558289,278.2622681,48.52571487,45,65,51,13.29847336,-20
32,100,100,30,go_to_red_up,red,TRUE,FALSE,joint 1 +,TRUE,23:53.2,23.45,0.169,235,97.12145233,296.0931702,84.95825195,51.84000397,72.6000061,51,-4.66E-10,-20
32,100,100,30,go_to_red_up,red,TRUE,FALSE,joint 1 +,TRUE,23:54.6,22.823,0.207,235,-169.7779083,261.3028564,84.95825195,103.0132294,123.3916168,51,-4.66E-10,-20
32,100,100,30,go_to_pick_up_from_red,red,TRUE,FALSE,joint 1 -,FALSE,23:55.3,20.298,0.207,235,-11.96224117,311.3850403,84.95825195,72.19999695,90.55999756,51,-4.66E-10,-20
32,100,100,30,go_to_pick_up_from_red,red,TRUE,FALSE,joint 1 -,FALSE,23:56.7,16.519,0.159,235,283.5573425,129.224472,84.95825195,4.499992371,23.91999245,51,-4.66E-10,-20
32,100,100,30,moving_belt,red,FALSE,TRUE,joint 1 -,FALSE,23:57.4,16.519,0.159,236.8,292.822052,106.5785141,84.95825195,0,20,51,-4.66E-10,-20
32,100,100,30,moving_belt,red,FALSE,TRUE,joint 1 -,FALSE,23:58.1,17.525,0.159,236.8,292.822052,106.5785141,84.95825195,0,20,51,-4.66E-10,-20
32,100,100,30,moving_belt,red,FALSE,TRUE,joint 1 -,FALSE,23:59.5,17.525,0.168,236.8,292.822052,106.5785141,84.95825195,0,20,51,-4.66E-10,-20
32,100,100,30,moving_belt,red,FALSE,TRUE,joint 1 -,FALSE,24:00.2,17.62,0.168,236.8,292.822052,106.5785141,84.95825195,0,20,51,-4.66E-10,-20
32,100,100,30,moving_belt,red,FALSE,TRUE,joint 1 -,FALSE,24:01.6,17.487,0.167,236.8,292.822052,106.5785141,84.95825195,0,20,51,-4.66E-10,-20
32,100,100,30,moving_belt,red,FALSE,TRUE,joint 1 -,FALSE,24:02.3,17.487,0.167,236.8,292.822052,106.5785141,84.95825195,0,20,51,-4.66E-10,-20
32,100,100,30,moving_belt,red,FALSE,TRUE,joint 1 -,FALSE,24:03.7,17.601,0.168,236.8,292.822052,106.5785141,84.95825195,0,20,51,-4.66E-10,-20
32,100,100,30,moving_belt,red,FALSE,TRUE,joint 1 -,FALSE,24:04.3,17.601,0.168,235,292.822052,106.5785141,84.95825195,0,20,51,-4.66E-10,-20
32,100,100,30,moving_belt,red,FALSE,TRUE,joint 1 -,FALSE,24:05.7,17.468,0.166,235,292.822052,106.5785141,84.95825195,0,20,51,-4.66E-10,-20
32,100,100,30,go_to_pick_down,red,TRUE,FALSE,joint 3 +,FALSE,24:06.4,17.696,0.166,236.8,283.4955444,103.1839447,31.85965729,0,20,51,21.41099358,-20
32,100,100,30,go_to_pick_up_from_pick_down,red,TRUE,FALSE,joint 3 -,TRUE,24:07.1,16.158,0.166,236.8,292.7797852,106.5631256,81.32183075,0,20,51,1.101335168,-20
32,100,100,30,go_to_color_detect_up_from_pick_up,red,TRUE,FALSE,joint 1 +,TRUE,24:08.5,23.203,0.187,236.8,210.5514221,229.7212219,84.95825195,27.49312592,48.6564064,51,0,-20
32,100,100,30,go_to_color_detect_down,red,TRUE,FALSE,joint 3 +,TRUE,24:09.2,22.386,0.187,236.8,130.88797,280.6901245,61.35441971,45,65,51,10.11999893,-20
32,100,100,30,go_to_color_detect_up_from_color_detect_down,red,TRUE,FALSE,joint 3 -,FALSE,24:10.5,21.988,0.203,236.8,111.1430054,238.3469391,-24.27519226,45,65,51,48,-20
32,100,100,30,go_to_color_detect_up_from_color_detect_down,red,TRUE,FALSE,joint 3 -,FALSE,24:11.3,22.064,0.203,236.8,130.4863892,279.828949,56.11413574,45,65,51,10.3846302,-20
32,100,100,30,detecting_color,red,FALSE,FALSE,detecting_color,FALSE,24:12.6,17.127,0.162,236.8,131.6940765,282.4188232,84.95825195,45,65,51,-4.66E-10,-20
32,100,100,30,go_to_color_detect_down,red,TRUE,FALSE,joint 3 +,FALSE,24:13.4,16.367,0.162,236.8,131.6939392,282.4185486,84.65037537,45,65,51,0.23999995,-20
32,100,100,30,go_to_color_detect_down,red,TRUE,FALSE,joint 3 +,FALSE,24:14.0,16.367,0.157,236.8,116.4977417,249.8302002,-11.36716461,45,65,51,41.67177963,-20
32,100,100,30,go_to_color_detect_up_from_color_detect_down,red,TRUE,FALSE,joint 3 -,TRUE,24:15.4,18.608,0.157,236.8,124.9818192,268.024353,18.49610138,45,65,51,25.56000519,-20
32,100,100,30,go_to_green_up,green,TRUE,FALSE,joint 1 +,TRUE,24:16.1,18.608,0.213,236.8,124.5552597,285.6391296,84.95825195,46.44000244,66.80000305,51,-4.66E-10,-20
32,100,100,30,go_to_green_up,green,TRUE,FALSE,joint 1 +,TRUE,24:17.5,22.196,0.213,236.8,-75.83785248,302.2455139,84.95825195,84.08555603,104.3353806,51,-4.66E-10,-20
32,100,100,30,go_to_pick_up_from_green,green,TRUE,FALSE,joint 1 -,FALSE,24:18.2,21.019,0.189,236.8,120.9560852,287.1817627,84.95825195,47.15999603,65.3999939,51,-4.66E-10,-20
32,100,100,30,moving_belt,green,FALSE,TRUE,joint 1 -,FALSE,24:19.6,16.443,0.189,236.8,292.8067932,106.6204147,84.95825195,0.008197784,20.00037956,51,-4.66E-10,-20
32,100,100,30,moving_belt,green,FALSE,TRUE,joint 1 -,FALSE,24:20.3,16.443,0.189,236.8,292.822052,106.5785141,84.95825195,0,20,51,-4.66E-10,-20
32,100,100,30,moving_belt,green,FALSE,TRUE,joint 1 -,FALSE,24:21.7,17.582,0.165,235,292.822052,106.5785141,84.95825195,0,20,51,-4.66E-10,-20
32,100,100,30,moving_belt,green,FALSE,TRUE,joint 1 -,FALSE,24:22.3,17.525,0.165,235,292.822052,106.5785141,84.95825195,0,20,51,-4.66E-10,-20
32,100,100,30,moving_belt,green,FALSE,TRUE,joint 1 -,FALSE,24:23.7,17.696,0.168,236.8,292.822052,106.5785141,84.95825195,0,20,51,-4.66E-10,-20
32,100,100,30,moving_belt,green,FALSE,TRUE,joint 1 -,FALSE,24:24.4,17.43,0.168,236.8,292.822052,106.5785141,84.95825195,0,20,51,-4.66E-10,-20
32,100,100,30,moving_belt,green,FALSE,TRUE,joint 1 -,FALSE,24:25.1,17.43,0.166,236.8,292.822052,106.5785141,84.95825195,0,20,51,-4.66E-10,-20
32,100,100,30,moving_belt,green,FALSE,TRUE,joint 1 -,FALSE,24:26.5,17.563,0.166,236.8,292.822052,106.5785141,84.95825195,0,20,51,-4.66E-10,-20
32,100,100,30,moving_belt,green,FALSE,TRUE,joint 1 -,FALSE,24:27.2,17.563,0.166,236.8,292.822052,106.5785141,84.95825195,0,20,51,-4.66E-10,-20
32,100,100,30,go_to_pick_down,green,TRUE,FALSE,joint 3 +,FALSE,24:28.6,17.525,0.166,236.8,292.8217468,106.5784073,84.65037537,0,20,51,0.24000001,-20
32,100,100,30,go_to_pick_up_from_pick_down,green,TRUE,FALSE,joint 3 -,TRUE,24:29.3,17.525,0.162,236.8,282.7636108,102.9175491,29.89107895,0,20,51,21.95999908,-20
32,100,100,30,go_to_color_detect_up_from_pick_up,green,TRUE,FALSE,joint 1 +,TRUE,24:30.6,16.88,0.162,235,292.0708618,108.6202011,84.95825195,0.400001526,20.60000229,51,0,-20
32,100,100,30,go_to_color_detect_up_from_pick_up,green,TRUE,FALSE,joint 1 +,TRUE,24:31.4,22.785,0.203,235,152.2978363,271.8622742,84.95825195,40.74235153,61.30563354,51,0,-20
32,100,100,30,go_to_color_detect_down,green,TRUE,FALSE,joint 3 +,TRUE,24:32.0,22.215,0.203,235,128.0065918,274.5110168,35.06723785,45,65,51,21.11999512,-20
32,100,100,30,go_to_color_detect_up_from_color_detect_down,green,TRUE,FALSE,joint 3 -,FALSE,24:33.4,21.741,0.204,236.8,113.5900192,243.594574,-18.76850891,45,65,51,44.3599968,-20
32,100,100,30,go_to_color_detect_up_from_color_detect_down,green,TRUE,FALSE,joint 3 -,FALSE,24:34.1,22.064,0.204,236.8,131.6714325,282.3703003,80.99049377,45,65,51,1.215409517,-20
32,100,100,30,detecting_color,green,FALSE,FALSE,detecting_color,FALSE,24:35.5,17.127,0.204,236.8,131.6940765,282.4188232,84.95825195,45,65,51,-4.66E-10,-20
32,100,100,30,go_to_color_detect_down,green,TRUE,FALSE,joint 3 +,FALSE,24:36.2,16.101,0.155,236.8,131.3400116,281.6595459,69.2864151,45,65,51,6.839998722,-20
32,100,100,30,go_to_color_detect_down,green,TRUE,FALSE,joint 3 +,FALSE,24:37.6,16.063,0.155,236.8,111.3722153,238.8384857,-23.78430176,45,65,51,47.8409996,-20
32,100,100,30,go_to_color_detect_up_from_color_detect_down,green,TRUE,FALSE,joint 3 -,TRUE,24:38.3,20.127,0.157,236.8,130.2709961,279.3670349,53.67488861,45,65,51,11.31591129,-20
32,100,100,30,go_to_blue_up,blue,TRUE,FALSE,joint 1 +,TRUE,24:39.7,23.165,0.157,236.8,93.18548584,297.3553467,84.95825195,52.6000061,73.40000916,51,-4.66E-10,-20
32,100,100,30,go_to_pick_up_from_blue,blue,TRUE,FALSE,joint 1 -,FALSE,24:40.3,22.045,0.2,236.8,67.97665405,304.1100464,84.95825195,57.3999939,76.59999084,51,-4.66E-10,-20
32,100,100,30,go_to_pick_up_from_blue,blue,TRUE,FALSE,joint 1 -,FALSE,24:41.0,22.045,0.2,236.8,290.8819275,111.7651138,84.95825195,1.018194199,20.75329208,51,-4.66E-10,-20
32,100,100,30,moving_belt,blue,FALSE,TRUE,joint 1 -,FALSE,24:42.3,16.253,0.2,236.8,292.822052,106.5785141,84.95825195,0,20,51,-4.66E-10,-20
32,100,100,30,moving_belt,blue,FALSE,TRUE,joint 1 -,FALSE,24:43.6,17.62,0.155,236.8,292.822052,106.5785141,84.95825195,0,20,51,-4.66E-10,-20
32,100,100,30,moving_belt,blue,FALSE,TRUE,joint 1 -,FALSE,24:44.3,17.62,0.155,236.8,292.822052,106.5785141,84.95825195,0,20,51,-4.66E-10,-20
32,100,100,30,moving_belt,blue,FALSE,TRUE,joint 1 -,FALSE,24:45.7,17.525,0.166,236.8,292.822052,106.5785141,84.95825195,0,20,51,-4.66E-10,-20
32,100,100,30,moving_belt,blue,FALSE,TRUE,joint 1 -,FALSE,24:46.4,17.696,0.166,236.8,292.822052,106.5785141,84.95825195,0,20,51,-4.66E-10,-20
32,100,100,30,moving_belt,blue,FALSE,TRUE,joint 1 -,FALSE,24:47.1,17.601,0.167,236.8,292.822052,106.5785141,84.95825195,0,20,51,-4.66E-10,-20
32,100,100,30,moving_belt,blue,FALSE,TRUE,joint 1 -,FALSE,24:48.5,17.791,0.167,236.8,292.822052,106.5785141,84.95825195,0,20,51,-4.66E-10,-20
32,100,100,30,moving_belt,blue,FALSE,TRUE,joint 1 -,FALSE,24:49.1,17.791,0.168,236.8,292.822052,106.5785141,84.95825195,0,20,51,-4.66E-10,-20
32,100,100,30,moving_belt,blue,FALSE,TRUE,joint 1 -,FALSE,24:50.5,17.411,0.168,235,292.822052,106.5785141,84.95825195,0,20,51,-4.66E-10,-20
32,100,100,30,go_to_pick_down,blue,TRUE,FALSE,joint 3 +,FALSE,24:51.2,17.658,0.166,235,283.115387,103.045578,30.82685852,0,20,51,21.76332664,-20
32,100,100,30,go_to_pick_up_from_pick_down,blue,TRUE,FALSE,joint 3 -,TRUE,24:52.6,16.196,0.166,236.8,292.8077393,106.5733032,82.84124756,0,20,51,0.58900255,-20
32,100,100,30,go_to_color_detect_up_from_pick_up,blue,TRUE,FALSE,joint 1 +,TRUE,24:53.3,23.431,0.207,236.8,171.8888855,259.9190979,84.95825195,36.52266312,57.32594299,51,0,-20
32,100,100,30,go_to_color_detect_down,blue,TRUE,FALSE,joint 3 +,TRUE,24:54.7,22.026,0.207,235,130.5443878,279.9533081,56.80859756,45,65,51,11.99999905,-20
32,100,100,30,go_to_color_detect_up_from_color_detect_down,blue,TRUE,FALSE,joint 3 -,FALSE,24:55.4,22.026,0.204,235,111.1388397,238.3379974,-24.28404236,45,65,51,48,-20
32,100,100,30,go_to_color_detect_up_from_color_detect_down,blue,TRUE,FALSE,joint 3 -,FALSE,24:56.1,22.045,0.204,235,131.3936615,281.7745972,70.51924133,45,65,51,4.985661507,-20
32,100,100,30,detecting_color,blue,FALSE,FALSE,detecting_color,FALSE,24:57.5,16.823,0.161,235,131.6940765,282.4188232,84.95825195,45,65,51,-4.66E-10,-20
32,100,100,30,go_to_color_detect_down,blue,TRUE,FALSE,joint 3 +,FALSE,24:58.2,16.386,0.161,235,131.6634216,282.3530884,80.34087372,45,65,51,2.199999571,-20
32,100,100,30,go_to_color_detect_down,blue,TRUE,FALSE,joint 3 +,FALSE,24:59.5,16.082,0.161,236.8,113.3295212,243.0359344,-19.38383484,45,65,51,45.67074966,-20
32,100,100,30,go_to_color_detect_up_from_color_detect_down,blue,TRUE,FALSE,joint 3 -,TRUE,25:00.2,16.823,0.157,236.8,125.614151,269.3804016,21.53419876,45,65,51,24.20000458,-20
32,100,100,30,go_to_red_up,red,TRUE,FALSE,joint 1 +,TRUE,25:01.6,23.26,0.157,236.8,104.3266754,293.6318665,84.95825195,50.44000244,71.12000275,51,-4.66E-10,-20
32,100,100,30,go_to_red_up,red,TRUE,FALSE,joint 1 +,TRUE,25:02.3,22.215,0.206,236.8,-160.957901,266.8263245,84.95825195,101.099678,121.6380615,51,-4.66E-10,-20
32,100,100,30,go_to_pick_up_from_red,red,TRUE,FALSE,joint 1 -,FALSE,25:03.7,22.5,0.206,236.8,-81.49203491,300.7703247,84.95825195,85.15999603,103.8799973,51,-4.66E-10,-20
32,100,100,30,go_to_pick_up_from_red,red,TRUE,FALSE,joint 1 -,FALSE,25:04.4,16.405,0.157,236.8,280.5999146,135.5264282,84.95825195,5.77999115,25.1199913,51,-4.66E-10,-20
32,100,100,30,moving_belt,red,FALSE,TRUE,joint 1 -,FALSE,25:05.1,16.405,0.157,236.8,292.822052,106.5785141,84.95825195,0,20,51,-4.66E-10,-20
32,100,100,30,moving_belt,red,FALSE,TRUE,joint 1 -,FALSE,25:06.5,17.658,0.167,236.8,292.822052,106.5785141,84.95825195,0,20,51,-4.66E-10,-20
32,100,100,30,moving_belt,red,FALSE,TRUE,joint 1 -,FALSE,25:07.2,17.658,0.167,236.8,292.822052,106.5785141,84.95825195,0,20,51,-4.66E-10,-20
32,100,100,30,moving_belt,red,FALSE,TRUE,joint 1 -,FALSE,25:08.5,17.582,0.163,236.8,292.822052,106.5785141,84.95825195,0,20,51,-4.66E-10,-20
32,100,100,30,moving_belt,red,FALSE,TRUE,joint 1 -,FALSE,25:09.3,17.544,0.163,236.8,292.822052,106.5785141,84.95825195,0,20,51,-4.66E-10,-20
32,100,100,30,moving_belt,red,FALSE,TRUE,joint 1 -,FALSE,25:10.7,17.468,0.163,236.8,292.822052,106.5785141,84.95825195,0,20,51,-4.66E-10,-20
32,100,100,30,moving_belt,red,FALSE,TRUE,joint 1 -,FALSE,25:11.4,17.62,0.163,236.8,292.822052,106.5785141,84.95825195,0,20,51,-4.66E-10,-20
32,100,100,30,moving_belt,red,FALSE,TRUE,joint 1 -,FALSE,25:12.8,17.601,0.163,236.8,292.822052,106.5785141,84.95825195,0,20,51,-4.66E-10,-20
32,100,100,30,moving_belt,red,FALSE,TRUE,joint 1 -,FALSE,25:13.5,17.62,0.165,236.8,292.822052,106.5785141,84.95825195,0,20,51,-4.66E-10,-20
32,100,100,30,go_to_pick_down,red,TRUE,FALSE,joint 3 +,FALSE,25:14.2,17.62,0.165,236.8,286.1759033,104.1595078,39.90991211,0,20,51,18.40166283,-20
32,100,100,30,go_to_pick_up_from_pick_down,red,TRUE,FALSE,joint 3 -,TRUE,25:15.6,16.956,0.158,236.8,292.7558594,106.5544205,80.40839386,0,20,51,1.41750145,-20
32,100,100,30,go_to_color_detect_up_from_pick_up,red,TRUE,FALSE,joint 1 +,TRUE,25:16.3,22.481,0.158,235,210.5514221,229.7212219,84.95825195,27.49312592,48.6564064,51,0,-20
32,100,100,30,go_to_color_detect_down,red,TRUE,FALSE,joint 3 +,TRUE,25:17.7,22.443,0.211,235,131.4142609,281.8187866,71.02216339,45,65,51,6.119998932,-20
32,100,100,30,go_to_color_detect_up_from_color_detect_down,red,TRUE,FALSE,joint 3 -,FALSE,25:18.4,22.026,0.211,235,111.1388397,238.3379974,-24.28404236,45,65,51,48,-20
32,100,100,30,go_to_color_detect_up_from_color_detect_down,red,TRUE,FALSE,joint 3 -,FALSE,25:19.1,22.026,0.211,235,130.4863892,279.828949,56.11413574,45,65,51,10.3846302,-20
32,100,100,30,detecting_color,red,FALSE,FALSE,detecting_color,FALSE,25:20.5,16.918,0.196,235,131.6940765,282.4188232,84.95825195,45,65,51,-4.66E-10,-20
32,100,100,30,go_to_color_detect_down,red,TRUE,FALSE,joint 3 +,FALSE,25:21.2,16.918,0.196,235,131.6939392,282.4185486,84.65037537,45,65,51,0.23999995,-20
32,100,100,30,go_to_color_detect_down,red,TRUE,FALSE,joint 3 +,FALSE,25:22.6,16.253,0.158,235,113.7060242,243.843338,-18.49216461,45,65,51,45.21946716,-20
32,100,100,30,go_to_color_detect_up_from_color_detect_down,red,TRUE,FALSE,joint 3 -,TRUE,25:23.3,16.329,0.158,235,126.2345505,270.7108459,24.69955063,45,65,51,22.82872391,-20
32,100,100,30,go_to_green_up,green,TRUE,FALSE,joint 1 +,TRUE,25:24.6,23.469,0.196,235,120.7555389,287.2661438,84.95825195,47.20000458,67.64000702,51,-4.66E-10,-20
32,100,100,30,go_to_green_up,green,TRUE,FALSE,joint 1 +,TRUE,25:25.3,22.519,0.196,235,-78.26008606,301.6274109,84.95825195,84.54520416,104.7150269,51,-4.66E-10,-20
32,100,100,30,go_to_pick_up_from_green,green,TRUE,FALSE,joint 1 -,FALSE,25:26.7,22.367,0.207,235,138.5548859,279.1169434,84.95825195,43.59999466,61.75999451,51,-4.66E-10,-20
32,100,100,30,moving_belt,green,FALSE,TRUE,joint 1 -,FALSE,25:27.4,16.5,0.207,235,292.8213501,106.580452,84.95825195,0.000379562,20,51,-4.66E-10,-20
32,100,100,30,moving_belt,green,FALSE,TRUE,joint 1 -,FALSE,25:28.1,16.519,0.156,235,292.822052,106.5785141,84.95825195,0,20,51,-4.66E-10,-20
32,100,100,30,moving_belt,green,FALSE,TRUE,joint 1 -,FALSE,25:29.4,16.519,0.156,235,292.822052,106.5785141,84.95825195,0,20,51,-4.66E-10,-20
32,100,100,30,moving_belt,green,FALSE,TRUE,joint 1 -,FALSE,25:30.7,17.582,0.167,235,292.822052,106.5785141,84.95825195,0,20,51,-4.66E-10,-20
32,100,100,30,moving_belt,green,FALSE,TRUE,joint 1 -,FALSE,25:31.4,17.582,0.167,236.8,292.822052,106.5785141,84.95825195,0,20,51,-4.66E-10,-20
32,100,100,30,moving_belt,green,FALSE,TRUE,joint 1 -,FALSE,25:32.1,17.658,0.167,236.8,292.822052,106.5785141,84.95825195,0,20,51,-4.66E-10,-20
32,100,100,30,moving_belt,green,FALSE,TRUE,joint 1 -,FALSE,25:33.5,17.601,0.168,236.8,292.822052,106.5785141,84.95825195,0,20,51,-4.66E-10,-20
32,100,100,30,moving_belt,green,FALSE,TRUE,joint 1 -,FALSE,25:34.2,17.506,0.168,236.8,292.822052,106.5785141,84.95825195,0,20,51,-4.66E-10,-20
32,100,100,30,moving_belt,green,FALSE,TRUE,joint 1 -,FALSE,25:35.6,17.62,0.168,236.8,292.822052,106.5785141,84.95825195,0,20,51,-4.66E-10,-20
32,100,100,30,go_to_pick_down,green,TRUE,FALSE,joint 3 +,FALSE,25:36.2,17.677,0.168,236.8,292.8217468,106.5784073,84.65037537,0,20,51,0.24000001,-20
32,100,100,30,go_to_pick_up_from_pick_down,green,TRUE,FALSE,joint 3 -,TRUE,25:37.6,16.538,0.167,236.8,283.7506104,103.2767792,32.56571198,0,20,51,20.55999756,-20
32,100,100,30,go_to_color_detect_up_from_pick_up,green,TRUE,FALSE,joint 1 +,TRUE,25:38.3,16.538,0.167,236.8,291.2281189,110.8599167,84.95825195,0.84000206,21.12000275,51,0,-20
32,100,100,30,go_to_color_detect_up_from_pick_up,green,TRUE,FALSE,joint 1 +,TRUE,25:39.7,22.14,0.213,236.8,147.1151581,274.7013855,84.95825195,41.82891464,62.31219482,51,0,-20
32,100,100,30,go_to_color_detect_down,green,TRUE,FALSE,joint 3 +,TRUE,25:40.4,22.102,0.213,236.8,123.8811035,265.6638794,13.59000397,45,65,51,30.25640106,-20
32,100,100,30,go_to_color_detect_up_from_color_detect_down,green,TRUE,FALSE,joint 3 -,FALSE,25:41.8,21.988,0.2,236.8,114.4084549,245.3497162,-16.78678894,45,65,51,43.19999695,-20
32,100,100,30,go_to_color_detect_up_from_color_detect_down,green,TRUE,FALSE,joint 3 -,FALSE,25:42.5,17.62,0.2,236.8,131.6860046,282.4015198,82.58737946,45,65,51,0.672846556,-20
32,100,100,30,detecting_color,green,FALSE,FALSE,detecting_color,FALSE,25:43.1,17.62,0.163,236.8,131.6940765,282.4188232,84.95825195,45,65,51,-4.66E-10,-20
32,100,100,30,go_to_color_detect_down,green,TRUE,FALSE,joint 3 +,FALSE,25:44.5,16.5,0.163,236.8,131.0276184,280.989624,63.48404694,45,65,51,9.239998817,-20
32,100,100,30,go_to_color_detect_up_from_color_detect_down,green,TRUE,FALSE,joint 3 -,TRUE,25:45.2,16.139,0.158,236.8,111.1710739,238.4071198,-24.21534729,45,65,51,47.87999725,-20
32,100,100,30,go_to_color_detect_up_from_color_detect_down,green,TRUE,FALSE,joint 3 -,TRUE,25:46.6,16.31,0.158,236.8,131.1147461,281.1764832,64.92980957,45,65,51,7.059505463,-20
32,100,100,30,go_to_blue_up,blue,TRUE,FALSE,joint 1 +,TRUE,25:47.3,23.469,0.209,236.8,46.06126022,308.1916504,84.95825195,61.49968719,82.00854492,51,-4.66E-10,-20
32,100,100,30,go_to_pick_up_from_blue,blue,TRUE,FALSE,joint 1 -,FALSE,25:48.7,19.082,0.209,236.8,137.1891937,279.790741,84.95825195,43.87999725,62.55999756,51,-4.66E-10,-20
32,100,100,30,moving_belt,blue,FALSE,TRUE,joint 1 -,FALSE,25:49.4,19.082,0.209,236.8,292.8148499,106.59832,84.95825195,0.003875732,20,51,-4.66E-10,-20
32,100,100,30,moving_belt,blue,FALSE,TRUE,joint 1 -,FALSE,25:50.8,16.348,0.159,236.8,292.822052,106.5785141,84.95825195,0,20,51,-4.66E-10,-20
32,100,100,30,moving_belt,blue,FALSE,TRUE,joint 1 -,FALSE,25:51.5,17.601,0.159,236.8,292.822052,106.5785141,84.95825195,0,20,51,-4.66E-10,-20
32,100,100,30,moving_belt,blue,FALSE,TRUE,joint 1 -,FALSE,25:52.2,17.601,0.168,236.8,292.822052,106.5785141,84.95825195,0,20,51,-4.66E-10,-20
32,100,100,30,moving_belt,blue,FALSE,TRUE,joint 1 -,FALSE,25:53.5,17.715,0.168,236.8,292.822052,106.5785141,84.95825195,0,20,51,-4.66E-10,-20
32,100,100,30,moving_belt,blue,FALSE,TRUE,joint 1 -,FALSE,25:54.2,17.715,0.169,236.8,292.822052,106.5785141,84.95825195,0,20,51,-4.66E-10,-20
32,100,100,30,moving_belt,blue,FALSE,TRUE,joint 1 -,FALSE,25:55.7,17.411,0.169,236.8,292.822052,106.5785141,84.95825195,0,20,51,-4.66E-10,-20
32,100,100,30,moving_belt,blue,FALSE,TRUE,joint 1 -,FALSE,25:56.5,17.411,0.166,236.8,292.822052,106.5785141,84.95825195,0,20,51,-4.66E-10,-20
32,100,100,30,moving_belt,blue,FALSE,TRUE,joint 1 -,FALSE,25:57.2,17.696,0.166,236.8,292.822052,106.5785141,84.95825195,0,20,51,-4.66E-10,-20
32,100,100,30,go_to_pick_down,blue,TRUE,FALSE,joint 3 +,FALSE,25:58.8,17.677,0.169,236.8,292.8217468,106.5784073,84.65037537,0,20,51,0.24000001,-20
32,100,100,30,go_to_pick_up_from_pick_down,blue,TRUE,FALSE,joint 3 -,TRUE,25:59.4,17.013,0.169,236.8,283.5084534,103.1886444,31.89513779,0,20,51,20.87999725,-20
32,100,100,30,go_to_color_detect_up_from_pick_up,blue,TRUE,FALSE,joint 1 +,TRUE,26:00.1,17.013,0.169,236.8,292.0708618,108.6202011,84.95825195,0.400001526,20.60000229,51,0,-20
32,100,100,30,go_to_color_detect_up_from_pick_up,blue,TRUE,FALSE,joint 1 +,TRUE,26:01.5,22.14,0.212,236.8,155.1518707,270.2436218,84.95825195,40.1390686,60.74235153,51,0,-20
32,100,100,30,go_to_color_detect_down,blue,TRUE,FALSE,joint 3 +,TRUE,26:02.2,22.291,0.212,236.8,125.1656494,268.4185791,19.36129761,45,65,51,27.7938385,-20
32,100,100,30,go_to_color_detect_up_from_color_detect_down,blue,TRUE,FALSE,joint 3 -,FALSE,26:03.6,22.007,0.203,236.8,113.5900192,243.594574,-18.76850891,45,65,51,44.3599968,-20
32,100,100,30,go_to_color_detect_up_from_color_detect_down,blue,TRUE,FALSE,joint 3 -,FALSE,26:04.3,19.956,0.203,236.8,131.6714325,282.3703003,80.99049377,45,65,51,1.215409517,-20
32,100,100,30,detecting_color,blue,FALSE,FALSE,detecting_color,FALSE,26:05.7,16.861,0.163,236.8,131.6940765,282.4188232,84.95825195,45,65,51,-4.66E-10,-20
32,100,100,30,go_to_color_detect_down,blue,TRUE,FALSE,joint 3 +,FALSE,26:06.4,16.006,0.163,236.8,131.4142609,281.8187866,71.02216339,45,65,51,6.119998932,-20
32,100,100,30,go_to_color_detect_up_from_color_detect_down,blue,TRUE,FALSE,joint 3 -,TRUE,26:07.8,16.177,0.155,236.8,111.1388397,238.3379974,-24.28404236,45,65,51,48,-20
32,100,100,30,go_to_color_detect_up_from_color_detect_down,blue,TRUE,FALSE,joint 3 -,TRUE,26:08.5,16.177,0.155,236.8,130.6764679,280.2365723,58.46072388,45,65,51,9.493349075,-20
32,100,100,30,go_to_red_up,red,TRUE,FALSE,joint 1 +,TRUE,26:09.1,23.146,0.212,236.8,80.02121735,301.164978,84.95825195,55.12000275,76.04000092,51,-4.66E-10,-20
32,100,100,30,go_to_red_up,red,TRUE,FALSE,joint 1 +,FALSE,26:10.5,22.576,0.212,236.8,-178.6400452,255.3262024,84.95825195,104.978714,124.9971008,51,-4.66E-10,-20
32,100,100,30,go_to_pick_up_from_red,red,TRUE,FALSE,joint 1 -,FALSE,26:11.2,22.576,0.204,236.8,24.99116707,310.6109619,84.95825195,65.3999939,83.59999084,51,-4.66E-10,-20
32,100,100,30,go_to_pick_up_from_red,red,TRUE,FALSE,joint 1 -,FALSE,26:12.6,18.247,0.204,236.8,288.9241638,116.7329025,84.95825195,1.999994278,21.61999512,51,-4.66E-10,-20
32,100,100,30,moving_belt,red,FALSE,TRUE,joint 1 -,FALSE,26:13.3,16.253,0.156,236.8,292.822052,106.5785141,84.95825195,0,20,51,-4.66E-10,-20
32,100,100,30,moving_belt,red,FALSE,TRUE,joint 1 -,FALSE,26:14.7,17.639,0.156,236.8,292.822052,106.5785141,84.95825195,0,20,51,-4.66E-10,-20
32,100,100,30,moving_belt,red,FALSE,TRUE,joint 1 -,FALSE,26:15.4,17.582,0.168,236.8,292.822052,106.5785141,84.95825195,0,20,51,-4.66E-10,-20
32,100,100,30,moving_belt,red,FALSE,TRUE,joint 1 -,FALSE,26:16.1,17.582,0.168,236.8,292.822052,106.5785141,84.95825195,0,20,51,-4.66E-10,-20
32,100,100,30,moving_belt,red,FALSE,TRUE,joint 1 -,FALSE,26:17.5,17.658,0.169,236.8,292.822052,106.5785141,84.95825195,0,20,51,-4.66E-10,-20
32,100,100,30,moving_belt,red,FALSE,TRUE,joint 1 -,FALSE,26:18.2,17.658,0.169,236.8,292.822052,106.5785141,84.95825195,0,20,51,-4.66E-10,-20
32,100,100,30,moving_belt,red,FALSE,TRUE,joint 1 -,FALSE,26:19.6,17.525,0.169,236.8,292.822052,106.5785141,84.95825195,0,20,51,-4.66E-10,-20
32,100,100,30,moving_belt,red,FALSE,TRUE,joint 1 -,FALSE,26:20.3,17.393,0.167,236.8,292.822052,106.5785141,84.95825195,0,20,51,-4.66E-10,-20
32,100,100,30,moving_belt,red,FALSE,TRUE,joint 1 -,FALSE,26:21.7,17.658,0.167,236.8,292.822052,106.5785141,84.95825195,0,20,51,-4.66E-10,-20
32,100,100,30,go_to_pick_down,red,TRUE,FALSE,joint 3 +,FALSE,26:22.3,17.544,0.167,236.8,282.8036194,102.932106,29.99657059,0,20,51,21.99182701,-20
32,100,100,30,go_to_pick_up_from_pick_down,red,TRUE,FALSE,joint 3 -,TRUE,26:23.7,17.108,0.167,236.8,292.8208618,106.5780869,84.3510437,0,20,51,0.120503716,-20
32,100,100,30,go_to_color_detect_up_from_pick_up,red,TRUE,FALSE,joint 1 +,TRUE,26:24.4,22.804,0.208,236.8,164.7188873,264.5210876,84.95825195,38.08922577,58.81250763,51,0,-20
32,100,100,30,go_to_color_detect_down,red,TRUE,FALSE,joint 3 +,TRUE,26:25.8,22.424,0.208,236.8,129.5434113,277.8067322,46.61455154,45,65,51,16.23999786,-20
32,100,100,30,go_to_color_detect_up_from_color_detect_down,red,TRUE,FALSE,joint 3 -,FALSE,26:26.5,22.177,0.2,236.8,111.3318787,238.7519684,-23.87106323,45,65,51,47.59999847,-20
32,100,100,30,go_to_color_detect_up_from_color_detect_down,red,TRUE,FALSE,joint 3 -,FALSE,26:27.2,22.121,0.2,236.8,131.3155365,281.6070557,68.75533295,45,65,51,5.636942863,-20
