demetriskallis/dobot_magician_pick_and_place_and_color_sorting/Sampling/WholeSystemExperiments_training_data/payload_32g/joint_measurements__armv_100_arma_40_belts_60_cube_32g.csv
cube/weight,arm/velocity_ratio,arm/acceleration_ratio,belt/speed,dobot/operation,dobot/color,dobot/moving_arm,dobot/moving_belt,dobot/operation2,dobot/suction,meross/sample_timestamp,meross/power,meross/current,meross/voltage,dobot/pose_x,dobot/pose_y,dobot/pose_z,dobot/pose_rHead,dobot/pose_joint1Angle,dobot/pose_joint2Angle,dobot/pose_joint3Angle,dobot/pose_joint4Angle
32,100,40,60,homing,,,,homing,,,,,,184.87857055664062,61.65921401977539,30.83686065673828,-1.5558395385742188,18.044160842895508,12.185827255249023,43.46413040161133,-20.0
32,100,40,60,homing,,,,homing,,,,,,194.59400939941406,-10.729019165039062,30.83686065673828,-23.15583038330078,-3.555830955505371,12.185827255249023,43.46413040161133,-20.0
32,100,40,60,homing,,,,homing,,,,,,180.2415771484375,-74.12767791748047,30.83686065673828,-42.35581970214844,-22.75581932067871,12.185827255249023,43.46413040161133,-20.0
32,100,40,60,homing,,,,homing,,2024-03-04 12:38:53.673194,16.158,0.15,236.8,145.83770751953125,-129.27993774414062,30.83686065673828,-61.55584716796875,-41.955848693847656,12.185827255249023,43.46413040161133,-20.0
32,100,40,60,homing,,,,homing,,2024-03-04 12:38:54.363752,15.987,0.15,236.8,88.00509643554688,-173.8880157470703,30.83686065673828,-83.15592956542969,-63.555931091308594,12.185827255249023,43.46413040161133,-20.0
32,100,40,60,homing,,,,homing,,2024-03-04 12:38:55.071057,15.987,0.15,236.8,25.92369842529297,-193.15771484375,30.83686065673828,-102.35600280761719,-82.7560043334961,12.185827255249023,43.46413040161133,-20.0
32,100,40,60,homing,,,,homing,,2024-03-04 12:38:56.747886,16.101,0.15,236.8,-39.0416145324707,-190.93898010253906,30.83686065673828,-121.55607604980469,-101.9560775756836,12.185827255249023,43.46413040161133,-20.0
32,100,40,60,homing,,,,homing,,2024-03-04 12:38:57.440373,16.139,0.149,236.8,-106.58956909179688,-163.15821838378906,30.83686065673828,-143.15615844726562,-123.55615997314453,12.185827255249023,43.46413040161133,-20.0
32,100,40,60,homing,,,,homing,,2024-03-04 12:38:58.823821,16.044,0.149,236.8,-140.37123107910156,-135.19561767578125,30.83686065673828,-156.07598876953125,-136.0559844970703,12.185827255249023,43.46413040161133,-20.0
32,100,40,60,homing,,,,homing,,2024-03-04 12:38:59.510426,16.101,0.15,236.8,-136.16664123535156,-139.72567749023438,30.779281616210938,-154.19113159179688,-134.11691284179688,12.299324989318848,43.470245361328125,-19.917539596557617
32,100,40,60,homing,,,,homing,,2024-03-04 12:39:00.196896,16.101,0.15,236.8,-82.69607543945312,-182.70135498046875,29.1650390625,-132.4817352294922,-113.7529296875,14.848651885986328,43.60755157470703,-18.065372467041016
32,100,40,60,homing,,,,homing,,2024-03-04 12:39:01.617454,16.196,0.153,236.8,16.521148681640625,-212.43336486816406,24.41211700439453,-99.44465637207031,-84.9530029296875,20.750516891479492,43.92542266845703,-13.777478218078613
32,100,40,60,homing,,,,homing,,2024-03-04 12:39:02.307568,16.557,0.153,236.8,139.61666870117188,-186.31121826171875,13.6007080078125,-59.973182678222656,-52.55308532714844,30.49121856689453,44.450042724609375,-6.700544357299805
32,100,40,60,homing,,,,homing,,2024-03-04 12:39:02.999253,16.538,0.153,236.8,223.949462890625,-98.55473327636719,4.718986511230469,-25.958330154418945,-23.15313148498535,36.771881103515625,44.7883186340332,-2.137446641921997
32,100,40,60,homing,,,,homing,,2024-03-04 12:39:04.670930,16.652,0.152,236.8,249.5523223876953,-7.189498424530029,0.32061004638671875,-1.7957909107208252,-1.4571528434753418,39.53690719604492,44.93724060058594,-0.12857191264629364
32,100,40,60,homing,,,,homing,,2024-03-04 12:39:05.364223,16.652,0.152,236.8,249.99998474121094,0.00017966009909287095,-7.62939453125e-06,4.117506250622682e-05,4.117506250622682e-05,39.71385955810547,44.94676971435547,0.0
32,100,40,60,homing,,,,homing,,2024-03-04 12:39:06.758830,16.12,0.151,236.8,249.99998474121094,0.00017966009909287095,-7.62939453125e-06,4.117506250622682e-05,4.117506250622682e-05,39.71385955810547,44.94676971435547,0.0
32,100,40,60,homing,,,,homing,,2024-03-04 12:39:07.744875,16.12,0.151,236.8,249.99998474121094,0.00017966009909287095,-7.62939453125e-06,4.117506250622682e-05,4.117506250622682e-05,39.71385955810547,44.94676971435547,0.0
32,100,40,60,homing,,,,homing,,2024-03-04 12:39:08.435135,16.12,0.149,236.8,249.99998474121094,0.00017966009909287095,-7.62939453125e-06,4.117506250622682e-05,4.117506250622682e-05,39.71385955810547,44.94676971435547,0.0
32,100,40,60,homing,,,,homing,,2024-03-04 12:39:09.814220,15.892,0.149,236.8,249.99998474121094,0.00017966009909287095,-7.62939453125e-06,4.117506250622682e-05,4.117506250622682e-05,39.71385955810547,44.94676971435547,0.0
32,100,40,60,homing,,,,homing,,2024-03-04 12:39:10.504909,15.892,0.149,236.8,249.99998474121094,0.00017966009909287095,-7.62939453125e-06,4.117506250622682e-05,4.117506250622682e-05,39.71385955810547,44.94676971435547,0.0
32,100,40,60,homing,,,,homing,,2024-03-04 12:39:11.484826,16.12,0.149,236.8,249.99998474121094,0.00017966009909287095,-7.62939453125e-06,4.117506250622682e-05,4.117506250622682e-05,39.71385955810547,44.94676971435547,0.0
32,100,40,60,homing,,,,homing,,2024-03-04 12:39:12.869544,16.158,0.15,236.8,250.0659637451172,0.00017970750923268497,0.004547119140625,4.117506250622682e-05,4.117506250622682e-05,39.73240280151367,44.928897857666016,0.0
32,100,40,60,homing,,,,homing,,2024-03-04 12:39:13.557560,16.044,0.15,236.8,259.25030517578125,37.93958282470703,23.94525146484375,4.100799560546875e-05,8.623931884765625,37.095428466796875,34.29685592651367,-8.62389087677002
32,100,40,60,homing,,,,homing,,2024-03-04 12:39:14.272095,16.804,0.15,236.8,273.2783203125,95.88776397705078,60.51198959350586,4.1961669921875e-05,19.437427520751953,41.2308349609375,16.04800033569336,-19.43738555908203
32,100,40,60,go_to_pick_up_from_homing,nothing,,,go_to_pick_up_from_homing,,2024-03-04 12:39:15.648359,16.576,0.155,236.8,277.62127685546875,103.63187408447266,67.41722869873047,3.814697265625e-05,20.46409034729004,43.546566009521484,11.860679626464844,-20.464052200317383
32,100,40,60,go_to_pick_up_from_homing,nothing,,,go_to_pick_up_from_homing,,2024-03-04 12:39:16.336219,16.576,0.155,236.8,292.04864501953125,106.47718811035156,83.82658386230469,0.0,20.02737808227539,50.560298919677734,0.6997002363204956,-20.02737808227539
32,100,40,60,moving_belt,nothing,false,true,go_to_pick_up_from_homing,,2024-03-04 12:39:17.714774,16.462,0.151,236.8,292.8220520019531,106.5785140991211,84.958251953125,0.0,20.0,51.0,0.0,-20.0
32,100,40,60,moving_belt,nothing,false,true,go_to_pick_up_from_homing,,2024-03-04 12:39:18.406613,16.5,0.151,236.8,292.8220520019531,106.5785140991211,84.958251953125,0.0,20.0,51.0,0.0,-20.0
32,100,40,60,moving_belt,nothing,false,true,go_to_pick_up_from_homing,,2024-03-04 12:39:19.789621,16.329,0.152,236.8,292.8220520019531,106.5785140991211,84.958251953125,0.0,20.0,51.0,0.0,-20.0
32,100,40,60,moving_belt,nothing,false,true,go_to_pick_up_from_homing,,2024-03-04 12:39:20.474752,16.215,0.152,236.8,292.8220520019531,106.5785140991211,84.958251953125,0.0,20.0,51.0,0.0,-20.0
32,100,40,60,go_to_pick_down,nothing,true,false,joint 3 +,,2024-03-04 12:39:21.252671,16.215,0.152,236.8,292.8220520019531,106.5785140991211,84.90898895263672,0.0,20.0,51.0,0.03839999809861183,-20.0
32,100,40,60,go_to_pick_down,nothing,true,false,joint 3 +,,2024-03-04 12:39:22.629238,16.31,0.151,236.8,290.47406005859375,105.72391510009766,57.96985626220703,0.0,20.0,51.0,10.950400352478027,-20.0
32,100,40,60,go_to_pick_down,nothing,true,false,joint 3 +,,2024-03-04 12:39:23.314556,16.215,0.151,236.8,283.2294921875,103.08710479736328,31.134464263916016,0.0,20.0,51.0,21.55672836303711,-20.0
32,100,40,60,go_to_pick_up_from_pick_down,nothing,true,false,joint 3 -,true,2024-03-04 12:39:24.695154,16.253,0.15,236.8,285.5910339355469,103.94664764404297,38.020652770996094,0.0,20.0,51.0,18.40959930419922,-20.0
32,100,40,60,go_to_pick_up_from_pick_down,nothing,true,false,joint 3 -,true,2024-03-04 12:39:25.382704,22.671,0.15,236.8,292.629150390625,106.50830078125,77.19175720214844,0.0,20.0,51.0,2.8348679542541504,-20.0
32,100,40,60,go_to_color_detect_up_from_pick_up,nothing,true,false,joint 1 +,true,2024-03-04 12:39:26.764116,22.348,0.197,236.8,291.7236022949219,109.54943084716797,84.958251953125,0.5823993682861328,20.671998977661133,51.0,-5.820766091346741e-11,-20.0
32,100,40,60,go_to_color_detect_up_from_pick_up,nothing,true,false,joint 1 +,true,2024-03-04 12:39:27.452068,22.007,0.197,236.8,262.81549072265625,167.42681884765625,84.958251953125,12.499202728271484,32.902400970458984,51.0,-5.820766091346741e-11,-20.0
32,100,40,60,go_to_color_detect_up_from_pick_up,nothing,true,false,joint 1 +,true,2024-03-04 12:39:28.830536,22.14,0.194,236.8,172.99354553222656,259.1851806640625,84.958251953125,36.27880859375,56.60972213745117,51.0,-5.820766091346741e-11,-20.0
32,100,40,60,go_to_color_detect_up_from_pick_up,nothing,true,false,joint 1 +,true,2024-03-04 12:39:29.542961,22.14,0.194,236.8,131.97286987304688,282.2886657714844,84.958251953125,44.94342803955078,64.9671401977539,51.0,-5.820766091346741e-11,-20.0
32,100,40,60,go_to_color_detect_down,nothing,true,false,joint 3 +,true,2024-03-04 12:39:30.232291,21.874,0.193,236.8,131.406982421875,281.80316162109375,70.84236907958984,45.0,65.0,51.0,5.779200553894043,-20.0
32,100,40,60,go_to_color_detect_down,nothing,true,false,joint 3 +,true,2024-03-04 12:39:31.650577,22.007,0.193,236.8,123.81442260742188,265.5208740234375,13.306655883789062,45.0,65.0,51.0,29.659238815307617,-20.0
32,100,40,60,go_to_color_detect_down,nothing,true,false,joint 3 +,true,2024-03-04 12:39:32.343541,22.007,0.194,236.8,113.21929168701172,242.79954528808594,-19.642051696777344,45.0,65.0,51.0,45.54303741455078,-20.0
32,100,40,60,go_to_color_detect_up_from_color_detect_down,nothing,true,false,joint 3 -,false,2024-03-04 12:39:33.812537,22.121,0.194,236.8,111.75393676757812,239.65708923339844,-22.955810546875,45.0,65.0,51.0,47.129600524902344,-20.0
32,100,40,60,go_to_color_detect_up_from_color_detect_down,nothing,true,false,joint 3 -,false,2024-03-04 12:39:34.507883,22.121,0.194,236.8,121.93913269042969,261.4992980957031,5.8800201416015625,45.0,65.0,51.0,32.09600067138672,-20.0
32,100,40,60,go_to_color_detect_up_from_color_detect_down,nothing,true,false,joint 3 -,false,2024-03-04 12:39:35.202519,16.443,0.151,236.8,130.7633056640625,280.42279052734375,59.6075553894043,45.0,65.0,51.0,9.577200889587402,-20.0
32,100,40,60,go_to_color_detect_up_from_color_detect_down,nothing,true,false,joint 3 -,false,2024-03-04 12:39:36.679507,16.69,0.151,236.8,131.69351196289062,282.4176330566406,84.334228515625,45.0,65.0,51.0,0.1907118260860443,-20.0
32,100,40,60,detecting_color,nothing,false,false,detecting_color,false,2024-03-04 12:39:37.366718,16.443,0.153,236.8,131.69407653808594,282.4188232421875,84.958251953125,45.0,65.0,51.0,0.0,-20.0
32,100,40,60,go_to_color_detect_down,nothing,true,false,joint 3 +,false,2024-03-04 12:39:38.747101,16.082,0.153,236.8,131.68499755859375,282.3993835449219,82.44610595703125,45.0,65.0,51.0,1.09440016746521,-20.0
32,100,40,60,go_to_color_detect_down,nothing,true,false,joint 3 +,false,2024-03-04 12:39:39.432821,16.082,0.149,236.8,129.17918395996094,277.025634765625,43.556453704833984,45.0,65.0,51.0,16.81920051574707,-20.0
32,100,40,60,go_to_color_detect_down,nothing,true,false,joint 3 +,false,2024-03-04 12:39:40.808267,16.025,0.149,236.8,118.00604248046875,253.06475830078125,-7.091941833496094,45.0,65.0,51.0,39.110225677490234,-20.0
32,100,40,60,go_to_color_detect_down,nothing,true,false,joint 3 +,false,2024-03-04 12:39:41.496924,16.025,0.151,236.8,111.2232894897461,238.51910400390625,-24.10381317138672,45.0,65.0,51.0,47.928428649902344,-20.0
32,100,40,60,go_to_color_detect_up_from_color_detect_down,nothing,true,false,joint 3 -,true,2024-03-04 12:39:42.884711,16.234,0.151,236.8,116.18695831298828,249.16371154785156,-12.208404541015625,45.0,65.0,51.0,41.08160400390625,-20.0
32,100,40,60,go_to_color_detect_up_from_color_detect_down,nothing,true,false,joint 3 -,true,2024-03-04 12:39:43.573398,22.671,0.197,236.8,127.82413482666016,274.1197204589844,33.88649368286133,45.0,65.0,51.0,19.823102951049805,-20.0
32,100,40,60,go_to_color_detect_up_from_color_detect_down,nothing,true,false,joint 3 -,true,2024-03-04 12:39:44.260496,22.348,0.197,236.8,131.59616088867188,282.2088623046875,76.7078857421875,45.0,65.0,51.0,3.017700433731079,-20.0
32,100,40,60,go_to_red_up,red,true,false,joint 1 +,true,2024-03-04 12:39:45.656617,22.007,0.194,236.8,125.67107391357422,285.1499938964844,84.958251953125,46.21599578857422,66.343994140625,51.0,0.0,-20.0
32,100,40,60,go_to_red_up,red,true,false,joint 1 +,true,2024-03-04 12:39:46.376666,22.007,0.194,236.8,56.36366653442383,306.47491455078125,84.958251953125,59.579200744628906,80.014404296875,51.0,0.0,-20.0
32,100,40,60,go_to_red_up,red,true,false,joint 1 +,true,2024-03-04 12:39:47.770952,21.969,0.193,236.8,-83.0476303100586,300.3445129394531,84.958251953125,85.45653533935547,105.9534912109375,51.0,0.0,-20.0
32,100,40,60,go_to_red_up,red,true,false,joint 1 +,true,2024-03-04 12:39:48.459039,21.969,0.193,236.8,-170.32688903808594,260.9453430175781,84.958251953125,103.1336898803711,123.28504180908203,51.0,0.0,-20.0
32,100,40,60,go_to_pick_up_from_red,red,true,false,joint 1 -,false,2024-03-04 12:39:49.844696,21.969,0.184,236.8,-172.0896759033203,259.78619384765625,84.958251953125,103.5216064453125,123.38080596923828,51.0,0.0,-20.0
32,100,40,60,go_to_pick_up_from_red,red,true,false,joint 1 -,false,2024-03-04 12:39:50.546944,21.969,0.184,236.8,-104.24471282958984,293.6609802246094,84.958251953125,89.54399871826172,109.09600067138672,51.0,0.0,-20.0
32,100,40,60,go_to_pick_up_from_red,red,true,false,joint 1 -,false,2024-03-04 12:39:51.240764,15.987,0.184,236.8,74.36432647705078,302.6114501953125,84.958251953125,56.193603515625,75.4000015258789,51.0,0.0,-20.0
32,100,40,60,go_to_pick_up_from_red,red,true,false,joint 1 -,false,2024-03-04 12:39:52.616349,16.063,0.15,236.8,228.11343383789062,212.292236328125,84.958251953125,22.942584991455078,42.403873443603516,51.0,0.0,-20.0
32,100,40,60,go_to_pick_up_from_red,red,true,false,joint 1 -,false,2024-03-04 12:39:53.303052,16.139,0.15,236.8,283.99859619140625,128.2517852783203,84.958251953125,4.30360221862793,24.07209014892578,51.0,0.0,-20.0
32,100,40,60,moving_belt,red,false,true,joint 1 -,false,2024-03-04 12:39:54.687597,16.12,0.152,236.8,292.8220520019531,106.5785140991211,84.958251953125,0.0,20.0,51.0,0.0,-20.0
32,100,40,60,moving_belt,red,false,true,joint 1 -,false,2024-03-04 12:39:55.377080,16.12,0.152,236.8,292.8220520019531,106.5785140991211,84.958251953125,0.0,20.0,51.0,0.0,-20.0
32,100,40,60,moving_belt,red,false,true,joint 1 -,false,2024-03-04 12:39:56.254789,16.576,0.152,236.8,292.8220520019531,106.5785140991211,84.958251953125,0.0,20.0,51.0,0.0,-20.0
32,100,40,60,moving_belt,red,false,true,joint 1 -,false,2024-03-04 12:39:57.653528,16.405,0.153,236.8,292.8220520019531,106.5785140991211,84.958251953125,0.0,20.0,51.0,0.0,-20.0
32,100,40,60,moving_belt,red,false,true,joint 1 -,false,2024-03-04 12:39:58.342846,16.348,0.153,236.8,292.8220520019531,106.5785140991211,84.958251953125,0.0,20.0,51.0,0.0,-20.0
32,100,40,60,go_to_pick_down,red,true,false,joint 3 +,false,2024-03-04 12:39:59.726219,16.158,0.152,236.8,292.298095703125,106.38780975341797,72.16680145263672,0.0,20.0,51.0,5.248000144958496,-20.0
32,100,40,60,go_to_pick_down,red,true,false,joint 3 +,false,2024-03-04 12:40:00.430859,16.158,0.152,236.8,284.3318786621094,103.48834228515625,34.21692657470703,0.0,20.0,51.0,20.341594696044922,-20.0
32,100,40,60,go_to_pick_up_from_pick_down,red,true,false,joint 3 -,true,2024-03-04 12:40:01.819372,17.905,0.152,236.8,284.0560607910156,103.38794708251953,33.42585754394531,0.0,20.0,51.0,20.380800247192383,-20.0
32,100,40,60,go_to_pick_up_from_pick_down,red,true,false,joint 3 -,true,2024-03-04 12:40:02.517895,17.905,0.152,236.8,291.7023620605469,106.17098999023438,66.27958679199219,0.0,20.0,51.0,6.9975996017456055,-20.0
32,100,40,60,go_to_color_detect_up_from_pick_up,red,true,false,joint 1 +,true,2024-03-04 12:40:03.904084,22.234,0.197,236.8,292.75054931640625,106.77473449707031,84.958251953125,0.03839874267578125,20.06399917602539,51.0,-5.820766091346741e-11,-20.0
32,100,40,60,go_to_color_detect_up_from_pick_up,red,true,false,joint 1 +,true,2024-03-04 12:40:04.612559,21.874,0.197,236.8,273.01971435546875,150.21304321289062,84.958251953125,8.819202423095703,29.158401489257812,51.0,-5.820766091346741e-11,-20.0
32,100,40,60,go_to_color_detect_up_from_pick_up,red,true,false,joint 1 +,true,2024-03-04 12:40:05.309250,21.874,0.193,236.8,198.01353454589844,240.6125030517578,84.958251953125,30.547115325927734,50.974029541015625,51.0,-5.820766091346741e-11,-20.0
32,100,40,60,go_to_color_detect_up_from_pick_up,red,true,false,joint 1 +,true,2024-03-04 12:40:06.168640,22.064,0.193,236.8,134.43820190429688,281.1229248046875,84.958251953125,44.44200897216797,64.52332305908203,51.0,-5.820766091346741e-11,-20.0
32,100,40,60,go_to_color_detect_down,red,true,false,joint 3 +,true,2024-03-04 12:40:07.823049,21.893,0.192,236.8,131.5860595703125,282.18719482421875,76.29348754882812,45.0,65.0,51.0,3.590399980545044,-20.0
32,100,40,60,go_to_color_detect_down,red,true,false,joint 3 +,true,2024-03-04 12:40:08.575094,21.893,0.192,236.8,127.66973114013672,273.7886047363281,32.91106033325195,45.0,65.0,51.0,21.2544002532959,-20.0
32,100,40,60,go_to_color_detect_down,red,true,false,joint 3 +,true,2024-03-04 12:40:09.438865,21.836,0.194,236.8,114.85227966308594,246.30149841308594,-15.680274963378906,45.0,65.0,51.0,43.449913024902344,-20.0
32,100,40,60,go_to_color_detect_up_from_color_detect_down,red,true,false,joint 3 -,false,2024-03-04 12:40:10.817850,21.912,0.194,236.8,111.24702453613281,238.57000732421875,-24.053016662597656,45.0,65.0,51.0,47.82080078125,-20.0
32,100,40,60,go_to_color_detect_up_from_color_detect_down,red,true,false,joint 3 -,false,2024-03-04 12:40:11.509769,21.741,0.194,236.8,117.95719909667969,252.96002197265625,-7.235664367675781,45.0,65.0,51.0,38.496002197265625,-20.0
32,100,40,60,go_to_color_detect_up_from_color_detect_down,red,true,false,joint 3 -,false,2024-03-04 12:40:12.317106,16.443,0.152,236.8,129.89674377441406,278.564453125,49.8548698425293,45.0,65.0,51.0,13.398326873779297,-20.0
32,100,40,60,go_to_color_detect_up_from_color_detect_down,red,true,false,joint 3 -,false,2024-03-04 12:40:13.691472,16.747,0.152,236.8,131.68650817871094,282.4026184082031,82.66537475585938,45.0,65.0,51.0,0.7900121212005615,-20.0
32,100,40,60,detecting_color,red,false,false,detecting_color,false,2024-03-04 12:40:14.385380,16.747,0.152,236.8,131.69407653808594,282.4188232421875,84.958251953125,45.0,65.0,51.0,0.0,-20.0
32,100,40,60,detecting_color,red,false,false,detecting_color,false,2024-03-04 12:40:15.114940,16.348,0.152,236.8,131.69407653808594,282.4188232421875,84.958251953125,45.0,65.0,51.0,0.0,-20.0
32,100,40,60,detecting_color,red,false,false,detecting_color,false,2024-03-04 12:40:16.356824,16.348,0.152,236.8,131.69407653808594,282.4188232421875,84.958251953125,45.0,65.0,51.0,0.0,-20.0
32,100,40,60,detecting_color,red,false,false,detecting_color,false,2024-03-04 12:40:17.744174,16.12,0.15,236.8,131.69407653808594,282.4188232421875,84.958251953125,45.0,65.0,51.0,0.0,-20.0
32,100,40,60,detecting_color,red,false,false,detecting_color,false,2024-03-04 12:40:18.432880,16.177,0.15,236.8,131.69407653808594,282.4188232421875,84.958251953125,45.0,65.0,51.0,0.0,-20.0
32,100,40,60,go_to_color_detect_down,red,true,false,joint 3 +,false,2024-03-04 12:40:19.824399,16.215,0.15,236.8,131.61029052734375,282.2391662597656,77.32635498046875,45.0,65.0,51.0,3.1744000911712646,-20.0
32,100,40,60,go_to_color_detect_down,red,true,false,joint 3 +,false,2024-03-04 12:40:20.513096,16.215,0.15,236.8,128.05120849609375,274.606689453125,35.36080551147461,45.0,65.0,51.0,20.224000930786133,-20.0
32,100,40,60,go_to_color_detect_down,red,true,false,joint 3 +,false,2024-03-04 12:40:21.902223,16.234,0.151,236.8,115.03809356689453,246.69996643066406,-15.210090637207031,45.0,65.0,51.0,43.20540237426758,-20.0
32,100,40,60,go_to_color_detect_up_from_color_detect_down,red,true,false,joint 3 -,true,2024-03-04 12:40:22.594908,16.12,0.151,236.8,111.16978454589844,238.40435791015625,-24.218093872070312,45.0,65.0,51.0,47.93600082397461,-20.0
32,100,40,60,go_to_color_detect_up_from_color_detect_down,red,true,false,joint 3 -,true,2024-03-04 12:40:23.292796,19.671,0.151,236.8,117.49689483642578,251.97288513183594,-8.572174072265625,45.0,65.0,51.0,39.18080139160156,-20.0
32,100,40,60,go_to_color_detect_up_from_color_detect_down,red,true,false,joint 3 -,true,2024-03-04 12:40:24.692391,22.215,0.151,236.8,129.54737854003906,277.81524658203125,46.64927673339844,45.0,65.0,51.0,14.669465065002441,-20.0
32,100,40,60,go_to_color_detect_up_from_color_detect_down,red,true,false,joint 3 -,true,2024-03-04 12:40:25.394658,22.424,0.197,236.8,131.67625427246094,282.380615234375,81.43706512451172,45.0,65.0,51.0,1.2432622909545898,-20.0
32,100,40,60,go_to_green_up,green,true,false,joint 1 +,true,2024-03-04 12:40:26.775968,22.083,0.197,236.8,122.157958984375,286.6725769042969,84.958251953125,46.91999816894531,67.08000183105469,51.0,0.0,-20.0
32,100,40,60,go_to_green_up,green,true,false,joint 1 +,true,2024-03-04 12:40:27.475255,21.76,0.192,236.8,28.68437957763672,310.29168701171875,84.958251953125,64.71839904785156,85.2239990234375,51.0,0.0,-20.0
32,100,40,60,go_to_green_up,green,true,false,joint 1 +,true,2024-03-04 12:40:28.857713,21.741,0.192,236.8,-63.736019134521484,305.0269775390625,84.958251953125,81.80226135253906,102.00138854980469,51.0,0.0,-20.0
32,100,40,60,go_to_pick_up_from_green,green,true,false,joint 1 -,false,2024-03-04 12:40:29.547012,21.741,0.192,236.8,-78.02635192871094,301.6879577636719,84.958251953125,84.50080108642578,104.4176025390625,51.0,0.0,-20.0
32,100,40,60,go_to_pick_up_from_green,green,true,false,joint 1 -,false,2024-03-04 12:40:30.236330,21.646,0.192,236.8,-4.62060546875,311.5804748535156,84.958251953125,70.84960174560547,90.4207992553711,51.0,0.0,-20.0
32,100,40,60,go_to_pick_up_from_green,green,true,false,joint 1 -,false,2024-03-04 12:40:30.927658,21.646,0.192,236.8,141.23745727539062,277.7691650390625,84.958251953125,43.04800033569336,62.3120002746582,51.0,0.0,-20.0
32,100,40,60,go_to_pick_up_from_green,green,true,false,joint 1 -,false,2024-03-04 12:40:32.881290,16.215,0.15,236.8,257.2394104003906,175.87384033203125,84.958251953125,14.360298156738281,33.93477249145508,51.0,0.0,-20.0
32,100,40,60,go_to_pick_up_from_green,green,true,false,joint 1 -,false,2024-03-04 12:40:33.594955,16.196,0.15,236.8,291.80413818359375,109.33470916748047,84.958251953125,0.5402317047119141,20.460304260253906,51.0,0.0,-20.0
32,100,40,60,moving_belt,green,false,true,joint 1 -,false,2024-03-04 12:40:34.291430,16.196,0.15,236.8,292.8220520019531,106.5785140991211,84.958251953125,0.0,20.0,51.0,0.0,-20.0
32,100,40,60,moving_belt,green,false,true,joint 1 -,false,2024-03-04 12:40:35.746253,16.291,0.15,236.8,292.8220520019531,106.5785140991211,84.958251953125,0.0,20.0,51.0,0.0,-20.0
32,100,40,60,moving_belt,green,false,true,joint 1 -,false,2024-03-04 12:40:36.435593,16.31,0.15,236.8,292.8220520019531,106.5785140991211,84.958251953125,0.0,20.0,51.0,0.0,-20.0
32,100,40,60,moving_belt,green,false,true,joint 1 -,false,2024-03-04 12:40:37.466376,16.31,0.15,236.8,292.8220520019531,106.5785140991211,84.958251953125,0.0,20.0,51.0,0.0,-20.0
32,100,40,60,go_to_pick_down,green,true,false,joint 3 +,false,2024-03-04 12:40:38.285059,16.234,0.15,236.8,292.8216857910156,106.57837677001953,84.61343383789062,0.0,20.0,51.0,0.17919999361038208,-20.0
32,100,40,60,go_to_pick_down,green,true,false,joint 3 +,false,2024-03-04 12:40:38.979171,16.291,0.151,236.8,289.95703125,105.53572845458984,55.174312591552734,0.0,20.0,51.0,12.049799919128418,-20.0
32,100,40,60,go_to_pick_down,green,true,false,joint 3 +,false,2024-03-04 12:40:40.239138,16.291,0.151,236.8,282.9848327636719,102.99806213378906,30.477420806884766,0.0,20.0,51.0,21.806594848632812,-20.0
32,100,40,60,go_to_pick_up_from_pick_down,green,true,false,joint 3 -,true,2024-03-04 12:40:41.620598,16.177,0.149,236.8,286.25537109375,104.18844604492188,40.17350387573242,0.0,20.0,51.0,17.50079917907715,-20.0
32,100,40,60,go_to_pick_up_from_pick_down,green,true,false,joint 3 -,true,2024-03-04 12:40:42.405347,22.69,0.149,236.8,292.7115173339844,106.53828430175781,79.07869720458984,0.0,20.0,51.0,2.124201774597168,-20.0
32,100,40,60,go_to_color_detect_up_from_pick_up,green,true,false,joint 1 +,true,2024-03-04 12:40:43.831027,22.329,0.197,236.8,290.7330017089844,112.15189361572266,84.958251953125,1.094400405883789,21.215999603271484,51.0,-5.820766091346741e-11,-20.0
32,100,40,60,go_to_color_detect_up_from_pick_up,green,true,false,joint 1 +,true,2024-03-04 12:40:44.535888,21.931,0.197,236.8,257.8819885253906,174.93028259277344,84.958251953125,14.150402069091797,34.579200744628906,51.0,-5.820766091346741e-11,-20.0
32,100,40,60,go_to_color_detect_up_from_pick_up,green,true,false,joint 1 +,true,2024-03-04 12:40:45.907710,22.007,0.194,236.8,165.7327117919922,263.8870849609375,84.958251953125,37.8693733215332,58.16828536987305,51.0,-5.820766091346741e-11,-20.0
32,100,40,60,go_to_color_detect_down,green,true,false,joint 3 +,true,2024-03-04 12:40:46.596774,21.741,0.194,236.8,131.69407653808594,282.4188232421875,84.958251953125,45.0,65.0,51.0,-5.820766091346741e-11,-20.0
32,100,40,60,go_to_color_detect_down,green,true,false,joint 3 +,true,2024-03-04 12:40:47.284874,21.741,0.192,236.8,131.24172973632812,281.4487609863281,67.25126647949219,45.0,65.0,51.0,7.219200611114502,-20.0
32,100,40,60,go_to_color_detect_down,green,true,false,joint 3 +,true,2024-03-04 12:40:48.661120,21.893,0.192,236.8,122.77365112304688,263.2889404296875,9.063056945800781,45.0,65.0,51.0,31.54608917236328,-20.0
32,100,40,60,go_to_color_detect_down,green,true,false,joint 3 +,true,2024-03-04 12:40:49.347823,21.893,0.194,236.8,112.688720703125,241.66172790527344,-20.866981506347656,45.0,65.0,51.0,46.201087951660156,-20.0
32,100,40,60,go_to_color_detect_up_from_color_detect_down,green,true,false,joint 3 -,false,2024-03-04 12:40:50.736040,21.817,0.194,236.8,112.10924530029297,240.41903686523438,-22.172042846679688,45.0,65.0,51.0,46.656002044677734,-20.0
32,100,40,60,go_to_color_detect_up_from_color_detect_down,green,true,false,joint 3 -,false,2024-03-04 12:40:51.437697,16.272,0.151,236.8,122.9798812866211,263.731201171875,9.878440856933594,45.0,65.0,51.0,30.240001678466797,-20.0
32,100,40,60,go_to_color_detect_up_from_color_detect_down,green,true,false,joint 3 -,false,2024-03-04 12:40:52.822729,16.557,0.151,236.8,131.0027313232422,280.936279296875,63.08903503417969,45.0,65.0,51.0,8.227951049804688,-20.0
32,100,40,60,go_to_color_detect_up_from_color_detect_down,green,true,false,joint 3 -,false,2024-03-04 12:40:53.520118,16.557,0.151,236.8,131.69406127929688,282.4187927246094,84.84366607666016,45.0,65.0,51.0,0.024149177595973015,-20.0
32,100,40,60,detecting_color,green,false,false,detecting_color,false,2024-03-04 12:40:54.904487,16.405,0.152,236.8,131.69407653808594,282.4188232421875,84.958251953125,45.0,65.0,51.0,0.0,-20.0
32,100,40,60,go_to_color_detect_down,green,true,false,joint 3 +,false,2024-03-04 12:40:55.590542,16.044,0.152,236.8,131.67340087890625,282.37451171875,81.16564178466797,45.0,65.0,51.0,1.6192002296447754,-20.0
32,100,40,60,go_to_color_detect_down,green,true,false,joint 3 +,false,2024-03-04 12:40:56.279312,16.044,0.151,236.8,128.57252502441406,275.72467041015625,38.947532653808594,45.0,65.0,51.0,18.72640037536621,-20.0
32,100,40,60,go_to_color_detect_down,green,true,false,joint 3 +,false,2024-03-04 12:40:57.699767,16.329,0.151,236.8,117.09447479248047,251.10989379882812,-9.71490478515625,45.0,65.0,51.0,40.40827560424805,-20.0
32,100,40,60,go_to_color_detect_up_from_color_detect_down,green,true,false,joint 3 -,true,2024-03-04 12:40:58.398439,16.329,0.151,236.8,111.14070892333984,238.34201049804688,-24.280067443847656,45.0,65.0,51.0,47.998992919921875,-20.0
32,100,40,60,go_to_color_detect_up_from_color_detect_down,green,true,false,joint 3 -,true,2024-03-04 12:40:59.780409,16.234,0.151,235.0,117.27093505859375,251.48831176757812,-9.216705322265625,45.0,65.0,51.0,39.51360321044922,-20.0
32,100,40,60,go_to_color_detect_up_from_color_detect_down,green,true,false,joint 3 -,true,2024-03-04 12:41:00.472955,22.633,0.196,235.0,128.70037841796875,275.99884033203125,39.875831604003906,45.0,65.0,51.0,17.384540557861328,-20.0
32,100,40,60,go_to_color_detect_up_from_color_detect_down,green,true,false,joint 3 -,true,2024-03-04 12:41:01.162400,22.234,0.196,236.8,131.64476013183594,282.3131103515625,79.10284423828125,45.0,65.0,51.0,2.1151373386383057,-20.0
32,100,40,60,go_to_blue_up,blue,true,false,joint 1 +,true,2024-03-04 12:41:02.910269,22.026,0.194,236.8,126.27592468261719,284.8826599121094,84.958251953125,46.094398498535156,66.21599578857422,51.0,0.0,-20.0
32,100,40,60,go_to_blue_up,blue,true,false,joint 1 +,true,2024-03-04 12:41:03.608429,21.817,0.194,236.8,52.47509765625,307.16461181640625,84.958251953125,60.30535125732422,80.54729461669922,51.0,0.0,-20.0
32,100,40,60,go_to_pick_up_from_blue,blue,true,false,joint 1 -,false,2024-03-04 12:41:04.299494,21.817,0.194,236.8,27.679073333740234,310.38299560546875,84.958251953125,64.90399932861328,84.8656005859375,51.0,0.0,-20.0
32,100,40,60,go_to_pick_up_from_blue,blue,true,false,joint 1 -,false,2024-03-04 12:41:05.678396,16.671,0.193,236.8,76.22203063964844,302.14886474609375,84.958251953125,55.84159851074219,75.49600219726562,51.0,0.0,-20.0
32,100,40,60,go_to_pick_up_from_blue,blue,true,false,joint 1 -,false,2024-03-04 12:41:06.367668,16.671,0.193,236.8,207.25709533691406,232.6977081298828,84.958251953125,28.309471130371094,47.71070861816406,51.0,0.0,-20.0
32,100,40,60,go_to_pick_up_from_blue,blue,true,false,joint 1 -,false,2024-03-04 12:41:07.757740,16.101,0.15,236.8,278.1719665527344,140.4424591064453,84.958251953125,6.7881317138671875,26.496570587158203,51.0,0.0,-20.0
32,100,40,60,moving_belt,blue,false,true,joint 1 -,false,2024-03-04 12:41:08.452032,16.082,0.15,236.8,292.8220520019531,106.5785140991211,84.958251953125,0.0,20.0,51.0,0.0,-20.0
32,100,40,60,moving_belt,blue,false,true,joint 1 -,false,2024-03-04 12:41:09.828081,16.196,0.149,236.8,292.8220520019531,106.5785140991211,84.958251953125,0.0,20.0,51.0,0.0,-20.0
32,100,40,60,moving_belt,blue,false,true,joint 1 -,false,2024-03-04 12:41:10.531948,16.196,0.149,236.8,292.8220520019531,106.5785140991211,84.958251953125,0.0,20.0,51.0,0.0,-20.0
32,100,40,60,moving_belt,blue,false,true,joint 1 -,false,2024-03-04 12:41:11.270612,16.215,0.151,236.8,292.8220520019531,106.5785140991211,84.958251953125,0.0,20.0,51.0,0.0,-20.0
32,100,40,60,moving_belt,blue,false,true,joint 1 -,false,2024-03-04 12:41:12.650157,16.443,0.151,235.0,292.8220520019531,106.5785140991211,84.958251953125,0.0,20.0,51.0,0.0,-20.0
32,100,40,60,go_to_pick_down,blue,true,false,joint 3 +,false,2024-03-04 12:41:13.347823,16.367,0.151,235.0,292.6800231933594,106.52682495117188,78.29399108886719,0.0,20.0,51.0,2.7839999198913574,-20.0
32,100,40,60,go_to_pick_down,blue,true,false,joint 3 +,false,2024-03-04 12:41:14.728843,16.158,0.151,236.8,287.0077819824219,104.46229553222656,42.7585334777832,0.0,20.0,51.0,16.940462112426758,-20.0
32,100,40,60,go_to_pick_up_from_pick_down,blue,true,false,joint 3 -,true,2024-03-04 12:41:15.440469,16.158,0.151,236.8,283.0220947265625,103.0116195678711,30.57686996459961,0.0,20.0,51.0,21.648000717163086,-20.0
32,100,40,60,go_to_pick_up_from_pick_down,blue,true,false,joint 3 -,true,2024-03-04 12:41:16.862715,22.804,0.151,236.8,290.0869140625,105.58300018310547,55.850318908691406,0.0,20.0,51.0,11.04959774017334,-20.0
32,100,40,60,go_to_pick_up_from_pick_down,blue,true,false,joint 3 -,true,2024-03-04 12:41:17.564828,22.158,0.151,236.8,292.81793212890625,106.57701110839844,83.82099151611328,0.0,20.0,51.0,0.3712034225463867,-20.0
32,100,40,60,go_to_color_detect_up_from_pick_up,blue,true,false,joint 1 +,true,2024-03-04 12:41:18.255977,22.158,0.195,236.8,282.4372253417969,131.65463256835938,84.958251953125,4.992000579833984,25.248001098632812,51.0,-5.820766091346741e-11,-20.0
32,100,40,60,go_to_color_detect_up_from_pick_up,blue,true,false,joint 1 +,true,2024-03-04 12:41:19.645112,21.627,0.195,236.8,222.5836944580078,218.08309936523438,84.958251953125,24.414852142333984,44.924964904785156,51.0,-5.820766091346741e-11,-20.0
32,100,40,60,go_to_color_detect_up_from_pick_up,blue,true,false,joint 1 +,true,2024-03-04 12:41:20.333521,21.893,0.193,236.8,147.82351684570312,274.32086181640625,84.958251953125,41.68106460571289,61.883975982666016,51.0,-5.820766091346741e-11,-20.0
32,100,40,60,go_to_color_detect_down,blue,true,false,joint 3 +,true,2024-03-04 12:41:21.911216,21.722,0.193,236.8,131.68008422851562,282.38885498046875,81.83867645263672,45.0,65.0,51.0,1.344000220298767,-20.0
32,100,40,60,go_to_color_detect_down,blue,true,false,joint 3 +,true,2024-03-04 12:41:22.602075,21.57,0.192,236.8,129.69369506835938,278.1289978027344,47.95569610595703,45.0,65.0,51.0,15.01440143585205,-20.0
32,100,40,60,go_to_color_detect_down,blue,true,false,joint 3 +,true,2024-03-04 12:41:23.299584,21.646,0.192,236.8,118.95917510986328,255.1087646484375,-4.211128234863281,45.0,65.0,51.0,37.70977783203125,-20.0
32,100,40,60,go_to_color_detect_down,blue,true,false,joint 3 +,true,2024-03-04 12:41:24.691889,21.779,0.192,236.8,111.19649505615234,238.46163940429688,-24.161094665527344,45.0,65.0,51.0,47.95534133911133,-20.0
32,100,40,60,go_to_color_detect_up_from_color_detect_down,blue,true,false,joint 3 -,false,2024-03-04 12:41:25.383591,21.874,0.192,235.0,114.99853515625,246.61514282226562,-15.310523986816406,45.0,65.0,51.0,42.75200271606445,-20.0
32,100,40,60,go_to_color_detect_up_from_color_detect_down,blue,true,false,joint 3 -,false,2024-03-04 12:41:26.769500,16.272,0.152,235.0,127.82413482666016,274.1197204589844,33.88649368286133,45.0,65.0,51.0,19.823102951049805,-20.0
32,100,40,60,go_to_color_detect_up_from_color_detect_down,blue,true,false,joint 3 -,false,2024-03-04 12:41:27.468898,16.595,0.152,236.8,131.60792541503906,282.2341003417969,77.21951293945312,45.0,65.0,51.0,2.824387788772583,-20.0
32,100,40,60,detecting_color,blue,false,false,detecting_color,false,2024-03-04 12:41:28.843856,16.443,0.152,236.8,131.69407653808594,282.4188232421875,84.958251953125,45.0,65.0,51.0,0.0,-20.0
32,100,40,60,detecting_color,blue,false,false,detecting_color,false,2024-03-04 12:41:29.532553,16.443,0.152,236.8,131.69407653808594,282.4188232421875,84.958251953125,45.0,65.0,51.0,0.0,-20.0
32,100,40,60,go_to_color_detect_down,blue,true,false,joint 3 +,false,2024-03-04 12:41:30.938146,16.101,0.152,236.8,131.31460571289062,281.6050720214844,68.73550415039062,45.0,65.0,51.0,6.624000549316406,-20.0
32,100,40,60,go_to_color_detect_down,blue,true,false,joint 3 +,false,2024-03-04 12:41:31.640644,16.291,0.152,236.8,124.84553527832031,267.7320861816406,17.863739013671875,45.0,65.0,51.0,27.66998863220215,-20.0
32,100,40,60,go_to_color_detect_down,blue,true,false,joint 3 +,false,2024-03-04 12:41:32.366793,16.215,0.152,236.8,112.81446838378906,241.931396484375,-20.57929229736328,45.0,65.0,51.0,46.04617691040039,-20.0
32,100,40,60,go_to_color_detect_up_from_color_detect_down,blue,true,false,joint 3 -,true,2024-03-04 12:41:33.757387,16.291,0.152,236.8,112.0130615234375,240.2127685546875,-22.38542938232422,45.0,65.0,51.0,46.784000396728516,-20.0
32,100,40,60,go_to_color_detect_up_from_color_detect_down,blue,true,false,joint 3 -,true,2024-03-04 12:41:34.446473,16.291,0.152,235.0,121.16405487060547,259.837158203125,3.0770721435546875,45.0,65.0,51.0,33.42080307006836,-20.0
32,100,40,60,go_to_color_detect_up_from_color_detect_down,blue,true,false,joint 3 -,true,2024-03-04 12:41:35.826327,22.234,0.194,235.0,130.9477996826172,280.8184509277344,62.241737365722656,45.0,65.0,51.0,8.5556640625,-20.0
32,100,40,60,go_to_color_detect_up_from_color_detect_down,blue,true,false,joint 3 -,true,2024-03-04 12:41:36.521717,22.196,0.194,236.8,131.69403076171875,282.41876220703125,84.77462005615234,45.0,65.0,51.0,0.04466171935200691,-20.0
32,100,40,60,go_to_red_up,red,true,false,joint 1 +,true,2024-03-04 12:41:37.904509,21.931,0.193,236.8,96.71622467041016,296.22576904296875,84.958251953125,51.91840362548828,72.21920013427734,51.0,0.0,-20.0
32,100,40,60,go_to_red_up,red,true,false,joint 1 +,true,2024-03-04 12:41:38.593058,21.855,0.193,236.8,-19.436155319213867,311.00799560546875,84.958251953125,73.57599639892578,94.18399810791016,51.0,0.0,-20.0
32,100,40,60,go_to_red_up,red,true,false,joint 1 +,true,2024-03-04 12:41:39.300351,21.779,0.193,236.8,-139.66404724121094,278.5635986328125,84.958251953125,96.6279067993164,116.95206451416016,51.0,0.0,-20.0
32,100,40,60,go_to_pick_up_from_red,red,true,false,joint 1 -,false,2024-03-04 12:41:40.697299,21.893,0.193,236.8,-178.73486328125,255.2598114013672,84.958251953125,105.0,125.0,51.0,0.0,-20.0
32,100,40,60,go_to_pick_up_from_red,red,true,false,joint 1 -,false,2024-03-04 12:41:41.627220,21.76,0.193,236.8,-145.24058532714844,275.6971130371094,84.958251953125,97.78079986572266,117.47360229492188,51.0,0.0,-20.0
32,100,40,60,go_to_pick_up_from_red,red,true,false,joint 1 -,false,2024-03-04 12:41:42.316515,16.025,0.154,236.8,-31.57726287841797,310.0106506347656,84.958251953125,75.81600189208984,95.20159912109375,51.0,0.0,-20.0
32,100,40,60,go_to_pick_up_from_red,red,true,false,joint 1 -,false,2024-03-04 12:41:43.893442,16.101,0.154,235.0,156.24510192871094,269.613037109375,84.958251953125,39.907012939453125,59.195499420166016,51.0,0.0,-20.0
32,100,40,60,go_to_pick_up_from_red,red,true,false,joint 1 -,false,2024-03-04 12:41:44.712742,16.101,0.151,235.0,268.0986633300781,158.82958984375,84.958251953125,10.643756866455078,30.27784538269043,51.0,0.0,-20.0
32,100,40,60,go_to_pick_up_from_red,red,true,false,joint 1 -,false,2024-03-04 12:41:45.535961,16.31,0.151,235.0,292.2615661621094,108.10603332519531,84.958251953125,0.29917144775390625,20.240459442138672,51.0,0.0,-20.0
32,100,40,60,moving_belt,red,false,true,joint 1 -,false,2024-03-04 12:41:46.360203,16.196,0.151,235.0,292.8220520019531,106.5785140991211,84.958251953125,0.0,20.0,51.0,0.0,-20.0
32,100,40,60,moving_belt,red,false,true,joint 1 -,false,2024-03-04 12:41:47.773291,16.69,0.151,235.0,292.8220520019531,106.5785140991211,84.958251953125,0.0,20.0,51.0,0.0,-20.0
32,100,40,60,moving_belt,red,false,true,joint 1 -,false,2024-03-04 12:41:48.479192,16.139,0.151,235.0,292.8220520019531,106.5785140991211,84.958251953125,0.0,20.0,51.0,0.0,-20.0
32,100,40,60,moving_belt,red,false,true,joint 1 -,false,2024-03-04 12:41:49.871567,16.272,0.151,235.0,292.8220520019531,106.5785140991211,84.958251953125,0.0,20.0,51.0,0.0,-20.0
32,100,40,60,go_to_pick_down,red,true,false,joint 3 +,false,2024-03-04 12:41:50.560260,16.272,0.151,235.0,292.80609130859375,106.57270812988281,82.72521209716797,0.0,20.0,51.0,0.9791999459266663,-20.0
32,100,40,60,go_to_pick_down,red,true,false,joint 3 +,false,2024-03-04 12:41:51.957855,16.367,0.152,235.0,289.2318115234375,105.27177429199219,51.66150665283203,0.0,20.0,51.0,13.426065444946289,-20.0
32,100,40,60,go_to_pick_down,red,true,false,joint 3 +,false,2024-03-04 12:41:52.648208,16.253,0.152,235.0,282.8296203613281,102.94156646728516,30.065265655517578,0.0,20.0,51.0,21.95406150817871,-20.0
32,100,40,60,go_to_pick_up_from_pick_down,red,true,false,joint 3 -,true,2024-03-04 12:41:53.338884,16.253,0.152,235.0,287.87774658203125,104.7789306640625,45.980873107910156,0.0,20.0,51.0,15.081598281860352,-20.0
32,100,40,60,go_to_pick_up_from_pick_down,red,true,false,joint 3 -,true,2024-03-04 12:41:54.033561,17.089,0.152,235.0,292.7533264160156,106.55350494384766,80.32222747802734,0.0,20.0,51.0,1.6584022045135498,-20.0
32,100,40,60,go_to_color_detect_up_from_pick_up,red,true,false,joint 1 +,true,2024-03-04 12:41:55.722162,22.196,0.196,235.0,289.693603515625,114.81011199951172,84.958251953125,1.6191997528076172,21.766399383544922,51.0,-5.820766091346741e-11,-20.0
32,100,40,60,go_to_color_detect_up_from_pick_up,red,true,false,joint 1 +,true,2024-03-04 12:41:56.418354,21.646,0.196,235.0,243.10379028320312,194.94686889648438,84.958251953125,18.726402282714844,39.21920394897461,51.0,-5.820766091346741e-11,-20.0
32,100,40,60,go_to_color_detect_up_from_pick_up,red,true,false,joint 1 +,true,2024-03-04 12:41:57.932302,21.627,0.193,235.0,160.36929321289062,267.18048095703125,84.958251953125,39.0266227722168,59.29993438720703,51.0,-5.820766091346741e-11,-20.0
32,100,40,60,go_to_color_detect_down,red,true,false,joint 3 +,true,2024-03-04 12:41:58.630756,21.855,0.193,235.0,131.69407653808594,282.4188232421875,84.90898895263672,45.0,65.0,51.0,0.03840000182390213,-20.0
32,100,40,60,go_to_color_detect_down,red,true,false,joint 3 +,true,2024-03-04 12:41:59.626205,21.798,0.193,235.0,130.70947265625,280.3073425292969,58.89043426513672,45.0,65.0,51.0,10.579201698303223,-20.0
32,100,40,60,go_to_color_detect_down,red,true,false,joint 3 +,true,2024-03-04 12:42:00.315898,21.874,0.193,235.0,121.7339859008789,261.0593566894531,5.124473571777344,45.0,65.0,51.0,33.33053970336914,-20.0
32,100,40,60,go_to_color_detect_down,red,true,false,joint 3 +,true,2024-03-04 12:42:01.287512,21.855,0.193,235.0,112.23280334472656,240.6840057373047,-21.896568298339844,45.0,65.0,51.0,46.75674057006836,-20.0
32,100,40,60,go_to_color_detect_up_from_color_detect_down,red,true,false,joint 3 -,false,2024-03-04 12:42:02.705434,21.627,0.193,235.0,113.4797134399414,243.35801696777344,-19.029983520507812,45.0,65.0,51.0,44.82560348510742,-20.0
32,100,40,60,go_to_color_detect_up_from_color_detect_down,red,true,false,joint 3 -,false,2024-03-04 12:42:03.395728,21.627,0.193,235.0,124.01966094970703,265.96099853515625,14.183624267578125,45.0,65.0,51.0,28.281600952148438,-20.0
32,100,40,60,go_to_color_detect_up_from_color_detect_down,red,true,false,joint 3 -,false,2024-03-04 12:42:04.791250,16.443,0.152,235.0,131.1928253173828,281.34393310546875,66.32247161865234,45.0,65.0,51.0,6.981101036071777,-20.0
32,100,40,60,detecting_color,red,false,false,detecting_color,false,2024-03-04 12:42:05.483863,16.652,0.152,235.0,131.69407653808594,282.4188232421875,84.958251953125,45.0,65.0,51.0,0.0,-20.0
32,100,40,60,detecting_color,red,false,false,detecting_color,false,2024-03-04 12:42:06.434918,16.291,0.152,235.0,131.69407653808594,282.4188232421875,84.958251953125,45.0,65.0,51.0,0.0,-20.0
32,100,40,60,detecting_color,red,false,false,detecting_color,false,2024-03-04 12:42:07.818428,16.253,0.152,235.0,131.69407653808594,282.4188232421875,84.958251953125,45.0,65.0,51.0,0.0,-20.0
32,100,40,60,detecting_color,red,false,false,detecting_color,false,2024-03-04 12:42:08.509121,16.253,0.152,235.0,131.69407653808594,282.4188232421875,84.958251953125,45.0,65.0,51.0,0.0,-20.0
32,100,40,60,go_to_color_detect_down,red,true,false,joint 3 +,false,2024-03-04 12:42:09.891839,16.291,0.152,235.0,131.69406127929688,282.4187927246094,84.85973358154297,45.0,65.0,51.0,0.06400000303983688,-20.0
32,100,40,60,go_to_color_detect_down,red,true,false,joint 3 +,false,2024-03-04 12:42:10.582814,16.196,0.152,235.0,131.0138702392578,280.96014404296875,63.26477813720703,45.0,65.0,51.0,8.81920051574707,-20.0
32,100,40,60,go_to_color_detect_down,red,true,false,joint 3 +,false,2024-03-04 12:42:11.969170,16.272,0.152,235.0,123.03414916992188,263.8475646972656,10.095016479492188,45.0,65.0,51.0,31.08397674560547,-20.0
32,100,40,60,go_to_color_detect_down,red,true,false,joint 3 +,false,2024-03-04 12:42:12.696736,16.196,0.151,235.0,112.13077545166016,240.4652099609375,-22.12413787841797,45.0,65.0,51.0,46.87965393066406,-20.0
32,100,40,60,go_to_color_detect_up_from_color_detect_down,red,true,false,joint 3 -,true,2024-03-04 12:42:13.383698,16.196,0.151,235.0,112.78711700439453,241.87274169921875,-20.64202880859375,45.0,65.0,51.0,45.75360107421875,-20.0
32,100,40,60,go_to_color_detect_up_from_color_detect_down,red,true,false,joint 3 -,true,2024-03-04 12:42:14.770719,22.348,0.197,235.0,122.9798812866211,263.731201171875,9.878440856933594,45.0,65.0,51.0,30.240001678466797,-20.0
32,100,40,60,go_to_color_detect_up_from_color_detect_down,red,true,false,joint 3 -,true,2024-03-04 12:42:15.471635,22.348,0.197,235.0,131.2716522216797,281.512939453125,67.84488677978516,45.0,65.0,51.0,6.396076202392578,-20.0
32,100,40,60,go_to_green_up,green,true,false,joint 1 +,true,2024-03-04 12:42:16.868573,22.158,0.195,235.0,131.69407653808594,282.4188232421875,84.958251953125,45.0,65.0,51.0,0.0,-20.0
32,100,40,60,go_to_green_up,green,true,false,joint 1 +,true,2024-03-04 12:42:17.561924,21.855,0.195,235.0,96.71622467041016,296.22576904296875,84.958251953125,51.91840362548828,72.21920013427734,51.0,0.0,-20.0
32,100,40,60,go_to_green_up,green,true,false,joint 1 +,true,2024-03-04 12:42:18.948038,21.931,0.194,235.0,-23.79020118713379,310.70526123046875,84.958251953125,74.37850189208984,94.74403381347656,51.0,0.0,-20.0
32,100,40,60,go_to_green_up,green,true,false,joint 1 +,true,2024-03-04 12:42:19.678607,21.931,0.194,235.0,-79.09941864013672,301.4084167480469,84.958251953125,84.70469665527344,104.76302337646484,51.0,0.0,-20.0
32,100,40,60,go_to_pick_up_from_green,green,true,false,joint 1 -,false,2024-03-04 12:42:20.365841,21.779,0.194,235.0,-59.2880859375,305.9226379394531,84.958251953125,80.96800231933594,100.73760223388672,51.0,0.0,-20.0
32,100,40,60,go_to_pick_up_from_green,green,true,false,joint 1 -,false,2024-03-04 12:42:21.756284,16.082,0.151,235.0,54.445491790771484,306.82147216796875,84.958251953125,59.937599182128906,79.36799621582031,51.0,0.0,-20.0
32,100,40,60,go_to_pick_up_from_green,green,true,false,joint 1 -,false,2024-03-04 12:42:22.446968,16.082,0.151,235.0,207.42251586914062,232.55027770996094,84.958251953125,28.26873016357422,47.67040252685547,51.0,0.0,-20.0
32,100,40,60,go_to_pick_up_from_green,green,true,false,joint 1 -,false,2024-03-04 12:42:23.832571,16.272,0.152,235.0,282.14825439453125,132.27279663085938,84.958251953125,5.117464065551758,24.864736557006836,51.0,0.0,-20.0
32,100,40,60,moving_belt,green,false,true,joint 1 -,false,2024-03-04 12:42:24.520211,16.272,0.152,235.0,292.8220520019531,106.5785140991211,84.958251953125,0.0,20.0,51.0,0.0,-20.0
32,100,40,60,moving_belt,green,false,true,joint 1 -,false,2024-03-04 12:42:25.897057,16.215,0.154,235.0,292.8220520019531,106.5785140991211,84.958251953125,0.0,20.0,51.0,0.0,-20.0
32,100,40,60,moving_belt,green,false,true,joint 1 -,false,2024-03-04 12:42:26.598943,16.253,0.154,235.0,292.8220520019531,106.5785140991211,84.958251953125,0.0,20.0,51.0,0.0,-20.0
32,100,40,60,moving_belt,green,false,true,joint 1 -,false,2024-03-04 12:42:27.303229,16.253,0.154,235.0,292.8220520019531,106.5785140991211,84.958251953125,0.0,20.0,51.0,0.0,-20.0
32,100,40,60,moving_belt,green,false,true,joint 1 -,false,2024-03-04 12:42:28.729061,16.196,0.153,235.0,292.8220520019531,106.5785140991211,84.958251953125,0.0,20.0,51.0,0.0,-20.0
32,100,40,60,go_to_pick_down,green,true,false,joint 3 +,false,2024-03-04 12:42:29.428721,16.158,0.153,235.0,292.5170593261719,106.4675064086914,75.19551086425781,0.0,20.0,51.0,4.0320000648498535,-20.0
32,100,40,60,go_to_pick_down,green,true,false,joint 3 +,false,2024-03-04 12:42:30.472347,16.139,0.153,235.0,285.9619445800781,104.0816421508789,39.20884704589844,0.0,20.0,51.0,18.352062225341797,-20.0
32,100,40,60,go_to_pick_up_from_pick_down,green,true,false,joint 3 -,true,2024-03-04 12:42:31.847033,16.348,0.15,235.0,283.0791015625,103.0323715209961,30.72945785522461,0.0,20.0,51.0,21.577600479125977,-20.0
32,100,40,60,go_to_pick_up_from_pick_down,green,true,false,joint 3 -,true,2024-03-04 12:42:32.537986,22.424,0.195,235.0,290.2612609863281,105.6464614868164,56.78443145751953,0.0,20.0,51.0,10.67673110961914,-20.0
32,100,40,60,go_to_pick_up_from_pick_down,green,true,false,joint 3 -,true,2024-03-04 12:42:33.915135,22.234,0.195,236.8,292.8219299316406,106.5784683227539,84.77043914794922,0.0,20.0,51.0,0.04593762010335922,-20.0
32,100,40,60,go_to_color_detect_up_from_pick_up,green,true,false,joint 1 +,true,2024-03-04 12:42:34.619017,22.026,0.193,236.8,281.8461608886719,132.91526794433594,84.958251953125,5.2480010986328125,25.510400772094727,51.0,-5.820766091346741e-11,-20.0
32,100,40,60,go_to_color_detect_up_from_pick_up,green,true,false,joint 1 +,true,2024-03-04 12:42:35.310349,21.779,0.193,236.8,220.6332550048828,220.05612182617188,84.958251953125,24.924964904785156,45.42867660522461,51.0,-5.820766091346741e-11,-20.0
32,100,40,60,go_to_color_detect_up_from_pick_up,green,true,false,joint 1 +,true,2024-03-04 12:42:36.692649,21.912,0.193,236.8,141.62977600097656,277.5693359375,84.958251953125,42.9670524597168,63.12516403198242,51.0,-5.820766091346741e-11,-20.0
32,100,40,60,go_to_color_detect_down,green,true,false,joint 3 +,true,2024-03-04 12:42:37.381573,21.912,0.193,235.0,131.67698669433594,282.3821716308594,81.5103530883789,45.0,65.0,51.0,1.4784002304077148,-20.0
32,100,40,60,go_to_color_detect_down,green,true,false,joint 3 +,true,2024-03-04 12:42:38.800875,21.741,0.193,235.0,128.8879852294922,276.4011535644531,41.27745819091797,45.0,65.0,51.0,17.760000228881836,-20.0
32,100,40,60,go_to_color_detect_down,green,true,false,joint 3 +,true,2024-03-04 12:42:39.501687,21.817,0.193,235.0,117.31809997558594,251.58946228027344,-9.082778930664062,45.0,65.0,51.0,40.09336471557617,-20.0
32,100,40,60,go_to_color_detect_down,green,true,false,joint 3 +,true,2024-03-04 12:42:40.901548,21.76,0.193,235.0,111.1583023071289,238.37974548339844,-24.242584228515625,45.0,65.0,51.0,47.989967346191406,-20.0
32,100,40,60,go_to_color_detect_up_from_color_detect_down,green,true,false,joint 3 -,false,2024-03-04 12:42:41.596883,21.76,0.193,235.0,116.82791137695312,250.5382537841797,-10.4591064453125,45.0,65.0,51.0,40.160003662109375,-20.0
32,100,40,60,go_to_color_detect_up_from_color_detect_down,green,true,false,joint 3 -,false,2024-03-04 12:42:42.979787,16.538,0.154,235.0,128.19461059570312,274.9142150878906,36.31793975830078,45.0,65.0,51.0,18.82847785949707,-20.0
32,100,40,60,go_to_color_detect_up_from_color_detect_down,green,true,false,joint 3 -,false,2024-03-04 12:42:43.667662,16.538,0.154,235.0,131.6186065673828,282.25701904296875,77.71484375,45.0,65.0,51.0,2.6374752521514893,-20.0
32,100,40,60,detecting_color,green,false,false,detecting_color,false,2024-03-04 12:42:44.354182,16.538,0.154,235.0,131.69407653808594,282.4188232421875,84.958251953125,45.0,65.0,51.0,0.0,-20.0
32,100,40,60,detecting_color,green,false,false,detecting_color,false,2024-03-04 12:42:45.920439,16.196,0.151,235.0,131.69407653808594,282.4188232421875,84.958251953125,45.0,65.0,51.0,0.0,-20.0
32,100,40,60,go_to_color_detect_down,green,true,false,joint 3 +,false,2024-03-04 12:42:46.630694,16.196,0.151,235.0,131.54031372070312,282.0890808105469,74.62215423583984,45.0,65.0,51.0,4.262400150299072,-20.0
32,100,40,60,go_to_color_detect_down,green,true,false,joint 3 +,false,2024-03-04 12:42:47.326044,16.215,0.151,235.0,127.04346466064453,272.4455871582031,29.15350341796875,45.0,65.0,51.0,22.847999572753906,-20.0
32,100,40,60,go_to_color_detect_down,green,true,false,joint 3 +,false,2024-03-04 12:42:48.705222,16.234,0.152,235.0,115.4211654663086,247.521484375,-14.227584838867188,45.0,65.0,51.0,42.69717788696289,-20.0
32,100,40,60,go_to_color_detect_up_from_color_detect_down,green,true,false,joint 3 -,true,2024-03-04 12:42:49.396636,16.234,0.152,235.0,111.3703842163086,238.8345489501953,-23.788246154785156,45.0,65.0,51.0,47.64800262451172,-20.0
32,100,40,60,go_to_color_detect_up_from_color_detect_down,green,true,false,joint 3 -,true,2024-03-04 12:42:50.775532,20.203,0.155,235.0,118.90840148925781,254.9998779296875,-4.368400573730469,45.0,65.0,51.0,37.04960250854492,-20.0
32,100,40,60,go_to_color_detect_up_from_color_detect_down,green,true,false,joint 3 -,true,2024-03-04 12:42:51.468094,22.14,0.155,235.0,129.54737854003906,277.81524658203125,46.64927673339844,45.0,65.0,51.0,14.669465065002441,-20.0
32,100,40,60,go_to_color_detect_up_from_color_detect_down,green,true,false,joint 3 -,true,2024-03-04 12:42:52.888218,22.253,0.198,235.0,131.6895294189453,282.4090881347656,83.18108367919922,45.0,65.0,51.0,0.6017869710922241,-20.0
32,100,40,60,go_to_blue_up,blue,true,false,joint 1 +,true,2024-03-04 12:42:53.582720,22.083,0.198,235.0,116.85396575927734,288.8752136230469,84.958251953125,47.97599792480469,68.17440032958984,51.0,0.0,-20.0
32,100,40,60,go_to_blue_up,blue,true,false,joint 1 +,true,2024-03-04 12:42:54.995743,21.893,0.195,235.0,46.322792053222656,308.1524658203125,84.958251953125,61.45105743408203,81.66099548339844,51.0,0.0,-20.0
32,100,40,60,go_to_pick_up_from_blue,blue,true,false,joint 1 -,false,2024-03-04 12:42:55.683555,21.893,0.195,235.0,33.083152770996094,309.85357666015625,84.958251953125,63.905601501464844,83.78400421142578,51.0,0.0,-20.0
32,100,40,60,go_to_pick_up_from_blue,blue,true,false,joint 1 -,false,2024-03-04 12:42:56.382082,21.38,0.193,235.0,100.05193328857422,295.1158142089844,84.958251953125,51.272003173828125,70.84960174560547,51.0,0.0,-20.0
32,100,40,60,go_to_pick_up_from_blue,blue,true,false,joint 1 -,false,2024-03-04 12:42:57.776094,16.139,0.193,235.0,221.06321716308594,219.62417602539062,84.958251953125,24.812904357910156,44.25254440307617,51.0,0.0,-20.0
32,100,40,60,go_to_pick_up_from_blue,blue,true,false,joint 1 -,false,2024-03-04 12:42:58.468360,16.215,0.152,235.0,285.3081359863281,125.31157684326172,84.958251953125,3.7117958068847656,23.497034072875977,51.0,0.0,-20.0
32,100,40,60,moving_belt,blue,false,true,joint 1 -,false,2024-03-04 12:42:59.981011,16.025,0.152,235.0,292.8220520019531,106.5785140991211,84.958251953125,0.0,20.0,51.0,0.0,-20.0
32,100,40,60,moving_belt,blue,false,true,joint 1 -,false,2024-03-04 12:43:00.671909,16.025,0.155,235.0,292.8220520019531,106.5785140991211,84.958251953125,0.0,20.0,51.0,0.0,-20.0
32,100,40,60,moving_belt,blue,false,true,joint 1 -,false,2024-03-04 12:43:01.361223,16.31,0.155,235.0,292.8220520019531,106.5785140991211,84.958251953125,0.0,20.0,51.0,0.0,-20.0
32,100,40,60,moving_belt,blue,false,true,joint 1 -,false,2024-03-04 12:43:02.774696,16.405,0.153,235.0,292.8220520019531,106.5785140991211,84.958251953125,0.0,20.0,51.0,0.0,-20.0
32,100,40,60,moving_belt,blue,false,true,joint 1 -,false,2024-03-04 12:43:03.464306,16.234,0.153,235.0,292.8220520019531,106.5785140991211,84.958251953125,0.0,20.0,51.0,0.0,-20.0
32,100,40,60,go_to_pick_down,blue,true,false,joint 3 +,false,2024-03-04 12:43:04.856313,16.443,0.153,235.0,292.298095703125,106.38780975341797,72.16680145263672,0.0,20.0,51.0,5.248000144958496,-20.0
32,100,40,60,go_to_pick_down,blue,true,false,joint 3 +,false,2024-03-04 12:43:05.544415,16.443,0.153,235.0,285.0172119140625,103.73778533935547,36.24578094482422,0.0,20.0,51.0,19.533262252807617,-20.0
32,100,40,60,go_to_pick_up_from_pick_down,blue,true,false,joint 3 -,true,2024-03-04 12:43:06.929065,16.291,0.153,235.0,283.3616943359375,103.13522338867188,31.493392944335938,0.0,20.0,51.0,21.23200035095215,-20.0
32,100,40,60,go_to_pick_up_from_pick_down,blue,true,false,joint 3 -,true,2024-03-04 12:43:07.658308,18.741,0.181,235.0,291.7023620605469,106.17098999023438,66.27958679199219,0.0,20.0,51.0,6.9975996017456055,-20.0
32,100,40,60,go_to_color_detect_up_from_pick_up,blue,true,false,joint 1 +,true,2024-03-04 12:43:08.371787,22.121,0.181,235.0,292.8220520019531,106.5785140991211,84.95601654052734,0.0,20.0,51.0,-5.820766091346741e-11,-20.0
32,100,40,60,go_to_color_detect_up_from_pick_up,blue,true,false,joint 1 +,true,2024-03-04 12:43:09.767358,22.045,0.194,235.0,278.5731201171875,139.64503479003906,84.958251953125,6.624002456665039,26.91840171813965,51.0,-5.820766091346741e-11,-20.0
32,100,40,60,go_to_color_detect_up_from_pick_up,blue,true,false,joint 1 +,true,2024-03-04 12:43:10.454027,21.703,0.194,235.0,201.65664672851562,237.56753540039062,84.958251953125,29.674091339111328,50.11380386352539,51.0,-5.820766091346741e-11,-20.0
32,100,40,60,go_to_color_detect_up_from_pick_up,blue,true,false,joint 1 +,true,2024-03-04 12:43:11.656707,21.779,0.194,235.0,138.09861755371094,279.3429870605469,84.958251953125,43.6936149597168,63.81972885131836,51.0,-5.820766091346741e-11,-20.0
32,100,40,60,go_to_color_detect_down,blue,true,false,joint 3 +,true,2024-03-04 12:43:12.374207,21.703,0.192,235.0,131.6531524658203,282.3310852050781,79.6229019165039,45.0,65.0,51.0,2.2464001178741455,-20.0
32,100,40,60,go_to_color_detect_down,blue,true,false,joint 3 +,true,2024-03-04 12:43:13.756848,21.855,0.192,235.0,127.86396789550781,274.20513916015625,34.141632080078125,45.0,65.0,51.0,20.736000061035156,-20.0
32,100,40,60,go_to_color_detect_down,blue,true,false,joint 3 +,true,2024-03-04 12:43:14.446397,21.855,0.192,235.0,116.2309341430664,249.25802612304688,-12.090156555175781,45.0,65.0,51.0,41.60392761230469,-20.0
32,100,40,60,go_to_color_detect_up_from_color_detect_down,blue,true,false,joint 3 -,false,2024-03-04 12:43:15.826362,21.627,0.194,235.0,111.13883972167969,238.33799743652344,-24.284042358398438,45.0,65.0,51.0,48.0,-20.0
32,100,40,60,go_to_color_detect_up_from_color_detect_down,blue,true,false,joint 3 -,false,2024-03-04 12:43:16.518613,19.804,0.194,235.0,117.95719909667969,252.96002197265625,-7.235664367675781,45.0,65.0,51.0,38.496002197265625,-20.0
32,100,40,60,go_to_color_detect_up_from_color_detect_down,blue,true,false,joint 3 -,false,2024-03-04 12:43:18.020951,16.671,0.156,235.0,129.14993286132812,276.962890625,43.32137680053711,45.0,65.0,51.0,15.998202323913574,-20.0
32,100,40,60,go_to_color_detect_up_from_color_detect_down,blue,true,false,joint 3 -,false,2024-03-04 12:43:18.712595,16.671,0.156,235.0,131.6634521484375,282.3531799316406,80.34365844726562,45.0,65.0,51.0,1.6503998041152954,-20.0
32,100,40,60,detecting_color,blue,false,false,detecting_color,false,2024-03-04 12:43:19.404492,16.557,0.156,235.0,131.69407653808594,282.4188232421875,84.958251953125,45.0,65.0,51.0,0.0,-20.0
32,100,40,60,go_to_color_detect_down,blue,true,false,joint 3 +,false,2024-03-04 12:43:20.790005,16.234,0.152,235.0,131.69407653808594,282.4188232421875,84.90898895263672,45.0,65.0,51.0,0.03840000182390213,-20.0
32,100,40,60,go_to_color_detect_down,blue,true,false,joint 3 +,false,2024-03-04 12:43:21.484655,16.234,0.152,235.0,131.0138702392578,280.96014404296875,63.26477813720703,45.0,65.0,51.0,8.81920051574707,-20.0
32,100,40,60,go_to_color_detect_down,blue,true,false,joint 3 +,false,2024-03-04 12:43:22.869638,16.329,0.153,235.0,121.47543334960938,260.5049133300781,4.1864166259765625,45.0,65.0,51.0,33.760650634765625,-20.0
32,100,40,60,go_to_color_detect_down,blue,true,false,joint 3 +,false,2024-03-04 12:43:23.575729,16.329,0.153,235.0,112.13077545166016,240.4652099609375,-22.12413787841797,45.0,65.0,51.0,46.87965393066406,-20.0
32,100,40,60,go_to_color_detect_up_from_color_detect_down,blue,true,false,joint 3 -,true,2024-03-04 12:43:24.955081,16.139,0.153,235.0,112.66232299804688,241.60511779785156,-20.92718505859375,45.0,65.0,51.0,45.92000198364258,-20.0
32,100,40,60,go_to_color_detect_up_from_color_detect_down,blue,true,false,joint 3 -,true,2024-03-04 12:43:25.646398,20.184,0.153,235.0,124.2781982421875,266.51544189453125,15.308853149414062,45.0,65.0,51.0,27.7760009765625,-20.0
32,100,40,60,go_to_color_detect_up_from_color_detect_down,blue,true,false,joint 3 -,true,2024-03-04 12:43:26.638705,22.083,0.153,235.0,131.23348999023438,281.4311218261719,67.09158325195312,45.0,65.0,51.0,6.685388565063477,-20.0
32,100,40,60,go_to_red_up,red,true,false,joint 1 +,true,2024-03-04 12:43:28.024735,22.083,0.198,235.0,131.69407653808594,282.4188232421875,84.958251953125,45.0,65.0,51.0,0.0,-20.0
32,100,40,60,go_to_red_up,red,true,false,joint 1 +,true,2024-03-04 12:43:28.715774,21.779,0.198,235.0,88.5743179321289,298.7613220214844,84.958251953125,53.48639678955078,73.81919860839844,51.0,0.0,-20.0
32,100,40,60,go_to_red_up,red,true,false,joint 1 +,true,2024-03-04 12:43:29.648959,21.779,0.194,235.0,-36.00444793701172,309.5277099609375,84.958251953125,76.63485717773438,97.23421478271484,51.0,0.0,-20.0
32,100,40,60,go_to_red_up,red,true,false,joint 1 +,true,2024-03-04 12:43:30.364565,21.798,0.194,235.0,-147.1803741455078,274.66644287109375,84.958251953125,98.18468475341797,118.47683715820312,51.0,0.0,-20.0
32,100,40,60,go_to_pick_up_from_red,red,true,false,joint 1 -,false,2024-03-04 12:43:31.859332,21.931,0.195,235.0,-178.5637664794922,255.37954711914062,84.958251953125,104.96159362792969,124.93599700927734,51.0,0.0,-20.0
32,100,40,60,go_to_pick_up_from_red,red,true,false,joint 1 -,false,2024-03-04 12:43:32.554266,19.652,0.195,235.0,-139.10800170898438,278.8417053222656,84.958251953125,96.51360321044922,116.18080139160156,51.0,0.0,-20.0
32,100,40,60,go_to_pick_up_from_red,red,true,false,joint 1 -,false,2024-03-04 12:43:33.641089,16.177,0.152,235.0,3.3501317501068115,311.5967102050781,84.958251953125,69.38400268554688,88.70560455322266,51.0,0.0,-20.0
32,100,40,60,go_to_pick_up_from_red,red,true,false,joint 1 -,false,2024-03-04 12:43:34.463445,16.177,0.152,235.0,184.33180236816406,251.2479248046875,84.958251953125,33.733802795410156,53.079891204833984,51.0,0.0,-20.0
32,100,40,60,go_to_pick_up_from_red,red,true,false,joint 1 -,false,2024-03-04 12:43:35.870403,16.196,0.152,235.0,271.96624755859375,152.11212158203125,84.958251953125,9.218509674072266,28.878196716308594,51.0,0.0,-20.0
32,100,40,60,go_to_pick_up_from_red,red,true,false,joint 1 -,false,2024-03-04 12:43:36.560932,16.177,0.152,235.0,292.82196044921875,106.57877349853516,84.958251953125,4.9591064453125e-05,20.0,51.0,0.0,-20.0
32,100,40,60,moving_belt,red,false,true,joint 1 -,false,2024-03-04 12:43:37.946527,16.082,0.154,235.0,292.8220520019531,106.5785140991211,84.958251953125,0.0,20.0,51.0,0.0,-20.0
32,100,40,60,moving_belt,red,false,true,joint 1 -,false,2024-03-04 12:43:38.636181,16.405,0.154,235.0,292.8220520019531,106.5785140991211,84.958251953125,0.0,20.0,51.0,0.0,-20.0
32,100,40,60,moving_belt,red,false,true,joint 1 -,false,2024-03-04 12:43:40.017506,16.234,0.151,235.0,292.8220520019531,106.5785140991211,84.958251953125,0.0,20.0,51.0,0.0,-20.0
32,100,40,60,moving_belt,red,false,true,joint 1 -,false,2024-03-04 12:43:40.870522,16.234,0.151,235.0,292.8220520019531,106.5785140991211,84.958251953125,0.0,20.0,51.0,0.0,-20.0
32,100,40,60,go_to_pick_down,red,true,false,joint 3 +,false,2024-03-04 12:43:41.565817,16.424,0.151,235.0,292.7840576171875,106.56468200683594,81.5103530883789,0.0,20.0,51.0,1.4783999919891357,-20.0
32,100,40,60,go_to_pick_down,red,true,false,joint 3 +,false,2024-03-04 12:43:42.969219,16.253,0.151,235.0,288.4876708984375,105.00093078613281,48.42304229736328,0.0,20.0,51.0,14.699932098388672,-20.0
32,100,40,60,go_to_pick_up_from_pick_down,red,true,false,joint 3 -,true,2024-03-04 12:43:43.659030,16.272,0.151,235.0,282.7693786621094,102.91964721679688,29.906307220458984,0.0,20.0,51.0,21.98080062866211,-20.0
32,100,40,60,go_to_pick_up_from_pick_down,red,true,false,joint 3 -,true,2024-03-04 12:43:45.037370,22.785,0.175,235.0,288.6250305175781,105.0509262084961,48.99756622314453,0.0,20.0,51.0,13.839998245239258,-20.0
32,100,40,60,go_to_pick_up_from_pick_down,red,true,false,joint 3 -,true,2024-03-04 12:43:45.729625,22.234,0.175,235.0,292.8143005371094,106.57569122314453,83.40196228027344,0.0,20.0,51.0,0.5217365622520447,-20.0
32,100,40,60,go_to_color_detect_up_from_pick_up,red,true,false,joint 1 +,true,2024-03-04 12:43:46.430905,22.234,0.175,235.0,286.8938293457031,121.63741302490234,84.958251953125,2.9759998321533203,23.174400329589844,51.0,-5.820766091346741e-11,-20.0
32,100,40,60,go_to_color_detect_up_from_pick_up,red,true,false,joint 1 +,true,2024-03-04 12:43:47.822853,21.646,0.196,235.0,237.92581176757812,201.23379516601562,84.958251953125,20.224002838134766,40.73600387573242,51.0,-5.820766091346741e-11,-20.0
32,100,40,60,go_to_color_detect_up_from_pick_up,red,true,false,joint 1 +,true,2024-03-04 12:43:49.037120,21.836,0.196,235.0,149.85438537597656,273.21673583984375,84.958251953125,41.256038665771484,61.47175216674805,51.0,-5.820766091346741e-11,-20.0
32,100,40,60,go_to_color_detect_down,red,true,false,joint 3 +,true,2024-03-04 12:43:49.731392,21.836,0.195,235.0,131.69290161132812,282.41632080078125,84.0551528930664,45.0,65.0,51.0,0.42240002751350403,-20.0
32,100,40,60,go_to_color_detect_down,red,true,false,joint 3 +,true,2024-03-04 12:43:50.430979,21.703,0.195,235.0,130.56289672851562,279.9930419921875,57.03425216674805,45.0,65.0,51.0,11.328001022338867,-20.0
32,100,40,60,go_to_color_detect_down,red,true,false,joint 3 +,true,2024-03-04 12:43:51.814970,21.817,0.194,235.0,119.69706726074219,256.691162109375,-1.8751220703125,45.0,65.0,51.0,36.59223937988281,-20.0
32,100,40,60,go_to_color_detect_down,red,true,false,joint 3 +,true,2024-03-04 12:43:53.018943,21.798,0.194,235.0,111.553955078125,239.22821044921875,-23.391578674316406,45.0,65.0,51.0,47.56084060668945,-20.0
32,100,40,60,go_to_color_detect_up_from_color_detect_down,red,true,false,joint 3 -,false,2024-03-04 12:43:53.708809,21.779,0.194,235.0,113.63162994384766,243.68380737304688,-18.669578552246094,45.0,65.0,51.0,44.62080383300781,-20.0
32,100,40,60,go_to_color_detect_up_from_color_detect_down,red,true,false,joint 3 -,false,2024-03-04 12:43:54.402085,17.298,0.194,235.0,126.05176544189453,270.3188781738281,23.74631118774414,45.0,65.0,51.0,24.057601928710938,-20.0
32,100,40,60,go_to_color_detect_up_from_color_detect_down,red,true,false,joint 3 -,false,2024-03-04 12:43:55.812957,16.728,0.155,235.0,131.4766845703125,281.9526672363281,72.67141723632812,45.0,65.0,51.0,4.550087928771973,-20.0
32,100,40,60,detecting_color,red,false,false,detecting_color,false,2024-03-04 12:43:56.505854,16.728,0.155,235.0,131.69407653808594,282.4188232421875,84.958251953125,45.0,65.0,51.0,0.0,-20.0
32,100,40,60,detecting_color,red,false,false,detecting_color,false,2024-03-04 12:43:57.887659,16.196,0.153,235.0,131.69407653808594,282.4188232421875,84.958251953125,45.0,65.0,51.0,0.0,-20.0
32,100,40,60,go_to_color_detect_down,red,true,false,joint 3 +,false,2024-03-04 12:43:58.580479,16.196,0.153,235.0,131.69406127929688,282.4187927246094,84.85973358154297,45.0,65.0,51.0,0.06400000303983688,-20.0
32,100,40,60,go_to_color_detect_down,red,true,false,joint 3 +,false,2024-03-04 12:43:59.959069,16.196,0.153,235.0,131.0138702392578,280.96014404296875,63.26477813720703,45.0,65.0,51.0,8.81920051574707,-20.0
32,100,40,60,go_to_color_detect_down,red,true,false,joint 3 +,false,2024-03-04 12:44:00.649059,16.386,0.153,235.0,121.47543334960938,260.5049133300781,4.1864166259765625,45.0,65.0,51.0,33.760650634765625,-20.0
32,100,40,60,go_to_color_detect_down,red,true,false,joint 3 +,false,2024-03-04 12:44:02.033822,16.291,0.153,235.0,112.13077545166016,240.4652099609375,-22.12413787841797,45.0,65.0,51.0,46.87965393066406,-20.0
32,100,40,60,go_to_color_detect_up_from_color_detect_down,red,true,false,joint 3 -,true,2024-03-04 12:44:02.815218,17.07,0.153,235.0,112.78711700439453,241.87274169921875,-20.64202880859375,45.0,65.0,51.0,45.75360107421875,-20.0
32,100,40,60,go_to_color_detect_up_from_color_detect_down,red,true,false,joint 3 -,true,2024-03-04 12:44:03.504377,17.07,0.153,235.0,124.53580474853516,267.0679016113281,16.453880310058594,45.0,65.0,51.0,27.264001846313477,-20.0
32,100,40,60,go_to_color_detect_up_from_color_detect_down,red,true,false,joint 3 -,true,2024-03-04 12:44:04.889151,22.234,0.197,235.0,131.2716522216797,281.512939453125,67.84488677978516,45.0,65.0,51.0,6.396076202392578,-20.0
32,100,40,60,go_to_green_up,green,true,false,joint 1 +,true,2024-03-04 12:44:05.580473,22.14,0.197,235.0,131.69407653808594,282.4188232421875,84.958251953125,45.0,65.0,51.0,0.0,-20.0
32,100,40,60,go_to_green_up,green,true,false,joint 1 +,true,2024-03-04 12:44:06.959478,21.798,0.196,235.0,86.83744812011719,299.2707824707031,84.958251953125,53.81919860839844,74.15840148925781,51.0,0.0,-20.0
32,100,40,60,go_to_green_up,green,true,false,joint 1 +,true,2024-03-04 12:44:07.647169,21.779,0.196,235.0,-23.79020118713379,310.70526123046875,84.958251953125,74.37850189208984,94.74403381347656,51.0,0.0,-20.0
32,100,40,60,go_to_green_up,green,true,false,joint 1 +,true,2024-03-04 12:44:09.035578,21.817,0.195,235.0,-79.09941864013672,301.4084167480469,84.958251953125,84.70469665527344,104.76302337646484,51.0,0.0,-20.0
32,100,40,60,go_to_pick_up_from_green,green,true,false,joint 1 -,false,2024-03-04 12:44:09.726533,21.836,0.195,235.0,-54.15416717529297,306.873046875,84.958251953125,80.00799560546875,99.75199890136719,51.0,0.0,-20.0
32,100,40,60,go_to_pick_up_from_green,green,true,false,joint 1 -,false,2024-03-04 12:44:10.417449,15.93,0.153,235.0,51.42696762084961,307.3418273925781,84.958251953125,60.50080108642578,79.9375991821289,51.0,0.0,-20.0
32,100,40,60,go_to_pick_up_from_green,green,true,false,joint 1 -,false,2024-03-04 12:44:11.825648,16.177,0.153,235.0,204.95654296875,234.72653198242188,84.958251953125,28.873458862304688,48.26873016357422,51.0,0.0,-20.0
32,100,40,60,go_to_pick_up_from_green,green,true,false,joint 1 -,false,2024-03-04 12:44:12.514222,16.177,0.152,235.0,280.92523193359375,134.850830078125,84.958251953125,5.642118453979492,25.376590728759766,51.0,0.0,-20.0
32,100,40,60,moving_belt,green,false,true,joint 1 -,false,2024-03-04 12:44:13.911476,16.139,0.152,235.0,292.8220520019531,106.5785140991211,84.958251953125,0.0,20.0,51.0,0.0,-20.0
32,100,40,60,moving_belt,green,false,true,joint 1 -,false,2024-03-04 12:44:14.605149,16.12,0.152,235.0,292.8220520019531,106.5785140991211,84.958251953125,0.0,20.0,51.0,0.0,-20.0
32,100,40,60,moving_belt,green,false,true,joint 1 -,false,2024-03-04 12:44:16.000068,16.158,0.155,235.0,292.8220520019531,106.5785140991211,84.958251953125,0.0,20.0,51.0,0.0,-20.0
32,100,40,60,moving_belt,green,false,true,joint 1 -,false,2024-03-04 12:44:16.793583,16.215,0.155,235.0,292.8220520019531,106.5785140991211,84.958251953125,0.0,20.0,51.0,0.0,-20.0
32,100,40,60,moving_belt,green,false,true,joint 1 -,false,2024-03-04 12:44:17.485850,16.215,0.152,235.0,292.8220520019531,106.5785140991211,84.958251953125,0.0,20.0,51.0,0.0,-20.0
32,100,40,60,go_to_pick_down,green,true,false,joint 3 +,false,2024-03-04 12:44:18.865475,16.329,0.152,235.0,292.5818786621094,106.49109649658203,76.29348754882812,0.0,20.0,51.0,3.590399742126465,-20.0
32,100,40,60,go_to_pick_down,green,true,false,joint 3 +,false,2024-03-04 12:44:19.606650,16.31,0.153,235.0,286.30120849609375,104.20512390136719,40.32634735107422,0.0,20.0,51.0,17.907129287719727,-20.0
32,100,40,60,go_to_pick_up_from_pick_down,green,true,false,joint 3 -,true,2024-03-04 12:44:21.003253,16.291,0.153,235.0,283.282958984375,103.10657501220703,31.27932357788086,0.0,20.0,51.0,21.328001022338867,-20.0
32,100,40,60,go_to_pick_up_from_pick_down,green,true,false,joint 3 -,true,2024-03-04 12:44:21.694534,22.064,0.18,235.0,290.7442626953125,105.822265625,59.55781173706055,0.0,20.0,51.0,9.596531867980957,-20.0
32,100,40,60,go_to_pick_up_from_pick_down,green,true,false,joint 3 -,true,2024-03-04 12:44:22.388913,22.31,0.18,235.0,292.8212585449219,106.57823181152344,84.46205139160156,0.0,20.0,51.0,0.14693722128868103,-20.0
32,100,40,60,go_to_color_detect_up_from_pick_up,green,true,false,joint 1 +,true,2024-03-04 12:44:23.080609,22.31,0.18,235.0,279.9476318359375,136.8687744140625,84.958251953125,6.054401397705078,26.336002349853516,51.0,-5.820766091346741e-11,-20.0
32,100,40,60,go_to_color_detect_up_from_pick_up,green,true,false,joint 1 +,true,2024-03-04 12:44:24.973035,21.798,0.196,235.0,214.82901000976562,225.7259979248047,84.958251953125,26.41690444946289,46.90141677856445,51.0,-5.820766091346741e-11,-20.0
32,100,40,60,go_to_color_detect_up_from_pick_up,green,true,false,joint 1 +,true,2024-03-04 12:44:25.675949,21.95,0.195,235.0,144.10801696777344,276.2908020019531,84.958251953125,42.454315185546875,62.63162612915039,51.0,-5.820766091346741e-11,-20.0
32,100,40,60,go_to_color_detect_down,green,true,false,joint 3 +,true,2024-03-04 12:44:26.387212,21.912,0.195,235.0,131.65919494628906,282.34405517578125,80.03315734863281,45.0,65.0,51.0,2.080000162124634,-20.0
32,100,40,60,go_to_color_detect_down,green,true,false,joint 3 +,true,2024-03-04 12:44:27.779741,21.684,0.194,235.0,129.03652954101562,276.7197265625,42.42341995239258,45.0,65.0,51.0,17.286399841308594,-20.0
32,100,40,60,go_to_color_detect_down,green,true,false,joint 3 +,true,2024-03-04 12:44:28.471023,21.893,0.194,236.8,117.77399444580078,252.56712341308594,-7.771453857421875,45.0,65.0,51.0,39.444339752197266,-20.0
32,100,40,60,go_to_color_detect_up_from_color_detect_down,green,true,false,joint 3 -,false,2024-03-04 12:44:29.853616,21.684,0.195,236.8,111.13883972167969,238.33799743652344,-24.284042358398438,45.0,65.0,51.0,48.0,-20.0
32,100,40,60,go_to_color_detect_up_from_color_detect_down,green,true,false,joint 3 -,false,2024-03-04 12:44:30.545181,21.684,0.195,235.0,116.18695831298828,249.16371154785156,-12.208404541015625,45.0,65.0,51.0,41.08160400390625,-20.0
32,100,40,60,go_to_color_detect_up_from_color_detect_down,green,true,false,joint 3 -,false,2024-03-04 12:44:31.928553,17.981,0.157,235.0,127.82413482666016,274.1197204589844,33.88649368286133,45.0,65.0,51.0,19.823102951049805,-20.0
32,100,40,60,go_to_color_detect_up_from_color_detect_down,green,true,false,joint 3 -,false,2024-03-04 12:44:32.622225,16.69,0.157,235.0,131.65174865722656,282.32806396484375,79.5328140258789,45.0,65.0,51.0,1.953824758529663,-20.0
32,100,40,60,detecting_color,green,false,false,detecting_color,false,2024-03-04 12:44:34.032179,16.671,0.155,235.0,131.69407653808594,282.4188232421875,84.958251953125,45.0,65.0,51.0,0.0,-20.0
32,100,40,60,detecting_color,green,false,false,detecting_color,false,2024-03-04 12:44:34.732835,16.329,0.155,235.0,131.69407653808594,282.4188232421875,84.958251953125,45.0,65.0,51.0,0.0,-20.0
32,100,40,60,go_to_color_detect_down,green,true,false,joint 3 +,false,2024-03-04 12:44:35.458594,16.329,0.155,235.0,131.24172973632812,281.4487609863281,67.25126647949219,45.0,65.0,51.0,7.219200611114502,-20.0
32,100,40,60,go_to_color_detect_down,green,true,false,joint 3 +,false,2024-03-04 12:44:36.477393,16.31,0.153,235.0,124.33190155029297,266.630615234375,15.545524597167969,45.0,65.0,51.0,28.677413940429688,-20.0
32,100,40,60,go_to_color_detect_down,green,true,false,joint 3 +,false,2024-03-04 12:44:37.856247,16.253,0.153,235.0,112.81446838378906,241.931396484375,-20.57929229736328,45.0,65.0,51.0,46.04617691040039,-20.0
32,100,40,60,go_to_color_detect_up_from_color_detect_down,green,true,false,joint 3 -,true,2024-03-04 12:44:38.549506,16.215,0.154,235.0,112.10924530029297,240.41903686523438,-22.172042846679688,45.0,65.0,51.0,46.656002044677734,-20.0
32,100,40,60,go_to_color_detect_up_from_color_detect_down,green,true,false,joint 3 -,true,2024-03-04 12:44:39.964166,22.102,0.154,235.0,122.71937561035156,263.17254638671875,8.850418090820312,45.0,65.0,51.0,30.71360206604004,-20.0
32,100,40,60,go_to_color_detect_up_from_color_detect_down,green,true,false,joint 3 -,true,2024-03-04 12:44:40.657881,22.215,0.199,235.0,130.9477996826172,280.8184509277344,62.241737365722656,45.0,65.0,51.0,8.5556640625,-20.0
32,100,40,60,go_to_color_detect_up_from_color_detect_down,green,true,false,joint 3 -,true,2024-03-04 12:44:42.041086,22.158,0.199,235.0,131.69403076171875,282.41876220703125,84.77462005615234,45.0,65.0,51.0,0.04466171935200691,-20.0
32,100,40,60,go_to_blue_up,blue,true,false,joint 1 +,true,2024-03-04 12:44:42.731776,22.158,0.195,235.0,98.23702239990234,295.72491455078125,84.958251953125,51.624000549316406,71.91840362548828,51.0,0.0,-20.0
32,100,40,60,go_to_blue_up,blue,true,false,joint 1 +,true,2024-03-04 12:44:43.425574,21.779,0.195,235.0,32.9610710144043,309.8665771484375,84.958251953125,63.92817687988281,84.04212188720703,51.0,0.0,-20.0
32,100,40,60,go_to_pick_up_from_blue,blue,true,false,joint 1 -,false,2024-03-04 12:44:44.819763,20.62,0.195,235.0,41.204402923583984,308.8785095214844,84.958251953125,62.40160369873047,82.21600341796875,51.0,0.0,-20.0
32,100,40,60,go_to_pick_up_from_blue,blue,true,false,joint 1 -,false,2024-03-04 12:44:45.512063,20.62,0.182,235.0,125.38431549072266,285.27618408203125,84.958251953125,46.273597717285156,65.78079986572266,51.0,0.0,-20.0
32,100,40,60,go_to_pick_up_from_blue,blue,true,false,joint 1 -,false,2024-03-04 12:44:46.891886,16.234,0.182,235.0,251.59823608398438,183.85336303710938,84.958251953125,16.157161712646484,35.70560073852539,51.0,0.0,-20.0
32,100,40,60,go_to_pick_up_from_blue,blue,true,false,joint 1 -,false,2024-03-04 12:44:47.592235,16.234,0.153,235.0,289.5285339355469,115.22571563720703,84.958251953125,1.7014217376708984,21.55706024169922,51.0,0.0,-20.0
32,100,40,60,moving_belt,blue,false,true,joint 1 -,false,2024-03-04 12:44:48.983483,16.177,0.153,235.0,292.8220520019531,106.5785140991211,84.958251953125,0.0,20.0,51.0,0.0,-20.0
32,100,40,60,moving_belt,blue,false,true,joint 1 -,false,2024-03-04 12:44:49.675403,16.177,0.154,235.0,292.8220520019531,106.5785140991211,84.958251953125,0.0,20.0,51.0,0.0,-20.0
32,100,40,60,moving_belt,blue,false,true,joint 1 -,false,2024-03-04 12:44:51.079346,16.215,0.154,235.0,292.8220520019531,106.5785140991211,84.958251953125,0.0,20.0,51.0,0.0,-20.0
32,100,40,60,moving_belt,blue,false,true,joint 1 -,false,2024-03-04 12:44:51.769550,16.215,0.153,235.0,292.8220520019531,106.5785140991211,84.958251953125,0.0,20.0,51.0,0.0,-20.0
32,100,40,60,go_to_pick_down,blue,true,false,joint 3 +,false,2024-03-04 12:44:52.466044,16.215,0.153,235.0,292.8220520019531,106.5785140991211,84.90898895263672,0.0,20.0,51.0,0.03839999809861183,-20.0
32,100,40,60,go_to_pick_down,blue,true,false,joint 3 +,false,2024-03-04 12:44:53.874112,16.101,0.153,235.0,291.42352294921875,106.06948852539062,64.09337615966797,0.0,20.0,51.0,8.48639965057373,-20.0
32,100,40,60,go_to_pick_down,blue,true,false,joint 3 +,false,2024-03-04 12:44:54.565090,16.101,0.153,235.0,283.6558837890625,103.24230194091797,32.302284240722656,0.0,20.0,51.0,21.10039520263672,-20.0
32,100,40,60,go_to_pick_up_from_pick_down,blue,true,false,joint 3 -,true,2024-03-04 12:44:55.940233,20.032,0.153,236.8,285.75274658203125,104.00550079345703,38.53447341918945,0.0,20.0,51.0,18.191999435424805,-20.0
32,100,40,60,go_to_pick_up_from_pick_down,blue,true,false,joint 3 -,true,2024-03-04 12:44:56.646062,20.032,0.202,236.8,292.46978759765625,106.4502944946289,74.46637725830078,0.0,20.0,51.0,3.8672008514404297,-20.0
32,100,40,60,go_to_color_detect_up_from_pick_up,blue,true,false,joint 1 +,true,2024-03-04 12:44:58.022683,22.007,0.202,235.0,292.39111328125,107.75515747070312,84.958251953125,0.23040008544921875,20.288000106811523,51.0,-5.820766091346741e-11,-20.0
32,100,40,60,go_to_color_detect_up_from_pick_up,blue,true,false,joint 1 +,true,2024-03-04 12:44:58.715366,21.779,0.195,235.0,262.81549072265625,167.42681884765625,84.958251953125,12.499202728271484,32.902400970458984,51.0,-5.820766091346741e-11,-20.0
32,100,40,60,go_to_color_detect_up_from_pick_up,blue,true,false,joint 1 +,true,2024-03-04 12:44:59.426605,21.779,0.195,235.0,179.21945190429688,254.91983032226562,84.958251953125,34.89115524291992,55.2476692199707,51.0,-5.820766091346741e-11,-20.0
32,100,40,60,go_to_color_detect_up_from_pick_up,blue,true,false,joint 1 +,true,2024-03-04 12:45:00.811604,21.779,0.195,235.0,132.75503540039062,281.9216613769531,84.958251953125,44.784568786621094,64.8338851928711,51.0,-5.820766091346741e-11,-20.0
32,100,40,60,go_to_color_detect_down,blue,true,false,joint 3 +,true,2024-03-04 12:45:01.529719,21.608,0.195,235.0,131.34756469726562,281.6757507324219,69.45376586914062,45.0,65.0,51.0,6.336000442504883,-20.0
32,100,40,60,go_to_color_detect_down,blue,true,false,joint 3 +,true,2024-03-04 12:45:02.914356,21.684,0.194,235.0,125.1004638671875,268.27880859375,19.052879333496094,45.0,65.0,51.0,27.156675338745117,-20.0
32,100,40,60,go_to_color_detect_down,blue,true,false,joint 3 +,true,2024-03-04 12:45:03.611629,21.741,0.194,235.0,113.98303985595703,244.43740844726562,-17.826187133789062,45.0,65.0,51.0,44.57647705078125,-20.0
32,100,40,60,go_to_color_detect_up_from_color_detect_down,blue,true,false,joint 3 -,false,2024-03-04 12:45:05.043430,21.627,0.195,235.0,111.83537292480469,239.8317108154297,-22.777236938476562,45.0,65.0,51.0,47.02080154418945,-20.0
32,100,40,60,go_to_color_detect_up_from_color_detect_down,blue,true,false,joint 3 -,false,2024-03-04 12:45:05.740725,18.988,0.195,235.0,120.65219116210938,258.73944091796875,1.299468994140625,45.0,65.0,51.0,34.272003173828125,-20.0
32,100,40,60,go_to_color_detect_up_from_color_detect_down,blue,true,false,joint 3 -,false,2024-03-04 12:45:06.458094,16.519,0.195,235.0,130.38275146484375,279.606689453125,54.91471481323242,45.0,65.0,51.0,11.407764434814453,-20.0
32,100,40,60,go_to_color_detect_up_from_color_detect_down,blue,true,false,joint 3 -,false,2024-03-04 12:45:07.913241,16.652,0.157,235.0,131.6939697265625,282.4186096191406,84.68914794921875,45.0,65.0,51.0,0.07157425582408905,-20.0
32,100,40,60,detecting_color,blue,false,false,detecting_color,false,2024-03-04 12:45:08.606706,16.652,0.157,235.0,131.69407653808594,282.4188232421875,84.958251953125,45.0,65.0,51.0,0.0,-20.0
32,100,40,60,go_to_color_detect_down,blue,true,false,joint 3 +,false,2024-03-04 12:45:09.346849,16.215,0.153,235.0,131.68980407714844,282.40966796875,83.23418426513672,45.0,65.0,51.0,0.7680001258850098,-20.0
32,100,40,60,go_to_color_detect_down,blue,true,false,joint 3 +,false,2024-03-04 12:45:10.863189,16.234,0.153,235.0,129.57318115234375,277.8705749511719,46.87615966796875,45.0,65.0,51.0,15.456001281738281,-20.0
32,100,40,60,go_to_color_detect_down,blue,true,false,joint 3 +,false,2024-03-04 12:45:11.681896,16.101,0.152,235.0,118.95917510986328,255.1087646484375,-4.211128234863281,45.0,65.0,51.0,37.70977783203125,-20.0
32,100,40,60,go_to_color_detect_down,blue,true,false,joint 3 +,false,2024-03-04 12:45:12.506349,16.101,0.152,235.0,111.17481231689453,238.41514587402344,-24.20734405517578,45.0,65.0,51.0,47.975852966308594,-20.0
32,100,40,60,go_to_color_detect_up_from_color_detect_down,blue,true,false,joint 3 -,true,2024-03-04 12:45:13.325005,16.405,0.152,235.0,114.99853515625,246.61514282226562,-15.310523986816406,45.0,65.0,51.0,42.75200271606445,-20.0
32,100,40,60,go_to_color_detect_up_from_color_detect_down,blue,true,false,joint 3 -,true,2024-03-04 12:45:14.954465,22.158,0.156,235.0,126.77213287353516,271.86370849609375,27.613887786865234,45.0,65.0,51.0,22.42166519165039,-20.0
32,100,40,60,go_to_color_detect_up_from_color_detect_down,blue,true,false,joint 3 -,true,2024-03-04 12:45:15.650509,22.234,0.199,235.0,131.5182342529297,282.041748046875,73.9057388305664,45.0,65.0,51.0,4.080263137817383,-20.0
32,100,40,60,go_to_red_up,red,true,false,joint 1 +,true,2024-03-04 12:45:17.042501,22.026,0.199,235.0,128.37269592285156,283.9439697265625,84.958251953125,45.6719970703125,65.76799774169922,51.0,0.0,-20.0
32,100,40,60,go_to_red_up,red,true,false,joint 1 +,true,2024-03-04 12:45:17.745403,21.741,0.195,235.0,67.45002746582031,304.2272644042969,84.958251953125,57.49919891357422,77.90239715576172,51.0,0.0,-20.0
32,100,40,60,go_to_red_up,red,true,false,joint 1 +,true,2024-03-04 12:45:18.466829,21.684,0.195,235.0,-69.43952178955078,303.77935791015625,84.958251953125,82.87576293945312,103.40471649169922,51.0,0.0,-20.0
32,100,40,60,go_to_red_up,red,true,false,joint 1 +,true,2024-03-04 12:45:19.864924,21.779,0.195,235.0,-166.42433166503906,263.4514465332031,84.958251953125,102.28091430664062,122.46427154541016,51.0,0.0,-20.0
32,100,40,60,go_to_pick_up_from_red,red,true,false,joint 1 -,false,2024-03-04 12:45:20.556284,21.855,0.195,235.0,-175.72882080078125,257.3385009765625,84.958251953125,104.3280029296875,124.23200225830078,51.0,0.0,-20.0
32,100,40,60,go_to_pick_up_from_red,red,true,false,joint 1 -,false,2024-03-04 12:45:21.937476,18.532,0.195,235.0,-119.25386047363281,287.8927917480469,84.958251953125,92.50080108642578,112.09760284423828,51.0,0.0,-20.0
32,100,40,60,go_to_pick_up_from_red,red,true,false,joint 1 -,false,2024-03-04 12:45:22.629868,16.158,0.152,235.0,45.68516159057617,308.24761962890625,84.958251953125,61.569602966308594,80.82080078125,51.0,0.0,-20.0
32,100,40,60,go_to_pick_up_from_red,red,true,false,joint 1 -,false,2024-03-04 12:45:24.031396,16.082,0.152,235.0,212.94686889648438,227.50244140625,84.958251953125,26.89276885986328,46.30925750732422,51.0,0.0,-20.0
32,100,40,60,go_to_pick_up_from_red,red,true,false,joint 1 -,false,2024-03-04 12:45:24.723899,16.082,0.152,235.0,280.48846435546875,135.75697326660156,84.958251953125,5.82707405090332,25.557161331176758,51.0,0.0,-20.0
32,100,40,60,moving_belt,red,false,true,joint 1 -,false,2024-03-04 12:45:25.411465,16.272,0.152,235.0,292.8220520019531,106.5785140991211,84.958251953125,0.0,20.0,51.0,0.0,-20.0
32,100,40,60,moving_belt,red,false,true,joint 1 -,false,2024-03-04 12:45:26.810083,16.177,0.155,235.0,292.8220520019531,106.5785140991211,84.958251953125,0.0,20.0,51.0,0.0,-20.0
32,100,40,60,moving_belt,red,false,true,joint 1 -,false,2024-03-04 12:45:27.528567,16.177,0.155,235.0,292.8220520019531,106.5785140991211,84.958251953125,0.0,20.0,51.0,0.0,-20.0
32,100,40,60,moving_belt,red,false,true,joint 1 -,false,2024-03-04 12:45:28.907228,16.31,0.153,235.0,292.8220520019531,106.5785140991211,84.958251953125,0.0,20.0,51.0,0.0,-20.0
32,100,40,60,moving_belt,red,false,true,joint 1 -,false,2024-03-04 12:45:29.608553,16.31,0.153,235.0,292.8220520019531,106.5785140991211,84.958251953125,0.0,20.0,51.0,0.0,-20.0
32,100,40,60,go_to_pick_down,red,true,false,joint 3 +,false,2024-03-04 12:45:31.041990,16.158,0.153,235.0,292.610107421875,106.5013656616211,76.81806945800781,0.0,20.0,51.0,3.379199743270874,-20.0
32,100,40,60,go_to_pick_down,red,true,false,joint 3 +,false,2024-03-04 12:45:31.732901,16.329,0.152,235.0,285.47467041015625,103.90428924560547,37.6546745300293,0.0,20.0,51.0,18.97146224975586,-20.0
32,100,40,60,go_to_pick_up_from_pick_down,red,true,false,joint 3 -,true,2024-03-04 12:45:32.422971,16.329,0.152,235.0,283.2095947265625,103.07986450195312,31.08065414428711,0.0,20.0,51.0,21.417600631713867,-20.0
32,100,40,60,go_to_pick_up_from_pick_down,red,true,false,joint 3 -,true,2024-03-04 12:45:33.807338,22.823,0.188,235.0,290.7442626953125,105.822265625,59.55781173706055,0.0,20.0,51.0,9.596531867980957,-20.0
32,100,40,60,go_to_pick_up_from_pick_down,red,true,false,joint 3 -,true,2024-03-04 12:45:34.536320,22.14,0.188,235.0,292.8220520019531,106.5785140991211,84.93104553222656,0.0,20.0,51.0,0.002537962980568409,-20.0
32,100,40,60,go_to_color_detect_up_from_pick_up,red,true,false,joint 1 +,true,2024-03-04 12:45:35.920284,21.817,0.195,235.0,279.9476318359375,136.8687744140625,84.958251953125,6.054401397705078,26.336002349853516,51.0,-5.820766091346741e-11,-20.0
32,100,40,60,go_to_color_detect_up_from_pick_up,red,true,false,joint 1 +,true,2024-03-04 12:45:36.879172,21.741,0.195,235.0,214.82901000976562,225.7259979248047,84.958251953125,26.41690444946289,46.90141677856445,51.0,-5.820766091346741e-11,-20.0
32,100,40,60,go_to_color_detect_up_from_pick_up,red,true,false,joint 1 +,true,2024-03-04 12:45:37.573852,21.855,0.194,235.0,144.10801696777344,276.2908020019531,84.958251953125,42.454315185546875,62.63162612915039,51.0,-5.820766091346741e-11,-20.0
32,100,40,60,go_to_color_detect_down,red,true,false,joint 3 +,true,2024-03-04 12:45:38.976231,21.703,0.194,235.0,131.65919494628906,282.34405517578125,80.03315734863281,45.0,65.0,51.0,2.080000162124634,-20.0
32,100,40,60,go_to_color_detect_down,red,true,false,joint 3 +,true,2024-03-04 12:45:39.675900,21.722,0.194,235.0,129.03652954101562,276.7197265625,42.42341995239258,45.0,65.0,51.0,17.286399841308594,-20.0
32,100,40,60,go_to_color_detect_down,red,true,false,joint 3 +,true,2024-03-04 12:45:41.057572,21.779,0.194,235.0,117.77399444580078,252.56712341308594,-7.771453857421875,45.0,65.0,51.0,39.444339752197266,-20.0
32,100,40,60,go_to_color_detect_up_from_color_detect_down,red,true,false,joint 3 -,false,2024-03-04 12:45:41.763444,21.779,0.194,235.0,111.13883972167969,238.33799743652344,-24.284042358398438,45.0,65.0,51.0,48.0,-20.0
32,100,40,60,go_to_color_detect_up_from_color_detect_down,red,true,false,joint 3 -,false,2024-03-04 12:45:42.452132,21.76,0.194,235.0,116.18695831298828,249.16371154785156,-12.208404541015625,45.0,65.0,51.0,41.08160400390625,-20.0
32,100,40,60,go_to_color_detect_up_from_color_detect_down,red,true,false,joint 3 -,false,2024-03-04 12:45:43.832808,16.424,0.194,235.0,127.82413482666016,274.1197204589844,33.88649368286133,45.0,65.0,51.0,19.823102951049805,-20.0
32,100,40,60,go_to_color_detect_up_from_color_detect_down,red,true,false,joint 3 -,false,2024-03-04 12:45:44.524145,16.766,0.155,235.0,131.65174865722656,282.32806396484375,79.5328140258789,45.0,65.0,51.0,1.953824758529663,-20.0
32,100,40,60,detecting_color,red,false,false,detecting_color,false,2024-03-04 12:45:45.908064,16.519,0.155,235.0,131.69407653808594,282.4188232421875,84.958251953125,45.0,65.0,51.0,0.0,-20.0
32,100,40,60,detecting_color,red,false,false,detecting_color,false,2024-03-04 12:45:46.598745,16.519,0.152,235.0,131.69407653808594,282.4188232421875,84.958251953125,45.0,65.0,51.0,0.0,-20.0
32,100,40,60,detecting_color,red,false,false,detecting_color,false,2024-03-04 12:45:47.986703,16.196,0.152,235.0,131.69407653808594,282.4188232421875,84.958251953125,45.0,65.0,51.0,0.0,-20.0
32,100,40,60,go_to_color_detect_down,red,true,false,joint 3 +,false,2024-03-04 12:45:48.691351,16.196,0.152,235.0,131.68008422851562,282.38885498046875,81.83867645263672,45.0,65.0,51.0,1.344000220298767,-20.0
32,100,40,60,go_to_color_detect_down,red,true,false,joint 3 +,false,2024-03-04 12:45:50.074534,16.139,0.152,235.0,128.8879852294922,276.4011535644531,41.27745819091797,45.0,65.0,51.0,17.760000228881836,-20.0
32,100,40,60,go_to_color_detect_down,red,true,false,joint 3 +,false,2024-03-04 12:45:50.773046,16.329,0.152,235.0,117.54463958740234,252.07528686523438,-8.435012817382812,45.0,65.0,51.0,39.77205276489258,-20.0
32,100,40,60,go_to_color_detect_down,red,true,false,joint 3 +,true,2024-03-04 12:45:51.778891,16.177,0.153,235.0,111.17481231689453,238.41514587402344,-24.20734405517578,45.0,65.0,51.0,47.975852966308594,-20.0
32,100,40,60,go_to_color_detect_up_from_color_detect_down,red,true,false,joint 3 -,true,2024-03-04 12:45:52.472524,16.177,0.153,235.0,116.3973388671875,249.61488342285156,-11.640342712402344,45.0,65.0,51.0,40.78080368041992,-20.0
32,100,40,60,go_to_color_detect_up_from_color_detect_down,red,true,false,joint 3 -,true,2024-03-04 12:45:53.867921,22.14,0.204,235.0,127.82413482666016,274.1197204589844,33.88649368286133,45.0,65.0,51.0,19.823102951049805,-20.0
32,100,40,60,go_to_color_detect_up_from_color_detect_down,red,true,false,joint 3 -,true,2024-03-04 12:45:54.566865,22.14,0.204,235.0,131.65174865722656,282.32806396484375,79.5328140258789,45.0,65.0,51.0,1.953824758529663,-20.0
32,100,40,60,go_to_green_up,green,true,false,joint 1 +,true,2024-03-04 12:45:55.952429,22.102,0.196,235.0,125.67107391357422,285.1499938964844,84.958251953125,46.21599578857422,66.343994140625,51.0,0.0,-20.0
32,100,40,60,go_to_green_up,green,true,false,joint 1 +,true,2024-03-04 12:45:56.683857,21.627,0.196,235.0,56.36366653442383,306.47491455078125,84.958251953125,59.579200744628906,80.014404296875,51.0,0.0,-20.0
32,100,40,60,go_to_green_up,green,true,false,joint 1 +,true,2024-03-04 12:45:58.076341,21.627,0.193,235.0,-57.913169860839844,306.1858825683594,84.958251953125,80.71060943603516,100.94174194335938,51.0,0.0,-20.0
32,100,40,60,go_to_pick_up_from_green,green,true,false,joint 1 -,false,2024-03-04 12:45:58.076341,21.627,0.193,235.0,-79.4407730102539,301.318603515625,84.958251953125,84.76959991455078,104.71199798583984,51.0,0.0,-20.0
32,100,40,60,go_to_pick_up_from_green,green,true,false,joint 1 -,false,2024-03-04 12:46:00.020329,19.614,0.184,235.0,-25.997251510620117,310.52838134765625,84.958251953125,74.78560638427734,94.42080688476562,51.0,0.0,-20.0
32,100,40,60,go_to_pick_up_from_green,green,true,false,joint 1 -,false,2024-03-04 12:46:00.708205,16.158,0.184,235.0,127.10272979736328,284.5147399902344,84.958251953125,45.928001403808594,65.21759796142578,51.0,0.0,-20.0
32,100,40,60,go_to_pick_up_from_green,green,true,false,joint 1 -,false,2024-03-04 12:46:02.094910,16.158,0.152,235.0,250.22181701660156,185.7222900390625,84.958251953125,16.583934783935547,36.126407623291016,51.0,0.0,-20.0
32,100,40,60,go_to_pick_up_from_green,green,true,false,joint 1 -,false,2024-03-04 12:46:02.896869,16.158,0.152,235.0,289.2452697753906,115.93489837646484,84.958251953125,1.8418312072753906,21.691503524780273,51.0,0.0,-20.0
32,100,40,60,moving_belt,green,false,true,joint 1 -,false,2024-03-04 12:46:03.590752,16.082,0.152,235.0,292.8220520019531,106.5785140991211,84.958251953125,0.0,20.0,51.0,0.0,-20.0
32,100,40,60,moving_belt,green,false,true,joint 1 -,false,2024-03-04 12:46:04.986639,16.5,0.152,235.0,292.8220520019531,106.5785140991211,84.958251953125,0.0,20.0,51.0,0.0,-20.0
32,100,40,60,moving_belt,green,false,true,joint 1 -,false,2024-03-04 12:46:05.685876,16.12,0.152,235.0,292.8220520019531,106.5785140991211,84.958251953125,0.0,20.0,51.0,0.0,-20.0
32,100,40,60,moving_belt,green,false,true,joint 1 -,false,2024-03-04 12:46:07.101160,16.329,0.152,235.0,292.8220520019531,106.5785140991211,84.958251953125,0.0,20.0,51.0,0.0,-20.0
32,100,40,60,go_to_pick_down,green,true,false,joint 3 +,false,2024-03-04 12:46:07.101160,16.329,0.152,235.0,292.8220520019531,106.5785140991211,84.90898895263672,0.0,20.0,51.0,0.03839999809861183,-20.0
32,100,40,60,go_to_pick_down,green,true,false,joint 3 +,false,2024-03-04 12:46:09.009722,16.253,0.153,235.0,291.42352294921875,106.06948852539062,64.09337615966797,0.0,20.0,51.0,8.48639965057373,-20.0
32,100,40,60,go_to_pick_down,green,true,false,joint 3 +,false,2024-03-04 12:46:09.881537,16.139,0.153,235.0,283.2294921875,103.08710479736328,31.134464263916016,0.0,20.0,51.0,21.55672836303711,-20.0
32,100,40,60,go_to_pick_up_from_pick_down,green,true,false,joint 3 -,true,2024-03-04 12:46:10.604441,16.139,0.151,235.0,285.43255615234375,103.88895416259766,37.52302169799805,0.0,20.0,51.0,18.620800018310547,-20.0
32,100,40,60,go_to_pick_up_from_pick_down,green,true,false,joint 3 -,true,2024-03-04 12:46:11.978701,22.367,0.151,235.0,292.4287109375,106.43534851074219,73.87258911132812,0.0,20.0,51.0,4.092867374420166,-20.0
32,100,40,60,go_to_color_detect_up_from_pick_up,green,true,false,joint 1 +,true,2024-03-04 12:46:12.957418,21.969,0.196,235.0,291.5519104003906,110.00550079345703,84.958251953125,0.6719989776611328,20.76799964904785,51.0,-5.820766091346741e-11,-20.0
32,100,40,60,go_to_color_detect_up_from_pick_up,green,true,false,joint 1 +,true,2024-03-04 12:46:13.645229,21.684,0.196,235.0,262.81549072265625,167.42681884765625,84.958251953125,12.499202728271484,32.902400970458984,51.0,-5.820766091346741e-11,-20.0
32,100,40,60,go_to_color_detect_up_from_pick_up,green,true,false,joint 1 +,true,2024-03-04 12:46:15.028826,21.703,0.194,235.0,180.8304901123047,253.77955627441406,84.958251953125,34.52824401855469,54.89115524291992,51.0,-5.820766091346741e-11,-20.0
32,100,40,60,go_to_color_detect_up_from_pick_up,green,true,false,joint 1 +,true,2024-03-04 12:46:15.738585,21.893,0.194,235.0,131.97286987304688,282.2886657714844,84.958251953125,44.94342803955078,64.9671401977539,51.0,-5.820766091346741e-11,-20.0
32,100,40,60,go_to_color_detect_down,green,true,false,joint 3 +,true,2024-03-04 12:46:16.432389,21.722,0.194,235.0,131.43365478515625,281.8603515625,71.51262664794922,45.0,65.0,51.0,5.510400295257568,-20.0
32,100,40,60,go_to_color_detect_down,green,true,false,joint 3 +,true,2024-03-04 12:46:17.828709,21.722,0.194,235.0,125.85537719726562,269.897705078125,22.74170684814453,45.0,65.0,51.0,25.578336715698242,-20.0
32,100,40,60,go_to_color_detect_down,green,true,false,joint 3 +,true,2024-03-04 12:46:18.627279,21.684,0.194,235.0,113.51168823242188,243.42657470703125,-18.954330444335938,45.0,65.0,51.0,45.17561340332031,-20.0
32,100,40,60,go_to_color_detect_up_from_color_detect_down,green,true,false,joint 3 -,false,2024-03-04 12:46:19.754953,21.665,0.194,235.0,111.6059799194336,239.33978271484375,-23.278594970703125,45.0,65.0,51.0,47.3280029296875,-20.0
32,100,40,60,go_to_color_detect_up_from_color_detect_down,green,true,false,joint 3 -,false,2024-03-04 12:46:20.676497,21.855,0.194,235.0,121.16405487060547,259.837158203125,3.0770721435546875,45.0,65.0,51.0,33.42080307006836,-20.0
32,100,40,60,go_to_color_detect_up_from_color_detect_down,green,true,false,joint 3 -,false,2024-03-04 12:46:21.397755,16.31,0.153,235.0,130.54669189453125,279.958251953125,56.836669921875,45.0,65.0,51.0,10.656338691711426,-20.0
32,100,40,60,go_to_color_detect_up_from_color_detect_down,green,true,false,joint 3 -,false,2024-03-04 12:46:22.926756,16.576,0.153,235.0,131.6927947998047,282.4161071777344,84.01551818847656,45.0,65.0,51.0,0.3021368384361267,-20.0
32,100,40,60,detecting_color,green,false,false,detecting_color,false,2024-03-04 12:46:23.614779,16.234,0.154,235.0,131.69407653808594,282.4188232421875,84.958251953125,45.0,65.0,51.0,0.0,-20.0
32,100,40,60,go_to_color_detect_down,green,true,false,joint 3 +,false,2024-03-04 12:46:25.028042,16.177,0.154,235.0,131.69406127929688,282.4187927246094,84.85973358154297,45.0,65.0,51.0,0.06400000303983688,-20.0
32,100,40,60,go_to_color_detect_down,green,true,false,joint 3 +,false,2024-03-04 12:46:25.778276,16.177,0.153,235.0,131.0138702392578,280.96014404296875,63.26477813720703,45.0,65.0,51.0,8.81920051574707,-20.0
32,100,40,60,go_to_color_detect_down,green,true,false,joint 3 +,false,2024-03-04 12:46:26.476696,16.31,0.153,235.0,121.7339859008789,261.0593566894531,5.124473571777344,45.0,65.0,51.0,33.33053970336914,-20.0
32,100,40,60,go_to_color_detect_down,green,true,false,joint 3 +,false,2024-03-04 12:46:27.865499,16.215,0.153,235.0,112.23280334472656,240.6840057373047,-21.896568298339844,45.0,65.0,51.0,46.75674057006836,-20.0
32,100,40,60,go_to_color_detect_up_from_color_detect_down,green,true,false,joint 3 -,true,2024-03-04 12:46:28.557183,16.158,0.154,235.0,113.4797134399414,243.35801696777344,-19.029983520507812,45.0,65.0,51.0,44.82560348510742,-20.0
32,100,40,60,go_to_color_detect_up_from_color_detect_down,green,true,false,joint 3 -,true,2024-03-04 12:46:29.955761,22.481,0.154,235.0,124.2781982421875,266.51544189453125,15.308853149414062,45.0,65.0,51.0,27.7760009765625,-20.0
32,100,40,60,go_to_color_detect_up_from_color_detect_down,green,true,false,joint 3 -,true,2024-03-04 12:46:30.645758,22.234,0.196,235.0,131.23348999023438,281.4311218261719,67.09158325195312,45.0,65.0,51.0,6.685388565063477,-20.0
32,100,40,60,go_to_blue_up,blue,true,false,joint 1 +,true,2024-03-04 12:46:32.025950,22.196,0.196,235.0,131.3784942626953,282.5657653808594,84.958251953125,45.064002990722656,65.09600067138672,51.0,0.0,-20.0
32,100,40,60,go_to_blue_up,blue,true,false,joint 1 +,true,2024-03-04 12:46:32.731849,21.798,0.195,235.0,86.83744812011719,299.2707824707031,84.958251953125,53.81919860839844,74.15840148925781,51.0,0.0,-20.0
32,100,40,60,go_to_blue_up,blue,true,false,joint 1 +,true,2024-03-04 12:46:34.131381,21.722,0.195,235.0,29.372241973876953,310.2273254394531,84.958251953125,64.59136962890625,84.66051483154297,51.0,0.0,-20.0
32,100,40,60,go_to_pick_up_from_blue,blue,true,false,joint 1 -,false,2024-03-04 12:46:34.828154,21.722,0.194,235.0,54.06850051879883,306.8881530761719,84.958251953125,60.00799560546875,79.75199890136719,51.0,0.0,-20.0
32,100,40,60,go_to_pick_up_from_blue,blue,true,false,joint 1 -,false,2024-03-04 12:46:35.530430,16.215,0.194,235.0,153.44261169433594,271.2177734375,84.958251953125,40.50080108642578,59.937599182128906,51.0,0.0,-20.0
32,100,40,60,go_to_pick_up_from_blue,blue,true,false,joint 1 -,false,2024-03-04 12:46:36.218513,16.215,0.194,235.0,258.4516906738281,174.0874786376953,84.958251953125,13.963356018066406,33.54379653930664,51.0,0.0,-20.0
