demetriskallis/dobot_magician_pick_and_place_and_color_sorting/Sampling/WholeSystemExperiments_training_data/payload_32g/joint_measurements__armv_70_arma_100_belts_60_cube_32g.csv
cube/weight,arm/velocity_ratio,arm/acceleration_ratio,belt/speed,dobot/operation,dobot/color,dobot/moving_arm,dobot/moving_belt,dobot/operation2,dobot/suction,meross/sample_timestamp,meross/power,meross/current,meross/voltage,dobot/pose_x,dobot/pose_y,dobot/pose_z,dobot/pose_rHead,dobot/pose_joint1Angle,dobot/pose_joint2Angle,dobot/pose_joint3Angle,dobot/pose_joint4Angle
32,70,100,60,homing,,,,homing,,,,,,172.48977661132812,77.97823333740234,79.451416015625,4.326515197753906,23.926515579223633,-2.788954734802246,22.135223388671875,-20.0
32,70,100,60,homing,,,,homing,,,,,,188.5397186279297,16.914718627929688,79.451416015625,-14.873470306396484,4.726529598236084,-2.788954734802246,22.135223388671875,-20.0
32,70,100,60,homing,,,,homing,,,,,,183.61514282226562,-46.030548095703125,79.451416015625,-34.07346725463867,-14.473465919494629,-2.788954734802246,22.135223388671875,-20.0
32,70,100,60,homing,,,,homing,,,,,,153.7760467529297,-110.391357421875,79.451416015625,-55.673465728759766,-36.07346725463867,-2.788954734802246,22.135223388671875,-20.0
32,70,100,60,homing,,,,homing,,2024-03-03 17:22:34.539627,16.557,0.156,236.8,108.91824340820312,-154.8229522705078,79.451416015625,-74.87353515625,-55.27354049682617,-2.788954734802246,22.135223388671875,-20.0
32,70,100,60,homing,,,,homing,,2024-03-03 17:22:35.232952,16.538,0.156,236.8,51.94350051879883,-182.03077697753906,79.451416015625,-94.0736083984375,-74.4736099243164,-2.788954734802246,22.135223388671875,-20.0
32,70,100,60,homing,,,,homing,,2024-03-03 17:22:36.631764,16.481,0.159,236.8,-18.714427947998047,-188.3695831298828,79.451416015625,-115.67369079589844,-96.07369232177734,-2.788954734802246,22.135223388671875,-20.0
32,70,100,60,homing,,,,homing,,2024-03-03 17:22:37.324597,16.481,0.159,236.8,-79.6221694946289,-171.73712158203125,79.451416015625,-134.87376403808594,-115.27376556396484,-2.788954734802246,22.135223388671875,-20.0
32,70,100,60,homing,,,,homing,,2024-03-03 17:22:38.708702,16.519,0.159,236.8,-131.6717987060547,-135.99951171875,79.451416015625,-154.07371520996094,-134.4737091064453,-2.788954734802246,22.135223388671875,-20.0
32,70,100,60,homing,,,,homing,,2024-03-03 17:22:39.399641,16.443,0.159,236.8,-135.0473175048828,-132.64820861816406,79.451416015625,-155.5134735107422,-135.49346923828125,-2.788954734802246,22.135223388671875,-20.0
32,70,100,60,homing,,,,homing,,2024-03-03 17:22:40.810932,16.367,0.155,236.8,-117.81723022460938,-151.27255249023438,77.86729431152344,-147.2838897705078,-127.49291229248047,-1.373570442199707,22.89487075805664,-19.333980560302734
32,70,100,60,homing,,,,homing,,2024-03-03 17:22:41.509619,16.424,0.155,236.8,-37.17502212524414,-199.54893493652344,69.52533721923828,-116.95539855957031,-99.95296478271484,5.042839527130127,26.33860206604004,-16.314693450927734
32,70,100,60,homing,,,,homing,,2024-03-03 17:22:42.204738,16.424,0.158,236.8,83.5428237915039,-208.37657165527344,47.43689727783203,-78.3044204711914,-67.55304718017578,18.448551177978516,33.533538818359375,-10.006542205810547
32,70,100,60,homing,,,,homing,,2024-03-03 17:22:43.588253,16.709,0.158,236.8,186.2133331298828,-152.7023468017578,21.837379455566406,-43.69094467163086,-38.75312042236328,30.697765350341797,40.10777282714844,-4.242587566375732
32,70,100,60,homing,,,,homing,,2024-03-03 17:22:44.284575,16.823,0.161,236.8,243.75286865234375,-46.85875701904297,5.006141662597656,-11.840576171875,-10.376662254333496,37.770713806152344,43.90387725830078,-0.914360761642456
32,70,100,60,homing,,,,homing,,2024-03-03 17:22:45.669465,16.69,0.161,236.8,250.1748809814453,-0.10814037919044495,-0.06635284423828125,-0.024766620248556137,-0.01010963786393404,39.74354934692383,44.937049865722656,0.0
32,70,100,60,homing,,,,homing,,2024-03-03 17:22:46.400050,16.633,0.161,236.8,249.99998474121094,0.0,-7.62939453125e-06,0.0,0.0,39.71385955810547,44.94676971435547,0.0
32,70,100,60,homing,,,,homing,,2024-03-03 17:22:47.796982,16.348,0.159,236.8,249.99998474121094,0.00017966009909287095,-7.62939453125e-06,4.117506250622682e-05,4.117506250622682e-05,39.71385955810547,44.94676971435547,0.0
32,70,100,60,homing,,,,homing,,2024-03-03 17:22:48.495248,16.348,0.159,236.8,249.99998474121094,0.00017966009909287095,-7.62939453125e-06,4.117506250622682e-05,4.117506250622682e-05,39.71385955810547,44.94676971435547,0.0
32,70,100,60,homing,,,,homing,,2024-03-03 17:22:49.194681,16.367,0.159,236.8,249.99998474121094,0.00017966009909287095,-7.62939453125e-06,4.117506250622682e-05,4.117506250622682e-05,39.71385955810547,44.94676971435547,0.0
32,70,100,60,homing,,,,homing,,2024-03-03 17:22:50.590706,16.462,0.159,236.8,249.99998474121094,0.00017966009909287095,-7.62939453125e-06,4.117506250622682e-05,4.117506250622682e-05,39.71385955810547,44.94676971435547,0.0
32,70,100,60,homing,,,,homing,,2024-03-03 17:22:51.286379,16.405,0.158,236.8,249.99998474121094,0.00017966009909287095,-7.62939453125e-06,4.117506250622682e-05,4.117506250622682e-05,39.71385955810547,44.94676971435547,0.0
32,70,100,60,homing,,,,homing,,2024-03-03 17:22:52.708359,16.291,0.158,236.8,254.4499053955078,18.28270149230957,11.438583374023438,4.100799560546875e-05,4.458992958068848,37.91038131713867,39.785545349121094,-4.458951950073242
32,70,100,60,homing,,,,homing,,2024-03-03 17:22:53.407641,16.291,0.163,236.8,274.97027587890625,102.8772964477539,64.92241668701172,4.1961669921875e-05,20.528518676757812,42.430885314941406,13.637838363647461,-20.52847671508789
32,70,100,60,moving_belt,nothing,false,true,go_to_pick_up_from_homing,,2024-03-03 17:22:54.818162,16.747,0.163,236.8,292.8220520019531,106.5785140991211,84.958251953125,0.0,20.0,51.0,0.0,-20.0
32,70,100,60,moving_belt,nothing,false,true,go_to_pick_up_from_homing,,2024-03-03 17:22:55.509023,16.747,0.16,236.8,292.8220520019531,106.5785140991211,84.958251953125,0.0,20.0,51.0,0.0,-20.0
32,70,100,60,moving_belt,nothing,false,true,go_to_pick_up_from_homing,,2024-03-03 17:22:56.206296,16.671,0.16,236.8,292.8220520019531,106.5785140991211,84.958251953125,0.0,20.0,51.0,0.0,-20.0
32,70,100,60,moving_belt,nothing,false,true,go_to_pick_up_from_homing,,2024-03-03 17:22:57.593647,16.272,0.16,236.8,292.8220520019531,106.5785140991211,84.958251953125,0.0,20.0,51.0,0.0,-20.0
32,70,100,60,moving_belt,nothing,false,true,go_to_pick_up_from_homing,,2024-03-03 17:22:58.289320,16.272,0.158,236.8,292.8220520019531,106.5785140991211,84.958251953125,0.0,20.0,51.0,0.0,-20.0
32,70,100,60,go_to_pick_down,nothing,true,false,joint 3 +,,2024-03-03 17:22:59.701947,16.519,0.158,236.8,286.1759033203125,104.15950775146484,39.909912109375,0.0,20.0,51.0,18.401662826538086,-20.0
32,70,100,60,go_to_pick_up_from_pick_down,nothing,true,false,joint 3 -,true,2024-03-03 17:23:00.394643,16.519,0.159,236.8,292.2120056152344,106.35647583007812,71.15796661376953,0.0,20.0,51.0,4.750665187835693,-20.0
32,70,100,60,go_to_color_detect_up_from_pick_up,nothing,true,false,joint 1 +,true,2024-03-03 17:23:01.776577,22.633,0.159,236.8,252.3571014404297,182.8103485107422,84.958251953125,15.919998168945312,36.89999771118164,51.0,0.0,-20.0
32,70,100,60,go_to_color_detect_down,nothing,true,false,joint 3 +,true,2024-03-03 17:23:02.468741,22.633,0.211,236.8,131.67445373535156,282.37677001953125,81.26412963867188,45.0,65.0,51.0,1.8000000715255737,-20.0
32,70,100,60,go_to_color_detect_down,nothing,true,false,joint 3 +,true,2024-03-03 17:23:03.852971,22.14,0.211,236.8,115.0837631225586,246.79791259765625,-15.093887329101562,45.0,65.0,51.0,43.51182556152344,-20.0
32,70,100,60,go_to_color_detect_up_from_color_detect_down,nothing,true,false,joint 3 -,false,2024-03-03 17:23:04.549737,22.253,0.207,236.8,121.63603210449219,260.84930419921875,4.767250061035156,45.0,65.0,51.0,32.08000183105469,-20.0
32,70,100,60,detecting_color,nothing,false,false,detecting_color,false,2024-03-03 17:23:05.242974,22.253,0.207,236.8,131.69407653808594,282.4188232421875,84.958251953125,45.0,65.0,51.0,0.0,-20.0
32,70,100,60,detecting_color,nothing,false,false,detecting_color,false,2024-03-03 17:23:06.636524,17.108,0.16,236.8,131.69407653808594,282.4188232421875,84.958251953125,45.0,65.0,51.0,0.0,-20.0
32,70,100,60,go_to_color_detect_down,nothing,true,false,joint 3 +,false,2024-03-03 17:23:07.363103,16.538,0.16,236.8,129.31130981445312,277.3089904785156,44.636905670166016,45.0,65.0,51.0,16.89999771118164,-20.0
32,70,100,60,go_to_color_detect_up_from_color_detect_down,nothing,true,false,joint 3 -,true,2024-03-03 17:23:08.763358,16.348,0.159,236.8,111.13883972167969,238.33799743652344,-24.284042358398438,45.0,65.0,51.0,47.959999084472656,-20.0
32,70,100,60,go_to_color_detect_up_from_color_detect_down,nothing,true,false,joint 3 -,true,2024-03-03 17:23:09.458617,18.494,0.159,236.8,131.2035369873047,281.36688232421875,66.52177429199219,45.0,65.0,51.0,6.465724945068359,-20.0
32,70,100,60,go_to_red_up,red,true,false,joint 1 +,true,2024-03-03 17:23:10.842536,23.298,0.212,236.8,59.672393798828125,305.847900390625,84.958251953125,58.96000671386719,79.94001007080078,51.0,0.0,-20.0
32,70,100,60,go_to_red_up,red,true,false,joint 1 +,true,2024-03-03 17:23:11.535860,22.386,0.212,236.8,-167.32432556152344,262.8807678222656,84.958251953125,102.47686004638672,122.90583801269531,51.0,0.0,-20.0
32,70,100,60,go_to_pick_up_from_red,red,true,false,joint 1 -,false,2024-03-03 17:23:12.227609,22.709,0.212,236.8,-44.98322677612305,308.350830078125,84.958251953125,78.2999496459961,97.3199462890625,51.0,0.0,-20.0
32,70,100,60,go_to_pick_up_from_red,red,true,false,joint 1 -,false,2024-03-03 17:23:13.616333,17.127,0.174,236.8,195.0052032470703,243.05697631835938,84.958251953125,31.259841918945312,50.279842376708984,51.0,0.0,-20.0
32,70,100,60,moving_belt,red,false,true,joint 1 -,false,2024-03-03 17:23:14.308632,16.633,0.174,236.8,292.8220520019531,106.5785140991211,84.958251953125,0.0,20.0,51.0,0.0,-20.0
32,70,100,60,moving_belt,red,false,true,joint 1 -,false,2024-03-03 17:23:15.690217,16.614,0.161,236.8,292.8220520019531,106.5785140991211,84.958251953125,0.0,20.0,51.0,0.0,-20.0
32,70,100,60,moving_belt,red,false,true,joint 1 -,false,2024-03-03 17:23:16.382112,16.614,0.161,236.8,292.8220520019531,106.5785140991211,84.958251953125,0.0,20.0,51.0,0.0,-20.0
32,70,100,60,moving_belt,red,false,true,joint 1 -,false,2024-03-03 17:23:17.763115,16.481,0.156,236.8,292.8220520019531,106.5785140991211,84.958251953125,0.0,20.0,51.0,0.0,-20.0
32,70,100,60,moving_belt,red,false,true,joint 1 -,false,2024-03-03 17:23:18.453796,16.481,0.156,236.8,292.8220520019531,106.5785140991211,84.958251953125,0.0,20.0,51.0,0.0,-20.0
32,70,100,60,go_to_pick_down,red,true,false,joint 3 +,false,2024-03-03 17:23:19.834065,16.405,0.158,236.8,287.0558776855469,104.47979736328125,42.929691314697266,0.0,20.0,51.0,17.249330520629883,-20.0
32,70,100,60,go_to_pick_up_from_pick_down,red,true,false,joint 3 -,true,2024-03-03 17:23:20.524525,16.348,0.158,236.8,291.8562927246094,106.22700500488281,67.60594940185547,0.0,20.0,51.0,6.062997817993164,-20.0
32,70,100,60,go_to_color_detect_up_from_pick_up,red,true,false,joint 1 +,true,2024-03-03 17:23:21.213249,23.45,0.158,236.8,235.81973266601562,203.6977996826172,84.958251953125,20.819995880126953,41.79999542236328,51.0,0.0,-20.0
32,70,100,60,go_to_color_detect_down,red,true,false,joint 3 +,true,2024-03-03 17:23:22.623718,22.671,0.214,236.8,131.67445373535156,282.37677001953125,81.26412963867188,45.0,65.0,51.0,1.8000000715255737,-20.0
32,70,100,60,go_to_color_detect_down,red,true,false,joint 3 +,true,2024-03-03 17:23:23.335936,22.348,0.214,236.8,115.56721496582031,247.83468627929688,-13.848258972167969,45.0,65.0,51.0,42.892642974853516,-20.0
32,70,100,60,go_to_color_detect_up_from_color_detect_down,red,true,false,joint 3 -,false,2024-03-03 17:23:24.735255,22.177,0.207,236.8,124.34054565429688,266.6491394042969,15.583740234375,45.0,65.0,51.0,27.180004119873047,-20.0
32,70,100,60,detecting_color,red,false,false,detecting_color,false,2024-03-03 17:23:25.654895,17.734,0.207,236.8,131.69407653808594,282.4188232421875,84.958251953125,45.0,65.0,51.0,0.0,-20.0
32,70,100,60,detecting_color,red,false,false,detecting_color,false,2024-03-03 17:23:26.476879,16.899,0.165,236.8,131.69407653808594,282.4188232421875,84.958251953125,45.0,65.0,51.0,0.0,-20.0
32,70,100,60,detecting_color,red,false,false,detecting_color,false,2024-03-03 17:23:27.193482,16.899,0.165,236.8,131.69407653808594,282.4188232421875,84.958251953125,45.0,65.0,51.0,0.0,-20.0
32,70,100,60,detecting_color,red,false,false,detecting_color,false,2024-03-03 17:23:28.712392,16.519,0.16,236.8,131.69407653808594,282.4188232421875,84.958251953125,45.0,65.0,51.0,0.0,-20.0
32,70,100,60,go_to_color_detect_down,red,true,false,joint 3 +,false,2024-03-03 17:23:29.399676,16.519,0.16,235.0,131.4142608642578,281.81878662109375,71.02216339111328,45.0,65.0,51.0,6.119999885559082,-20.0
32,70,100,60,go_to_color_detect_down,red,true,false,joint 3 +,false,2024-03-03 17:23:30.778599,16.462,0.158,235.0,111.28205108642578,238.64512634277344,-23.977981567382812,45.0,65.0,51.0,47.92121124267578,-20.0
32,70,100,60,go_to_color_detect_up_from_color_detect_down,red,true,false,joint 3 -,true,2024-03-03 17:23:31.478250,16.538,0.158,235.0,128.18836975097656,274.90081787109375,36.2757682800293,45.0,65.0,51.0,18.360008239746094,-20.0
32,70,100,60,go_to_green_up,green,true,false,joint 1 +,true,2024-03-03 17:23:32.167099,23.393,0.158,235.0,116.12750244140625,289.1679992675781,84.958251953125,48.12001037597656,68.64000701904297,51.0,0.0,-20.0
32,70,100,60,go_to_green_up,green,true,false,joint 1 +,false,2024-03-03 17:23:33.620981,22.462,0.216,236.8,-80.65180969238281,300.9967041015625,84.958251953125,85.0,105.0,51.0,0.0,-20.0
32,70,100,60,go_to_pick_up_from_green,green,true,false,joint 1 -,false,2024-03-03 17:23:34.316663,22.538,0.216,236.8,94.11959075927734,297.0610046386719,84.958251953125,52.41992950439453,71.43992614746094,51.0,0.0,-20.0
32,70,100,60,go_to_pick_up_from_green,green,true,false,joint 1 -,false,2024-03-03 17:23:35.722959,16.576,0.183,236.8,279.372314453125,138.03924560546875,84.958251953125,6.2942047119140625,25.604816436767578,51.0,0.0,-20.0
32,70,100,60,moving_belt,green,false,true,joint 1 -,false,2024-03-03 17:23:36.433431,16.519,0.183,236.8,292.8220520019531,106.5785140991211,84.958251953125,0.0,20.0,51.0,0.0,-20.0
32,70,100,60,moving_belt,green,false,true,joint 1 -,false,2024-03-03 17:23:37.885172,16.747,0.16,236.8,292.8220520019531,106.5785140991211,84.958251953125,0.0,20.0,51.0,0.0,-20.0
32,70,100,60,moving_belt,green,false,true,joint 1 -,false,2024-03-03 17:23:38.597574,16.443,0.16,236.8,292.8220520019531,106.5785140991211,84.958251953125,0.0,20.0,51.0,0.0,-20.0
32,70,100,60,moving_belt,green,false,true,joint 1 -,false,2024-03-03 17:23:39.285478,16.443,0.159,236.8,292.8220520019531,106.5785140991211,84.958251953125,0.0,20.0,51.0,0.0,-20.0
32,70,100,60,go_to_pick_down,green,true,false,joint 3 +,false,2024-03-03 17:23:40.666456,16.576,0.159,236.8,292.7784423828125,106.56263732910156,81.26412963867188,0.0,20.0,51.0,1.8000000715255737,-20.0
32,70,100,60,go_to_pick_up_from_pick_down,green,true,false,joint 3 -,true,2024-03-03 17:23:41.356140,16.31,0.159,236.8,283.5084533691406,103.18864440917969,31.895137786865234,0.0,20.0,51.0,20.87999725341797,-20.0
32,70,100,60,go_to_color_detect_up_from_pick_up,green,true,false,joint 1 +,true,2024-03-03 17:23:42.800934,19.785,0.159,236.8,288.514892578125,117.74076843261719,84.958251953125,2.200002670288086,22.640003204345703,51.0,0.0,-20.0
32,70,100,60,go_to_color_detect_up_from_pick_up,green,true,false,joint 1 +,true,2024-03-03 17:23:43.492569,22.481,0.207,236.8,145.53717041015625,275.5406494140625,84.958251953125,42.15754318237305,62.61427688598633,51.0,0.0,-20.0
32,70,100,60,go_to_color_detect_down,green,true,false,joint 3 +,true,2024-03-03 17:23:44.231107,22.253,0.207,236.8,127.25126647949219,272.8912048339844,30.3671875,45.0,65.0,51.0,22.77999496459961,-20.0
32,70,100,60,go_to_color_detect_up_from_color_detect_down,green,true,false,joint 3 -,false,2024-03-03 17:23:45.680042,21.855,0.205,236.8,112.8804931640625,242.07298278808594,-20.42760467529297,45.0,65.0,51.0,45.3599967956543,-20.0
32,70,100,60,go_to_color_detect_up_from_color_detect_down,green,true,false,joint 3 -,false,2024-03-03 17:23:46.415669,21.969,0.205,236.8,131.50357055664062,282.0102844238281,73.45500946044922,45.0,65.0,51.0,3.9089906215667725,-20.0
32,70,100,60,detecting_color,green,false,false,detecting_color,false,2024-03-03 17:23:47.310500,17.146,0.205,236.8,131.69407653808594,282.4188232421875,84.958251953125,45.0,65.0,51.0,0.0,-20.0
32,70,100,60,go_to_color_detect_down,green,true,false,joint 3 +,false,2024-03-03 17:23:48.775637,16.177,0.162,235.0,131.6822052001953,282.3934020996094,82.08492279052734,45.0,65.0,51.0,1.440000057220459,-20.0
32,70,100,60,go_to_color_detect_down,green,true,false,joint 3 +,false,2024-03-03 17:23:49.524721,16.177,0.162,235.0,116.0733413696289,248.92007446289062,-12.512733459472656,45.0,65.0,51.0,42.23345947265625,-20.0
32,70,100,60,go_to_color_detect_up_from_color_detect_down,green,true,false,joint 3 -,true,2024-03-03 17:23:50.215246,16.139,0.158,235.0,124.83399200439453,267.70733642578125,17.81048583984375,45.0,65.0,51.0,26.20000457763672,-20.0
32,70,100,60,go_to_blue_up,blue,true,false,joint 1 +,true,2024-03-03 17:23:51.603276,22.975,0.158,236.8,128.72940063476562,283.7824401855469,84.958251953125,45.600006103515625,65.84000396728516,51.0,0.0,-20.0
32,70,100,60,go_to_pick_up_from_blue,blue,true,false,joint 1 -,false,2024-03-03 17:23:52.292970,22.975,0.213,236.8,44.01465606689453,308.4905700683594,84.958251953125,61.87998962402344,81.35999298095703,51.0,0.0,-20.0
32,70,100,60,go_to_pick_up_from_blue,blue,true,false,joint 1 -,false,2024-03-03 17:23:53.750839,16.918,0.213,235.0,246.49041748046875,190.6468048095703,84.958251953125,17.719982147216797,36.73998260498047,51.0,0.0,-20.0
32,70,100,60,moving_belt,blue,false,true,joint 1 -,false,2024-03-03 17:23:54.440540,16.918,0.159,235.0,292.8220520019531,106.5785140991211,84.958251953125,0.0,20.0,51.0,0.0,-20.0
32,70,100,60,moving_belt,blue,false,true,joint 1 -,false,2024-03-03 17:23:55.826412,16.386,0.159,236.8,292.8220520019531,106.5785140991211,84.958251953125,0.0,20.0,51.0,0.0,-20.0
32,70,100,60,moving_belt,blue,false,true,joint 1 -,false,2024-03-03 17:23:56.522075,16.386,0.158,236.8,292.8220520019531,106.5785140991211,84.958251953125,0.0,20.0,51.0,0.0,-20.0
32,70,100,60,moving_belt,blue,false,true,joint 1 -,false,2024-03-03 17:23:57.212136,16.424,0.158,236.8,292.8220520019531,106.5785140991211,84.958251953125,0.0,20.0,51.0,0.0,-20.0
32,70,100,60,moving_belt,blue,false,true,joint 1 -,false,2024-03-03 17:23:58.598525,16.329,0.158,236.8,292.8220520019531,106.5785140991211,84.958251953125,0.0,20.0,51.0,0.0,-20.0
32,70,100,60,go_to_pick_down,blue,true,false,joint 3 +,false,2024-03-03 17:23:59.287221,16.329,0.158,236.8,282.8721618652344,102.9570541381836,30.177860260009766,0.0,20.0,51.0,21.955659866333008,-20.0
32,70,100,60,go_to_color_detect_up_from_pick_up,blue,true,false,joint 1 +,true,2024-03-03 17:24:00.671379,16.291,0.212,236.8,292.82086181640625,106.57808685302734,84.35104370117188,0.0,20.0,51.0,0.12050371617078781,-20.0
32,70,100,60,go_to_color_detect_up_from_pick_up,blue,true,false,joint 1 +,true,2024-03-03 17:24:01.370950,22.899,0.212,236.8,176.99234008789062,256.47113037109375,84.958251953125,35.390193939208984,56.24692916870117,51.0,0.0,-20.0
32,70,100,60,go_to_color_detect_down,blue,true,false,joint 3 +,true,2024-03-03 17:24:02.761649,22.88,0.211,236.8,130.7275390625,280.3460998535156,59.12882614135742,45.0,65.0,51.0,11.039999961853027,-20.0
32,70,100,60,go_to_color_detect_up_from_color_detect_down,blue,true,false,joint 3 -,false,2024-03-03 17:24:03.465302,21.836,0.211,235.0,111.28205108642578,238.64512634277344,-23.977981567382812,45.0,65.0,51.0,47.92121124267578,-20.0
32,70,100,60,go_to_color_detect_up_from_color_detect_down,blue,true,false,joint 3 -,false,2024-03-03 17:24:04.857927,20.241,0.163,235.0,130.2261505126953,279.2708740234375,53.19169616699219,45.0,65.0,51.0,11.500826835632324,-20.0
32,70,100,60,detecting_color,blue,false,false,detecting_color,false,2024-03-03 17:24:05.562346,16.975,0.163,235.0,131.69407653808594,282.4188232421875,84.958251953125,45.0,65.0,51.0,0.0,-20.0
32,70,100,60,detecting_color,blue,false,false,detecting_color,false,2024-03-03 17:24:06.253028,16.975,0.163,236.8,131.69407653808594,282.4188232421875,84.958251953125,45.0,65.0,51.0,0.0,-20.0
32,70,100,60,go_to_color_detect_down,blue,true,false,joint 3 +,false,2024-03-03 17:24:07.635403,16.12,0.159,236.8,121.91813659667969,261.45428466796875,5.802192687988281,45.0,65.0,51.0,33.55998992919922,-20.0
32,70,100,60,go_to_color_detect_up_from_color_detect_down,blue,true,false,joint 3 -,true,2024-03-03 17:24:08.898189,16.196,0.159,236.8,115.82393646240234,248.38522338867188,-13.174934387207031,45.0,65.0,51.0,41.159996032714844,-20.0
32,70,100,60,go_to_color_detect_up_from_color_detect_down,blue,true,false,joint 3 -,true,2024-03-03 17:24:09.601475,22.785,0.216,236.8,131.6940155029297,282.4187316894531,84.75611877441406,45.0,65.0,51.0,0.019601725041866302,-20.0
32,70,100,60,go_to_red_up,red,true,false,joint 1 +,true,2024-03-03 17:24:10.308058,22.918,0.216,236.8,-35.81648254394531,309.5495300292969,84.958251953125,76.60006713867188,97.58007049560547,51.0,0.0,-20.0
32,70,100,60,go_to_pick_up_from_red,red,true,false,joint 1 -,false,2024-03-03 17:24:11.689445,22.329,0.21,236.8,-178.1998291015625,255.63360595703125,84.958251953125,104.87999725341797,124.75999450683594,51.0,0.0,-20.0
32,70,100,60,go_to_pick_up_from_red,red,true,false,joint 1 -,false,2024-03-03 17:24:12.380795,22.519,0.21,236.8,45.30698013305664,308.3034362792969,84.958251953125,61.639892578125,80.6598892211914,51.0,0.0,-20.0
32,70,100,60,go_to_pick_up_from_red,red,true,false,joint 1 -,false,2024-03-03 17:24:13.769408,16.405,0.16,236.8,256.5018615722656,176.9477996826172,84.958251953125,14.599849700927734,33.619850158691406,51.0,0.0,-20.0
32,70,100,60,moving_belt,red,false,true,joint 1 -,false,2024-03-03 17:24:14.463679,16.329,0.16,236.8,292.8220520019531,106.5785140991211,84.958251953125,0.0,20.0,51.0,0.0,-20.0
32,70,100,60,moving_belt,red,false,true,joint 1 -,false,2024-03-03 17:24:15.850718,16.595,0.159,236.8,292.8220520019531,106.5785140991211,84.958251953125,0.0,20.0,51.0,0.0,-20.0
32,70,100,60,moving_belt,red,false,true,joint 1 -,false,2024-03-03 17:24:16.546978,16.595,0.159,236.8,292.8220520019531,106.5785140991211,84.958251953125,0.0,20.0,51.0,0.0,-20.0
32,70,100,60,moving_belt,red,false,true,joint 1 -,false,2024-03-03 17:24:17.237950,16.443,0.159,236.8,292.8220520019531,106.5785140991211,84.958251953125,0.0,20.0,51.0,0.0,-20.0
32,70,100,60,go_to_pick_down,red,true,false,joint 3 +,false,2024-03-03 17:24:18.624026,16.405,0.159,236.8,292.8220520019531,106.5785140991211,84.958251953125,0.0,20.0,51.0,0.03999999910593033,-20.0
32,70,100,60,go_to_pick_up_from_pick_down,red,true,false,joint 3 -,true,2024-03-03 17:24:19.322788,16.481,0.159,236.8,282.76361083984375,102.91754913330078,29.89107894897461,0.0,20.0,51.0,22.0,-20.0
32,70,100,60,go_to_color_detect_up_from_pick_up,red,true,false,joint 1 +,true,2024-03-03 17:24:20.705165,18.608,0.158,236.8,292.8220520019531,106.5785140991211,84.93728637695312,0.0,20.0,51.0,0.0,-20.0
32,70,100,60,go_to_color_detect_up_from_pick_up,red,true,false,joint 1 +,true,2024-03-03 17:24:21.401204,22.728,0.158,236.8,165.86611938476562,263.8032531738281,84.958251953125,37.840396881103516,58.57713317871094,51.0,0.0,-20.0
32,70,100,60,go_to_color_detect_down,red,true,false,joint 3 +,true,2024-03-03 17:24:22.801088,22.481,0.211,236.8,129.5940399169922,277.915283203125,47.060569763183594,45.0,65.0,51.0,15.919998168945312,-20.0
32,70,100,60,go_to_color_detect_up_from_color_detect_down,red,true,false,joint 3 -,false,2024-03-03 17:24:23.543554,21.95,0.211,235.0,111.13883972167969,238.33799743652344,-24.284042358398438,45.0,65.0,51.0,48.0,-20.0
32,70,100,60,go_to_color_detect_up_from_color_detect_down,red,true,false,joint 3 -,false,2024-03-03 17:24:24.239029,22.064,0.211,235.0,130.9622344970703,280.8493957519531,62.461029052734375,45.0,65.0,51.0,7.9840922355651855,-20.0
32,70,100,60,detecting_color,red,false,false,detecting_color,false,2024-03-03 17:24:25.624540,17.279,0.182,236.8,131.69407653808594,282.4188232421875,84.958251953125,45.0,65.0,51.0,0.0,-20.0
32,70,100,60,detecting_color,red,false,false,detecting_color,false,2024-03-03 17:24:26.313231,16.481,0.182,236.8,131.69407653808594,282.4188232421875,84.958251953125,45.0,65.0,51.0,0.0,-20.0
32,70,100,60,detecting_color,red,false,false,detecting_color,false,2024-03-03 17:24:27.711563,16.424,0.16,235.0,131.69407653808594,282.4188232421875,84.958251953125,45.0,65.0,51.0,0.0,-20.0
32,70,100,60,detecting_color,red,false,false,detecting_color,false,2024-03-03 17:24:28.402254,16.424,0.16,235.0,131.69407653808594,282.4188232421875,84.958251953125,45.0,65.0,51.0,0.0,-20.0
32,70,100,60,detecting_color,red,false,false,detecting_color,false,2024-03-03 17:24:29.785626,16.595,0.161,236.8,131.69407653808594,282.4188232421875,84.958251953125,45.0,65.0,51.0,0.0,-20.0
32,70,100,60,go_to_color_detect_down,red,true,false,joint 3 +,false,2024-03-03 17:24:30.480302,16.443,0.161,236.8,124.5842514038086,267.1717834472656,16.67192840576172,45.0,65.0,51.0,28.659992218017578,-20.0
32,70,100,60,go_to_color_detect_up_from_color_detect_down,red,true,false,joint 3 -,true,2024-03-03 17:24:31.864113,16.405,0.159,236.8,112.8804931640625,242.07298278808594,-20.42760467529297,45.0,65.0,51.0,45.3599967956543,-20.0
32,70,100,60,go_to_color_detect_up_from_color_detect_down,red,true,false,joint 3 -,true,2024-03-03 17:24:32.559799,23.146,0.159,236.8,131.66946411132812,282.3660583496094,80.82024383544922,45.0,65.0,51.0,1.273888111114502,-20.0
32,70,100,60,go_to_green_up,green,true,false,joint 1 +,true,2024-03-03 17:24:33.249119,22.975,0.215,236.8,6.743230819702148,311.541748046875,84.958251953125,68.76004028320312,89.74004364013672,51.0,0.0,-20.0
32,70,100,60,go_to_pick_up_from_green,green,true,false,joint 1 -,false,2024-03-03 17:24:34.901582,22.557,0.215,236.8,-55.182220458984375,306.6898498535156,84.958251953125,80.19999694824219,99.55999755859375,51.0,0.0,-20.0
32,70,100,60,go_to_pick_up_from_green,green,true,false,joint 1 -,false,2024-03-03 17:24:35.610631,19.671,0.168,236.8,208.8344268798828,231.283203125,84.958251953125,27.919910430908203,46.939910888671875,51.0,0.0,-20.0
32,70,100,60,moving_belt,green,false,true,joint 1 -,false,2024-03-03 17:24:36.308856,16.538,0.168,236.8,292.8220520019531,106.5785140991211,84.958251953125,0.0,20.0,51.0,0.0,-20.0
32,70,100,60,moving_belt,green,false,true,joint 1 -,false,2024-03-03 17:24:37.686005,16.576,0.161,236.8,292.8220520019531,106.5785140991211,84.958251953125,0.0,20.0,51.0,0.0,-20.0
32,70,100,60,moving_belt,green,false,true,joint 1 -,false,2024-03-03 17:24:38.401212,16.576,0.161,236.8,292.8220520019531,106.5785140991211,84.958251953125,0.0,20.0,51.0,0.0,-20.0
32,70,100,60,moving_belt,green,false,true,joint 1 -,false,2024-03-03 17:24:39.801728,16.443,0.16,236.8,292.8220520019531,106.5785140991211,84.958251953125,0.0,20.0,51.0,0.0,-20.0
32,70,100,60,moving_belt,green,false,true,joint 1 -,false,2024-03-03 17:24:40.503960,16.291,0.16,235.0,292.8220520019531,106.5785140991211,84.958251953125,0.0,20.0,51.0,0.0,-20.0
32,70,100,60,go_to_pick_down,green,true,false,joint 3 +,false,2024-03-03 17:24:41.881438,16.405,0.16,235.0,286.6092224121094,104.31723022460938,41.36827850341797,0.0,20.0,51.0,17.845497131347656,-20.0
32,70,100,60,go_to_pick_up_from_pick_down,green,true,false,joint 3 -,true,2024-03-03 17:24:42.575368,16.481,0.16,235.0,292.2120056152344,106.35647583007812,71.15796661376953,0.0,20.0,51.0,4.750665187835693,-20.0
32,70,100,60,go_to_color_detect_up_from_pick_up,green,true,false,joint 1 +,true,2024-03-03 17:24:43.267048,16.481,0.16,235.0,249.1935272216797,187.09976196289062,84.958251953125,16.89999771118164,37.87999725341797,51.0,0.0,-20.0
32,70,100,60,go_to_color_detect_down,green,true,false,joint 3 +,true,2024-03-03 17:24:44.648554,22.557,0.21,235.0,131.64828491210938,282.3206481933594,79.31524658203125,45.0,65.0,51.0,2.640000104904175,-20.0
32,70,100,60,go_to_color_detect_down,green,true,false,joint 3 +,true,2024-03-03 17:24:45.342371,22.291,0.21,235.0,115.0837631225586,246.79791259765625,-15.093887329101562,45.0,65.0,51.0,43.51182556152344,-20.0
32,70,100,60,go_to_color_detect_up_from_color_detect_down,green,true,false,joint 3 -,false,2024-03-03 17:24:46.732001,22.196,0.208,235.0,122.20805358886719,262.07598876953125,6.8861236572265625,45.0,65.0,51.0,31.10000228881836,-20.0
32,70,100,60,detecting_color,green,false,false,detecting_color,false,2024-03-03 17:24:47.424446,17.222,0.208,235.0,131.69407653808594,282.4188232421875,84.958251953125,45.0,65.0,51.0,0.0,-20.0
32,70,100,60,detecting_color,green,false,false,detecting_color,false,2024-03-03 17:24:48.833722,16.69,0.161,235.0,131.69407653808594,282.4188232421875,84.958251953125,45.0,65.0,51.0,0.0,-20.0
32,70,100,60,go_to_color_detect_down,green,true,false,joint 3 +,false,2024-03-03 17:24:49.536380,16.576,0.161,235.0,128.69354248046875,275.98419189453125,39.82566833496094,45.0,65.0,51.0,18.859996795654297,-20.0
32,70,100,60,go_to_color_detect_up_from_color_detect_down,green,true,false,joint 3 -,true,2024-03-03 17:24:50.927543,16.614,0.16,235.0,111.17107391357422,238.40711975097656,-24.215347290039062,45.0,65.0,51.0,47.87999725341797,-20.0
32,70,100,60,go_to_color_detect_up_from_color_detect_down,green,true,false,joint 3 -,true,2024-03-03 17:24:51.622219,16.614,0.16,236.8,130.44671630859375,279.743896484375,55.649085998535156,45.0,65.0,51.0,10.561643600463867,-20.0
32,70,100,60,go_to_blue_up,blue,true,false,joint 1 +,true,2024-03-03 17:24:52.321460,23.393,0.16,236.8,62.89630126953125,305.20123291015625,84.958251953125,58.35542297363281,79.06427764892578,51.0,0.0,-20.0
32,70,100,60,go_to_pick_up_from_blue,blue,true,false,joint 1 -,false,2024-03-03 17:24:53.308773,22.709,0.213,236.8,101.2461166381836,294.708251953125,84.958251953125,51.03999328613281,70.05998992919922,51.0,0.0,-20.0
32,70,100,60,go_to_pick_up_from_blue,blue,true,false,joint 1 -,false,2024-03-03 17:24:54.742462,16.614,0.161,236.8,288.6439208984375,117.42410278320312,84.958251953125,2.1371307373046875,21.744070053100586,51.0,0.0,-20.0
32,70,100,60,moving_belt,blue,false,true,joint 1 -,false,2024-03-03 17:24:55.481988,16.614,0.161,236.8,292.8220520019531,106.5785140991211,84.958251953125,0.0,20.0,51.0,0.0,-20.0
32,70,100,60,moving_belt,blue,false,true,joint 1 -,false,2024-03-03 17:24:56.920758,16.652,0.161,236.8,292.8220520019531,106.5785140991211,84.958251953125,0.0,20.0,51.0,0.0,-20.0
32,70,100,60,moving_belt,blue,false,true,joint 1 -,false,2024-03-03 17:24:57.842062,16.386,0.159,236.8,292.8220520019531,106.5785140991211,84.958251953125,0.0,20.0,51.0,0.0,-20.0
32,70,100,60,moving_belt,blue,false,true,joint 1 -,false,2024-03-03 17:24:58.530337,16.31,0.159,236.8,292.8220520019531,106.5785140991211,84.958251953125,0.0,20.0,51.0,0.0,-20.0
32,70,100,60,go_to_pick_down,blue,true,false,joint 3 +,false,2024-03-03 17:24:59.249939,16.31,0.158,236.8,292.7538757324219,106.55370330810547,80.34086608886719,0.0,20.0,51.0,2.200000047683716,-20.0
32,70,100,60,go_to_pick_up_from_pick_down,blue,true,false,joint 3 -,true,2024-03-03 17:25:00.738532,16.481,0.158,236.8,283.7506103515625,103.27677917480469,32.565711975097656,0.0,20.0,51.0,20.55999755859375,-20.0
32,70,100,60,go_to_color_detect_up_from_pick_up,blue,true,false,joint 1 +,true,2024-03-03 17:25:01.459122,16.234,0.215,236.8,287.6022033691406,119.95291137695312,84.958251953125,2.640003204345703,23.12000274658203,51.0,0.0,-20.0
32,70,100,60,go_to_color_detect_up_from_pick_up,blue,true,false,joint 1 +,true,2024-03-03 17:25:02.166746,23.165,0.215,236.8,143.33609008789062,276.6920471191406,84.958251953125,42.61427688598633,63.03101348876953,51.0,0.0,-20.0
32,70,100,60,go_to_color_detect_down,blue,true,false,joint 3 +,true,2024-03-03 17:25:03.856300,22.158,0.208,236.8,127.25126647949219,272.8912048339844,30.3671875,45.0,65.0,51.0,22.77999496459961,-20.0
32,70,100,60,go_to_color_detect_up_from_color_detect_down,blue,true,false,joint 3 -,false,2024-03-03 17:25:04.548573,21.931,0.208,236.8,113.59001922607422,243.59457397460938,-18.768508911132812,45.0,65.0,51.0,44.3599967956543,-20.0
32,70,100,60,go_to_color_detect_up_from_color_detect_down,blue,true,false,joint 3 -,false,2024-03-03 17:25:05.942845,16.994,0.163,236.8,131.58665466308594,282.1884765625,76.31754302978516,45.0,65.0,51.0,2.8706231117248535,-20.0
32,70,100,60,detecting_color,blue,false,false,detecting_color,false,2024-03-03 17:25:06.631541,16.994,0.163,236.8,131.69407653808594,282.4188232421875,84.958251953125,45.0,65.0,51.0,0.0,-20.0
32,70,100,60,go_to_color_detect_down,blue,true,false,joint 3 +,false,2024-03-03 17:25:07.333200,16.557,0.163,236.8,131.60198974609375,282.2213439941406,76.95742797851562,45.0,65.0,51.0,3.640000104904175,-20.0
32,70,100,60,go_to_color_detect_down,blue,true,false,joint 3 +,false,2024-03-03 17:25:08.728745,16.348,0.16,236.8,113.78072357177734,244.0035400390625,-18.313400268554688,45.0,65.0,51.0,45.12937927246094,-20.0
32,70,100,60,go_to_color_detect_up_from_color_detect_down,blue,true,false,joint 3 -,true,2024-03-03 17:25:09.671969,16.405,0.16,236.8,126.64470672607422,271.5904235839844,26.90731430053711,45.0,65.0,51.0,22.280006408691406,-20.0
32,70,100,60,go_to_red_up,red,true,false,joint 1 +,true,2024-03-03 17:25:10.488831,23.222,0.211,236.8,122.75809478759766,286.4161071777344,84.958251953125,46.80000305175781,67.20000457763672,51.0,0.0,-20.0
32,70,100,60,go_to_red_up,red,true,false,joint 1 +,true,2024-03-03 17:25:11.868797,22.386,0.21,236.8,-103.19902038574219,294.03009033203125,84.958251953125,89.3401107788086,110.32011413574219,51.0,0.0,-20.0
32,70,100,60,go_to_pick_up_from_red,red,true,false,joint 1 -,false,2024-03-03 17:25:12.560063,22.5,0.21,236.8,-131.10226440429688,282.69403076171875,84.958251953125,94.87999725341797,113.95999908447266,51.0,0.0,-20.0
32,70,100,60,go_to_pick_up_from_red,red,true,false,joint 1 -,false,2024-03-03 17:25:13.256355,20.488,0.21,236.8,117.13700866699219,288.7605285644531,84.958251953125,47.91984558105469,66.9398422241211,51.0,0.0,-20.0
32,70,100,60,go_to_pick_up_from_red,red,true,false,joint 1 -,false,2024-03-03 17:25:14.644560,16.5,0.16,236.8,285.86260986328125,124.04156494140625,84.958251953125,3.456998825073242,22.951284408569336,51.0,0.0,-20.0
32,70,100,60,moving_belt,red,false,true,joint 1 -,false,2024-03-03 17:25:15.343418,16.5,0.16,235.0,292.8220520019531,106.5785140991211,84.958251953125,0.0,20.0,51.0,0.0,-20.0
32,70,100,60,moving_belt,red,false,true,joint 1 -,false,2024-03-03 17:25:16.738172,16.443,0.159,235.0,292.8220520019531,106.5785140991211,84.958251953125,0.0,20.0,51.0,0.0,-20.0
32,70,100,60,moving_belt,red,false,true,joint 1 -,false,2024-03-03 17:25:17.427490,16.443,0.159,236.8,292.8220520019531,106.5785140991211,84.958251953125,0.0,20.0,51.0,0.0,-20.0
32,70,100,60,moving_belt,red,false,true,joint 1 -,false,2024-03-03 17:25:18.816082,16.367,0.159,236.8,292.8220520019531,106.5785140991211,84.958251953125,0.0,20.0,51.0,0.0,-20.0
32,70,100,60,go_to_pick_down,red,true,false,joint 3 +,false,2024-03-03 17:25:19.510758,16.424,0.159,236.8,292.6172790527344,106.50399017333984,76.95742797851562,0.0,20.0,51.0,3.640000104904175,-20.0
32,70,100,60,go_to_pick_up_from_pick_down,red,true,false,joint 3 -,true,2024-03-03 17:25:20.893335,16.215,0.157,236.8,284.3258056640625,103.48613739013672,34.19942092895508,0.0,20.0,51.0,19.799997329711914,-20.0
32,70,100,60,go_to_color_detect_up_from_pick_up,red,true,false,joint 1 +,true,2024-03-03 17:25:21.582574,23.203,0.157,236.8,286.58721923828125,122.35808563232422,84.958251953125,3.1200027465820312,23.640003204345703,51.0,0.0,-20.0
32,70,100,60,go_to_color_detect_up_from_pick_up,red,true,false,joint 1 +,true,2024-03-03 17:25:22.286799,22.785,0.157,235.0,141.3197784423828,277.727294921875,84.958251953125,43.03101348876953,63.40774917602539,51.0,0.0,-20.0
32,70,100,60,go_to_color_detect_down,red,true,false,joint 3 +,true,2024-03-03 17:25:23.794356,22.88,0.215,236.8,127.25126647949219,272.8912048339844,30.3671875,45.0,65.0,51.0,22.77999496459961,-20.0
32,70,100,60,go_to_color_detect_up_from_color_detect_down,red,true,false,joint 3 -,false,2024-03-03 17:25:24.568269,22.462,0.215,236.8,113.59001922607422,243.59457397460938,-18.768508911132812,45.0,65.0,51.0,44.3599967956543,-20.0
32,70,100,60,go_to_color_detect_up_from_color_detect_down,red,true,false,joint 3 -,false,2024-03-03 17:25:25.286863,22.234,0.208,236.8,131.58665466308594,282.1884765625,76.31754302978516,45.0,65.0,51.0,2.8706231117248535,-20.0
32,70,100,60,detecting_color,red,false,false,detecting_color,false,2024-03-03 17:25:26.670803,17.165,0.208,236.8,131.69407653808594,282.4188232421875,84.958251953125,45.0,65.0,51.0,0.0,-20.0
32,70,100,60,detecting_color,red,false,false,detecting_color,false,2024-03-03 17:25:27.364483,16.215,0.158,236.8,131.69407653808594,282.4188232421875,84.958251953125,45.0,65.0,51.0,0.0,-20.0
32,70,100,60,detecting_color,red,false,false,detecting_color,false,2024-03-03 17:25:28.747847,16.31,0.158,236.8,131.69407653808594,282.4188232421875,84.958251953125,45.0,65.0,51.0,0.0,-20.0
32,70,100,60,detecting_color,red,false,false,detecting_color,false,2024-03-03 17:25:29.439542,16.31,0.159,236.8,131.69407653808594,282.4188232421875,84.958251953125,45.0,65.0,51.0,0.0,-20.0
32,70,100,60,detecting_color,red,false,false,detecting_color,false,2024-03-03 17:25:30.846851,16.291,0.159,235.0,131.69407653808594,282.4188232421875,84.958251953125,45.0,65.0,51.0,0.0,-20.0
32,70,100,60,go_to_color_detect_down,red,true,false,joint 3 +,false,2024-03-03 17:25:31.537545,16.291,0.159,235.0,131.14833068847656,281.2485046386719,65.51656341552734,45.0,65.0,51.0,8.399999618530273,-20.0
32,70,100,60,go_to_color_detect_down,red,true,false,joint 3 +,false,2024-03-03 17:25:32.919517,16.272,0.158,236.8,111.13919067382812,238.3387451171875,-24.2833251953125,45.0,65.0,51.0,48.0,-20.0
32,70,100,60,go_to_color_detect_up_from_color_detect_down,red,true,false,joint 3 -,true,2024-03-03 17:25:33.611531,19.595,0.158,236.8,129.45774841308594,277.6230163574219,45.872005462646484,45.0,65.0,51.0,14.440010070800781,-20.0
32,70,100,60,go_to_green_up,green,true,false,joint 1 +,true,2024-03-03 17:25:34.299836,19.595,0.218,236.8,104.32667541503906,293.6318664550781,84.958251953125,50.44000244140625,71.12000274658203,51.0,0.0,-20.0
32,70,100,60,go_to_pick_up_from_green,green,true,false,joint 1 -,false,2024-03-03 17:25:35.689812,22.842,0.218,236.8,-80.021240234375,301.16497802734375,84.958251953125,84.87999725341797,104.75999450683594,51.0,0.0,-20.0
32,70,100,60,go_to_pick_up_from_green,green,true,false,joint 1 -,false,2024-03-03 17:25:36.388066,22.804,0.215,236.8,124.0570068359375,285.85589599609375,84.958251953125,46.53990936279297,65.55990600585938,51.0,0.0,-20.0
32,70,100,60,go_to_pick_up_from_green,green,true,false,joint 1 -,false,2024-03-03 17:25:37.777579,16.348,0.215,236.8,287.3548278808594,120.54434204101562,84.958251953125,2.7578773498535156,22.308488845825195,51.0,0.0,-20.0
32,70,100,60,moving_belt,green,false,true,joint 1 -,false,2024-03-03 17:25:38.467285,16.348,0.159,236.8,292.8220520019531,106.5785140991211,84.958251953125,0.0,20.0,51.0,0.0,-20.0
32,70,100,60,moving_belt,green,false,true,joint 1 -,false,2024-03-03 17:25:39.850273,16.538,0.159,236.8,292.8220520019531,106.5785140991211,84.958251953125,0.0,20.0,51.0,0.0,-20.0
32,70,100,60,moving_belt,green,false,true,joint 1 -,false,2024-03-03 17:25:40.548259,16.538,0.158,236.8,292.8220520019531,106.5785140991211,84.958251953125,0.0,20.0,51.0,0.0,-20.0
32,70,100,60,moving_belt,green,false,true,joint 1 -,false,2024-03-03 17:25:41.928939,16.291,0.158,236.8,292.8220520019531,106.5785140991211,84.958251953125,0.0,20.0,51.0,0.0,-20.0
32,70,100,60,go_to_pick_down,green,true,false,joint 3 +,false,2024-03-03 17:25:42.621622,16.253,0.159,236.8,292.54339599609375,106.47708892822266,75.62562561035156,0.0,20.0,51.0,4.200000286102295,-20.0
32,70,100,60,go_to_pick_up_from_pick_down,green,true,false,joint 3 -,true,2024-03-03 17:25:43.310539,16.253,0.159,236.8,285.0111389160156,103.7355728149414,36.227386474609375,0.0,20.0,51.0,18.87999725341797,-20.0
32,70,100,60,go_to_color_detect_up_from_pick_up,green,true,false,joint 1 +,true,2024-03-03 17:25:44.197961,16.386,0.159,236.8,288.514892578125,117.74076843261719,84.958251953125,2.200002670288086,22.640003204345703,51.0,0.0,-20.0
32,70,100,60,go_to_color_detect_up_from_pick_up,green,true,false,joint 1 +,true,2024-03-03 17:25:45.776313,22.329,0.217,236.8,135.14454650878906,280.7840270996094,84.958251953125,44.29795837402344,64.51469421386719,51.0,0.0,-20.0
32,70,100,60,go_to_color_detect_down,green,true,false,joint 3 +,true,2024-03-03 17:25:46.475828,22.083,0.217,236.8,125.06977844238281,268.2129821777344,18.90837860107422,45.0,65.0,51.0,27.67999267578125,-20.0
32,70,100,60,go_to_color_detect_up_from_color_detect_down,green,true,false,joint 3 -,false,2024-03-03 17:25:47.857001,21.855,0.206,236.8,114.85627746582031,246.31007385253906,-15.670166015625,45.0,65.0,51.0,42.55999755859375,-20.0
32,70,100,60,go_to_color_detect_up_from_color_detect_down,green,true,false,joint 3 -,false,2024-03-03 17:25:48.549927,18.57,0.206,236.8,131.65652465820312,282.33831787109375,79.84788513183594,45.0,65.0,51.0,1.6130719184875488,-20.0
32,70,100,60,detecting_color,green,false,false,detecting_color,false,2024-03-03 17:25:49.946849,16.918,0.166,236.8,131.69407653808594,282.4188232421875,84.958251953125,45.0,65.0,51.0,0.0,-20.0
32,70,100,60,go_to_color_detect_down,green,true,false,joint 3 +,false,2024-03-03 17:25:50.640528,16.462,0.166,236.8,131.52723693847656,282.06103515625,74.1922378540039,45.0,65.0,51.0,4.800000190734863,-20.0
32,70,100,60,go_to_color_detect_down,green,true,false,joint 3 +,false,2024-03-03 17:25:51.334817,16.462,0.159,236.8,113.0445556640625,242.42481994628906,-20.04869842529297,45.0,65.0,51.0,46.00774383544922,-20.0
32,70,100,60,go_to_color_detect_up_from_color_detect_down,green,true,false,joint 3 -,true,2024-03-03 17:25:52.743758,16.329,0.159,235.0,124.83399200439453,267.70733642578125,17.81048583984375,45.0,65.0,51.0,26.20000457763672,-20.0
32,70,100,60,go_to_blue_up,blue,true,false,joint 1 +,true,2024-03-03 17:25:53.434457,23.222,0.216,235.0,118.54595947265625,288.18499755859375,84.958251953125,47.64000701904297,68.12001037597656,51.0,0.0,-20.0
32,70,100,60,go_to_pick_up_from_blue,blue,true,false,joint 1 -,false,2024-03-03 17:25:54.822804,22.215,0.216,235.0,41.428707122802734,308.8485107421875,84.958251953125,62.35999298095703,81.87998962402344,51.0,0.0,-20.0
32,70,100,60,go_to_pick_up_from_blue,blue,true,false,joint 1 -,false,2024-03-03 17:25:55.557924,22.215,0.163,235.0,243.19366455078125,194.83473205566406,84.958251953125,18.699981689453125,37.7199821472168,51.0,0.0,-20.0
32,70,100,60,moving_belt,blue,false,true,joint 1 -,false,2024-03-03 17:25:56.937479,16.595,0.163,236.8,292.8220520019531,106.5785140991211,84.958251953125,0.0,20.0,51.0,0.0,-20.0
32,70,100,60,moving_belt,blue,false,true,joint 1 -,false,2024-03-03 17:25:57.627754,16.519,0.163,236.8,292.8220520019531,106.5785140991211,84.958251953125,0.0,20.0,51.0,0.0,-20.0
32,70,100,60,moving_belt,blue,false,true,joint 1 -,false,2024-03-03 17:25:58.320034,16.519,0.162,236.8,292.8220520019531,106.5785140991211,84.958251953125,0.0,20.0,51.0,0.0,-20.0
32,70,100,60,moving_belt,blue,false,true,joint 1 -,false,2024-03-03 17:25:59.701809,16.424,0.162,235.0,292.8220520019531,106.5785140991211,84.958251953125,0.0,20.0,51.0,0.0,-20.0
32,70,100,60,moving_belt,blue,false,true,joint 1 -,false,2024-03-03 17:26:00.392499,16.424,0.159,235.0,292.8220520019531,106.5785140991211,84.958251953125,0.0,20.0,51.0,0.0,-20.0
32,70,100,60,go_to_pick_down,blue,true,false,joint 3 +,false,2024-03-03 17:26:01.774098,15.968,0.159,236.8,283.1153869628906,103.04557800292969,30.826858520507812,0.0,20.0,51.0,21.76332664489746,-20.0
32,70,100,60,go_to_color_detect_up_from_pick_up,blue,true,false,joint 1 +,true,2024-03-03 17:26:02.464778,16.443,0.158,236.8,292.8220520019531,106.5785140991211,84.93728637695312,0.0,20.0,51.0,0.0,-20.0
32,70,100,60,go_to_color_detect_up_from_pick_up,blue,true,false,joint 1 +,true,2024-03-03 17:26:03.855853,23.431,0.158,236.8,189.35366821289062,247.4851837158203,84.958251953125,32.57999038696289,53.556724548339844,51.0,0.0,-20.0
32,70,100,60,go_to_color_detect_down,blue,true,false,joint 3 +,true,2024-03-03 17:26:04.546746,22.367,0.209,236.8,131.02761840820312,280.9896240234375,63.484046936035156,45.0,65.0,51.0,9.239999771118164,-20.0
32,70,100,60,go_to_color_detect_down,blue,true,false,joint 3 +,false,2024-03-03 17:26:05.928500,22.083,0.209,236.8,111.13883972167969,238.33799743652344,-24.284042358398438,45.0,65.0,51.0,48.0,-20.0
32,70,100,60,go_to_color_detect_up_from_color_detect_down,blue,true,false,joint 3 -,false,2024-03-03 17:26:06.618360,22.083,0.197,236.8,129.1664581298828,276.99835205078125,43.45403289794922,45.0,65.0,51.0,15.42000961303711,-20.0
32,70,100,60,detecting_color,blue,false,false,detecting_color,false,2024-03-03 17:26:07.308869,17.355,0.197,235.0,131.69407653808594,282.4188232421875,84.958251953125,45.0,65.0,51.0,0.0,-20.0
32,70,100,60,detecting_color,blue,false,false,detecting_color,false,2024-03-03 17:26:08.691245,16.804,0.16,235.0,131.69407653808594,282.4188232421875,84.958251953125,45.0,65.0,51.0,0.0,-20.0
32,70,100,60,go_to_color_detect_down,blue,true,false,joint 3 +,false,2024-03-03 17:26:09.378944,16.538,0.16,236.8,126.4284439086914,271.12664794921875,25.73101806640625,45.0,65.0,51.0,24.739994049072266,-20.0
32,70,100,60,go_to_color_detect_up_from_color_detect_down,blue,true,false,joint 3 -,true,2024-03-03 17:26:10.782700,16.519,0.16,236.8,113.9860610961914,244.44387817382812,-17.81891632080078,45.0,65.0,51.0,43.79999542236328,-20.0
32,70,100,60,go_to_color_detect_up_from_color_detect_down,blue,true,false,joint 3 -,true,2024-03-03 17:26:11.478394,16.519,0.16,236.8,131.61611938476562,282.2516784667969,77.59636688232422,45.0,65.0,51.0,2.4114394187927246,-20.0
32,70,100,60,go_to_red_up,red,true,false,joint 1 +,true,2024-03-03 17:26:12.884698,22.766,0.208,235.0,22.713459014892578,310.78582763671875,84.958251953125,65.82003021240234,86.80003356933594,51.0,0.0,-20.0
32,70,100,60,go_to_red_up,red,true,false,joint 1 +,true,2024-03-03 17:26:13.588919,22.576,0.208,235.0,-178.73486328125,255.2598114013672,84.958251953125,105.0,125.0,51.0,0.0,-20.0
32,70,100,60,go_to_pick_up_from_red,red,true,false,joint 1 -,false,2024-03-03 17:26:14.974510,22.614,0.208,236.8,-13.157377243041992,311.3368225097656,84.958251953125,72.41992950439453,91.43992614746094,51.0,0.0,-20.0
32,70,100,60,go_to_pick_up_from_red,red,true,false,joint 1 -,false,2024-03-03 17:26:15.667818,16.481,0.16,236.8,218.87925720214844,221.80081176757812,84.958251953125,25.379844665527344,44.399845123291016,51.0,0.0,-20.0
32,70,100,60,moving_belt,red,false,true,joint 1 -,false,2024-03-03 17:26:16.369462,16.481,0.16,236.8,292.8220520019531,106.5785140991211,84.958251953125,0.0,20.0,51.0,0.0,-20.0
32,70,100,60,moving_belt,red,false,true,joint 1 -,false,2024-03-03 17:26:17.745948,16.671,0.161,236.8,292.8220520019531,106.5785140991211,84.958251953125,0.0,20.0,51.0,0.0,-20.0
32,70,100,60,moving_belt,red,false,true,joint 1 -,false,2024-03-03 17:26:18.437431,16.671,0.161,236.8,292.8220520019531,106.5785140991211,84.958251953125,0.0,20.0,51.0,0.0,-20.0
32,70,100,60,moving_belt,red,false,true,joint 1 -,false,2024-03-03 17:26:19.817335,16.196,0.159,236.8,292.8220520019531,106.5785140991211,84.958251953125,0.0,20.0,51.0,0.0,-20.0
32,70,100,60,moving_belt,red,false,true,joint 1 -,false,2024-03-03 17:26:20.508160,16.367,0.159,236.8,292.8220520019531,106.5785140991211,84.958251953125,0.0,20.0,51.0,0.0,-20.0
32,70,100,60,go_to_pick_down,red,true,false,joint 3 +,false,2024-03-03 17:26:21.888177,16.405,0.159,236.8,284.9839172363281,103.72566986083984,36.14509201049805,0.0,20.0,51.0,19.830162048339844,-20.0
32,70,100,60,go_to_pick_up_from_pick_down,red,true,false,joint 3 -,true,2024-03-03 17:26:22.578478,16.405,0.159,236.8,292.7965393066406,106.56922149658203,82.13280487060547,0.0,20.0,51.0,0.825168788433075,-20.0
32,70,100,60,go_to_color_detect_up_from_pick_up,red,true,false,joint 1 +,true,2024-03-03 17:26:23.965632,22.823,0.213,236.8,217.55862426757812,223.09632873535156,84.958251953125,25.719993591308594,46.69999313354492,51.0,0.0,-20.0
32,70,100,60,go_to_color_detect_down,red,true,false,joint 3 +,true,2024-03-03 17:26:24.666080,23.488,0.213,236.8,131.56875610351562,282.15008544921875,75.62562561035156,45.0,65.0,51.0,4.200000286102295,-20.0
32,70,100,60,go_to_color_detect_down,red,true,false,joint 3 +,true,2024-03-03 17:26:25.392260,22.633,0.213,236.8,111.71215057373047,239.56747436523438,-23.04718780517578,45.0,65.0,51.0,47.503662109375,-20.0
32,70,100,60,go_to_color_detect_up_from_color_detect_down,red,true,false,joint 3 -,false,2024-03-03 17:26:26.847412,22.557,0.212,235.0,127.45040130615234,273.3182373046875,31.560306549072266,45.0,65.0,51.0,20.32000732421875,-20.0
32,70,100,60,detecting_color,red,false,false,detecting_color,false,2024-03-03 17:26:27.537895,16.994,0.212,235.0,131.69407653808594,282.4188232421875,84.958251953125,45.0,65.0,51.0,0.0,-20.0
32,70,100,60,detecting_color,red,false,false,detecting_color,false,2024-03-03 17:26:28.948793,16.424,0.162,236.8,131.69407653808594,282.4188232421875,84.958251953125,45.0,65.0,51.0,0.0,-20.0
32,70,100,60,detecting_color,red,false,false,detecting_color,false,2024-03-03 17:26:29.637495,16.424,0.162,236.8,131.69407653808594,282.4188232421875,84.958251953125,45.0,65.0,51.0,0.0,-20.0
32,70,100,60,detecting_color,red,false,false,detecting_color,false,2024-03-03 17:26:30.325364,16.462,0.16,236.8,131.69407653808594,282.4188232421875,84.958251953125,45.0,65.0,51.0,0.0,-20.0
32,70,100,60,detecting_color,red,false,false,detecting_color,false,2024-03-03 17:26:31.709250,16.386,0.16,236.8,131.69407653808594,282.4188232421875,84.958251953125,45.0,65.0,51.0,0.0,-20.0
32,70,100,60,go_to_color_detect_down,red,true,false,joint 3 +,false,2024-03-03 17:26:32.399932,16.405,0.16,236.8,130.10670471191406,279.01470947265625,51.94044876098633,45.0,65.0,51.0,13.959999084472656,-20.0
32,70,100,60,go_to_color_detect_up_from_color_detect_down,red,true,false,joint 3 -,true,2024-03-03 17:26:33.781319,16.367,0.16,236.8,111.33187866210938,238.75196838378906,-23.871063232421875,45.0,65.0,51.0,47.599998474121094,-20.0
32,70,100,60,go_to_color_detect_up_from_color_detect_down,red,true,false,joint 3 -,true,2024-03-03 17:26:34.476275,16.367,0.202,236.8,130.812744140625,280.5288391113281,60.285255432128906,45.0,65.0,51.0,8.803276062011719,-20.0
32,70,100,60,go_to_green_up,green,true,false,joint 1 +,true,2024-03-03 17:26:35.860695,23.45,0.202,236.8,80.0212173461914,301.16497802734375,84.958251953125,55.12000274658203,76.04000091552734,51.0,0.0,-20.0
32,70,100,60,go_to_pick_up_from_green,green,true,false,joint 1 -,false,2024-03-03 17:26:36.550151,22.918,0.212,236.8,-74.7530288696289,302.5156555175781,84.958251953125,83.87999725341797,103.55999755859375,51.0,0.0,-20.0
32,70,100,60,go_to_pick_up_from_green,green,true,false,joint 1 -,false,2024-03-03 17:26:37.930128,20.905,0.212,236.8,143.30889892578125,276.7061462402344,84.958251953125,42.619903564453125,61.6399040222168,51.0,0.0,-20.0
32,70,100,60,go_to_pick_up_from_green,green,true,false,joint 1 -,false,2024-03-03 17:26:38.622840,16.614,0.212,236.8,290.5251770019531,112.68917846679688,84.958251953125,1.2003250122070312,20.91093635559082,51.0,0.0,-20.0
32,70,100,60,moving_belt,green,false,true,joint 1 -,false,2024-03-03 17:26:39.322655,16.614,0.16,236.8,292.8220520019531,106.5785140991211,84.958251953125,0.0,20.0,51.0,0.0,-20.0
32,70,100,60,moving_belt,green,false,true,joint 1 -,false,2024-03-03 17:26:40.704575,16.538,0.16,236.8,292.8220520019531,106.5785140991211,84.958251953125,0.0,20.0,51.0,0.0,-20.0
32,70,100,60,moving_belt,green,false,true,joint 1 -,false,2024-03-03 17:26:41.396900,16.082,0.156,236.8,292.8220520019531,106.5785140991211,84.958251953125,0.0,20.0,51.0,0.0,-20.0
32,70,100,60,moving_belt,green,false,true,joint 1 -,false,2024-03-03 17:26:42.775548,16.443,0.156,236.8,292.8220520019531,106.5785140991211,84.958251953125,0.0,20.0,51.0,0.0,-20.0
32,70,100,60,go_to_pick_down,green,true,false,joint 3 +,false,2024-03-03 17:26:43.530025,16.291,0.157,236.8,291.8388977050781,106.2206802368164,67.45097351074219,0.0,20.0,51.0,7.599999904632568,-20.0
32,70,100,60,go_to_pick_up_from_pick_down,green,true,false,joint 3 -,true,2024-03-03 17:26:44.912009,16.215,0.157,236.8,289.86334228515625,105.50163269042969,54.69645690917969,0.0,20.0,51.0,10.959996223449707,-20.0
32,70,100,60,go_to_color_detect_up_from_pick_up,green,true,false,joint 1 +,true,2024-03-03 17:26:45.600282,23.336,0.216,236.8,271.9091491699219,152.21412658691406,84.958251953125,9.240001678466797,30.1200008392334,51.0,0.0,-20.0
32,70,100,60,go_to_color_detect_down,green,true,false,joint 3 +,true,2024-03-03 17:26:46.978888,22.367,0.216,236.8,131.7845916748047,282.3766174316406,84.958251953125,44.98162841796875,64.99835968017578,51.0,0.0,-20.0
32,70,100,60,go_to_color_detect_down,green,true,false,joint 3 +,true,2024-03-03 17:26:47.669750,22.064,0.206,236.8,119.50923156738281,256.2883605957031,-2.4789962768554688,45.0,65.0,51.0,37.4383544921875,-20.0
32,70,100,60,go_to_color_detect_up_from_color_detect_down,green,true,false,joint 3 -,false,2024-03-03 17:26:48.359233,22.007,0.206,236.8,118.01263427734375,253.07888793945312,-7.072502136230469,45.0,65.0,51.0,37.87999725341797,-20.0
32,70,100,60,detecting_color,green,false,false,detecting_color,false,2024-03-03 17:26:49.762128,16.975,0.164,236.8,131.693115234375,282.4167785644531,84.1445541381836,45.0,65.0,51.0,0.1779693365097046,-20.0
32,70,100,60,detecting_color,green,false,false,detecting_color,false,2024-03-03 17:26:50.450824,16.975,0.164,236.8,131.69407653808594,282.4188232421875,84.958251953125,45.0,65.0,51.0,0.0,-20.0
32,70,100,60,go_to_color_detect_down,green,true,false,joint 3 +,false,2024-03-03 17:26:51.836200,16.291,0.158,236.8,130.3365020751953,279.50750732421875,54.39522933959961,45.0,65.0,51.0,12.979999542236328,-20.0
32,70,100,60,go_to_color_detect_up_from_color_detect_down,green,true,false,joint 3 -,true,2024-03-03 17:26:52.530472,16.291,0.158,236.8,111.1546401977539,238.37188720703125,-24.250381469726562,45.0,65.0,51.0,47.99958038330078,-20.0
32,70,100,60,go_to_color_detect_up_from_color_detect_down,green,true,false,joint 3 -,true,2024-03-03 17:26:53.917295,16.386,0.216,236.8,130.44671630859375,279.743896484375,55.649085998535156,45.0,65.0,51.0,10.561643600463867,-20.0
32,70,100,60,go_to_blue_up,blue,true,false,joint 1 +,true,2024-03-03 17:26:54.611971,23.222,0.216,236.8,84.63713073730469,299.9004821777344,84.958251953125,54.24000549316406,75.12000274658203,51.0,0.0,-20.0
32,70,100,60,go_to_pick_up_from_blue,blue,true,false,joint 1 -,false,2024-03-03 17:26:55.312221,22.196,0.216,236.8,76.65227508544922,302.0400085449219,84.958251953125,55.75999450683594,74.87999725341797,51.0,0.0,-20.0
32,70,100,60,go_to_pick_up_from_blue,blue,true,false,joint 1 -,false,2024-03-03 17:26:56.715508,21.038,0.175,236.8,283.0989685058594,130.22557067871094,84.958251953125,4.702436447143555,24.109375,51.0,0.0,-20.0
32,70,100,60,moving_belt,blue,false,true,joint 1 -,false,2024-03-03 17:26:57.407509,16.462,0.175,236.8,292.8220520019531,106.5785140991211,84.958251953125,0.0,20.0,51.0,0.0,-20.0
32,70,100,60,moving_belt,blue,false,true,joint 1 -,false,2024-03-03 17:26:58.794194,16.538,0.16,236.8,292.8220520019531,106.5785140991211,84.958251953125,0.0,20.0,51.0,0.0,-20.0
32,70,100,60,moving_belt,blue,false,true,joint 1 -,false,2024-03-03 17:26:59.482915,16.538,0.16,236.8,292.8220520019531,106.5785140991211,84.958251953125,0.0,20.0,51.0,0.0,-20.0
32,70,100,60,moving_belt,blue,false,true,joint 1 -,false,2024-03-03 17:27:00.866899,16.177,0.158,236.8,292.8220520019531,106.5785140991211,84.958251953125,0.0,20.0,51.0,0.0,-20.0
32,70,100,60,go_to_pick_down,blue,true,false,joint 3 +,false,2024-03-03 17:27:01.565904,16.177,0.158,236.8,292.8072204589844,106.5731201171875,82.8031997680664,0.0,20.0,51.0,1.1200000047683716,-20.0
32,70,100,60,go_to_pick_up_from_pick_down,blue,true,false,joint 3 -,true,2024-03-03 17:27:02.948859,16.481,0.158,236.8,285.0111389160156,103.7355728149414,36.227386474609375,0.0,20.0,51.0,18.87999725341797,-20.0
32,70,100,60,go_to_color_detect_up_from_pick_up,blue,true,false,joint 1 +,true,2024-03-03 17:27:03.640546,18.589,0.158,236.8,288.514892578125,117.74076843261719,84.958251953125,2.200002670288086,22.640003204345703,51.0,0.0,-20.0
32,70,100,60,go_to_color_detect_up_from_pick_up,blue,true,false,joint 1 +,true,2024-03-03 17:27:04.330917,22.424,0.158,236.8,145.53717041015625,275.5406494140625,84.958251953125,42.15754318237305,62.61427688598633,51.0,0.0,-20.0
32,70,100,60,go_to_color_detect_down,blue,true,false,joint 3 +,true,2024-03-03 17:27:05.810110,22.215,0.208,235.0,125.06977844238281,268.2129821777344,18.90837860107422,45.0,65.0,51.0,27.67999267578125,-20.0
32,70,100,60,go_to_color_detect_up_from_color_detect_down,blue,true,false,joint 3 -,false,2024-03-03 17:27:06.502675,21.779,0.208,235.0,112.8804931640625,242.07298278808594,-20.42760467529297,45.0,65.0,51.0,45.3599967956543,-20.0
32,70,100,60,go_to_color_detect_up_from_color_detect_down,blue,true,false,joint 3 -,false,2024-03-03 17:27:07.880255,21.836,0.205,236.8,131.44741821289062,281.889892578125,71.87198638916016,45.0,65.0,51.0,4.4881744384765625,-20.0
32,70,100,60,detecting_color,blue,false,false,detecting_color,false,2024-03-03 17:27:08.573700,16.899,0.205,236.8,131.69407653808594,282.4188232421875,84.958251953125,45.0,65.0,51.0,0.0,-20.0
32,70,100,60,go_to_color_detect_down,blue,true,false,joint 3 +,false,2024-03-03 17:27:09.969664,16.329,0.159,236.8,131.69407653808594,282.4188232421875,84.958251953125,45.0,65.0,51.0,0.0,-20.0
32,70,100,60,go_to_color_detect_down,blue,true,false,joint 3 +,false,2024-03-03 17:27:10.659356,16.272,0.159,236.8,117.71476745605469,252.44012451171875,-7.94354248046875,45.0,65.0,51.0,40.015907287597656,-20.0
32,70,100,60,go_to_color_detect_up_from_color_detect_down,blue,true,false,joint 3 -,true,2024-03-03 17:27:11.386050,16.272,0.159,236.8,119.82927703857422,256.9747009277344,-1.4461822509765625,45.0,65.0,51.0,35.02000045776367,-20.0
32,70,100,60,go_to_red_up,red,true,false,joint 1 +,true,2024-03-03 17:27:12.767219,23.07,0.159,236.8,131.69407653808594,282.4188232421875,84.907958984375,45.0,65.0,51.0,0.0004178415983915329,-20.0
32,70,100,60,go_to_red_up,red,true,false,joint 1 +,true,2024-03-03 17:27:13.459905,21.988,0.207,236.8,-72.53394317626953,303.0553894042969,84.958251953125,83.46009063720703,104.44009399414062,51.0,0.0,-20.0
32,70,100,60,go_to_pick_up_from_red,red,true,false,joint 1 -,false,2024-03-03 17:27:14.841300,22.329,0.207,235.0,-170.62876892089844,260.748046875,84.958251953125,103.19999694824219,122.79999542236328,51.0,0.0,-20.0
32,70,100,60,go_to_pick_up_from_red,red,true,false,joint 1 -,false,2024-03-03 17:27:15.534567,17.81,0.207,235.0,50.57339859008789,307.48345947265625,84.958251953125,60.659889221191406,79.67988586425781,51.0,0.0,-20.0
32,70,100,60,go_to_pick_up_from_red,red,true,false,joint 1 -,false,2024-03-03 17:27:16.918590,16.424,0.159,235.0,274.84014892578125,146.8557586669922,84.958251953125,8.116994857788086,27.331281661987305,51.0,0.0,-20.0
32,70,100,60,moving_belt,red,false,true,joint 1 -,false,2024-03-03 17:27:17.608888,16.424,0.159,235.0,292.8220520019531,106.5785140991211,84.958251953125,0.0,20.0,51.0,0.0,-20.0
32,70,100,60,moving_belt,red,false,true,joint 1 -,false,2024-03-03 17:27:18.990473,16.462,0.159,236.8,292.8220520019531,106.5785140991211,84.958251953125,0.0,20.0,51.0,0.0,-20.0
32,70,100,60,moving_belt,red,false,true,joint 1 -,false,2024-03-03 17:27:19.680662,16.253,0.159,236.8,292.8220520019531,106.5785140991211,84.958251953125,0.0,20.0,51.0,0.0,-20.0
32,70,100,60,moving_belt,red,false,true,joint 1 -,false,2024-03-03 17:27:20.371352,16.253,0.159,236.8,292.8220520019531,106.5785140991211,84.958251953125,0.0,20.0,51.0,0.0,-20.0
32,70,100,60,go_to_pick_down,red,true,false,joint 3 +,false,2024-03-03 17:27:21.750739,16.462,0.159,236.8,292.822021484375,106.57849884033203,84.85562896728516,0.0,20.0,51.0,0.11999999731779099,-20.0
32,70,100,60,go_to_pick_up_from_pick_down,red,true,false,joint 3 -,true,2024-03-03 17:27:22.447464,16.462,0.159,236.8,283.1217346191406,103.04788970947266,30.843944549560547,0.0,20.0,51.0,21.39999771118164,-20.0
32,70,100,60,go_to_color_detect_up_from_pick_up,red,true,false,joint 1 +,true,2024-03-03 17:27:23.436101,16.272,0.159,236.8,292.373046875,107.80415344238281,84.958251953125,0.24000167846679688,20.400001525878906,51.0,0.0,-20.0
32,70,100,60,go_to_color_detect_up_from_pick_up,red,true,false,joint 1 +,true,2024-03-03 17:27:24.813678,22.329,0.207,236.8,165.86611938476562,263.8032531738281,84.958251953125,37.840396881103516,58.57713317871094,51.0,0.0,-20.0
32,70,100,60,go_to_color_detect_down,red,true,false,joint 3 +,true,2024-03-03 17:27:25.502920,22.329,0.207,236.8,128.006591796875,274.5110168457031,35.067237854003906,45.0,65.0,51.0,20.819995880126953,-20.0
32,70,100,60,go_to_color_detect_up_from_color_detect_down,red,true,false,joint 3 -,false,2024-03-03 17:27:26.927756,21.931,0.205,236.8,111.46013641357422,239.0270233154297,-23.594696044921875,45.0,65.0,51.0,47.39999771118164,-20.0
32,70,100,60,go_to_color_detect_up_from_color_detect_down,red,true,false,joint 3 -,false,2024-03-03 17:27:27.624026,17.677,0.205,236.8,130.9622344970703,280.8493957519531,62.461029052734375,45.0,65.0,51.0,7.9840922355651855,-20.0
32,70,100,60,detecting_color,red,false,false,detecting_color,false,2024-03-03 17:27:28.344240,17.677,0.205,236.8,131.69407653808594,282.4188232421875,84.958251953125,45.0,65.0,51.0,0.0,-20.0
32,70,100,60,detecting_color,red,false,false,detecting_color,false,2024-03-03 17:27:29.722645,16.728,0.162,236.8,131.69407653808594,282.4188232421875,84.958251953125,45.0,65.0,51.0,0.0,-20.0
32,70,100,60,detecting_color,red,false,false,detecting_color,false,2024-03-03 17:27:30.413335,16.367,0.162,236.8,131.69407653808594,282.4188232421875,84.958251953125,45.0,65.0,51.0,0.0,-20.0
32,70,100,60,go_to_color_detect_down,red,true,false,joint 3 +,false,2024-03-03 17:27:31.793726,16.291,0.16,235.0,131.68740844726562,282.404541015625,82.8031997680664,45.0,65.0,51.0,1.1200000047683716,-20.0
32,70,100,60,go_to_color_detect_down,red,true,false,joint 3 +,false,2024-03-03 17:27:32.486352,16.291,0.16,235.0,116.60089111328125,250.05140686035156,-11.085037231445312,45.0,65.0,51.0,41.53427505493164,-20.0
32,70,100,60,go_to_color_detect_up_from_color_detect_down,red,true,false,joint 3 -,true,2024-03-03 17:27:33.866354,17.544,0.158,235.0,123.8310775756836,265.55657958984375,13.377288818359375,45.0,65.0,51.0,28.160003662109375,-20.0
32,70,100,60,go_to_green_up,green,true,false,joint 1 +,true,2024-03-03 17:27:34.566716,22.956,0.158,235.0,130.50990295410156,282.968017578125,84.958251953125,45.24000549316406,65.40000915527344,51.0,0.0,-20.0
32,70,100,60,go_to_green_up,green,true,false,joint 1 +,true,2024-03-03 17:27:35.949749,22.026,0.207,235.0,-60.415557861328125,305.70196533203125,84.958251953125,81.17924499511719,101.71189880371094,51.0,0.0,-20.0
32,70,100,60,go_to_pick_up_from_green,green,true,false,joint 1 -,false,2024-03-03 17:27:36.646513,22.121,0.207,236.8,47.45783615112305,307.9797058105469,84.958251953125,61.239959716796875,80.25995635986328,51.0,0.0,-20.0
32,70,100,60,go_to_pick_up_from_green,green,true,false,joint 1 -,false,2024-03-03 17:27:37.460012,22.121,0.207,236.8,257.730712890625,175.153076171875,84.958251953125,14.19991683959961,33.21991729736328,51.0,0.0,-20.0
32,70,100,60,moving_belt,green,false,true,joint 1 -,false,2024-03-03 17:27:38.838599,16.405,0.159,235.0,292.8220520019531,106.5785140991211,84.958251953125,0.0,20.0,51.0,0.0,-20.0
32,70,100,60,moving_belt,green,false,true,joint 1 -,false,2024-03-03 17:27:39.531884,16.405,0.159,235.0,292.8220520019531,106.5785140991211,84.958251953125,0.0,20.0,51.0,0.0,-20.0
32,70,100,60,moving_belt,green,false,true,joint 1 -,false,2024-03-03 17:27:40.918716,16.519,0.159,235.0,292.8220520019531,106.5785140991211,84.958251953125,0.0,20.0,51.0,0.0,-20.0
32,70,100,60,moving_belt,green,false,true,joint 1 -,false,2024-03-03 17:27:41.607412,16.367,0.159,235.0,292.8220520019531,106.5785140991211,84.958251953125,0.0,20.0,51.0,0.0,-20.0
32,70,100,60,go_to_pick_down,green,true,false,joint 3 +,false,2024-03-03 17:27:42.992166,16.481,0.159,235.0,292.8220520019531,106.5785140991211,84.958251953125,0.0,20.0,51.0,0.0,-20.0
32,70,100,60,go_to_pick_up_from_pick_down,green,true,false,joint 3 -,true,2024-03-03 17:27:43.684443,16.481,0.159,235.0,282.76361083984375,102.91754913330078,29.89107894897461,0.0,20.0,51.0,22.0,-20.0
32,70,100,60,go_to_color_detect_up_from_pick_up,green,true,false,joint 1 +,true,2024-03-03 17:27:44.401392,16.177,0.157,235.0,292.822021484375,106.57849884033203,84.84449768066406,0.0,20.0,51.0,0.00817110762000084,-20.0
32,70,100,60,go_to_color_detect_up_from_pick_up,green,true,false,joint 1 +,true,2024-03-03 17:27:45.779956,22.234,0.157,235.0,197.70733642578125,240.86415100097656,84.958251953125,30.619991302490234,51.59999084472656,51.0,0.0,-20.0
32,70,100,60,go_to_color_detect_down,green,true,false,joint 3 +,true,2024-03-03 17:27:46.470646,22.234,0.209,235.0,130.3365020751953,279.50750732421875,54.39522933959961,45.0,65.0,51.0,12.979999542236328,-20.0
32,70,100,60,go_to_color_detect_up_from_color_detect_down,green,true,false,joint 3 -,false,2024-03-03 17:27:47.849837,21.931,0.209,235.0,111.1546401977539,238.37188720703125,-24.250381469726562,45.0,65.0,51.0,47.99958038330078,-20.0
32,70,100,60,go_to_color_detect_up_from_color_detect_down,green,true,false,joint 3 -,false,2024-03-03 17:27:48.545519,19.5,0.205,235.0,128.8577423095703,276.3363037109375,41.04819869995117,45.0,65.0,51.0,16.400009155273438,-20.0
32,70,100,60,detecting_color,green,false,false,detecting_color,false,2024-03-03 17:27:49.922912,16.918,0.205,235.0,131.69407653808594,282.4188232421875,84.958251953125,45.0,65.0,51.0,0.0,-20.0
32,70,100,60,go_to_color_detect_down,green,true,false,joint 3 +,false,2024-03-03 17:27:50.612605,16.918,0.159,235.0,131.69407653808594,282.4188232421875,84.958251953125,45.0,65.0,51.0,0.0,-20.0
32,70,100,60,go_to_color_detect_down,green,true,false,joint 3 +,false,2024-03-03 17:27:51.994562,16.329,0.159,236.8,120.1334228515625,257.626953125,-0.44683074951171875,45.0,65.0,51.0,36.49917221069336,-20.0
32,70,100,60,go_to_color_detect_up_from_color_detect_down,green,true,false,joint 3 -,true,2024-03-03 17:27:52.685252,16.329,0.158,236.8,116.87966918945312,250.6492462158203,-10.31536865234375,45.0,65.0,51.0,39.599998474121094,-20.0
32,70,100,60,go_to_color_detect_up_from_color_detect_down,green,true,false,joint 3 -,true,2024-03-03 17:27:53.375431,23.013,0.158,236.8,131.68923950195312,282.408447265625,83.1225357055664,45.0,65.0,51.0,0.49633678793907166,-20.0
32,70,100,60,go_to_pick_up_from_blue,blue,true,false,joint 1 -,false,2024-03-03 17:27:54.758665,22.728,0.158,235.0,27.159029006958008,310.4289245605469,84.958251953125,65.0,85.0,51.0,0.0,-20.0
32,70,100,60,go_to_pick_up_from_blue,blue,true,false,joint 1 -,false,2024-03-03 17:27:55.450343,22.026,0.208,235.0,190.0441131591797,246.9553985595703,84.958251953125,32.41997528076172,51.43997573852539,51.0,0.0,-20.0
32,70,100,60,moving_belt,blue,false,true,joint 1 -,false,2024-03-03 17:27:56.852689,16.538,0.208,235.0,292.8220520019531,106.5785140991211,84.958251953125,0.0,20.0,51.0,0.0,-20.0
32,70,100,60,moving_belt,blue,false,true,joint 1 -,false,2024-03-03 17:27:57.545153,16.405,0.159,235.0,292.8220520019531,106.5785140991211,84.958251953125,0.0,20.0,51.0,0.0,-20.0
32,70,100,60,moving_belt,blue,false,true,joint 1 -,false,2024-03-03 17:27:58.928599,16.443,0.159,235.0,292.8220520019531,106.5785140991211,84.958251953125,0.0,20.0,51.0,0.0,-20.0
32,70,100,60,moving_belt,blue,false,true,joint 1 -,false,2024-03-03 17:27:59.617222,16.443,0.157,235.0,292.8220520019531,106.5785140991211,84.958251953125,0.0,20.0,51.0,0.0,-20.0
32,70,100,60,moving_belt,blue,false,true,joint 1 -,false,2024-03-03 17:28:00.998234,16.234,0.157,235.0,292.8220520019531,106.5785140991211,84.958251953125,0.0,20.0,51.0,0.0,-20.0
32,70,100,60,go_to_pick_down,blue,true,false,joint 3 +,false,2024-03-03 17:28:01.691066,16.443,0.159,235.0,287.9764404296875,104.81485748291016,46.364864349365234,0.0,20.0,51.0,15.93699836730957,-20.0
32,70,100,60,go_to_pick_up_from_pick_down,blue,true,false,joint 3 -,true,2024-03-03 17:28:02.451741,16.253,0.159,235.0,292.4590759277344,106.44640350341797,74.30866241455078,0.0,20.0,51.0,3.598332643508911,-20.0
32,70,100,60,go_to_color_detect_up_from_pick_up,blue,true,false,joint 1 +,true,2024-03-03 17:28:03.864771,23.317,0.215,235.0,239.26914978027344,199.63467407226562,84.958251953125,19.839996337890625,40.81999588012695,51.0,0.0,-20.0
32,70,100,60,go_to_color_detect_down,blue,true,false,joint 3 +,true,2024-03-03 17:28:04.652138,22.386,0.215,236.8,131.68740844726562,282.404541015625,82.8031997680664,45.0,65.0,51.0,1.1200000047683716,-20.0
32,70,100,60,go_to_color_detect_down,blue,true,false,joint 3 +,true,2024-03-03 17:28:05.353660,22.177,0.215,236.8,113.78072357177734,244.0035400390625,-18.313400268554688,45.0,65.0,51.0,45.12937927246094,-20.0
32,70,100,60,go_to_color_detect_up_from_color_detect_down,blue,true,false,joint 3 -,false,2024-03-03 17:28:06.760701,21.874,0.205,235.0,124.34054565429688,266.6491394042969,15.583740234375,45.0,65.0,51.0,27.180004119873047,-20.0
32,70,100,60,detecting_color,blue,false,false,detecting_color,false,2024-03-03 17:28:07.479307,17.108,0.205,235.0,131.69407653808594,282.4188232421875,84.958251953125,45.0,65.0,51.0,0.0,-20.0
32,70,100,60,detecting_color,blue,false,false,detecting_color,false,2024-03-03 17:28:08.872638,16.595,0.165,235.0,131.69407653808594,282.4188232421875,84.958251953125,45.0,65.0,51.0,0.0,-20.0
32,70,100,60,go_to_color_detect_down,blue,true,false,joint 3 +,false,2024-03-03 17:28:09.563327,16.31,0.165,235.0,130.5443878173828,279.95330810546875,56.80859375,45.0,65.0,51.0,12.0,-20.0
32,70,100,60,go_to_color_detect_down,blue,true,false,joint 3 +,false,2024-03-03 17:28:10.944964,16.424,0.158,235.0,111.2022933959961,238.4740753173828,-24.148681640625,45.0,65.0,51.0,47.98039627075195,-20.0
32,70,100,60,go_to_color_detect_up_from_color_detect_down,blue,true,false,joint 3 -,true,2024-03-03 17:28:11.641245,16.424,0.158,235.0,128.53167724609375,275.6370544433594,38.655216217041016,45.0,65.0,51.0,17.380008697509766,-20.0
32,70,100,60,go_to_red_up,red,true,false,joint 1 +,true,2024-03-03 17:28:13.024167,22.709,0.214,235.0,89.02467346191406,298.62744140625,84.958251953125,53.40000915527344,74.24000549316406,51.0,0.0,-20.0
32,70,100,60,go_to_red_up,red,true,false,joint 1 +,true,2024-03-03 17:28:13.713668,22.234,0.214,235.0,-151.37332153320312,272.37811279296875,84.958251953125,99.06298065185547,119.7319564819336,51.0,0.0,-20.0
32,70,100,60,go_to_pick_up_from_red,red,true,false,joint 1 -,false,2024-03-03 17:28:14.404359,22.234,0.209,235.0,-111.87580871582031,290.83935546875,84.958251953125,91.03999328613281,110.05998992919922,51.0,0.0,-20.0
32,70,100,60,go_to_pick_up_from_red,red,true,false,joint 1 -,false,2024-03-03 17:28:15.796858,16.405,0.209,235.0,164.57752990722656,264.60906982421875,84.958251953125,38.11983871459961,57.13983917236328,51.0,0.0,-20.0
32,70,100,60,go_to_pick_up_from_red,red,true,false,joint 1 -,false,2024-03-03 17:28:16.487240,16.405,0.159,235.0,292.4485168457031,107.59928894042969,84.958251953125,0.1998577117919922,20.09414291381836,51.0,0.0,-20.0
32,70,100,60,moving_belt,red,false,true,joint 1 -,false,2024-03-03 17:28:17.874608,16.462,0.159,235.0,292.8220520019531,106.5785140991211,84.958251953125,0.0,20.0,51.0,0.0,-20.0
32,70,100,60,moving_belt,red,false,true,joint 1 -,false,2024-03-03 17:28:18.575304,16.595,0.159,235.0,292.8220520019531,106.5785140991211,84.958251953125,0.0,20.0,51.0,0.0,-20.0
32,70,100,60,moving_belt,red,false,true,joint 1 -,false,2024-03-03 17:28:20.021927,16.386,0.159,235.0,292.8220520019531,106.5785140991211,84.958251953125,0.0,20.0,51.0,0.0,-20.0
32,70,100,60,moving_belt,red,false,true,joint 1 -,false,2024-03-03 17:28:20.709870,16.538,0.159,235.0,292.8220520019531,106.5785140991211,84.958251953125,0.0,20.0,51.0,0.0,-20.0
32,70,100,60,go_to_pick_down,red,true,false,joint 3 +,false,2024-03-03 17:28:21.398758,16.538,0.16,235.0,291.8388977050781,106.2206802368164,67.45097351074219,0.0,20.0,51.0,7.599999904632568,-20.0
32,70,100,60,go_to_pick_up_from_pick_down,red,true,false,joint 3 -,true,2024-03-03 17:28:22.776747,16.101,0.16,235.0,289.86334228515625,105.50163269042969,54.69645690917969,0.0,20.0,51.0,10.959996223449707,-20.0
32,70,100,60,go_to_color_detect_up_from_pick_up,red,true,false,joint 1 +,true,2024-03-03 17:28:23.471181,20.089,0.184,235.0,269.5393371582031,156.37222290039062,84.958251953125,10.120000839233398,31.040000915527344,51.0,0.0,-20.0
32,70,100,60,go_to_color_detect_down,red,true,false,joint 3 +,true,2024-03-03 17:28:24.875649,23.013,0.184,235.0,131.7021484375,282.4150695800781,84.958251953125,44.99835968017578,65.0,51.0,0.0,-20.0
32,70,100,60,go_to_color_detect_down,red,true,false,joint 3 +,true,2024-03-03 17:28:25.566339,23.013,0.212,235.0,118.29808807373047,253.69105529785156,-6.224830627441406,45.0,65.0,51.0,39.19672393798828,-20.0
32,70,100,60,go_to_color_detect_up_from_color_detect_down,red,true,false,joint 3 -,false,2024-03-03 17:28:26.957519,22.595,0.212,235.0,118.01263427734375,253.07888793945312,-7.072502136230469,45.0,65.0,51.0,37.87999725341797,-20.0
32,70,100,60,detecting_color,red,false,false,detecting_color,false,2024-03-03 17:28:27.650223,22.595,0.165,235.0,131.693115234375,282.4167785644531,84.1445541381836,45.0,65.0,51.0,0.1779693365097046,-20.0
32,70,100,60,detecting_color,red,false,false,detecting_color,false,2024-03-03 17:28:29.035207,16.253,0.165,235.0,131.69407653808594,282.4188232421875,84.958251953125,45.0,65.0,51.0,0.0,-20.0
32,70,100,60,detecting_color,red,false,false,detecting_color,false,2024-03-03 17:28:29.728136,16.253,0.159,235.0,131.69407653808594,282.4188232421875,84.958251953125,45.0,65.0,51.0,0.0,-20.0
32,70,100,60,detecting_color,red,false,false,detecting_color,false,2024-03-03 17:28:30.431804,16.234,0.159,235.0,131.69407653808594,282.4188232421875,84.958251953125,45.0,65.0,51.0,0.0,-20.0
32,70,100,60,detecting_color,red,false,false,detecting_color,false,2024-03-03 17:28:31.845068,16.253,0.157,235.0,131.69407653808594,282.4188232421875,84.958251953125,45.0,65.0,51.0,0.0,-20.0
32,70,100,60,go_to_color_detect_down,red,true,false,joint 3 +,false,2024-03-03 17:28:32.534761,16.253,0.157,235.0,129.31130981445312,277.3089904785156,44.636905670166016,45.0,65.0,51.0,16.89999771118164,-20.0
32,70,100,60,go_to_color_detect_up_from_color_detect_down,red,true,false,joint 3 -,true,2024-03-03 17:28:33.915923,16.196,0.157,235.0,111.13883972167969,238.33799743652344,-24.284042358398438,45.0,65.0,51.0,47.959999084472656,-20.0
32,70,100,60,go_to_color_detect_up_from_color_detect_down,red,true,false,joint 3 -,true,2024-03-03 17:28:34.615806,16.348,0.158,235.0,130.2261505126953,279.2708740234375,53.19169616699219,45.0,65.0,51.0,11.500826835632324,-20.0
32,70,100,60,go_to_green_up,green,true,false,joint 1 +,true,2024-03-03 17:28:36.006198,22.937,0.158,235.0,64.89471435546875,304.7825622558594,84.958251953125,57.980003356933594,78.96000671386719,51.0,0.0,-20.0
32,70,100,60,go_to_pick_up_from_green,green,true,false,joint 1 -,false,2024-03-03 17:28:36.701591,22.937,0.211,235.0,-79.39026641845703,301.3319091796875,84.958251953125,84.75999450683594,104.59999084472656,51.0,0.0,-20.0
32,70,100,60,go_to_pick_up_from_green,green,true,false,joint 1 -,false,2024-03-03 17:28:37.390288,23.051,0.211,235.0,152.6888885498047,271.642822265625,84.958251953125,40.65990447998047,59.67990493774414,51.0,0.0,-20.0
32,70,100,60,go_to_pick_up_from_green,green,true,false,joint 1 -,false,2024-03-03 17:28:38.772605,16.671,0.158,235.0,291.5719909667969,109.95232391357422,84.958251953125,0.6615486145019531,20.452159881591797,51.0,0.0,-20.0
32,70,100,60,moving_belt,green,false,true,joint 1 -,false,2024-03-03 17:28:39.463295,16.557,0.158,235.0,292.8220520019531,106.5785140991211,84.958251953125,0.0,20.0,51.0,0.0,-20.0
32,70,100,60,moving_belt,green,false,true,joint 1 -,false,2024-03-03 17:28:40.957088,16.633,0.159,235.0,292.8220520019531,106.5785140991211,84.958251953125,0.0,20.0,51.0,0.0,-20.0
32,70,100,60,moving_belt,green,false,true,joint 1 -,false,2024-03-03 17:28:41.650436,16.215,0.159,235.0,292.8220520019531,106.5785140991211,84.958251953125,0.0,20.0,51.0,0.0,-20.0
32,70,100,60,moving_belt,green,false,true,joint 1 -,false,2024-03-03 17:28:43.040064,16.386,0.159,235.0,292.8220520019531,106.5785140991211,84.958251953125,0.0,20.0,51.0,0.0,-20.0
32,70,100,60,go_to_pick_down,green,true,false,joint 3 +,false,2024-03-03 17:28:43.738929,16.386,0.159,235.0,291.3401794433594,106.0391616821289,63.484046936035156,0.0,20.0,51.0,9.239999771118164,-20.0
32,70,100,60,go_to_pick_up_from_pick_down,green,true,false,joint 3 -,true,2024-03-03 17:28:44.427635,16.405,0.159,235.0,288.4822998046875,104.99897766113281,48.40084457397461,0.0,20.0,51.0,13.599996566772461,-20.0
32,70,100,60,go_to_color_detect_up_from_pick_up,green,true,false,joint 1 +,true,2024-03-03 17:28:45.816681,19.519,0.184,235.0,278.0447082519531,140.69422912597656,84.958251953125,6.840002059936523,27.60000228881836,51.0,0.0,-20.0
32,70,100,60,go_to_color_detect_down,green,true,false,joint 3 +,true,2024-03-03 17:28:46.506985,22.348,0.184,235.0,131.69407653808594,282.4188232421875,84.958251953125,45.0,65.0,51.0,0.0,-20.0
32,70,100,60,go_to_color_detect_down,green,true,false,joint 3 +,true,2024-03-03 17:28:47.920054,21.779,0.206,235.0,121.33831024169922,260.2108459472656,3.6952133178710938,45.0,65.0,51.0,34.53998947143555,-20.0
32,70,100,60,go_to_color_detect_up_from_color_detect_down,green,true,false,joint 3 -,false,2024-03-03 17:28:48.610753,21.779,0.206,235.0,115.82393646240234,248.38522338867188,-13.174934387207031,45.0,65.0,51.0,41.159996032714844,-20.0
32,70,100,60,go_to_color_detect_up_from_color_detect_down,green,true,false,joint 3 -,false,2024-03-03 17:28:49.991475,17.146,0.166,235.0,131.69407653808594,282.4188232421875,84.907958984375,45.0,65.0,51.0,0.0004178415983915329,-20.0
32,70,100,60,detecting_color,green,false,false,detecting_color,false,2024-03-03 17:28:50.681168,17.146,0.166,235.0,131.69407653808594,282.4188232421875,84.958251953125,45.0,65.0,51.0,0.0,-20.0
32,70,100,60,go_to_color_detect_down,green,true,false,joint 3 +,false,2024-03-03 17:28:52.062580,16.196,0.158,235.0,131.6822052001953,282.3934020996094,82.08492279052734,45.0,65.0,51.0,1.440000057220459,-20.0
32,70,100,60,go_to_color_detect_down,green,true,false,joint 3 +,false,2024-03-03 17:28:52.752887,16.215,0.158,235.0,113.3988037109375,243.18450927734375,-19.22088623046875,45.0,65.0,51.0,45.58856201171875,-20.0
32,70,100,60,go_to_color_detect_up_from_color_detect_down,green,true,false,joint 3 -,true,2024-03-03 17:28:53.445758,16.215,0.158,235.0,124.83399200439453,267.70733642578125,17.81048583984375,45.0,65.0,51.0,26.20000457763672,-20.0
32,70,100,60,go_to_blue_up,blue,true,false,joint 1 +,true,2024-03-03 17:28:54.824787,23.051,0.172,235.0,128.72940063476562,283.7824401855469,84.958251953125,45.600006103515625,65.84000396728516,51.0,0.0,-20.0
32,70,100,60,go_to_pick_up_from_blue,blue,true,false,joint 1 -,false,2024-03-03 17:28:55.515061,22.064,0.172,235.0,29.325571060180664,310.23175048828125,84.958251953125,64.59999084472656,84.39999389648438,51.0,0.0,-20.0
32,70,100,60,go_to_pick_up_from_blue,blue,true,false,joint 1 -,false,2024-03-03 17:28:56.948268,18.855,0.204,235.0,239.8257598876953,198.96566772460938,84.958251953125,19.679981231689453,38.699981689453125,51.0,0.0,-20.0
32,70,100,60,moving_belt,blue,false,true,joint 1 -,false,2024-03-03 17:28:57.637582,16.462,0.204,235.0,292.8220520019531,106.5785140991211,84.958251953125,0.0,20.0,51.0,0.0,-20.0
32,70,100,60,moving_belt,blue,false,true,joint 1 -,false,2024-03-03 17:28:59.022410,16.576,0.158,235.0,292.8220520019531,106.5785140991211,84.958251953125,0.0,20.0,51.0,0.0,-20.0
32,70,100,60,moving_belt,blue,false,true,joint 1 -,false,2024-03-03 17:28:59.715282,16.576,0.158,235.0,292.8220520019531,106.5785140991211,84.958251953125,0.0,20.0,51.0,0.0,-20.0
32,70,100,60,moving_belt,blue,false,true,joint 1 -,false,2024-03-03 17:29:00.430887,16.31,0.159,235.0,292.8220520019531,106.5785140991211,84.958251953125,0.0,20.0,51.0,0.0,-20.0
32,70,100,60,moving_belt,blue,false,true,joint 1 -,false,2024-03-03 17:29:01.810455,16.329,0.159,235.0,292.8220520019531,106.5785140991211,84.958251953125,0.0,20.0,51.0,0.0,-20.0
32,70,100,60,go_to_pick_down,blue,true,false,joint 3 +,false,2024-03-03 17:29:02.498376,16.329,0.159,235.0,283.2887878417969,103.10868835449219,31.29510498046875,0.0,20.0,51.0,21.607160568237305,-20.0
32,70,100,60,go_to_pick_up_from_pick_down,blue,true,false,joint 3 -,true,2024-03-03 17:29:04.021274,20.469,0.159,235.0,292.7965393066406,106.56922149658203,82.13280487060547,0.0,20.0,51.0,0.825168788433075,-20.0
32,70,100,60,go_to_color_detect_up_from_pick_up,blue,true,false,joint 1 +,true,2024-03-03 17:29:04.960431,22.121,0.208,235.0,197.70733642578125,240.86415100097656,84.958251953125,30.619991302490234,51.59999084472656,51.0,0.0,-20.0
32,70,100,60,go_to_color_detect_down,blue,true,false,joint 3 +,true,2024-03-03 17:29:05.655646,22.31,0.208,235.0,131.2519073486328,281.4706115722656,67.45097351074219,45.0,65.0,51.0,7.59999942779541,-20.0
32,70,100,60,go_to_color_detect_down,blue,true,false,joint 3 +,true,2024-03-03 17:29:06.348522,22.31,0.208,235.0,111.91819763183594,240.00933837890625,-22.595001220703125,45.0,65.0,51.0,47.28447723388672,-20.0
32,70,100,60,go_to_color_detect_up_from_color_detect_down,blue,true,false,joint 3 -,false,2024-03-03 17:29:08.008330,21.817,0.206,235.0,128.8577423095703,276.3363037109375,41.04819869995117,45.0,65.0,51.0,16.400009155273438,-20.0
32,70,100,60,detecting_color,blue,false,false,detecting_color,false,2024-03-03 17:29:08.702997,17.241,0.206,235.0,131.69407653808594,282.4188232421875,84.958251953125,45.0,65.0,51.0,0.0,-20.0
32,70,100,60,detecting_color,blue,false,false,detecting_color,false,2024-03-03 17:29:09.393688,17.241,0.164,235.0,131.69407653808594,282.4188232421875,84.958251953125,45.0,65.0,51.0,0.0,-20.0
32,70,100,60,go_to_color_detect_down,blue,true,false,joint 3 +,false,2024-03-03 17:29:10.774079,16.424,0.164,236.8,123.56502532958984,264.9860534667969,12.259597778320312,45.0,65.0,51.0,30.619991302490234,-20.0
32,70,100,60,go_to_color_detect_up_from_color_detect_down,blue,true,false,joint 3 -,true,2024-03-03 17:29:11.466361,16.272,0.159,236.8,113.9860610961914,244.44387817382812,-17.81891632080078,45.0,65.0,51.0,43.79999542236328,-20.0
32,70,100,60,go_to_color_detect_up_from_color_detect_down,blue,true,false,joint 3 -,true,2024-03-03 17:29:12.944872,19.12,0.159,235.0,131.68923950195312,282.408447265625,83.1225357055664,45.0,65.0,51.0,0.49633678793907166,-20.0
32,70,100,60,go_to_red_up,red,true,false,joint 1 +,true,2024-03-03 17:29:13.632816,23.07,0.212,235.0,-9.244710922241211,311.4775390625,84.958251953125,71.7000503540039,92.6800537109375,51.0,0.0,-20.0
32,70,100,60,go_to_pick_up_from_red,red,true,false,joint 1 -,false,2024-03-03 17:29:15.020866,22.481,0.212,235.0,-178.73486328125,255.2598114013672,84.958251953125,105.0,125.0,51.0,0.0,-20.0
32,70,100,60,go_to_pick_up_from_red,red,true,false,joint 1 -,false,2024-03-03 17:29:15.716024,22.481,0.199,235.0,24.124176025390625,310.67950439453125,84.958251953125,65.55990600585938,84.57990264892578,51.0,0.0,-20.0
32,70,100,60,go_to_pick_up_from_red,red,true,false,joint 1 -,false,2024-03-03 17:29:16.405717,16.481,0.199,235.0,243.80499267578125,194.06918334960938,84.958251953125,18.519847869873047,37.53984832763672,51.0,0.0,-20.0
32,70,100,60,moving_belt,red,false,true,joint 1 -,false,2024-03-03 17:29:17.798819,16.614,0.16,235.0,292.8220520019531,106.5785140991211,84.958251953125,0.0,20.0,51.0,0.0,-20.0
32,70,100,60,moving_belt,red,false,true,joint 1 -,false,2024-03-03 17:29:18.497270,16.671,0.16,235.0,292.8220520019531,106.5785140991211,84.958251953125,0.0,20.0,51.0,0.0,-20.0
32,70,100,60,moving_belt,red,false,true,joint 1 -,false,2024-03-03 17:29:19.917806,16.481,0.159,235.0,292.8220520019531,106.5785140991211,84.958251953125,0.0,20.0,51.0,0.0,-20.0
32,70,100,60,moving_belt,red,false,true,joint 1 -,false,2024-03-03 17:29:20.618183,16.481,0.159,235.0,292.8220520019531,106.5785140991211,84.958251953125,0.0,20.0,51.0,0.0,-20.0
32,70,100,60,moving_belt,red,false,true,joint 1 -,false,2024-03-03 17:29:22.002323,16.557,0.16,235.0,292.8220520019531,106.5785140991211,84.958251953125,0.0,20.0,51.0,0.0,-20.0
32,70,100,60,go_to_pick_down,red,true,false,joint 3 +,false,2024-03-03 17:29:22.694997,16.443,0.16,235.0,282.8721618652344,102.9570541381836,30.177860260009766,0.0,20.0,51.0,21.955659866333008,-20.0
32,70,100,60,go_to_pick_up_from_pick_down,red,true,false,joint 3 -,true,2024-03-03 17:29:24.076664,16.424,0.22,235.0,292.8188171386719,106.57733154296875,83.95038604736328,0.0,20.0,51.0,0.23666994273662567,-20.0
32,70,100,60,go_to_color_detect_up_from_pick_up,red,true,false,joint 1 +,true,2024-03-03 17:29:24.766355,23.393,0.22,235.0,209.80105590820312,230.40670776367188,84.958251953125,27.67999267578125,48.65999221801758,51.0,0.0,-20.0
32,70,100,60,go_to_color_detect_down,red,true,false,joint 3 +,true,2024-03-03 17:29:25.456824,22.614,0.22,235.0,131.02761840820312,280.9896240234375,63.484046936035156,45.0,65.0,51.0,9.239999771118164,-20.0
32,70,100,60,go_to_color_detect_down,red,true,false,joint 3 +,true,2024-03-03 17:29:26.848275,22.5,0.205,235.0,111.53722381591797,239.1923370361328,-23.42786407470703,45.0,65.0,51.0,47.68284606933594,-20.0
32,70,100,60,go_to_color_detect_up_from_color_detect_down,red,true,false,joint 3 -,false,2024-03-03 17:29:27.580389,22.272,0.205,235.0,129.45774841308594,277.6230163574219,45.872005462646484,45.0,65.0,51.0,14.440010070800781,-20.0
32,70,100,60,detecting_color,red,false,false,detecting_color,false,2024-03-03 17:29:28.969925,17.203,0.162,235.0,131.69407653808594,282.4188232421875,84.958251953125,45.0,65.0,51.0,0.0,-20.0
32,70,100,60,detecting_color,red,false,false,detecting_color,false,2024-03-03 17:29:29.662589,16.766,0.162,235.0,131.69407653808594,282.4188232421875,84.958251953125,45.0,65.0,51.0,0.0,-20.0
32,70,100,60,detecting_color,red,false,false,detecting_color,false,2024-03-03 17:29:31.067902,16.386,0.156,235.0,131.69407653808594,282.4188232421875,84.958251953125,45.0,65.0,51.0,0.0,-20.0
32,70,100,60,detecting_color,red,false,false,detecting_color,false,2024-03-03 17:29:31.758591,16.424,0.156,235.0,131.69407653808594,282.4188232421875,84.958251953125,45.0,65.0,51.0,0.0,-20.0
32,70,100,60,detecting_color,red,false,false,detecting_color,false,2024-03-03 17:29:32.453268,16.424,0.156,235.0,131.69407653808594,282.4188232421875,84.958251953125,45.0,65.0,51.0,0.0,-20.0
32,70,100,60,go_to_color_detect_down,red,true,false,joint 3 +,false,2024-03-03 17:29:33.839311,16.538,0.157,235.0,125.99201202392578,270.19073486328125,23.438583374023438,45.0,65.0,51.0,25.719993591308594,-20.0
32,70,100,60,go_to_color_detect_up_from_color_detect_down,red,true,false,joint 3 -,true,2024-03-03 17:29:34.719716,16.367,0.157,235.0,112.28592681884766,240.7979278564453,-21.777687072753906,45.0,65.0,51.0,46.19999694824219,-20.0
32,70,100,60,go_to_color_detect_up_from_color_detect_down,red,true,false,joint 3 -,true,2024-03-03 17:29:35.407416,18.817,0.157,235.0,131.37969970703125,281.7446594238281,70.18838500976562,45.0,65.0,51.0,5.107357978820801,-20.0
32,70,100,60,go_to_green_up,green,true,false,joint 1 +,true,2024-03-03 17:29:36.803355,23.45,0.157,235.0,17.394594192504883,311.12884521484375,84.958251953125,66.80003356933594,87.78003692626953,51.0,0.0,-20.0
32,70,100,60,go_to_pick_up_from_green,green,true,false,joint 1 -,false,2024-03-03 17:29:37.520009,22.5,0.206,235.0,-58.39077377319336,306.0951843261719,84.958251953125,80.79999542236328,100.19999694824219,51.0,0.0,-20.0
32,70,100,60,go_to_pick_up_from_green,green,true,false,joint 1 -,false,2024-03-03 17:29:38.903277,22.538,0.206,235.0,175.333740234375,257.60784912109375,84.958251953125,35.75990676879883,54.7799072265625,51.0,0.0,-20.0
32,70,100,60,moving_belt,green,false,true,joint 1 -,false,2024-03-03 17:29:39.596957,16.671,0.157,235.0,292.8220520019531,106.5785140991211,84.958251953125,0.0,20.0,51.0,0.0,-20.0
32,70,100,60,moving_belt,green,false,true,joint 1 -,false,2024-03-03 17:29:40.995106,16.671,0.157,235.0,292.8220520019531,106.5785140991211,84.958251953125,0.0,20.0,51.0,0.0,-20.0
32,70,100,60,moving_belt,green,false,true,joint 1 -,false,2024-03-03 17:29:41.720431,16.272,0.157,235.0,292.8220520019531,106.5785140991211,84.958251953125,0.0,20.0,51.0,0.0,-20.0
32,70,100,60,moving_belt,green,false,true,joint 1 -,false,2024-03-03 17:29:42.427076,16.272,0.157,235.0,292.8220520019531,106.5785140991211,84.958251953125,0.0,20.0,51.0,0.0,-20.0
32,70,100,60,moving_belt,green,false,true,joint 1 -,false,2024-03-03 17:29:43.821269,16.538,0.159,235.0,292.8220520019531,106.5785140991211,84.958251953125,0.0,20.0,51.0,0.0,-20.0
32,70,100,60,go_to_pick_down,green,true,false,joint 3 +,false,2024-03-03 17:29:44.517938,16.386,0.159,235.0,289.3720397949219,105.32281494140625,52.30973434448242,0.0,20.0,51.0,13.668498992919922,-20.0
32,70,100,60,go_to_pick_up_from_pick_down,green,true,false,joint 3 -,true,2024-03-03 17:29:45.905289,16.31,0.159,235.0,292.04937744140625,106.29727935791016,69.43183135986328,0.0,20.0,51.0,5.386831283569336,-20.0
32,70,100,60,go_to_color_detect_up_from_pick_up,green,true,false,joint 1 +,true,2024-03-03 17:29:46.603174,23.336,0.187,235.0,252.3571014404297,182.8103485107422,84.958251953125,15.919998168945312,36.89999771118164,51.0,0.0,-20.0
32,70,100,60,go_to_color_detect_down,green,true,false,joint 3 +,true,2024-03-03 17:29:47.982674,22.215,0.187,235.0,131.69393920898438,282.4185485839844,84.65037536621094,45.0,65.0,51.0,0.23999999463558197,-20.0
32,70,100,60,go_to_color_detect_down,green,true,false,joint 3 +,true,2024-03-03 17:29:48.672367,22.102,0.207,235.0,115.56721496582031,247.83468627929688,-13.848258972167969,45.0,65.0,51.0,42.892642974853516,-20.0
32,70,100,60,go_to_color_detect_up_from_color_detect_down,green,true,false,joint 3 -,false,2024-03-03 17:29:50.067503,19.082,0.207,235.0,121.63603210449219,260.84930419921875,4.767250061035156,45.0,65.0,51.0,32.08000183105469,-20.0
32,70,100,60,detecting_color,green,false,false,detecting_color,false,2024-03-03 17:29:50.760199,19.082,0.163,235.0,131.69407653808594,282.4188232421875,84.958251953125,45.0,65.0,51.0,0.0,-20.0
32,70,100,60,detecting_color,green,false,false,detecting_color,false,2024-03-03 17:29:51.465847,16.975,0.163,235.0,131.69407653808594,282.4188232421875,84.958251953125,45.0,65.0,51.0,0.0,-20.0
32,70,100,60,go_to_color_detect_down,green,true,false,joint 3 +,false,2024-03-03 17:29:52.871161,16.291,0.16,235.0,131.52723693847656,282.06103515625,74.1922378540039,45.0,65.0,51.0,4.800000190734863,-20.0
32,70,100,60,go_to_color_detect_down,green,true,false,joint 3 +,false,2024-03-03 17:29:53.564436,16.291,0.16,235.0,111.53722381591797,239.1923370361328,-23.42786407470703,45.0,65.0,51.0,47.68284606933594,-20.0
32,70,100,60,go_to_color_detect_up_from_color_detect_down,green,true,false,joint 3 -,true,2024-03-03 17:29:54.977051,20.601,0.174,235.0,127.45040130615234,273.3182373046875,31.560306549072266,45.0,65.0,51.0,20.32000732421875,-20.0
32,70,100,60,go_to_blue_up,blue,true,false,joint 1 +,true,2024-03-03 17:29:55.792121,20.601,0.174,235.0,118.54595947265625,288.18499755859375,84.958251953125,47.64000701904297,68.12001037597656,51.0,0.0,-20.0
32,70,100,60,go_to_pick_up_from_blue,blue,true,false,joint 1 -,false,2024-03-03 17:29:56.521691,23.032,0.174,235.0,63.936920166015625,304.98492431640625,84.958251953125,58.159996032714844,77.39999389648438,51.0,0.0,-20.0
32,70,100,60,go_to_pick_up_from_blue,blue,true,false,joint 1 -,false,2024-03-03 17:29:57.394771,22.177,0.209,235.0,264.7243957519531,164.3919677734375,84.958251953125,11.839984893798828,30.88692283630371,51.0,0.0,-20.0
32,70,100,60,moving_belt,blue,false,true,joint 1 -,false,2024-03-03 17:29:59.027897,16.424,0.159,235.0,292.8220520019531,106.5785140991211,84.958251953125,0.0,20.0,51.0,0.0,-20.0
32,70,100,60,moving_belt,blue,false,true,joint 1 -,false,2024-03-03 17:29:59.747481,16.424,0.159,235.0,292.8220520019531,106.5785140991211,84.958251953125,0.0,20.0,51.0,0.0,-20.0
32,70,100,60,moving_belt,blue,false,true,joint 1 -,false,2024-03-03 17:30:00.447150,16.424,0.159,235.0,292.8220520019531,106.5785140991211,84.958251953125,0.0,20.0,51.0,0.0,-20.0
32,70,100,60,moving_belt,blue,false,true,joint 1 -,false,2024-03-03 17:30:01.828133,16.329,0.16,235.0,292.8220520019531,106.5785140991211,84.958251953125,0.0,20.0,51.0,0.0,-20.0
32,70,100,60,go_to_pick_down,blue,true,false,joint 3 +,false,2024-03-03 17:30:02.515437,16.329,0.16,235.0,292.8186950683594,106.5772933959961,83.9320068359375,0.0,20.0,51.0,0.6000000238418579,-20.0
32,70,100,60,go_to_pick_up_from_pick_down,blue,true,false,joint 3 -,true,2024-03-03 17:30:03.899347,16.158,0.158,235.0,282.8717041015625,102.9568862915039,30.17666244506836,0.0,20.0,51.0,21.759998321533203,-20.0
32,70,100,60,go_to_color_detect_up_from_pick_up,blue,true,false,joint 1 +,true,2024-03-03 17:30:04.596953,16.158,0.158,235.0,292.74755859375,106.78292846679688,84.958251953125,0.04000091552734375,20.1200008392334,51.0,0.0,-20.0
32,70,100,60,go_to_color_detect_up_from_pick_up,blue,true,false,joint 1 +,true,2024-03-03 17:30:05.979649,22.272,0.21,235.0,153.2222900390625,271.3423156738281,84.958251953125,40.54733657836914,61.12407302856445,51.0,0.0,-20.0
32,70,100,60,go_to_color_detect_down,blue,true,false,joint 3 +,true,2024-03-03 17:30:06.666895,22.272,0.21,235.0,128.69354248046875,275.98419189453125,39.82566833496094,45.0,65.0,51.0,18.859996795654297,-20.0
32,70,100,60,go_to_color_detect_up_from_color_detect_down,blue,true,false,joint 3 -,false,2024-03-03 17:30:08.049527,21.779,0.205,235.0,111.17107391357422,238.40711975097656,-24.215347290039062,45.0,65.0,51.0,47.87999725341797,-20.0
32,70,100,60,go_to_color_detect_up_from_color_detect_down,blue,true,false,joint 3 -,false,2024-03-03 17:30:08.738429,18.475,0.205,235.0,130.64157104492188,280.1617431640625,58.014137268066406,45.0,65.0,51.0,9.662460327148438,-20.0
32,70,100,60,detecting_color,blue,false,false,detecting_color,false,2024-03-03 17:30:09.429167,18.475,0.205,235.0,131.69407653808594,282.4188232421875,84.958251953125,45.0,65.0,51.0,0.0,-20.0
32,70,100,60,detecting_color,blue,false,false,detecting_color,false,2024-03-03 17:30:10.815474,16.823,0.162,235.0,131.69407653808594,282.4188232421875,84.958251953125,45.0,65.0,51.0,0.0,-20.0
32,70,100,60,go_to_color_detect_down,blue,true,false,joint 3 +,false,2024-03-03 17:30:11.506172,16.31,0.162,235.0,129.8591766357422,278.48388671875,49.49531936645508,45.0,65.0,51.0,14.939998626708984,-20.0
32,70,100,60,go_to_color_detect_up_from_color_detect_down,blue,true,false,joint 3 -,true,2024-03-03 17:30:12.956126,16.177,0.158,235.0,111.13883972167969,238.33799743652344,-24.284042358398438,45.0,65.0,51.0,48.0,-20.0
32,70,100,60,go_to_color_detect_up_from_color_detect_down,blue,true,false,joint 3 -,true,2024-03-03 17:30:13.660769,18.551,0.158,235.0,130.812744140625,280.5288391113281,60.285255432128906,45.0,65.0,51.0,8.803276062011719,-20.0
32,70,100,60,go_to_red_up,red,true,false,joint 1 +,true,2024-03-03 17:30:15.045544,22.956,0.214,235.0,80.0212173461914,301.16497802734375,84.958251953125,55.12000274658203,76.04000091552734,51.0,0.0,-20.0
32,70,100,60,go_to_red_up,red,true,false,joint 1 +,true,2024-03-03 17:30:15.788194,22.045,0.214,235.0,-160.2599639892578,267.24609375,84.958251953125,100.94992065429688,121.4989013671875,51.0,0.0,-20.0
32,70,100,60,go_to_pick_up_from_red,red,true,false,joint 1 -,false,2024-03-03 17:30:16.477890,22.253,0.208,235.0,-60.73945999145508,305.6377868652344,84.958251953125,81.23995971679688,100.25995635986328,51.0,0.0,-20.0
32,70,100,60,go_to_pick_up_from_red,red,true,false,joint 1 -,false,2024-03-03 17:30:17.892998,16.614,0.208,235.0,182.2821044921875,252.73892211914062,84.958251953125,34.1998405456543,53.21984100341797,51.0,0.0,-20.0
32,70,100,60,moving_belt,red,false,true,joint 1 -,false,2024-03-03 17:30:18.596645,16.329,0.159,235.0,292.8220520019531,106.5785140991211,84.958251953125,0.0,20.0,51.0,0.0,-20.0
32,70,100,60,moving_belt,red,false,true,joint 1 -,false,2024-03-03 17:30:19.975210,16.557,0.159,235.0,292.8220520019531,106.5785140991211,84.958251953125,0.0,20.0,51.0,0.0,-20.0
32,70,100,60,moving_belt,red,false,true,joint 1 -,false,2024-03-03 17:30:20.664500,16.557,0.158,235.0,292.8220520019531,106.5785140991211,84.958251953125,0.0,20.0,51.0,0.0,-20.0
32,70,100,60,moving_belt,red,false,true,joint 1 -,false,2024-03-03 17:30:22.045074,16.443,0.158,235.0,292.8220520019531,106.5785140991211,84.958251953125,0.0,20.0,51.0,0.0,-20.0
32,70,100,60,moving_belt,red,false,true,joint 1 -,false,2024-03-03 17:30:22.747326,16.253,0.158,235.0,292.8220520019531,106.5785140991211,84.958251953125,0.0,20.0,51.0,0.0,-20.0
32,70,100,60,go_to_pick_down,red,true,false,joint 3 +,false,2024-03-03 17:30:23.437181,16.253,0.159,235.0,288.4434509277344,104.98483276367188,48.24016571044922,0.0,20.0,51.0,15.220831871032715,-20.0
32,70,100,60,go_to_pick_up_from_pick_down,red,true,false,joint 3 -,true,2024-03-03 17:30:24.825714,16.329,0.159,235.0,291.3642272949219,106.04790496826172,63.657928466796875,0.0,20.0,51.0,7.535330772399902,-20.0
32,70,100,60,go_to_color_detect_up_from_pick_up,red,true,false,joint 1 +,true,2024-03-03 17:30:25.516636,16.329,0.193,235.0,258.4618835449219,174.07232666015625,84.958251953125,13.959999084472656,34.939998626708984,51.0,0.0,-20.0
32,70,100,60,go_to_color_detect_down,red,true,false,joint 3 +,true,2024-03-03 17:30:26.909115,22.5,0.193,235.0,131.6822052001953,282.3934020996094,82.08492279052734,45.0,65.0,51.0,1.440000057220459,-20.0
32,70,100,60,go_to_color_detect_down,red,true,false,joint 3 +,true,2024-03-03 17:30:27.599035,22.14,0.207,235.0,116.0733413696289,248.92007446289062,-12.512733459472656,45.0,65.0,51.0,42.23345947265625,-20.0
32,70,100,60,go_to_color_detect_up_from_color_detect_down,red,true,false,joint 3 -,false,2024-03-03 17:30:29.001927,22.121,0.207,235.0,121.04878234863281,259.5899353027344,2.6718292236328125,45.0,65.0,51.0,33.060001373291016,-20.0
32,70,100,60,detecting_color,red,false,false,detecting_color,false,2024-03-03 17:30:29.692815,16.88,0.164,235.0,131.69407653808594,282.4188232421875,84.958251953125,45.0,65.0,51.0,0.0,-20.0
32,70,100,60,detecting_color,red,false,false,detecting_color,false,2024-03-03 17:30:31.077775,16.576,0.164,235.0,131.69407653808594,282.4188232421875,84.958251953125,45.0,65.0,51.0,0.0,-20.0
32,70,100,60,detecting_color,red,false,false,detecting_color,false,2024-03-03 17:30:31.770458,16.386,0.159,235.0,131.69407653808594,282.4188232421875,84.958251953125,45.0,65.0,51.0,0.0,-20.0
32,70,100,60,detecting_color,red,false,false,detecting_color,false,2024-03-03 17:30:32.461157,16.386,0.159,235.0,131.69407653808594,282.4188232421875,84.958251953125,45.0,65.0,51.0,0.0,-20.0
32,70,100,60,detecting_color,red,false,false,detecting_color,false,2024-03-03 17:30:33.854426,16.31,0.159,235.0,131.69407653808594,282.4188232421875,84.958251953125,45.0,65.0,51.0,0.0,-20.0
32,70,100,60,go_to_color_detect_down,red,true,false,joint 3 +,false,2024-03-03 17:30:34.555082,16.31,0.159,235.0,123.56502532958984,264.9860534667969,12.259597778320312,45.0,65.0,51.0,30.619991302490234,-20.0
