demetriskallis/dobot_magician_pick_and_place_and_color_sorting/Sampling/WholeSystemExperiments_training_data/payload_32g/joint_measurements__armv_100_arma_100_belts_10_cube_32g.csv
cube/weight,arm/velocity_ratio,arm/acceleration_ratio,belt/speed,dobot/operation,dobot/color,dobot/moving_arm,dobot/moving_belt,dobot/operation2,dobot/suction,meross/sample_timestamp,meross/power,meross/current,meross/voltage,dobot/pose_x,dobot/pose_y,dobot/pose_z,dobot/pose_rHead,dobot/pose_joint1Angle,dobot/pose_joint2Angle,dobot/pose_joint3Angle,dobot/pose_joint4Angle
32,100,100,10,homing,,,,homing,,,,,,132.48675537109375,-2.033555030822754,1.2874603271484375,-0.8793705701828003,-1.2793705463409424,4.585079669952393,65.04915618896484,0.0
32,100,100,10,homing,,,,homing,,,,,,122.43447875976562,-50.662357330322266,1.2874603271484375,-22.479358673095703,-22.879358291625977,4.585079669952393,65.04915618896484,0.0
32,100,100,10,homing,,,,homing,,,,,,98.9630355834961,-88.10900115966797,1.2874603271484375,-41.679386138916016,-42.07938766479492,4.585079669952393,65.04915618896484,0.0
32,100,100,10,homing,,,,homing,,,,,,65.28861999511719,-115.30078125,1.2874603271484375,-60.47945785522461,-60.879459381103516,4.585079669952393,65.04915618896484,0.0
32,100,100,10,homing,,,,homing,,2024-03-04 14:57:27.784153,16.424,0.155,235.0,18.258583068847656,-131.23834228515625,1.2874603271484375,-82.07953643798828,-82.47953796386719,4.585079669952393,65.04915618896484,0.0
32,100,100,10,homing,,,,homing,,2024-03-04 14:57:28.472187,16.329,0.155,235.0,-25.917098999023438,-129.9429931640625,1.2874603271484375,-101.27960968017578,-101.67961120605469,4.585079669952393,65.04915618896484,0.0
32,100,100,10,homing,,,,homing,,2024-03-04 14:57:29.178710,16.329,0.157,235.0,-67.20955657958984,-114.19173431396484,1.2874603271484375,-120.47968292236328,-120.87968444824219,4.585079669952393,65.04915618896484,0.0
32,100,100,10,homing,,,,homing,,2024-03-04 14:57:30.568008,16.386,0.157,235.0,-96.30387115478516,-91.00791931152344,1.2874603271484375,-136.61952209472656,-136.59951782226562,4.585079669952393,65.04915618896484,0.0
32,100,100,10,homing,,,,homing,,2024-03-04 14:57:31.267668,16.31,0.157,235.0,-94.76524353027344,-92.6089859008789,1.2874603271484375,-135.65931701660156,-135.63931274414062,4.585079669952393,65.04915618896484,0.0
32,100,100,10,homing,,,,homing,,2024-03-04 14:57:32.660203,16.405,0.157,235.0,-77.09797668457031,-115.59954071044922,2.001800537109375,-123.70091247558594,-123.17291259765625,6.423371315002441,63.9971923828125,0.0
32,100,100,10,homing,,,,homing,,2024-03-04 14:57:33.351815,16.405,0.157,235.0,-4.458556175231934,-164.4530792236328,4.014839172363281,-91.55298614501953,-90.95298767089844,13.592710494995117,59.89455032348633,0.0
32,100,100,10,homing,,,,homing,,2024-03-04 14:57:34.741243,16.538,0.158,235.0,92.27448272705078,-179.1854705810547,4.483482360839844,-62.75305938720703,-62.15306091308594,24.362112045288086,53.73177719116211,0.0
32,100,100,10,homing,,,,homing,,2024-03-04 14:57:35.430683,16.538,0.158,235.0,192.20547485351562,-129.41561889648438,2.4626312255859375,-33.95313262939453,-33.35313415527344,33.68398666381836,48.39735412597656,0.0
32,100,100,10,homing,,,,homing,,2024-03-04 14:57:36.822275,16.443,0.158,235.0,246.9197235107422,-21.181108474731445,0.34781646728515625,-4.902907371520996,-4.565849304199219,39.00699996948242,45.35126876831055,0.0
32,100,100,10,homing,,,,homing,,2024-03-04 14:57:37.515124,16.5,0.158,235.0,249.99998474121094,0.0,-7.62939453125e-06,0.0,0.0,39.71385955810547,44.94676971435547,0.0
32,100,100,10,homing,,,,homing,,2024-03-04 14:57:38.203053,16.5,0.157,235.0,249.99998474121094,0.00017966009909287095,-7.62939453125e-06,4.117506250622682e-05,4.117506250622682e-05,39.71385955810547,44.94676971435547,0.0
32,100,100,10,homing,,,,homing,,2024-03-04 14:57:39.584104,16.101,0.157,235.0,249.99998474121094,0.00017966009909287095,-7.62939453125e-06,4.117506250622682e-05,4.117506250622682e-05,39.71385955810547,44.94676971435547,0.0
32,100,100,10,homing,,,,homing,,2024-03-04 14:57:40.287380,16.272,0.154,235.0,249.99998474121094,0.00017966009909287095,-7.62939453125e-06,4.117506250622682e-05,4.117506250622682e-05,39.71385955810547,44.94676971435547,0.0
32,100,100,10,homing,,,,homing,,2024-03-04 14:57:41.667853,16.12,0.154,235.0,249.99998474121094,0.00017966009909287095,-7.62939453125e-06,4.117506250622682e-05,4.117506250622682e-05,39.71385955810547,44.94676971435547,0.0
32,100,100,10,homing,,,,homing,,2024-03-04 14:57:42.369764,16.234,0.154,235.0,249.99998474121094,0.00017966009909287095,-7.62939453125e-06,4.117506250622682e-05,4.117506250622682e-05,39.71385955810547,44.94676971435547,0.0
32,100,100,10,homing,,,,homing,,2024-03-04 14:57:43.747718,16.177,0.156,235.0,249.99998474121094,0.00017966009909287095,-7.62939453125e-06,4.117506250622682e-05,4.117506250622682e-05,39.71385955810547,44.94676971435547,0.0
32,100,100,10,homing,,,,homing,,2024-03-04 14:57:44.433681,16.177,0.156,235.0,250.1251983642578,0.00017975007358472794,-0.00363922119140625,4.117506250622682e-05,4.117506250622682e-05,39.75273132324219,44.916542053222656,0.0
32,100,100,10,homing,,,,homing,,2024-03-04 14:57:45.816137,16.291,0.156,235.0,267.1371765136719,70.4422378540039,44.4526481628418,4.100799560546875e-05,15.154672622680664,38.218666076660156,24.226530075073242,-15.154631614685059
32,100,100,10,go_to_pick_up_from_homing,nothing,,,go_to_pick_up_from_homing,,2024-03-04 14:57:46.503828,16.861,0.156,235.0,281.5231018066406,104.52339172363281,71.25545501708984,3.0517578125e-05,20.345388412475586,45.45292282104492,8.827082633972168,-20.345359802246094
32,100,100,10,moving_belt,nothing,false,true,go_to_pick_up_from_homing,,2024-03-04 14:57:47.210334,16.557,0.159,235.0,292.8220520019531,106.5785140991211,84.958251953125,0.0,20.0,51.0,0.0,-20.0
32,100,100,10,moving_belt,nothing,false,true,go_to_pick_up_from_homing,,2024-03-04 14:57:48.585725,16.538,0.159,235.0,292.8220520019531,106.5785140991211,84.958251953125,0.0,20.0,51.0,0.0,-20.0
32,100,100,10,moving_belt,nothing,false,true,go_to_pick_up_from_homing,,2024-03-04 14:57:49.276631,16.538,0.159,235.0,292.8220520019531,106.5785140991211,84.958251953125,0.0,20.0,51.0,0.0,-20.0
32,100,100,10,moving_belt,nothing,false,true,go_to_pick_up_from_homing,,2024-03-04 14:57:50.657910,16.348,0.159,235.0,292.8220520019531,106.5785140991211,84.958251953125,0.0,20.0,51.0,0.0,-20.0
32,100,100,10,moving_belt,nothing,false,true,go_to_pick_up_from_homing,,2024-03-04 14:57:51.349808,16.538,0.158,235.0,292.8220520019531,106.5785140991211,84.958251953125,0.0,20.0,51.0,0.0,-20.0
32,100,100,10,moving_belt,nothing,false,true,go_to_pick_up_from_homing,,2024-03-04 14:57:52.736598,16.386,0.158,235.0,292.8220520019531,106.5785140991211,84.958251953125,0.0,20.0,51.0,0.0,-20.0
32,100,100,10,moving_belt,nothing,false,true,go_to_pick_up_from_homing,,2024-03-04 14:57:53.427036,16.519,0.158,235.0,292.8220520019531,106.5785140991211,84.958251953125,0.0,20.0,51.0,0.0,-20.0
32,100,100,10,moving_belt,nothing,false,true,go_to_pick_up_from_homing,,2024-03-04 14:57:54.804147,16.424,0.158,235.0,292.8220520019531,106.5785140991211,84.958251953125,0.0,20.0,51.0,0.0,-20.0
32,100,100,10,moving_belt,nothing,false,true,go_to_pick_up_from_homing,,2024-03-04 14:57:55.498815,16.424,0.158,235.0,292.8220520019531,106.5785140991211,84.958251953125,0.0,20.0,51.0,0.0,-20.0
32,100,100,10,moving_belt,nothing,false,true,go_to_pick_up_from_homing,,2024-03-04 14:57:56.186333,16.424,0.158,235.0,292.8220520019531,106.5785140991211,84.958251953125,0.0,20.0,51.0,0.0,-20.0
32,100,100,10,moving_belt,nothing,false,true,go_to_pick_up_from_homing,,2024-03-04 14:57:57.579851,16.5,0.158,235.0,292.8220520019531,106.5785140991211,84.958251953125,0.0,20.0,51.0,0.0,-20.0
32,100,100,10,moving_belt,nothing,false,true,go_to_pick_up_from_homing,,2024-03-04 14:57:58.267607,16.481,0.158,235.0,292.8220520019531,106.5785140991211,84.958251953125,0.0,20.0,51.0,0.0,-20.0
32,100,100,10,moving_belt,nothing,false,true,go_to_pick_up_from_homing,,2024-03-04 14:57:59.647802,16.386,0.158,235.0,292.8220520019531,106.5785140991211,84.958251953125,0.0,20.0,51.0,0.0,-20.0
32,100,100,10,moving_belt,nothing,false,true,go_to_pick_up_from_homing,,2024-03-04 14:58:00.333347,16.386,0.158,235.0,292.8220520019531,106.5785140991211,84.958251953125,0.0,20.0,51.0,0.0,-20.0
32,100,100,10,moving_belt,nothing,false,true,go_to_pick_up_from_homing,,2024-03-04 14:58:01.743224,16.557,0.158,235.0,292.8220520019531,106.5785140991211,84.958251953125,0.0,20.0,51.0,0.0,-20.0
32,100,100,10,moving_belt,nothing,false,true,go_to_pick_up_from_homing,,2024-03-04 14:58:02.434277,16.386,0.157,235.0,292.8220520019531,106.5785140991211,84.958251953125,0.0,20.0,51.0,0.0,-20.0
32,100,100,10,moving_belt,nothing,false,true,go_to_pick_up_from_homing,,2024-03-04 14:58:03.817317,16.443,0.157,235.0,292.8220520019531,106.5785140991211,84.958251953125,0.0,20.0,51.0,0.0,-20.0
32,100,100,10,moving_belt,nothing,false,true,go_to_pick_up_from_homing,,2024-03-04 14:58:04.511984,16.557,0.157,235.0,292.8220520019531,106.5785140991211,84.958251953125,0.0,20.0,51.0,0.0,-20.0
32,100,100,10,moving_belt,nothing,false,true,go_to_pick_up_from_homing,,2024-03-04 14:58:05.209450,16.557,0.157,235.0,292.8220520019531,106.5785140991211,84.958251953125,0.0,20.0,51.0,0.0,-20.0
32,100,100,10,moving_belt,nothing,false,true,go_to_pick_up_from_homing,,2024-03-04 14:58:06.596003,16.367,0.157,235.0,292.8220520019531,106.5785140991211,84.958251953125,0.0,20.0,51.0,0.0,-20.0
32,100,100,10,moving_belt,nothing,false,true,go_to_pick_up_from_homing,,2024-03-04 14:58:07.284714,16.481,0.157,235.0,292.8220520019531,106.5785140991211,84.958251953125,0.0,20.0,51.0,0.0,-20.0
32,100,100,10,moving_belt,nothing,false,true,go_to_pick_up_from_homing,,2024-03-04 14:58:08.667964,16.5,0.157,235.0,292.8220520019531,106.5785140991211,84.958251953125,0.0,20.0,51.0,0.0,-20.0
32,100,100,10,moving_belt,nothing,false,true,go_to_pick_up_from_homing,,2024-03-04 14:58:09.358664,16.5,0.157,235.0,292.8220520019531,106.5785140991211,84.958251953125,0.0,20.0,51.0,0.0,-20.0
32,100,100,10,moving_belt,nothing,false,true,go_to_pick_up_from_homing,,2024-03-04 14:58:10.740174,16.576,0.157,235.0,292.8220520019531,106.5785140991211,84.958251953125,0.0,20.0,51.0,0.0,-20.0
32,100,100,10,moving_belt,nothing,false,true,go_to_pick_up_from_homing,,2024-03-04 14:58:11.478566,16.576,0.157,235.0,292.8220520019531,106.5785140991211,84.958251953125,0.0,20.0,51.0,0.0,-20.0
32,100,100,10,moving_belt,nothing,false,true,go_to_pick_up_from_homing,,2024-03-04 14:58:12.868242,16.348,0.157,235.0,292.8220520019531,106.5785140991211,84.958251953125,0.0,20.0,51.0,0.0,-20.0
32,100,100,10,moving_belt,nothing,false,true,go_to_pick_up_from_homing,,2024-03-04 14:58:13.557826,16.519,0.158,235.0,292.8220520019531,106.5785140991211,84.958251953125,0.0,20.0,51.0,0.0,-20.0
32,100,100,10,go_to_pick_down,nothing,true,false,joint 3 +,,2024-03-04 14:58:14.247264,16.462,0.158,235.0,284.3038635253906,103.4781494140625,34.13602828979492,0.0,20.0,51.0,20.582494735717773,-20.0
32,100,100,10,go_to_pick_up_from_pick_down,nothing,true,false,joint 3 -,true,2024-03-04 14:58:15.630167,17.62,0.207,235.0,292.67919921875,106.52651977539062,78.2745132446289,0.0,20.0,51.0,2.1698338985443115,-20.0
32,100,100,10,go_to_color_detect_up_from_pick_up,nothing,true,false,joint 1 +,true,2024-03-04 14:58:16.322045,22.861,0.207,235.0,201.2184600830078,237.9387969970703,84.958251953125,29.77968978881836,50.862972259521484,51.0,0.0,-20.0
32,100,100,10,go_to_color_detect_down,nothing,true,false,joint 3 +,true,2024-03-04 14:58:17.722156,22.823,0.204,235.0,131.2519073486328,281.4706115722656,67.45097351074219,45.0,65.0,51.0,7.599998474121094,-20.0
32,100,100,10,go_to_color_detect_up_from_color_detect_down,nothing,true,false,joint 3 -,false,2024-03-04 14:58:18.410929,22.083,0.204,235.0,111.26680755615234,238.6124267578125,-24.010658264160156,45.0,65.0,51.0,47.932281494140625,-20.0
32,100,100,10,go_to_color_detect_up_from_color_detect_down,nothing,true,false,joint 3 -,false,2024-03-04 14:58:19.793824,22.272,0.204,235.0,130.98873901367188,280.9062194824219,62.869842529296875,45.0,65.0,51.0,7.83078670501709,-20.0
32,100,100,10,detecting_color,nothing,false,false,detecting_color,false,2024-03-04 14:58:20.491051,16.956,0.161,235.0,131.69407653808594,282.4188232421875,84.958251953125,45.0,65.0,51.0,-4.656612873077393e-10,-20.0
32,100,100,10,go_to_color_detect_down,nothing,true,false,joint 3 +,false,2024-03-04 14:58:21.195032,16.956,0.161,235.0,131.68740844726562,282.404541015625,82.8031997680664,45.0,65.0,51.0,1.1199997663497925,-20.0
32,100,100,10,go_to_color_detect_down,nothing,true,false,joint 3 +,false,2024-03-04 14:58:22.584810,15.987,0.155,235.0,114.53912353515625,245.6299285888672,-16.463424682617188,45.0,65.0,51.0,44.19690704345703,-20.0
32,100,100,10,go_to_color_detect_up_from_color_detect_down,nothing,true,false,joint 3 -,true,2024-03-04 14:58:23.279704,16.139,0.155,235.0,127.3722915649414,273.1507568359375,31.08867645263672,45.0,65.0,51.0,20.206161499023438,-20.0
32,100,100,10,go_to_red_up,red,true,false,joint 1 +,true,2024-03-04 14:58:24.659372,22.975,0.213,235.0,113.49833679199219,290.21002197265625,84.958251953125,48.64000701904297,69.20000457763672,51.0,-4.656612873077393e-10,-20.0
32,100,100,10,go_to_red_up,red,true,false,joint 1 +,true,2024-03-04 14:58:25.346622,22.975,0.213,235.0,-155.3498077392578,270.1298828125,84.958251953125,99.90290832519531,120.52129364013672,51.0,-4.656612873077393e-10,-20.0
32,100,100,10,go_to_pick_up_from_red,red,true,false,joint 1 -,false,2024-03-04 14:58:26.724977,21.513,0.206,235.0,-87.98173522949219,298.9363708496094,84.958251953125,86.39999389648438,105.15999603271484,51.0,-4.656612873077393e-10,-20.0
32,100,100,10,go_to_pick_up_from_red,red,true,false,joint 1 -,false,2024-03-04 14:58:27.413266,21.513,0.206,235.0,278.9232482910156,138.94442749023438,84.958251953125,6.479991912841797,25.779991149902344,51.0,-4.656612873077393e-10,-20.0
32,100,100,10,moving_belt,red,false,true,joint 1 -,false,2024-03-04 14:58:28.797442,16.215,0.154,235.0,292.8220520019531,106.5785140991211,84.958251953125,0.0,20.0,51.0,-4.656612873077393e-10,-20.0
32,100,100,10,moving_belt,red,false,true,joint 1 -,false,2024-03-04 14:58:28.797442,16.215,0.154,235.0,292.8220520019531,106.5785140991211,84.958251953125,0.0,20.0,51.0,-4.656612873077393e-10,-20.0
32,100,100,10,moving_belt,red,false,true,joint 1 -,false,2024-03-04 14:58:30.298814,16.291,0.154,235.0,292.8220520019531,106.5785140991211,84.958251953125,0.0,20.0,51.0,-4.656612873077393e-10,-20.0
32,100,100,10,moving_belt,red,false,true,joint 1 -,false,2024-03-04 14:58:31.701922,16.481,0.158,235.0,292.8220520019531,106.5785140991211,84.958251953125,0.0,20.0,51.0,-4.656612873077393e-10,-20.0
32,100,100,10,moving_belt,red,false,true,joint 1 -,false,2024-03-04 14:58:32.399137,16.481,0.158,235.0,292.8220520019531,106.5785140991211,84.958251953125,0.0,20.0,51.0,-4.656612873077393e-10,-20.0
32,100,100,10,moving_belt,red,false,true,joint 1 -,false,2024-03-04 14:58:33.778928,16.5,0.158,235.0,292.8220520019531,106.5785140991211,84.958251953125,0.0,20.0,51.0,-4.656612873077393e-10,-20.0
32,100,100,10,moving_belt,red,false,true,joint 1 -,false,2024-03-04 14:58:34.472390,16.481,0.158,235.0,292.8220520019531,106.5785140991211,84.958251953125,0.0,20.0,51.0,-4.656612873077393e-10,-20.0
32,100,100,10,moving_belt,red,false,true,joint 1 -,false,2024-03-04 14:58:35.163620,16.538,0.159,235.0,292.8220520019531,106.5785140991211,84.958251953125,0.0,20.0,51.0,-4.656612873077393e-10,-20.0
32,100,100,10,moving_belt,red,false,true,joint 1 -,false,2024-03-04 14:58:36.746783,16.443,0.159,235.0,292.8220520019531,106.5785140991211,84.958251953125,0.0,20.0,51.0,-4.656612873077393e-10,-20.0
32,100,100,10,moving_belt,red,false,true,joint 1 -,false,2024-03-04 14:58:37.435657,16.443,0.159,235.0,292.8220520019531,106.5785140991211,84.958251953125,0.0,20.0,51.0,-4.656612873077393e-10,-20.0
32,100,100,10,moving_belt,red,false,true,joint 1 -,false,2024-03-04 14:58:38.818180,16.253,0.159,235.0,292.8220520019531,106.5785140991211,84.958251953125,0.0,20.0,51.0,-4.656612873077393e-10,-20.0
32,100,100,10,moving_belt,red,false,true,joint 1 -,false,2024-03-04 14:58:39.515185,16.253,0.159,235.0,292.8220520019531,106.5785140991211,84.958251953125,0.0,20.0,51.0,-4.656612873077393e-10,-20.0
32,100,100,10,moving_belt,red,false,true,joint 1 -,false,2024-03-04 14:58:40.894463,16.614,0.159,235.0,292.8220520019531,106.5785140991211,84.958251953125,0.0,20.0,51.0,-4.656612873077393e-10,-20.0
32,100,100,10,moving_belt,red,false,true,joint 1 -,false,2024-03-04 14:58:41.586780,16.519,0.159,235.0,292.8220520019531,106.5785140991211,84.958251953125,0.0,20.0,51.0,-4.656612873077393e-10,-20.0
32,100,100,10,moving_belt,red,false,true,joint 1 -,false,2024-03-04 14:58:42.280657,16.519,0.159,235.0,292.8220520019531,106.5785140991211,84.958251953125,0.0,20.0,51.0,-4.656612873077393e-10,-20.0
32,100,100,10,moving_belt,red,false,true,joint 1 -,false,2024-03-04 14:58:43.659744,16.519,0.159,235.0,292.8220520019531,106.5785140991211,84.958251953125,0.0,20.0,51.0,-4.656612873077393e-10,-20.0
32,100,100,10,moving_belt,red,false,true,joint 1 -,false,2024-03-04 14:58:44.351521,16.424,0.158,235.0,292.8220520019531,106.5785140991211,84.958251953125,0.0,20.0,51.0,-4.656612873077393e-10,-20.0
32,100,100,10,moving_belt,red,false,true,joint 1 -,false,2024-03-04 14:58:45.736904,16.557,0.158,235.0,292.8220520019531,106.5785140991211,84.958251953125,0.0,20.0,51.0,-4.656612873077393e-10,-20.0
32,100,100,10,moving_belt,red,false,true,joint 1 -,false,2024-03-04 14:58:46.423758,16.462,0.159,235.0,292.8220520019531,106.5785140991211,84.958251953125,0.0,20.0,51.0,-4.656612873077393e-10,-20.0
32,100,100,10,moving_belt,red,false,true,joint 1 -,false,2024-03-04 14:58:47.821853,16.443,0.159,235.0,292.8220520019531,106.5785140991211,84.958251953125,0.0,20.0,51.0,-4.656612873077393e-10,-20.0
32,100,100,10,moving_belt,red,false,true,joint 1 -,false,2024-03-04 14:58:48.513783,16.443,0.158,235.0,292.8220520019531,106.5785140991211,84.958251953125,0.0,20.0,51.0,-4.656612873077393e-10,-20.0
32,100,100,10,moving_belt,red,false,true,joint 1 -,false,2024-03-04 14:58:49.890340,16.462,0.158,235.0,292.8220520019531,106.5785140991211,84.958251953125,0.0,20.0,51.0,-4.656612873077393e-10,-20.0
32,100,100,10,moving_belt,red,false,true,joint 1 -,false,2024-03-04 14:58:50.582077,16.329,0.158,235.0,292.8220520019531,106.5785140991211,84.958251953125,0.0,20.0,51.0,-4.656612873077393e-10,-20.0
32,100,100,10,moving_belt,red,false,true,joint 1 -,false,2024-03-04 14:58:51.276904,16.424,0.16,235.0,292.8220520019531,106.5785140991211,84.958251953125,0.0,20.0,51.0,-4.656612873077393e-10,-20.0
32,100,100,10,moving_belt,red,false,true,joint 1 -,false,2024-03-04 14:58:52.655594,16.405,0.16,235.0,292.8220520019531,106.5785140991211,84.958251953125,0.0,20.0,51.0,-4.656612873077393e-10,-20.0
32,100,100,10,moving_belt,red,false,true,joint 1 -,false,2024-03-04 14:58:53.395015,16.405,0.159,235.0,292.8220520019531,106.5785140991211,84.958251953125,0.0,20.0,51.0,-4.656612873077393e-10,-20.0
32,100,100,10,moving_belt,red,false,true,joint 1 -,false,2024-03-04 14:58:54.774493,16.424,0.159,235.0,292.8220520019531,106.5785140991211,84.958251953125,0.0,20.0,51.0,-4.656612873077393e-10,-20.0
32,100,100,10,go_to_pick_down,red,true,false,joint 3 +,false,2024-03-04 14:58:55.467177,16.595,0.159,235.0,284.6309814453125,103.59720611572266,35.090972900390625,0.0,20.0,51.0,20.226327896118164,-20.0
32,100,100,10,go_to_pick_up_from_pick_down,red,true,false,joint 3 -,true,2024-03-04 14:58:56.858137,16.177,0.159,235.0,292.7965393066406,106.56922149658203,82.13280487060547,0.0,20.0,51.0,0.825168788433075,-20.0
32,100,100,10,go_to_color_detect_up_from_pick_up,red,true,false,joint 1 +,true,2024-03-04 14:58:57.549917,23.64,0.212,235.0,205.84426879882812,233.94842529296875,84.958251953125,28.65640640258789,49.77968978881836,51.0,0.0,-20.0
32,100,100,10,go_to_color_detect_down,red,true,false,joint 3 +,true,2024-03-04 14:58:58.252699,22.557,0.212,235.0,131.3400115966797,281.6595458984375,69.28641510009766,45.0,65.0,51.0,6.839998722076416,-20.0
32,100,100,10,go_to_color_detect_down,red,true,false,joint 3 +,true,2024-03-04 14:58:59.641389,22.5,0.206,235.0,111.3722152709961,238.83848571777344,-23.7843017578125,45.0,65.0,51.0,47.840999603271484,-20.0
32,100,100,10,go_to_color_detect_up_from_color_detect_down,red,true,false,joint 3 -,false,2024-03-04 14:59:00.330365,22.5,0.206,235.0,130.48638916015625,279.8289489746094,56.1141357421875,45.0,65.0,51.0,10.38463020324707,-20.0
32,100,100,10,detecting_color,red,false,false,detecting_color,false,2024-03-04 14:59:01.711581,16.994,0.159,235.0,131.69407653808594,282.4188232421875,84.958251953125,45.0,65.0,51.0,-4.656612873077393e-10,-20.0
32,100,100,10,go_to_color_detect_down,red,true,false,joint 3 +,false,2024-03-04 14:59:02.415737,16.291,0.159,235.0,131.69407653808594,282.4188232421875,84.958251953125,45.0,65.0,51.0,-4.656612873077393e-10,-20.0
32,100,100,10,go_to_color_detect_down,red,true,false,joint 3 +,false,2024-03-04 14:59:03.791851,16.063,0.159,235.0,115.47264099121094,247.63186645507812,-14.094192504882812,45.0,65.0,51.0,43.01434326171875,-20.0
32,100,100,10,go_to_color_detect_up_from_color_detect_down,red,true,false,joint 3 -,true,2024-03-04 14:59:04.479446,16.329,0.155,235.0,121.74224090576172,261.0770568847656,5.154693603515625,45.0,65.0,51.0,31.76000213623047,-20.0
32,100,100,10,go_to_blue_up,blue,true,false,joint 1 +,true,2024-03-04 14:59:05.861025,23.583,0.155,233.1,130.50990295410156,282.968017578125,84.958251953125,45.24000549316406,65.40000915527344,51.0,-4.656612873077393e-10,-20.0
32,100,100,10,go_to_pick_up_from_blue,blue,true,false,joint 1 -,false,2024-03-04 14:59:06.548522,22.443,0.21,233.1,36.89640426635742,309.42266845703125,84.958251953125,63.19999694824219,82.79999542236328,51.0,-4.656612873077393e-10,-20.0
32,100,100,10,go_to_pick_up_from_blue,blue,true,false,joint 1 -,false,2024-03-04 14:59:07.312929,18.836,0.21,233.1,267.9519348144531,159.0769805908203,84.958251953125,10.696643829345703,29.79174041748047,51.0,-4.656612873077393e-10,-20.0
32,100,100,10,moving_belt,blue,false,true,joint 1 -,false,2024-03-04 14:59:08.688171,16.196,0.158,233.1,292.8220520019531,106.5785140991211,84.958251953125,0.0,20.0,51.0,-4.656612873077393e-10,-20.0
32,100,100,10,moving_belt,blue,false,true,joint 1 -,false,2024-03-04 14:59:09.375750,16.196,0.158,235.0,292.8220520019531,106.5785140991211,84.958251953125,0.0,20.0,51.0,-4.656612873077393e-10,-20.0
32,100,100,10,moving_belt,blue,false,true,joint 1 -,false,2024-03-04 14:59:10.768014,16.595,0.16,235.0,292.8220520019531,106.5785140991211,84.958251953125,0.0,20.0,51.0,-4.656612873077393e-10,-20.0
32,100,100,10,moving_belt,blue,false,true,joint 1 -,false,2024-03-04 14:59:11.461490,16.348,0.16,235.0,292.8220520019531,106.5785140991211,84.958251953125,0.0,20.0,51.0,-4.656612873077393e-10,-20.0
32,100,100,10,moving_belt,blue,false,true,joint 1 -,false,2024-03-04 14:59:12.846455,16.443,0.159,235.0,292.8220520019531,106.5785140991211,84.958251953125,0.0,20.0,51.0,-4.656612873077393e-10,-20.0
32,100,100,10,moving_belt,blue,false,true,joint 1 -,false,2024-03-04 14:59:13.536411,16.5,0.159,235.0,292.8220520019531,106.5785140991211,84.958251953125,0.0,20.0,51.0,-4.656612873077393e-10,-20.0
32,100,100,10,moving_belt,blue,false,true,joint 1 -,false,2024-03-04 14:59:14.915067,16.595,0.16,235.0,292.8220520019531,106.5785140991211,84.958251953125,0.0,20.0,51.0,-4.656612873077393e-10,-20.0
32,100,100,10,moving_belt,blue,false,true,joint 1 -,false,2024-03-04 14:59:15.607567,16.595,0.16,235.0,292.8220520019531,106.5785140991211,84.958251953125,0.0,20.0,51.0,-4.656612873077393e-10,-20.0
32,100,100,10,moving_belt,blue,false,true,joint 1 -,false,2024-03-04 14:59:16.295531,16.5,0.16,235.0,292.8220520019531,106.5785140991211,84.958251953125,0.0,20.0,51.0,-4.656612873077393e-10,-20.0
32,100,100,10,moving_belt,blue,false,true,joint 1 -,false,2024-03-04 14:59:17.678440,16.519,0.16,235.0,292.8220520019531,106.5785140991211,84.958251953125,0.0,20.0,51.0,-4.656612873077393e-10,-20.0
32,100,100,10,moving_belt,blue,false,true,joint 1 -,false,2024-03-04 14:59:18.366438,16.443,0.16,235.0,292.8220520019531,106.5785140991211,84.958251953125,0.0,20.0,51.0,-4.656612873077393e-10,-20.0
32,100,100,10,moving_belt,blue,false,true,joint 1 -,false,2024-03-04 14:59:19.747113,16.462,0.159,235.0,292.8220520019531,106.5785140991211,84.958251953125,0.0,20.0,51.0,-4.656612873077393e-10,-20.0
32,100,100,10,moving_belt,blue,false,true,joint 1 -,false,2024-03-04 14:59:20.436768,16.462,0.159,235.0,292.8220520019531,106.5785140991211,84.958251953125,0.0,20.0,51.0,-4.656612873077393e-10,-20.0
32,100,100,10,moving_belt,blue,false,true,joint 1 -,false,2024-03-04 14:59:21.812110,16.519,0.159,235.0,292.8220520019531,106.5785140991211,84.958251953125,0.0,20.0,51.0,-4.656612873077393e-10,-20.0
32,100,100,10,moving_belt,blue,false,true,joint 1 -,false,2024-03-04 14:59:22.501778,16.424,0.159,235.0,292.8220520019531,106.5785140991211,84.958251953125,0.0,20.0,51.0,-4.656612873077393e-10,-20.0
32,100,100,10,moving_belt,blue,false,true,joint 1 -,false,2024-03-04 14:59:23.884004,16.5,0.16,235.0,292.8220520019531,106.5785140991211,84.958251953125,0.0,20.0,51.0,-4.656612873077393e-10,-20.0
32,100,100,10,moving_belt,blue,false,true,joint 1 -,false,2024-03-04 14:59:24.572646,16.5,0.16,235.0,292.8220520019531,106.5785140991211,84.958251953125,0.0,20.0,51.0,-4.656612873077393e-10,-20.0
32,100,100,10,moving_belt,blue,false,true,joint 1 -,false,2024-03-04 14:59:25.270772,16.5,0.16,235.0,292.8220520019531,106.5785140991211,84.958251953125,0.0,20.0,51.0,-4.656612873077393e-10,-20.0
32,100,100,10,moving_belt,blue,false,true,joint 1 -,false,2024-03-04 14:59:26.651316,16.31,0.159,235.0,292.8220520019531,106.5785140991211,84.958251953125,0.0,20.0,51.0,-4.656612873077393e-10,-20.0
32,100,100,10,moving_belt,blue,false,true,joint 1 -,false,2024-03-04 14:59:27.339197,16.595,0.159,235.0,292.8220520019531,106.5785140991211,84.958251953125,0.0,20.0,51.0,-4.656612873077393e-10,-20.0
32,100,100,10,moving_belt,blue,false,true,joint 1 -,false,2024-03-04 14:59:28.717981,16.538,0.159,235.0,292.8220520019531,106.5785140991211,84.958251953125,0.0,20.0,51.0,-4.656612873077393e-10,-20.0
32,100,100,10,moving_belt,blue,false,true,joint 1 -,false,2024-03-04 14:59:29.406039,16.538,0.159,235.0,292.8220520019531,106.5785140991211,84.958251953125,0.0,20.0,51.0,-4.656612873077393e-10,-20.0
32,100,100,10,moving_belt,blue,false,true,joint 1 -,false,2024-03-04 14:59:30.781331,16.576,0.159,235.0,292.8220520019531,106.5785140991211,84.958251953125,0.0,20.0,51.0,-4.656612873077393e-10,-20.0
32,100,100,10,moving_belt,blue,false,true,joint 1 -,false,2024-03-04 14:59:31.468396,16.576,0.159,235.0,292.8220520019531,106.5785140991211,84.958251953125,0.0,20.0,51.0,-4.656612873077393e-10,-20.0
32,100,100,10,moving_belt,blue,false,true,joint 1 -,false,2024-03-04 14:59:32.849653,16.443,0.159,235.0,292.8220520019531,106.5785140991211,84.958251953125,0.0,20.0,51.0,-4.656612873077393e-10,-20.0
32,100,100,10,moving_belt,blue,false,true,joint 1 -,false,2024-03-04 14:59:33.539809,16.462,0.159,235.0,292.8220520019531,106.5785140991211,84.958251953125,0.0,20.0,51.0,-4.656612873077393e-10,-20.0
32,100,100,10,moving_belt,blue,false,true,joint 1 -,false,2024-03-04 14:59:34.920166,16.443,0.16,235.0,292.8220520019531,106.5785140991211,84.958251953125,0.0,20.0,51.0,-4.656612873077393e-10,-20.0
32,100,100,10,go_to_pick_down,blue,true,false,joint 3 +,false,2024-03-04 14:59:35.611162,16.443,0.16,235.0,285.3606262207031,103.86277770996094,37.29911804199219,0.0,20.0,51.0,19.39399528503418,-20.0
32,100,100,10,go_to_pick_up_from_pick_down,blue,true,false,joint 3 -,true,2024-03-04 14:59:36.304708,16.405,0.16,235.0,292.54974365234375,106.47940063476562,75.73231506347656,0.0,20.0,51.0,3.0821664333343506,-20.0
32,100,100,10,go_to_color_detect_up_from_pick_up,blue,true,false,joint 1 +,true,2024-03-04 14:59:37.686783,22.519,0.215,235.0,205.84426879882812,233.94842529296875,84.958251953125,28.65640640258789,49.77968978881836,51.0,0.0,-20.0
32,100,100,10,go_to_color_detect_down,blue,true,false,joint 3 +,true,2024-03-04 14:59:38.378557,22.519,0.215,235.0,131.4761962890625,281.95159912109375,72.65760803222656,45.0,65.0,51.0,5.439999103546143,-20.0
32,100,100,10,go_to_color_detect_down,blue,true,false,joint 3 +,true,2024-03-04 14:59:39.759106,22.196,0.206,235.0,111.67813110351562,239.4945068359375,-23.121429443359375,45.0,65.0,51.0,47.53843688964844,-20.0
32,100,100,10,go_to_color_detect_up_from_color_detect_down,blue,true,false,joint 3 -,false,2024-03-04 14:59:40.454410,21.057,0.206,235.0,130.48638916015625,279.8289489746094,56.1141357421875,45.0,65.0,51.0,10.38463020324707,-20.0
32,100,100,10,detecting_color,blue,false,false,detecting_color,false,2024-03-04 14:59:41.869454,16.956,0.164,235.0,131.69407653808594,282.4188232421875,84.958251953125,45.0,65.0,51.0,-4.656612873077393e-10,-20.0
32,100,100,10,detecting_color,blue,false,false,detecting_color,false,2024-03-04 14:59:42.559453,16.956,0.164,235.0,131.69407653808594,282.4188232421875,84.958251953125,45.0,65.0,51.0,-4.656612873077393e-10,-20.0
32,100,100,10,go_to_color_detect_down,blue,true,false,joint 3 +,false,2024-03-04 14:59:43.936659,16.063,0.157,235.0,129.5434112548828,277.8067321777344,46.61455154418945,45.0,65.0,51.0,16.23999786376953,-20.0
32,100,100,10,go_to_color_detect_up_from_color_detect_down,blue,true,false,joint 3 -,true,2024-03-04 14:59:44.631976,16.006,0.157,235.0,111.23545837402344,238.54519653320312,-24.077789306640625,45.0,65.0,51.0,47.7599983215332,-20.0
32,100,100,10,go_to_color_detect_up_from_color_detect_down,blue,true,false,joint 3 -,true,2024-03-04 14:59:45.323308,19.12,0.157,235.0,131.22311401367188,281.40887451171875,66.89193725585938,45.0,65.0,51.0,6.328224182128906,-20.0
32,100,100,10,go_to_green_up,green,true,false,joint 1 +,true,2024-03-04 14:59:46.705604,23.393,0.216,235.0,21.249757766723633,310.88934326171875,84.958251953125,66.08982849121094,87.29965209960938,51.0,-4.656612873077393e-10,-20.0
32,100,100,10,go_to_pick_up_from_green,green,true,false,joint 1 -,false,2024-03-04 14:59:47.406632,22.329,0.216,235.0,-61.379634857177734,305.5098571777344,84.958251953125,81.35999298095703,100.79999542236328,51.0,-4.656612873077393e-10,-20.0
32,100,100,10,go_to_pick_up_from_green,green,true,false,joint 1 -,false,2024-03-04 14:59:48.783677,20.867,0.209,235.0,263.6983337402344,166.0328826904297,84.958251953125,12.195823669433594,31.22800636291504,51.0,-4.656612873077393e-10,-20.0
32,100,100,10,moving_belt,green,false,true,joint 1 -,false,2024-03-04 14:59:49.471748,16.253,0.209,235.0,292.8220520019531,106.5785140991211,84.958251953125,0.0,20.0,51.0,-4.656612873077393e-10,-20.0
32,100,100,10,moving_belt,green,false,true,joint 1 -,false,2024-03-04 14:59:50.865812,16.443,0.157,235.0,292.8220520019531,106.5785140991211,84.958251953125,0.0,20.0,51.0,-4.656612873077393e-10,-20.0
32,100,100,10,moving_belt,green,false,true,joint 1 -,false,2024-03-04 14:59:51.559918,16.443,0.157,235.0,292.8220520019531,106.5785140991211,84.958251953125,0.0,20.0,51.0,-4.656612873077393e-10,-20.0
32,100,100,10,moving_belt,green,false,true,joint 1 -,false,2024-03-04 14:59:52.249621,16.481,0.162,235.0,292.8220520019531,106.5785140991211,84.958251953125,0.0,20.0,51.0,-4.656612873077393e-10,-20.0
32,100,100,10,moving_belt,green,false,true,joint 1 -,false,2024-03-04 14:59:53.642575,16.538,0.162,235.0,292.8220520019531,106.5785140991211,84.958251953125,0.0,20.0,51.0,-4.656612873077393e-10,-20.0
32,100,100,10,moving_belt,green,false,true,joint 1 -,false,2024-03-04 14:59:54.347732,16.443,0.161,235.0,292.8220520019531,106.5785140991211,84.958251953125,0.0,20.0,51.0,-4.656612873077393e-10,-20.0
32,100,100,10,moving_belt,green,false,true,joint 1 -,false,2024-03-04 14:59:55.733812,16.576,0.161,235.0,292.8220520019531,106.5785140991211,84.958251953125,0.0,20.0,51.0,-4.656612873077393e-10,-20.0
32,100,100,10,moving_belt,green,false,true,joint 1 -,false,2024-03-04 14:59:56.449098,16.576,0.161,235.0,292.8220520019531,106.5785140991211,84.958251953125,0.0,20.0,51.0,-4.656612873077393e-10,-20.0
32,100,100,10,moving_belt,green,false,true,joint 1 -,false,2024-03-04 14:59:57.829804,16.405,0.16,235.0,292.8220520019531,106.5785140991211,84.958251953125,0.0,20.0,51.0,-4.656612873077393e-10,-20.0
32,100,100,10,moving_belt,green,false,true,joint 1 -,false,2024-03-04 14:59:58.515123,16.443,0.16,235.0,292.8220520019531,106.5785140991211,84.958251953125,0.0,20.0,51.0,-4.656612873077393e-10,-20.0
32,100,100,10,moving_belt,green,false,true,joint 1 -,false,2024-03-04 14:59:59.895805,16.272,0.16,235.0,292.8220520019531,106.5785140991211,84.958251953125,0.0,20.0,51.0,-4.656612873077393e-10,-20.0
32,100,100,10,moving_belt,green,false,true,joint 1 -,false,2024-03-04 15:00:00.585088,16.462,0.16,235.0,292.8220520019531,106.5785140991211,84.958251953125,0.0,20.0,51.0,-4.656612873077393e-10,-20.0
32,100,100,10,moving_belt,green,false,true,joint 1 -,false,2024-03-04 15:00:01.278403,16.462,0.16,235.0,292.8220520019531,106.5785140991211,84.958251953125,0.0,20.0,51.0,-4.656612873077393e-10,-20.0
32,100,100,10,moving_belt,green,false,true,joint 1 -,false,2024-03-04 15:00:02.662003,16.481,0.16,235.0,292.8220520019531,106.5785140991211,84.958251953125,0.0,20.0,51.0,-4.656612873077393e-10,-20.0
32,100,100,10,moving_belt,green,false,true,joint 1 -,false,2024-03-04 15:00:03.356815,16.443,0.161,235.0,292.8220520019531,106.5785140991211,84.958251953125,0.0,20.0,51.0,-4.656612873077393e-10,-20.0
32,100,100,10,moving_belt,green,false,true,joint 1 -,false,2024-03-04 15:00:04.749453,16.443,0.161,233.1,292.8220520019531,106.5785140991211,84.958251953125,0.0,20.0,51.0,-4.656612873077393e-10,-20.0
32,100,100,10,moving_belt,green,false,true,joint 1 -,false,2024-03-04 15:00:05.438093,16.424,0.161,233.1,292.8220520019531,106.5785140991211,84.958251953125,0.0,20.0,51.0,-4.656612873077393e-10,-20.0
32,100,100,10,moving_belt,green,false,true,joint 1 -,false,2024-03-04 15:00:06.828146,16.671,0.161,235.0,292.8220520019531,106.5785140991211,84.958251953125,0.0,20.0,51.0,-4.656612873077393e-10,-20.0
32,100,100,10,moving_belt,green,false,true,joint 1 -,false,2024-03-04 15:00:07.517445,16.671,0.161,235.0,292.8220520019531,106.5785140991211,84.958251953125,0.0,20.0,51.0,-4.656612873077393e-10,-20.0
32,100,100,10,moving_belt,green,false,true,joint 1 -,false,2024-03-04 15:00:08.899534,16.405,0.156,236.8,292.8220520019531,106.5785140991211,84.958251953125,0.0,20.0,51.0,-4.656612873077393e-10,-20.0
32,100,100,10,moving_belt,green,false,true,joint 1 -,false,2024-03-04 15:00:09.588698,16.386,0.156,236.8,292.8220520019531,106.5785140991211,84.958251953125,0.0,20.0,51.0,-4.656612873077393e-10,-20.0
32,100,100,10,moving_belt,green,false,true,joint 1 -,false,2024-03-04 15:00:10.276037,16.481,0.156,236.8,292.8220520019531,106.5785140991211,84.958251953125,0.0,20.0,51.0,-4.656612873077393e-10,-20.0
32,100,100,10,moving_belt,green,false,true,joint 1 -,false,2024-03-04 15:00:11.654198,16.405,0.156,236.8,292.8220520019531,106.5785140991211,84.958251953125,0.0,20.0,51.0,-4.656612873077393e-10,-20.0
32,100,100,10,moving_belt,green,false,true,joint 1 -,false,2024-03-04 15:00:12.354366,16.405,0.159,236.8,292.8220520019531,106.5785140991211,84.958251953125,0.0,20.0,51.0,-4.656612873077393e-10,-20.0
32,100,100,10,moving_belt,green,false,true,joint 1 -,false,2024-03-04 15:00:13.737816,16.538,0.159,236.8,292.8220520019531,106.5785140991211,84.958251953125,0.0,20.0,51.0,-4.656612873077393e-10,-20.0
32,100,100,10,moving_belt,green,false,true,joint 1 -,false,2024-03-04 15:00:14.426204,16.538,0.157,236.8,292.8220520019531,106.5785140991211,84.958251953125,0.0,20.0,51.0,-4.656612873077393e-10,-20.0
32,100,100,10,moving_belt,green,false,true,joint 1 -,false,2024-03-04 15:00:15.807260,16.5,0.157,236.8,292.8220520019531,106.5785140991211,84.958251953125,0.0,20.0,51.0,-4.656612873077393e-10,-20.0
32,100,100,10,go_to_pick_down,green,true,false,joint 3 +,false,2024-03-04 15:00:16.511789,16.424,0.157,236.8,287.5127258300781,104.64608001708984,44.5949592590332,0.0,20.0,51.0,16.6131649017334,-20.0
32,100,100,10,go_to_pick_up_from_pick_down,green,true,false,joint 3 -,true,2024-03-04 15:00:17.890925,16.614,0.158,236.8,291.629150390625,106.14432525634766,65.6810302734375,0.0,20.0,51.0,6.7791643142700195,-20.0
32,100,100,10,go_to_color_detect_up_from_pick_up,green,true,false,joint 1 +,true,2024-03-04 15:00:18.586747,23.241,0.158,236.8,234.74993896484375,204.9297637939453,84.958251953125,21.119998931884766,42.439998626708984,51.0,0.0,-20.0
32,100,100,10,go_to_color_detect_down,green,true,false,joint 3 +,true,2024-03-04 15:00:19.337088,23.241,0.207,236.8,131.64828491210938,282.3206481933594,79.31524658203125,45.0,65.0,51.0,2.6399993896484375,-20.0
32,100,100,10,go_to_color_detect_down,green,true,false,joint 3 +,true,2024-03-04 15:00:20.910436,22.234,0.208,236.8,111.67813110351562,239.4945068359375,-23.121429443359375,45.0,65.0,51.0,47.53843688964844,-20.0
32,100,100,10,go_to_color_detect_up_from_color_detect_down,green,true,false,joint 3 -,false,2024-03-04 15:00:21.700560,22.443,0.208,236.8,128.73878479003906,276.0812072753906,40.15884017944336,45.0,65.0,51.0,16.572317123413086,-20.0
32,100,100,10,detecting_color,green,false,false,detecting_color,false,2024-03-04 15:00:22.391509,17.051,0.208,236.8,131.69407653808594,282.4188232421875,84.958251953125,45.0,65.0,51.0,-4.656612873077393e-10,-20.0
32,100,100,10,go_to_color_detect_down,green,true,false,joint 3 +,false,2024-03-04 15:00:23.766633,16.025,0.158,236.8,131.69407653808594,282.4188232421875,84.958251953125,45.0,65.0,51.0,-4.656612873077393e-10,-20.0
32,100,100,10,go_to_color_detect_down,green,true,false,joint 3 +,false,2024-03-04 15:00:24.457945,16.025,0.158,236.8,118.77991485595703,254.72433471679688,-4.7643280029296875,45.0,65.0,51.0,38.50665283203125,-20.0
32,100,100,10,go_to_color_detect_up_from_color_detect_down,green,true,false,joint 3 -,true,2024-03-04 15:00:25.876066,19.234,0.158,236.8,118.6042709350586,254.34765625,-5.301177978515625,45.0,65.0,51.0,36.959999084472656,-20.0
32,100,100,10,go_to_red_up,red,true,false,joint 1 +,true,2024-03-04 15:00:26.566788,19.234,0.158,236.8,130.50990295410156,282.968017578125,84.958251953125,45.24000549316406,65.40000915527344,51.0,-4.656612873077393e-10,-20.0
32,100,100,10,go_to_red_up,red,true,false,joint 1 +,true,2024-03-04 15:00:27.256724,23.545,0.158,236.8,-114.30354309082031,289.8938293457031,84.958251953125,91.51904296875,112.53742980957031,51.0,-4.656612873077393e-10,-20.0
32,100,100,10,go_to_pick_up_from_red,red,true,false,joint 1 -,false,2024-03-04 15:00:28.663955,22.728,0.205,236.8,-143.40499877929688,276.6563415527344,84.958251953125,97.39999389648438,116.59999084472656,51.0,-4.656612873077393e-10,-20.0
32,100,100,10,go_to_pick_up_from_red,red,true,false,joint 1 -,false,2024-03-04 15:00:29.353230,22.728,0.205,236.8,249.4545440673828,186.75161743164062,84.958251953125,16.819992065429688,35.67999267578125,51.0,-4.656612873077393e-10,-20.0
32,100,100,10,moving_belt,red,false,true,joint 1 -,false,2024-03-04 15:00:30.732772,16.348,0.157,236.8,292.8220520019531,106.5785140991211,84.958251953125,0.0,20.0,51.0,-4.656612873077393e-10,-20.0
32,100,100,10,moving_belt,red,false,true,joint 1 -,false,2024-03-04 15:00:31.425959,16.215,0.157,236.8,292.8220520019531,106.5785140991211,84.958251953125,0.0,20.0,51.0,-4.656612873077393e-10,-20.0
32,100,100,10,moving_belt,red,false,true,joint 1 -,false,2024-03-04 15:00:32.804994,16.519,0.158,236.8,292.8220520019531,106.5785140991211,84.958251953125,0.0,20.0,51.0,-4.656612873077393e-10,-20.0
32,100,100,10,moving_belt,red,false,true,joint 1 -,false,2024-03-04 15:00:33.493400,16.557,0.158,236.8,292.8220520019531,106.5785140991211,84.958251953125,0.0,20.0,51.0,-4.656612873077393e-10,-20.0
32,100,100,10,moving_belt,red,false,true,joint 1 -,false,2024-03-04 15:00:34.881363,16.519,0.159,236.8,292.8220520019531,106.5785140991211,84.958251953125,0.0,20.0,51.0,-4.656612873077393e-10,-20.0
32,100,100,10,moving_belt,red,false,true,joint 1 -,false,2024-03-04 15:00:35.572062,16.519,0.159,236.8,292.8220520019531,106.5785140991211,84.958251953125,0.0,20.0,51.0,-4.656612873077393e-10,-20.0
32,100,100,10,moving_belt,red,false,true,joint 1 -,false,2024-03-04 15:00:36.950401,16.519,0.161,236.8,292.8220520019531,106.5785140991211,84.958251953125,0.0,20.0,51.0,-4.656612873077393e-10,-20.0
32,100,100,10,moving_belt,red,false,true,joint 1 -,false,2024-03-04 15:00:37.641008,16.519,0.161,236.8,292.8220520019531,106.5785140991211,84.958251953125,0.0,20.0,51.0,-4.656612873077393e-10,-20.0
32,100,100,10,moving_belt,red,false,true,joint 1 -,false,2024-03-04 15:00:38.330569,16.481,0.161,236.8,292.8220520019531,106.5785140991211,84.958251953125,0.0,20.0,51.0,-4.656612873077393e-10,-20.0
32,100,100,10,moving_belt,red,false,true,joint 1 -,false,2024-03-04 15:00:39.707680,16.424,0.159,236.8,292.8220520019531,106.5785140991211,84.958251953125,0.0,20.0,51.0,-4.656612873077393e-10,-20.0
32,100,100,10,moving_belt,red,false,true,joint 1 -,false,2024-03-04 15:00:40.397373,16.424,0.159,236.8,292.8220520019531,106.5785140991211,84.958251953125,0.0,20.0,51.0,-4.656612873077393e-10,-20.0
32,100,100,10,moving_belt,red,false,true,joint 1 -,false,2024-03-04 15:00:41.773505,16.557,0.16,236.8,292.8220520019531,106.5785140991211,84.958251953125,0.0,20.0,51.0,-4.656612873077393e-10,-20.0
32,100,100,10,moving_belt,red,false,true,joint 1 -,false,2024-03-04 15:00:42.460457,16.386,0.16,236.8,292.8220520019531,106.5785140991211,84.958251953125,0.0,20.0,51.0,-4.656612873077393e-10,-20.0
32,100,100,10,moving_belt,red,false,true,joint 1 -,false,2024-03-04 15:00:43.842037,16.5,0.159,236.8,292.8220520019531,106.5785140991211,84.958251953125,0.0,20.0,51.0,-4.656612873077393e-10,-20.0
32,100,100,10,moving_belt,red,false,true,joint 1 -,false,2024-03-04 15:00:44.534720,16.557,0.159,236.8,292.8220520019531,106.5785140991211,84.958251953125,0.0,20.0,51.0,-4.656612873077393e-10,-20.0
32,100,100,10,moving_belt,red,false,true,joint 1 -,false,2024-03-04 15:00:45.924235,16.481,0.159,236.8,292.8220520019531,106.5785140991211,84.958251953125,0.0,20.0,51.0,-4.656612873077393e-10,-20.0
32,100,100,10,moving_belt,red,false,true,joint 1 -,false,2024-03-04 15:00:46.612932,16.481,0.159,236.8,292.8220520019531,106.5785140991211,84.958251953125,0.0,20.0,51.0,-4.656612873077393e-10,-20.0
32,100,100,10,moving_belt,red,false,true,joint 1 -,false,2024-03-04 15:00:47.302046,16.519,0.16,236.8,292.8220520019531,106.5785140991211,84.958251953125,0.0,20.0,51.0,-4.656612873077393e-10,-20.0
32,100,100,10,moving_belt,red,false,true,joint 1 -,false,2024-03-04 15:00:48.690983,16.348,0.16,236.8,292.8220520019531,106.5785140991211,84.958251953125,0.0,20.0,51.0,-4.656612873077393e-10,-20.0
32,100,100,10,moving_belt,red,false,true,joint 1 -,false,2024-03-04 15:00:49.406931,16.538,0.16,236.8,292.8220520019531,106.5785140991211,84.958251953125,0.0,20.0,51.0,-4.656612873077393e-10,-20.0
32,100,100,10,moving_belt,red,false,true,joint 1 -,false,2024-03-04 15:00:50.795937,16.481,0.16,236.8,292.8220520019531,106.5785140991211,84.958251953125,0.0,20.0,51.0,-4.656612873077393e-10,-20.0
32,100,100,10,moving_belt,red,false,true,joint 1 -,false,2024-03-04 15:00:51.493987,16.481,0.16,236.8,292.8220520019531,106.5785140991211,84.958251953125,0.0,20.0,51.0,-4.656612873077393e-10,-20.0
32,100,100,10,moving_belt,red,false,true,joint 1 -,false,2024-03-04 15:00:52.911184,16.462,0.159,236.8,292.8220520019531,106.5785140991211,84.958251953125,0.0,20.0,51.0,-4.656612873077393e-10,-20.0
32,100,100,10,moving_belt,red,false,true,joint 1 -,false,2024-03-04 15:00:53.604177,16.443,0.159,236.8,292.8220520019531,106.5785140991211,84.958251953125,0.0,20.0,51.0,-4.656612873077393e-10,-20.0
32,100,100,10,moving_belt,red,false,true,joint 1 -,false,2024-03-04 15:00:54.299485,16.538,0.16,236.8,292.8220520019531,106.5785140991211,84.958251953125,0.0,20.0,51.0,-4.656612873077393e-10,-20.0
32,100,100,10,moving_belt,red,false,true,joint 1 -,false,2024-03-04 15:00:55.694803,16.595,0.16,236.8,292.8220520019531,106.5785140991211,84.958251953125,0.0,20.0,51.0,-4.656612873077393e-10,-20.0
32,100,100,10,moving_belt,red,false,true,joint 1 -,false,2024-03-04 15:00:56.391278,16.595,0.159,236.8,292.8220520019531,106.5785140991211,84.958251953125,0.0,20.0,51.0,-4.656612873077393e-10,-20.0
32,100,100,10,go_to_pick_down,red,true,false,joint 3 +,false,2024-03-04 15:00:57.797346,16.5,0.159,236.8,289.3720397949219,105.32281494140625,52.30973434448242,0.0,20.0,51.0,13.668498992919922,-20.0
32,100,100,10,go_to_pick_up_from_pick_down,red,true,false,joint 3 -,true,2024-03-04 15:00:58.486919,16.158,0.154,236.8,290.7051086425781,105.8080062866211,59.321231842041016,0.0,20.0,51.0,9.16766357421875,-20.0
32,100,100,10,go_to_color_detect_up_from_pick_up,red,true,false,joint 1 +,true,2024-03-04 15:00:59.868011,23.146,0.154,236.8,247.55128479003906,189.26724243164062,84.958251953125,17.39999771118164,38.599998474121094,51.0,0.0,-20.0
32,100,100,10,go_to_color_detect_down,red,true,false,joint 3 +,true,2024-03-04 15:01:00.558193,22.329,0.208,236.8,131.6822052001953,282.3934020996094,82.08492279052734,45.0,65.0,51.0,1.4399996995925903,-20.0
32,100,100,10,go_to_color_detect_down,red,true,false,joint 3 +,true,2024-03-04 15:01:01.982197,22.14,0.208,236.8,112.10877227783203,240.4180145263672,-22.173080444335938,45.0,65.0,51.0,47.07587432861328,-20.0
32,100,100,10,go_to_color_detect_up_from_color_detect_down,red,true,false,joint 3 -,false,2024-03-04 15:01:02.698465,22.14,0.2,236.8,127.3722915649414,273.1507568359375,31.08867645263672,45.0,65.0,51.0,20.206161499023438,-20.0
32,100,100,10,detecting_color,red,false,false,detecting_color,false,2024-03-04 15:01:03.391613,18.475,0.2,236.8,131.69407653808594,282.4188232421875,84.958251953125,45.0,65.0,51.0,-4.656612873077393e-10,-20.0
32,100,100,10,detecting_color,red,false,false,detecting_color,false,2024-03-04 15:01:04.789611,16.272,0.155,236.8,131.69407653808594,282.4188232421875,84.958251953125,45.0,65.0,51.0,-4.656612873077393e-10,-20.0
32,100,100,10,go_to_color_detect_down,red,true,false,joint 3 +,false,2024-03-04 15:01:05.483523,15.949,0.155,236.8,121.2841567993164,260.0946960449219,3.502349853515625,45.0,65.0,51.0,34.7015266418457,-20.0
32,100,100,10,go_to_color_detect_up_from_color_detect_down,red,true,false,joint 3 -,true,2024-03-04 15:01:06.907312,16.158,0.175,236.8,116.34143829345703,249.49501037597656,-11.791847229003906,45.0,65.0,51.0,40.39999771118164,-20.0
32,100,100,10,go_to_green_up,green,true,false,joint 1 +,true,2024-03-04 15:01:07.596806,23.431,0.175,236.8,131.69407653808594,282.4188232421875,84.958251953125,45.0,65.04000091552734,51.0,-4.656612873077393e-10,-20.0
32,100,100,10,go_to_green_up,green,true,false,joint 1 +,true,2024-03-04 15:01:08.293742,23.431,0.175,235.0,-57.57305908203125,306.2500305175781,84.958251953125,80.64698028564453,101.21680450439453,51.0,-4.656612873077393e-10,-20.0
32,100,100,10,go_to_pick_up_from_green,green,true,false,joint 1 -,false,2024-03-04 15:01:09.722773,22.367,0.209,235.0,19.56648063659668,310.99981689453125,84.958251953125,66.39999389648438,85.15999603271484,51.0,-4.656612873077393e-10,-20.0
32,100,100,10,go_to_pick_up_from_green,green,true,false,joint 1 -,false,2024-03-04 15:01:10.411721,16.139,0.209,236.8,290.55938720703125,112.6009292602539,84.958251953125,1.1829204559326172,20.895103454589844,51.0,-4.656612873077393e-10,-20.0
32,100,100,10,moving_belt,green,false,true,joint 1 -,false,2024-03-04 15:01:11.815933,16.101,0.156,236.8,292.8220520019531,106.5785140991211,84.958251953125,0.0,20.0,51.0,-4.656612873077393e-10,-20.0
32,100,100,10,moving_belt,green,false,true,joint 1 -,false,2024-03-04 15:01:12.516054,16.101,0.156,236.8,292.8220520019531,106.5785140991211,84.958251953125,0.0,20.0,51.0,-4.656612873077393e-10,-20.0
32,100,100,10,moving_belt,green,false,true,joint 1 -,false,2024-03-04 15:01:13.927532,16.557,0.159,236.8,292.8220520019531,106.5785140991211,84.958251953125,0.0,20.0,51.0,-4.656612873077393e-10,-20.0
32,100,100,10,moving_belt,green,false,true,joint 1 -,false,2024-03-04 15:01:14.621616,16.519,0.159,236.8,292.8220520019531,106.5785140991211,84.958251953125,0.0,20.0,51.0,-4.656612873077393e-10,-20.0
32,100,100,10,moving_belt,green,false,true,joint 1 -,false,2024-03-04 15:01:15.321402,16.519,0.159,236.8,292.8220520019531,106.5785140991211,84.958251953125,0.0,20.0,51.0,-4.656612873077393e-10,-20.0
32,100,100,10,moving_belt,green,false,true,joint 1 -,false,2024-03-04 15:01:16.712715,16.519,0.16,236.8,292.8220520019531,106.5785140991211,84.958251953125,0.0,20.0,51.0,-4.656612873077393e-10,-20.0
32,100,100,10,moving_belt,green,false,true,joint 1 -,false,2024-03-04 15:01:17.421783,16.519,0.16,236.8,292.8220520019531,106.5785140991211,84.958251953125,0.0,20.0,51.0,-4.656612873077393e-10,-20.0
32,100,100,10,moving_belt,green,false,true,joint 1 -,false,2024-03-04 15:01:18.812168,16.481,0.16,236.8,292.8220520019531,106.5785140991211,84.958251953125,0.0,20.0,51.0,-4.656612873077393e-10,-20.0
32,100,100,10,moving_belt,green,false,true,joint 1 -,false,2024-03-04 15:01:19.498491,16.462,0.16,236.8,292.8220520019531,106.5785140991211,84.958251953125,0.0,20.0,51.0,-4.656612873077393e-10,-20.0
32,100,100,10,moving_belt,green,false,true,joint 1 -,false,2024-03-04 15:01:20.900568,16.519,0.159,236.8,292.8220520019531,106.5785140991211,84.958251953125,0.0,20.0,51.0,-4.656612873077393e-10,-20.0
32,100,100,10,moving_belt,green,false,true,joint 1 -,false,2024-03-04 15:01:21.593401,16.424,0.159,236.8,292.8220520019531,106.5785140991211,84.958251953125,0.0,20.0,51.0,-4.656612873077393e-10,-20.0
32,100,100,10,moving_belt,green,false,true,joint 1 -,false,2024-03-04 15:01:22.972403,16.538,0.159,236.8,292.8220520019531,106.5785140991211,84.958251953125,0.0,20.0,51.0,-4.656612873077393e-10,-20.0
32,100,100,10,moving_belt,green,false,true,joint 1 -,false,2024-03-04 15:01:23.668577,16.538,0.159,236.8,292.8220520019531,106.5785140991211,84.958251953125,0.0,20.0,51.0,-4.656612873077393e-10,-20.0
32,100,100,10,moving_belt,green,false,true,joint 1 -,false,2024-03-04 15:01:24.367532,16.652,0.16,236.8,292.8220520019531,106.5785140991211,84.958251953125,0.0,20.0,51.0,-4.656612873077393e-10,-20.0
32,100,100,10,moving_belt,green,false,true,joint 1 -,false,2024-03-04 15:01:25.771907,16.614,0.16,236.8,292.8220520019531,106.5785140991211,84.958251953125,0.0,20.0,51.0,-4.656612873077393e-10,-20.0
32,100,100,10,moving_belt,green,false,true,joint 1 -,false,2024-03-04 15:01:26.479848,16.443,0.16,236.8,292.8220520019531,106.5785140991211,84.958251953125,0.0,20.0,51.0,-4.656612873077393e-10,-20.0
32,100,100,10,moving_belt,green,false,true,joint 1 -,false,2024-03-04 15:01:27.864313,16.5,0.16,236.8,292.8220520019531,106.5785140991211,84.958251953125,0.0,20.0,51.0,-4.656612873077393e-10,-20.0
32,100,100,10,moving_belt,green,false,true,joint 1 -,false,2024-03-04 15:01:28.562351,16.5,0.16,236.8,292.8220520019531,106.5785140991211,84.958251953125,0.0,20.0,51.0,-4.656612873077393e-10,-20.0
32,100,100,10,moving_belt,green,false,true,joint 1 -,false,2024-03-04 15:01:29.942851,16.614,0.159,236.8,292.8220520019531,106.5785140991211,84.958251953125,0.0,20.0,51.0,-4.656612873077393e-10,-20.0
32,100,100,10,moving_belt,green,false,true,joint 1 -,false,2024-03-04 15:01:30.652719,16.481,0.159,236.8,292.8220520019531,106.5785140991211,84.958251953125,0.0,20.0,51.0,-4.656612873077393e-10,-20.0
32,100,100,10,moving_belt,green,false,true,joint 1 -,false,2024-03-04 15:01:31.365104,16.481,0.16,236.8,292.8220520019531,106.5785140991211,84.958251953125,0.0,20.0,51.0,-4.656612873077393e-10,-20.0
32,100,100,10,moving_belt,green,false,true,joint 1 -,false,2024-03-04 15:01:32.787214,16.576,0.16,236.8,292.8220520019531,106.5785140991211,84.958251953125,0.0,20.0,51.0,-4.656612873077393e-10,-20.0
32,100,100,10,moving_belt,green,false,true,joint 1 -,false,2024-03-04 15:01:33.492451,16.576,0.159,236.8,292.8220520019531,106.5785140991211,84.958251953125,0.0,20.0,51.0,-4.656612873077393e-10,-20.0
32,100,100,10,moving_belt,green,false,true,joint 1 -,false,2024-03-04 15:01:34.920205,16.443,0.159,236.8,292.8220520019531,106.5785140991211,84.958251953125,0.0,20.0,51.0,-4.656612873077393e-10,-20.0
32,100,100,10,moving_belt,green,false,true,joint 1 -,false,2024-03-04 15:01:35.608158,16.519,0.159,236.8,292.8220520019531,106.5785140991211,84.958251953125,0.0,20.0,51.0,-4.656612873077393e-10,-20.0
32,100,100,10,moving_belt,green,false,true,joint 1 -,false,2024-03-04 15:01:36.989293,16.538,0.159,236.8,292.8220520019531,106.5785140991211,84.958251953125,0.0,20.0,51.0,-4.656612873077393e-10,-20.0
32,100,100,10,go_to_pick_down,green,true,false,joint 3 +,false,2024-03-04 15:01:37.680140,16.538,0.16,236.8,292.8220520019531,106.5785140991211,84.958251953125,0.0,20.0,51.0,-4.656612873077393e-10,-20.0
32,100,100,10,go_to_pick_up_from_pick_down,green,true,false,joint 3 -,true,2024-03-04 15:01:38.367584,16.538,0.16,236.8,282.8036193847656,102.9321060180664,29.996570587158203,0.0,20.0,51.0,21.9918270111084,-20.0
32,100,100,10,go_to_color_detect_up_from_pick_up,green,true,false,joint 1 +,true,2024-03-04 15:01:39.749211,16.234,0.16,236.8,292.8220520019531,106.5785140991211,84.958251953125,0.0,20.040000915527344,51.0,0.0,-20.0
32,100,100,10,go_to_color_detect_up_from_pick_up,green,true,false,joint 1 +,true,2024-03-04 15:01:40.436695,23.621,0.217,236.8,164.71888732910156,264.5210876464844,84.958251953125,38.08922576904297,58.81250762939453,51.0,0.0,-20.0
32,100,100,10,go_to_color_detect_down,green,true,false,joint 3 +,true,2024-03-04 15:01:41.814081,22.424,0.217,236.8,129.83819580078125,278.4388732910156,49.296165466308594,45.0,65.0,51.0,15.119998931884766,-20.0
32,100,100,10,go_to_color_detect_up_from_color_detect_down,green,true,false,joint 3 -,false,2024-03-04 15:01:42.502754,22.329,0.207,236.8,112.28592681884766,240.7979278564453,-21.777687072753906,45.0,65.0,51.0,46.19999694824219,-20.0
32,100,100,10,go_to_color_detect_up_from_color_detect_down,green,true,false,joint 3 -,false,2024-03-04 15:01:43.884078,18.285,0.207,236.8,131.5928192138672,282.2016906738281,76.56852722167969,45.0,65.0,51.0,2.7805356979370117,-20.0
32,100,100,10,detecting_color,green,false,false,detecting_color,false,2024-03-04 15:01:44.574032,18.285,0.164,236.8,131.69407653808594,282.4188232421875,84.958251953125,45.0,65.0,51.0,-4.656612873077393e-10,-20.0
32,100,100,10,go_to_color_detect_down,green,true,false,joint 3 +,false,2024-03-04 15:01:45.947925,16.196,0.164,236.8,131.52725219726562,282.0610656738281,74.1922378540039,45.0,65.0,51.0,4.799999237060547,-20.0
32,100,100,10,go_to_color_detect_down,green,true,false,joint 3 +,false,2024-03-04 15:01:46.635187,16.196,0.156,236.8,111.8780517578125,239.92323303222656,-22.683425903320312,45.0,65.0,51.0,47.32715606689453,-20.0
32,100,100,10,go_to_color_detect_up_from_color_detect_down,green,true,false,joint 3 -,true,2024-03-04 15:01:48.015294,16.386,0.156,236.8,127.3722915649414,273.1507568359375,31.08867645263672,45.0,65.0,51.0,20.206161499023438,-20.0
32,100,100,10,go_to_blue_up,blue,true,false,joint 1 +,true,2024-03-04 15:01:48.708601,23.431,0.214,236.8,97.12145233154297,296.0931701660156,84.958251953125,51.840003967285156,72.60000610351562,51.0,-4.656612873077393e-10,-20.0
32,100,100,10,go_to_pick_up_from_blue,blue,true,false,joint 1 -,false,2024-03-04 15:01:49.461937,22.538,0.214,236.8,63.936920166015625,304.98492431640625,84.958251953125,58.159996032714844,77.39999389648438,51.0,-4.656612873077393e-10,-20.0
32,100,100,10,go_to_pick_up_from_blue,blue,true,false,joint 1 -,false,2024-03-04 15:01:50.849116,21.076,0.157,236.8,290.2830505371094,113.31146240234375,84.958251953125,1.3230972290039062,21.0181941986084,51.0,-4.656612873077393e-10,-20.0
32,100,100,10,moving_belt,blue,false,true,joint 1 -,false,2024-03-04 15:01:51.823893,16.215,0.157,236.8,292.8220520019531,106.5785140991211,84.958251953125,0.0,20.0,51.0,-4.656612873077393e-10,-20.0
32,100,100,10,moving_belt,blue,false,true,joint 1 -,false,2024-03-04 15:01:52.835510,16.462,0.157,236.8,292.8220520019531,106.5785140991211,84.958251953125,0.0,20.0,51.0,-4.656612873077393e-10,-20.0
32,100,100,10,moving_belt,blue,false,true,joint 1 -,false,2024-03-04 15:01:53.524155,16.462,0.16,236.8,292.8220520019531,106.5785140991211,84.958251953125,0.0,20.0,51.0,-4.656612873077393e-10,-20.0
32,100,100,10,moving_belt,blue,false,true,joint 1 -,false,2024-03-04 15:01:54.917271,16.5,0.16,236.8,292.8220520019531,106.5785140991211,84.958251953125,0.0,20.0,51.0,-4.656612873077393e-10,-20.0
32,100,100,10,moving_belt,blue,false,true,joint 1 -,false,2024-03-04 15:01:55.605762,16.5,0.158,236.8,292.8220520019531,106.5785140991211,84.958251953125,0.0,20.0,51.0,-4.656612873077393e-10,-20.0
32,100,100,10,moving_belt,blue,false,true,joint 1 -,false,2024-03-04 15:01:56.997278,16.5,0.158,236.8,292.8220520019531,106.5785140991211,84.958251953125,0.0,20.0,51.0,-4.656612873077393e-10,-20.0
32,100,100,10,moving_belt,blue,false,true,joint 1 -,false,2024-03-04 15:01:57.715944,16.5,0.159,236.8,292.8220520019531,106.5785140991211,84.958251953125,0.0,20.0,51.0,-4.656612873077393e-10,-20.0
32,100,100,10,moving_belt,blue,false,true,joint 1 -,false,2024-03-04 15:01:58.411718,16.5,0.159,236.8,292.8220520019531,106.5785140991211,84.958251953125,0.0,20.0,51.0,-4.656612873077393e-10,-20.0
32,100,100,10,moving_belt,blue,false,true,joint 1 -,false,2024-03-04 15:01:59.796115,16.633,0.159,236.8,292.8220520019531,106.5785140991211,84.958251953125,0.0,20.0,51.0,-4.656612873077393e-10,-20.0
32,100,100,10,moving_belt,blue,false,true,joint 1 -,false,2024-03-04 15:02:00.491787,16.633,0.159,236.8,292.8220520019531,106.5785140991211,84.958251953125,0.0,20.0,51.0,-4.656612873077393e-10,-20.0
32,100,100,10,moving_belt,blue,false,true,joint 1 -,false,2024-03-04 15:02:01.873036,16.424,0.159,236.8,292.8220520019531,106.5785140991211,84.958251953125,0.0,20.0,51.0,-4.656612873077393e-10,-20.0
32,100,100,10,moving_belt,blue,false,true,joint 1 -,false,2024-03-04 15:02:02.564230,16.405,0.159,236.8,292.8220520019531,106.5785140991211,84.958251953125,0.0,20.0,51.0,-4.656612873077393e-10,-20.0
32,100,100,10,moving_belt,blue,false,true,joint 1 -,false,2024-03-04 15:02:03.942391,16.538,0.159,236.8,292.8220520019531,106.5785140991211,84.958251953125,0.0,20.0,51.0,-4.656612873077393e-10,-20.0
32,100,100,10,moving_belt,blue,false,true,joint 1 -,false,2024-03-04 15:02:04.634738,16.538,0.159,236.8,292.8220520019531,106.5785140991211,84.958251953125,0.0,20.0,51.0,-4.656612873077393e-10,-20.0
32,100,100,10,moving_belt,blue,false,true,joint 1 -,false,2024-03-04 15:02:06.032015,16.329,0.159,236.8,292.8220520019531,106.5785140991211,84.958251953125,0.0,20.0,51.0,-4.656612873077393e-10,-20.0
32,100,100,10,moving_belt,blue,false,true,joint 1 -,false,2024-03-04 15:02:06.720955,16.329,0.158,236.8,292.8220520019531,106.5785140991211,84.958251953125,0.0,20.0,51.0,-4.656612873077393e-10,-20.0
32,100,100,10,moving_belt,blue,false,true,joint 1 -,false,2024-03-04 15:02:07.410616,16.519,0.158,236.8,292.8220520019531,106.5785140991211,84.958251953125,0.0,20.0,51.0,-4.656612873077393e-10,-20.0
32,100,100,10,moving_belt,blue,false,true,joint 1 -,false,2024-03-04 15:02:08.903721,16.519,0.16,236.8,292.8220520019531,106.5785140991211,84.958251953125,0.0,20.0,51.0,-4.656612873077393e-10,-20.0
32,100,100,10,moving_belt,blue,false,true,joint 1 -,false,2024-03-04 15:02:09.596472,16.519,0.16,236.8,292.8220520019531,106.5785140991211,84.958251953125,0.0,20.0,51.0,-4.656612873077393e-10,-20.0
32,100,100,10,moving_belt,blue,false,true,joint 1 -,false,2024-03-04 15:02:10.981360,16.443,0.159,236.8,292.8220520019531,106.5785140991211,84.958251953125,0.0,20.0,51.0,-4.656612873077393e-10,-20.0
32,100,100,10,moving_belt,blue,false,true,joint 1 -,false,2024-03-04 15:02:11.674342,16.443,0.159,236.8,292.8220520019531,106.5785140991211,84.958251953125,0.0,20.0,51.0,-4.656612873077393e-10,-20.0
32,100,100,10,moving_belt,blue,false,true,joint 1 -,false,2024-03-04 15:02:12.361771,16.5,0.159,236.8,292.8220520019531,106.5785140991211,84.958251953125,0.0,20.0,51.0,-4.656612873077393e-10,-20.0
32,100,100,10,moving_belt,blue,false,true,joint 1 -,false,2024-03-04 15:02:13.739375,16.462,0.16,236.8,292.8220520019531,106.5785140991211,84.958251953125,0.0,20.0,51.0,-4.656612873077393e-10,-20.0
32,100,100,10,moving_belt,blue,false,true,joint 1 -,false,2024-03-04 15:02:14.428463,16.462,0.16,236.8,292.8220520019531,106.5785140991211,84.958251953125,0.0,20.0,51.0,-4.656612873077393e-10,-20.0
32,100,100,10,moving_belt,blue,false,true,joint 1 -,false,2024-03-04 15:02:15.801738,16.481,0.158,236.8,292.8220520019531,106.5785140991211,84.958251953125,0.0,20.0,51.0,-4.656612873077393e-10,-20.0
32,100,100,10,moving_belt,blue,false,true,joint 1 -,false,2024-03-04 15:02:16.493236,16.367,0.158,236.8,292.8220520019531,106.5785140991211,84.958251953125,0.0,20.0,51.0,-4.656612873077393e-10,-20.0
32,100,100,10,go_to_pick_down,blue,true,false,joint 3 +,false,2024-03-04 15:02:17.867357,16.557,0.158,236.8,292.8220520019531,106.5785140991211,84.958251953125,0.0,20.0,51.0,-4.656612873077393e-10,-20.0
32,100,100,10,go_to_pick_up_from_pick_down,blue,true,false,joint 3 -,true,2024-03-04 15:02:18.562374,16.481,0.158,236.8,282.77099609375,102.92022705078125,29.9105224609375,0.0,20.0,51.0,22.0,-20.0
32,100,100,10,go_to_color_detect_up_from_pick_up,blue,true,false,joint 1 +,true,2024-03-04 15:02:19.946183,18.779,0.192,236.8,292.822021484375,106.57849884033203,84.84449768066406,0.0,20.0,51.0,0.00817110762000084,-20.0
32,100,100,10,go_to_color_detect_up_from_pick_up,blue,true,false,joint 1 +,true,2024-03-04 15:02:20.634843,22.595,0.192,236.8,158.1761474609375,268.48468017578125,84.958251953125,39.49578857421875,60.139068603515625,51.0,0.0,-20.0
32,100,100,10,go_to_color_detect_down,blue,true,false,joint 3 +,true,2024-03-04 15:02:22.016935,22.5,0.204,236.8,129.5434112548828,277.8067321777344,46.61455154418945,45.0,65.0,51.0,16.23999786376953,-20.0
32,100,100,10,go_to_color_detect_up_from_color_detect_down,blue,true,false,joint 3 -,false,2024-03-04 15:02:22.703248,21.988,0.204,236.8,112.5685043334961,241.4039306640625,-21.14051055908203,45.0,65.0,51.0,45.79999542236328,-20.0
32,100,100,10,go_to_color_detect_up_from_color_detect_down,blue,true,false,joint 3 -,false,2024-03-04 15:02:23.396423,21.741,0.204,236.8,131.6209259033203,282.2619934082031,77.82721710205078,45.0,65.0,51.0,2.329254150390625,-20.0
32,100,100,10,detecting_color,blue,false,false,detecting_color,false,2024-03-04 15:02:24.783799,16.899,0.162,236.8,131.69407653808594,282.4188232421875,84.958251953125,45.0,65.0,51.0,-4.656612873077393e-10,-20.0
32,100,100,10,go_to_color_detect_down,blue,true,false,joint 3 +,false,2024-03-04 15:02:25.502220,16.899,0.162,236.8,131.4142608642578,281.81878662109375,71.02216339111328,45.0,65.0,51.0,6.119998931884766,-20.0
32,100,100,10,go_to_color_detect_down,blue,true,false,joint 3 +,false,2024-03-04 15:02:26.878788,16.139,0.157,236.8,111.5094223022461,239.13270568847656,-23.488121032714844,45.0,65.0,51.0,47.709716796875,-20.0
32,100,100,10,go_to_color_detect_up_from_color_detect_down,blue,true,false,joint 3 -,true,2024-03-04 15:02:27.565339,16.139,0.157,236.8,128.73878479003906,276.0812072753906,40.15884017944336,45.0,65.0,51.0,16.572317123413086,-20.0
32,100,100,10,go_to_red_up,red,true,false,joint 1 +,true,2024-03-04 15:02:28.942414,22.88,0.213,236.8,84.63713073730469,299.9004821777344,84.958251953125,54.24000549316406,75.12000274658203,51.0,-4.656612873077393e-10,-20.0
32,100,100,10,go_to_red_up,red,true,false,joint 1 +,true,2024-03-04 15:02:29.629982,22.88,0.213,236.8,-171.4998321533203,260.17596435546875,84.958251953125,103.39161682128906,123.7300033569336,51.0,-4.656612873077393e-10,-20.0
32,100,100,10,go_to_pick_up_from_red,red,true,false,joint 1 -,false,2024-03-04 15:02:31.007463,20.62,0.207,236.8,-3.045640707015991,311.5998229980469,84.958251953125,70.55999755859375,88.87999725341797,51.0,-4.656612873077393e-10,-20.0
32,100,100,10,go_to_pick_up_from_red,red,true,false,joint 1 -,false,2024-03-04 15:02:31.694956,20.62,0.207,236.8,287.0972595214844,121.1565170288086,84.958251953125,2.879993438720703,22.419994354248047,51.0,-4.656612873077393e-10,-20.0
32,100,100,10,moving_belt,red,false,true,joint 1 -,false,2024-03-04 15:02:32.384904,16.291,0.207,236.8,292.8220520019531,106.5785140991211,84.958251953125,0.0,20.0,51.0,-4.656612873077393e-10,-20.0
32,100,100,10,moving_belt,red,false,true,joint 1 -,false,2024-03-04 15:02:33.765545,16.443,0.155,236.8,292.8220520019531,106.5785140991211,84.958251953125,0.0,20.0,51.0,-4.656612873077393e-10,-20.0
32,100,100,10,moving_belt,red,false,true,joint 1 -,false,2024-03-04 15:02:34.455328,16.557,0.155,236.8,292.8220520019531,106.5785140991211,84.958251953125,0.0,20.0,51.0,-4.656612873077393e-10,-20.0
32,100,100,10,moving_belt,red,false,true,joint 1 -,false,2024-03-04 15:02:35.846577,16.538,0.16,236.8,292.8220520019531,106.5785140991211,84.958251953125,0.0,20.0,51.0,-4.656612873077393e-10,-20.0
32,100,100,10,moving_belt,red,false,true,joint 1 -,false,2024-03-04 15:02:36.557208,16.538,0.16,236.8,292.8220520019531,106.5785140991211,84.958251953125,0.0,20.0,51.0,-4.656612873077393e-10,-20.0
32,100,100,10,moving_belt,red,false,true,joint 1 -,false,2024-03-04 15:02:37.935436,16.5,0.159,236.8,292.8220520019531,106.5785140991211,84.958251953125,0.0,20.0,51.0,-4.656612873077393e-10,-20.0
32,100,100,10,moving_belt,red,false,true,joint 1 -,false,2024-03-04 15:02:38.624971,16.519,0.159,236.8,292.8220520019531,106.5785140991211,84.958251953125,0.0,20.0,51.0,-4.656612873077393e-10,-20.0
32,100,100,10,moving_belt,red,false,true,joint 1 -,false,2024-03-04 15:02:40.011201,16.671,0.16,236.8,292.8220520019531,106.5785140991211,84.958251953125,0.0,20.0,51.0,-4.656612873077393e-10,-20.0
32,100,100,10,moving_belt,red,false,true,joint 1 -,false,2024-03-04 15:02:40.707690,16.671,0.16,236.8,292.8220520019531,106.5785140991211,84.958251953125,0.0,20.0,51.0,-4.656612873077393e-10,-20.0
32,100,100,10,moving_belt,red,false,true,joint 1 -,false,2024-03-04 15:02:41.396534,16.671,0.159,236.8,292.8220520019531,106.5785140991211,84.958251953125,0.0,20.0,51.0,-4.656612873077393e-10,-20.0
32,100,100,10,moving_belt,red,false,true,joint 1 -,false,2024-03-04 15:02:42.777618,16.538,0.159,236.8,292.8220520019531,106.5785140991211,84.958251953125,0.0,20.0,51.0,-4.656612873077393e-10,-20.0
32,100,100,10,moving_belt,red,false,true,joint 1 -,false,2024-03-04 15:02:43.466470,16.481,0.159,236.8,292.8220520019531,106.5785140991211,84.958251953125,0.0,20.0,51.0,-4.656612873077393e-10,-20.0
32,100,100,10,moving_belt,red,false,true,joint 1 -,false,2024-03-04 15:02:44.845758,16.481,0.159,236.8,292.8220520019531,106.5785140991211,84.958251953125,0.0,20.0,51.0,-4.656612873077393e-10,-20.0
32,100,100,10,moving_belt,red,false,true,joint 1 -,false,2024-03-04 15:02:45.543184,16.481,0.159,236.8,292.8220520019531,106.5785140991211,84.958251953125,0.0,20.0,51.0,-4.656612873077393e-10,-20.0
32,100,100,10,moving_belt,red,false,true,joint 1 -,false,2024-03-04 15:02:46.924198,16.5,0.159,236.8,292.8220520019531,106.5785140991211,84.958251953125,0.0,20.0,51.0,-4.656612873077393e-10,-20.0
32,100,100,10,moving_belt,red,false,true,joint 1 -,false,2024-03-04 15:02:47.612930,16.5,0.159,236.8,292.8220520019531,106.5785140991211,84.958251953125,0.0,20.0,51.0,-4.656612873077393e-10,-20.0
32,100,100,10,moving_belt,red,false,true,joint 1 -,false,2024-03-04 15:02:49.040160,16.443,0.159,236.8,292.8220520019531,106.5785140991211,84.958251953125,0.0,20.0,51.0,-4.656612873077393e-10,-20.0
32,100,100,10,moving_belt,red,false,true,joint 1 -,false,2024-03-04 15:02:49.729026,16.519,0.159,236.8,292.8220520019531,106.5785140991211,84.958251953125,0.0,20.0,51.0,-4.656612873077393e-10,-20.0
32,100,100,10,moving_belt,red,false,true,joint 1 -,false,2024-03-04 15:02:50.417957,16.519,0.159,236.8,292.8220520019531,106.5785140991211,84.958251953125,0.0,20.0,51.0,-4.656612873077393e-10,-20.0
32,100,100,10,moving_belt,red,false,true,joint 1 -,false,2024-03-04 15:02:51.798114,16.462,0.159,236.8,292.8220520019531,106.5785140991211,84.958251953125,0.0,20.0,51.0,-4.656612873077393e-10,-20.0
32,100,100,10,moving_belt,red,false,true,joint 1 -,false,2024-03-04 15:02:52.485908,16.462,0.159,236.8,292.8220520019531,106.5785140991211,84.958251953125,0.0,20.0,51.0,-4.656612873077393e-10,-20.0
32,100,100,10,moving_belt,red,false,true,joint 1 -,false,2024-03-04 15:02:53.863603,16.31,0.159,236.8,292.8220520019531,106.5785140991211,84.958251953125,0.0,20.0,51.0,-4.656612873077393e-10,-20.0
32,100,100,10,moving_belt,red,false,true,joint 1 -,false,2024-03-04 15:02:54.563543,16.538,0.16,236.8,292.8220520019531,106.5785140991211,84.958251953125,0.0,20.0,51.0,-4.656612873077393e-10,-20.0
32,100,100,10,moving_belt,red,false,true,joint 1 -,false,2024-03-04 15:02:55.302386,16.633,0.16,236.8,292.8220520019531,106.5785140991211,84.958251953125,0.0,20.0,51.0,-4.656612873077393e-10,-20.0
32,100,100,10,moving_belt,red,false,true,joint 1 -,false,2024-03-04 15:02:56.804326,16.595,0.161,236.8,292.8220520019531,106.5785140991211,84.958251953125,0.0,20.0,51.0,-4.656612873077393e-10,-20.0
32,100,100,10,moving_belt,red,false,true,joint 1 -,false,2024-03-04 15:02:57.502462,16.595,0.161,236.8,292.8220520019531,106.5785140991211,84.958251953125,0.0,20.0,51.0,-4.656612873077393e-10,-20.0
32,100,100,10,moving_belt,red,false,true,joint 1 -,false,2024-03-04 15:02:58.893824,16.5,0.161,235.0,292.8220520019531,106.5785140991211,84.958251953125,0.0,20.0,51.0,-4.656612873077393e-10,-20.0
32,100,100,10,go_to_pick_down,red,true,false,joint 3 +,false,2024-03-04 15:02:59.586961,16.5,0.158,235.0,283.1153869628906,103.04557800292969,30.826858520507812,0.0,20.0,51.0,21.76332664489746,-20.0
32,100,100,10,go_to_pick_up_from_pick_down,red,true,false,joint 3 -,true,2024-03-04 15:03:00.965720,16.234,0.158,235.0,292.7965393066406,106.56922149658203,82.13280487060547,0.0,20.0,51.0,0.825168788433075,-20.0
32,100,100,10,go_to_color_detect_up_from_pick_up,red,true,false,joint 1 +,true,2024-03-04 15:03:01.674168,23.829,0.216,235.0,175.69561767578125,257.3611755371094,84.958251953125,35.67938232421875,56.52266311645508,51.0,0.0,-20.0
32,100,100,10,go_to_color_detect_down,red,true,false,joint 3 +,true,2024-03-04 15:03:03.049675,22.671,0.216,235.0,130.5443878173828,279.95330810546875,56.808597564697266,45.0,65.0,51.0,11.999999046325684,-20.0
32,100,100,10,go_to_color_detect_up_from_color_detect_down,red,true,false,joint 3 -,false,2024-03-04 15:03:04.036045,22.557,0.208,235.0,111.13883972167969,238.33799743652344,-24.284042358398438,45.0,65.0,51.0,48.0,-20.0
32,100,100,10,go_to_color_detect_up_from_color_detect_down,red,true,false,joint 3 -,false,2024-03-04 15:03:04.724750,22.557,0.208,235.0,131.39366149902344,281.77459716796875,70.51924133300781,45.0,65.0,51.0,4.985661506652832,-20.0
32,100,100,10,detecting_color,red,false,false,detecting_color,false,2024-03-04 15:03:05.415930,17.336,0.164,235.0,131.69407653808594,282.4188232421875,84.958251953125,45.0,65.0,51.0,-4.656612873077393e-10,-20.0
32,100,100,10,go_to_color_detect_down,red,true,false,joint 3 +,false,2024-03-04 15:03:06.796089,16.443,0.164,235.0,131.67445373535156,282.37677001953125,81.26412963867188,45.0,65.0,51.0,1.7999995946884155,-20.0
32,100,100,10,go_to_color_detect_down,red,true,false,joint 3 +,false,2024-03-04 15:03:07.482994,16.215,0.164,235.0,113.70602416992188,243.8433380126953,-18.492164611816406,45.0,65.0,51.0,45.21946716308594,-20.0
32,100,100,10,go_to_color_detect_up_from_color_detect_down,red,true,false,joint 3 -,true,2024-03-04 15:03:08.860119,16.291,0.157,235.0,128.32533264160156,275.1945495605469,37.209197998046875,45.0,65.0,51.0,17.74359893798828,-20.0
32,100,100,10,go_to_green_up,green,true,false,joint 1 +,true,2024-03-04 15:03:09.550459,23.772,0.157,235.0,110.65652465820312,291.3054504394531,84.958251953125,49.20000457763672,69.80000305175781,51.0,-4.656612873077393e-10,-20.0
32,100,100,10,go_to_pick_up_from_green,green,true,false,joint 1 -,false,2024-03-04 15:03:10.938216,22.614,0.221,235.0,-80.30855560302734,301.0885009765625,84.958251953125,84.9346694946289,104.98448944091797,51.0,-4.656612873077393e-10,-20.0
32,100,100,10,go_to_pick_up_from_green,green,true,false,joint 1 -,false,2024-03-04 15:03:11.626849,22.652,0.221,235.0,172.188720703125,259.7205505371094,84.958251953125,36.456539154052734,54.76872253417969,51.0,-4.656612873077393e-10,-20.0
32,100,100,10,moving_belt,green,false,true,joint 1 -,false,2024-03-04 15:03:13.016907,16.424,0.159,236.8,292.8220520019531,106.5785140991211,84.958251953125,0.0,20.0,51.0,-4.656612873077393e-10,-20.0
32,100,100,10,moving_belt,green,false,true,joint 1 -,false,2024-03-04 15:03:13.707309,16.253,0.159,236.8,292.8220520019531,106.5785140991211,84.958251953125,0.0,20.0,51.0,-4.656612873077393e-10,-20.0
32,100,100,10,moving_belt,green,false,true,joint 1 -,false,2024-03-04 15:03:14.395009,16.253,0.16,236.8,292.8220520019531,106.5785140991211,84.958251953125,0.0,20.0,51.0,-4.656612873077393e-10,-20.0
32,100,100,10,moving_belt,green,false,true,joint 1 -,false,2024-03-04 15:03:15.771606,16.443,0.16,236.8,292.8220520019531,106.5785140991211,84.958251953125,0.0,20.0,51.0,-4.656612873077393e-10,-20.0
32,100,100,10,moving_belt,green,false,true,joint 1 -,false,2024-03-04 15:03:16.460918,16.595,0.16,236.8,292.8220520019531,106.5785140991211,84.958251953125,0.0,20.0,51.0,-4.656612873077393e-10,-20.0
32,100,100,10,moving_belt,green,false,true,joint 1 -,false,2024-03-04 15:03:17.921944,16.443,0.16,236.8,292.8220520019531,106.5785140991211,84.958251953125,0.0,20.0,51.0,-4.656612873077393e-10,-20.0
32,100,100,10,moving_belt,green,false,true,joint 1 -,false,2024-03-04 15:03:18.608293,16.595,0.159,236.8,292.8220520019531,106.5785140991211,84.958251953125,0.0,20.0,51.0,-4.656612873077393e-10,-20.0
32,100,100,10,moving_belt,green,false,true,joint 1 -,false,2024-03-04 15:03:19.987191,16.519,0.159,236.8,292.8220520019531,106.5785140991211,84.958251953125,0.0,20.0,51.0,-4.656612873077393e-10,-20.0
32,100,100,10,moving_belt,green,false,true,joint 1 -,false,2024-03-04 15:03:20.674327,16.519,0.159,236.8,292.8220520019531,106.5785140991211,84.958251953125,0.0,20.0,51.0,-4.656612873077393e-10,-20.0
32,100,100,10,moving_belt,green,false,true,joint 1 -,false,2024-03-04 15:03:22.052541,16.519,0.159,236.8,292.8220520019531,106.5785140991211,84.958251953125,0.0,20.0,51.0,-4.656612873077393e-10,-20.0
32,100,100,10,moving_belt,green,false,true,joint 1 -,false,2024-03-04 15:03:22.746222,16.5,0.159,236.8,292.8220520019531,106.5785140991211,84.958251953125,0.0,20.0,51.0,-4.656612873077393e-10,-20.0
32,100,100,10,moving_belt,green,false,true,joint 1 -,false,2024-03-04 15:03:23.446758,16.5,0.159,236.8,292.8220520019531,106.5785140991211,84.958251953125,0.0,20.0,51.0,-4.656612873077393e-10,-20.0
32,100,100,10,moving_belt,green,false,true,joint 1 -,false,2024-03-04 15:03:24.829754,16.462,0.159,236.8,292.8220520019531,106.5785140991211,84.958251953125,0.0,20.0,51.0,-4.656612873077393e-10,-20.0
32,100,100,10,moving_belt,green,false,true,joint 1 -,false,2024-03-04 15:03:25.518514,16.462,0.159,236.8,292.8220520019531,106.5785140991211,84.958251953125,0.0,20.0,51.0,-4.656612873077393e-10,-20.0
32,100,100,10,moving_belt,green,false,true,joint 1 -,false,2024-03-04 15:03:26.902558,16.481,0.159,236.8,292.8220520019531,106.5785140991211,84.958251953125,0.0,20.0,51.0,-4.656612873077393e-10,-20.0
32,100,100,10,moving_belt,green,false,true,joint 1 -,false,2024-03-04 15:03:27.593401,16.652,0.158,236.8,292.8220520019531,106.5785140991211,84.958251953125,0.0,20.0,51.0,-4.656612873077393e-10,-20.0
32,100,100,10,moving_belt,green,false,true,joint 1 -,false,2024-03-04 15:03:28.992083,16.405,0.158,236.8,292.8220520019531,106.5785140991211,84.958251953125,0.0,20.0,51.0,-4.656612873077393e-10,-20.0
32,100,100,10,moving_belt,green,false,true,joint 1 -,false,2024-03-04 15:03:29.682961,16.481,0.158,236.8,292.8220520019531,106.5785140991211,84.958251953125,0.0,20.0,51.0,-4.656612873077393e-10,-20.0
32,100,100,10,moving_belt,green,false,true,joint 1 -,false,2024-03-04 15:03:31.062826,16.519,0.158,236.8,292.8220520019531,106.5785140991211,84.958251953125,0.0,20.0,51.0,-4.656612873077393e-10,-20.0
32,100,100,10,moving_belt,green,false,true,joint 1 -,false,2024-03-04 15:03:31.756362,16.519,0.159,236.8,292.8220520019531,106.5785140991211,84.958251953125,0.0,20.0,51.0,-4.656612873077393e-10,-20.0
32,100,100,10,moving_belt,green,false,true,joint 1 -,false,2024-03-04 15:03:32.443754,16.595,0.159,236.8,292.8220520019531,106.5785140991211,84.958251953125,0.0,20.0,51.0,-4.656612873077393e-10,-20.0
32,100,100,10,moving_belt,green,false,true,joint 1 -,false,2024-03-04 15:03:33.825397,16.595,0.159,236.8,292.8220520019531,106.5785140991211,84.958251953125,0.0,20.0,51.0,-4.656612873077393e-10,-20.0
32,100,100,10,moving_belt,green,false,true,joint 1 -,false,2024-03-04 15:03:34.513154,16.633,0.159,236.8,292.8220520019531,106.5785140991211,84.958251953125,0.0,20.0,51.0,-4.656612873077393e-10,-20.0
32,100,100,10,moving_belt,green,false,true,joint 1 -,false,2024-03-04 15:03:35.895977,16.69,0.159,236.8,292.8220520019531,106.5785140991211,84.958251953125,0.0,20.0,51.0,-4.656612873077393e-10,-20.0
32,100,100,10,moving_belt,green,false,true,joint 1 -,false,2024-03-04 15:03:36.608842,16.69,0.158,236.8,292.8220520019531,106.5785140991211,84.958251953125,0.0,20.0,51.0,-4.656612873077393e-10,-20.0
32,100,100,10,moving_belt,green,false,true,joint 1 -,false,2024-03-04 15:03:38.013224,16.386,0.158,236.8,292.8220520019531,106.5785140991211,84.958251953125,0.0,20.0,51.0,-4.656612873077393e-10,-20.0
32,100,100,10,moving_belt,green,false,true,joint 1 -,false,2024-03-04 15:03:38.708695,16.443,0.158,236.8,292.8220520019531,106.5785140991211,84.958251953125,0.0,20.0,51.0,-4.656612873077393e-10,-20.0
32,100,100,10,go_to_pick_down,green,true,false,joint 3 +,false,2024-03-04 15:03:39.400699,16.538,0.158,236.8,292.7202453613281,106.54145812988281,79.31524658203125,0.0,20.0,51.0,2.640000104904175,-20.0
32,100,100,10,go_to_pick_up_from_pick_down,green,true,false,joint 3 -,true,2024-03-04 15:03:40.791716,16.082,0.154,236.8,286.20947265625,104.1717300415039,40.02104949951172,0.0,20.0,51.0,17.199996948242188,-20.0
32,100,100,10,go_to_color_detect_up_from_pick_up,green,true,false,joint 1 +,true,2024-03-04 15:03:41.480781,16.082,0.154,236.8,285.4649353027344,124.95398712158203,84.958251953125,3.640003204345703,24.200002670288086,51.0,0.0,-20.0
32,100,100,10,go_to_color_detect_up_from_pick_up,green,true,false,joint 1 +,true,2024-03-04 15:03:42.861899,22.386,0.211,236.8,134.7821807861328,280.95819091796875,84.958251953125,44.37187957763672,64.57516479492188,51.0,0.0,-20.0
32,100,100,10,go_to_color_detect_down,green,true,false,joint 3 +,true,2024-03-04 15:03:43.563241,22.121,0.211,236.8,119.38970947265625,256.03204345703125,-2.8599166870117188,45.0,65.0,51.0,37.61537170410156,-20.0
32,100,100,10,go_to_color_detect_up_from_color_detect_down,green,true,false,joint 3 -,false,2024-03-04 15:03:44.936292,22.14,0.197,236.8,118.01263427734375,253.07888793945312,-7.072502136230469,45.0,65.0,51.0,37.87999725341797,-20.0
32,100,100,10,detecting_color,green,false,false,detecting_color,false,2024-03-04 15:03:45.622913,17.07,0.197,236.8,131.69407653808594,282.4188232421875,84.958251953125,45.0,65.0,51.0,-4.656612873077393e-10,-20.0
32,100,100,10,detecting_color,green,false,false,detecting_color,false,2024-03-04 15:03:46.999295,16.177,0.197,236.8,131.69407653808594,282.4188232421875,84.958251953125,45.0,65.0,51.0,-4.656612873077393e-10,-20.0
32,100,100,10,go_to_color_detect_down,green,true,false,joint 3 +,false,2024-03-04 15:03:47.685918,16.177,0.154,236.8,129.2152099609375,277.1029052734375,43.8480224609375,45.0,65.0,51.0,17.39999771118164,-20.0
32,100,100,10,go_to_color_detect_up_from_color_detect_down,green,true,false,joint 3 -,true,2024-03-04 15:03:49.061537,16.12,0.154,236.8,111.33187866210938,238.75196838378906,-23.871063232421875,45.0,65.0,51.0,47.599998474121094,-20.0
32,100,100,10,go_to_color_detect_up_from_color_detect_down,green,true,false,joint 3 -,true,2024-03-04 15:03:49.750828,16.329,0.171,236.8,131.6209259033203,282.2619934082031,77.82721710205078,45.0,65.0,51.0,2.329254150390625,-20.0
32,100,100,10,go_to_blue_up,blue,true,false,joint 1 +,true,2024-03-04 15:03:50.460985,23.374,0.171,236.8,40.79572677612305,308.9327392578125,84.958251953125,62.47740173339844,82.90625762939453,51.0,-4.656612873077393e-10,-20.0
32,100,100,10,go_to_pick_up_from_blue,blue,true,false,joint 1 -,false,2024-03-04 15:03:51.410400,22.253,0.171,236.8,150.12155151367188,273.0700378417969,84.958251953125,41.19999694824219,59.79999542236328,51.0,-4.656612873077393e-10,-20.0
32,100,100,10,moving_belt,blue,false,true,joint 1 -,false,2024-03-04 15:03:52.839847,18.418,0.204,236.8,292.8220520019531,106.5785140991211,84.958251953125,0.0,20.0,51.0,-4.656612873077393e-10,-20.0
32,100,100,10,moving_belt,blue,false,true,joint 1 -,false,2024-03-04 15:03:53.551836,16.044,0.204,236.8,292.8220520019531,106.5785140991211,84.958251953125,0.0,20.0,51.0,-4.656612873077393e-10,-20.0
32,100,100,10,moving_belt,blue,false,true,joint 1 -,false,2024-03-04 15:03:54.925434,16.519,0.157,236.8,292.8220520019531,106.5785140991211,84.958251953125,0.0,20.0,51.0,-4.656612873077393e-10,-20.0
32,100,100,10,moving_belt,blue,false,true,joint 1 -,false,2024-03-04 15:03:55.635468,16.519,0.157,236.8,292.8220520019531,106.5785140991211,84.958251953125,0.0,20.0,51.0,-4.656612873077393e-10,-20.0
32,100,100,10,moving_belt,blue,false,true,joint 1 -,false,2024-03-04 15:03:57.016287,16.405,0.158,236.8,292.8220520019531,106.5785140991211,84.958251953125,0.0,20.0,51.0,-4.656612873077393e-10,-20.0
32,100,100,10,moving_belt,blue,false,true,joint 1 -,false,2024-03-04 15:03:57.709395,16.405,0.158,236.8,292.8220520019531,106.5785140991211,84.958251953125,0.0,20.0,51.0,-4.656612873077393e-10,-20.0
32,100,100,10,moving_belt,blue,false,true,joint 1 -,false,2024-03-04 15:03:59.087726,16.538,0.158,236.8,292.8220520019531,106.5785140991211,84.958251953125,0.0,20.0,51.0,-4.656612873077393e-10,-20.0
32,100,100,10,moving_belt,blue,false,true,joint 1 -,false,2024-03-04 15:03:59.778429,16.576,0.158,236.8,292.8220520019531,106.5785140991211,84.958251953125,0.0,20.0,51.0,-4.656612873077393e-10,-20.0
32,100,100,10,moving_belt,blue,false,true,joint 1 -,false,2024-03-04 15:04:00.472703,16.576,0.158,236.8,292.8220520019531,106.5785140991211,84.958251953125,0.0,20.0,51.0,-4.656612873077393e-10,-20.0
32,100,100,10,moving_belt,blue,false,true,joint 1 -,false,2024-03-04 15:04:01.863891,16.348,0.158,236.8,292.8220520019531,106.5785140991211,84.958251953125,0.0,20.0,51.0,-4.656612873077393e-10,-20.0
32,100,100,10,moving_belt,blue,false,true,joint 1 -,false,2024-03-04 15:04:02.553722,16.348,0.159,236.8,292.8220520019531,106.5785140991211,84.958251953125,0.0,20.0,51.0,-4.656612873077393e-10,-20.0
32,100,100,10,moving_belt,blue,false,true,joint 1 -,false,2024-03-04 15:04:03.935403,16.405,0.159,236.8,292.8220520019531,106.5785140991211,84.958251953125,0.0,20.0,51.0,-4.656612873077393e-10,-20.0
32,100,100,10,moving_belt,blue,false,true,joint 1 -,false,2024-03-04 15:04:04.642810,16.424,0.159,236.8,292.8220520019531,106.5785140991211,84.958251953125,0.0,20.0,51.0,-4.656612873077393e-10,-20.0
32,100,100,10,moving_belt,blue,false,true,joint 1 -,false,2024-03-04 15:04:06.020044,16.519,0.158,236.8,292.8220520019531,106.5785140991211,84.958251953125,0.0,20.0,51.0,-4.656612873077393e-10,-20.0
32,100,100,10,moving_belt,blue,false,true,joint 1 -,false,2024-03-04 15:04:06.709178,16.519,0.158,236.8,292.8220520019531,106.5785140991211,84.958251953125,0.0,20.0,51.0,-4.656612873077393e-10,-20.0
32,100,100,10,moving_belt,blue,false,true,joint 1 -,false,2024-03-04 15:04:08.087382,16.5,0.159,236.8,292.8220520019531,106.5785140991211,84.958251953125,0.0,20.0,51.0,-4.656612873077393e-10,-20.0
32,100,100,10,moving_belt,blue,false,true,joint 1 -,false,2024-03-04 15:04:08.775786,16.5,0.159,236.8,292.8220520019531,106.5785140991211,84.958251953125,0.0,20.0,51.0,-4.656612873077393e-10,-20.0
32,100,100,10,moving_belt,blue,false,true,joint 1 -,false,2024-03-04 15:04:09.464850,16.652,0.159,236.8,292.8220520019531,106.5785140991211,84.958251953125,0.0,20.0,51.0,-4.656612873077393e-10,-20.0
32,100,100,10,moving_belt,blue,false,true,joint 1 -,false,2024-03-04 15:04:10.851578,16.576,0.159,236.8,292.8220520019531,106.5785140991211,84.958251953125,0.0,20.0,51.0,-4.656612873077393e-10,-20.0
32,100,100,10,moving_belt,blue,false,true,joint 1 -,false,2024-03-04 15:04:11.538678,16.576,0.159,236.8,292.8220520019531,106.5785140991211,84.958251953125,0.0,20.0,51.0,-4.656612873077393e-10,-20.0
32,100,100,10,moving_belt,blue,false,true,joint 1 -,false,2024-03-04 15:04:12.915782,16.576,0.159,236.8,292.8220520019531,106.5785140991211,84.958251953125,0.0,20.0,51.0,-4.656612873077393e-10,-20.0
32,100,100,10,moving_belt,blue,false,true,joint 1 -,false,2024-03-04 15:04:13.611609,16.576,0.158,236.8,292.8220520019531,106.5785140991211,84.958251953125,0.0,20.0,51.0,-4.656612873077393e-10,-20.0
32,100,100,10,moving_belt,blue,false,true,joint 1 -,false,2024-03-04 15:04:14.989722,16.405,0.158,236.8,292.8220520019531,106.5785140991211,84.958251953125,0.0,20.0,51.0,-4.656612873077393e-10,-20.0
32,100,100,10,moving_belt,blue,false,true,joint 1 -,false,2024-03-04 15:04:15.676994,16.5,0.159,236.8,292.8220520019531,106.5785140991211,84.958251953125,0.0,20.0,51.0,-4.656612873077393e-10,-20.0
32,100,100,10,moving_belt,blue,false,true,joint 1 -,false,2024-03-04 15:04:17.053243,16.519,0.159,236.8,292.8220520019531,106.5785140991211,84.958251953125,0.0,20.0,51.0,-4.656612873077393e-10,-20.0
32,100,100,10,moving_belt,blue,false,true,joint 1 -,false,2024-03-04 15:04:17.743264,16.519,0.159,236.8,292.8220520019531,106.5785140991211,84.958251953125,0.0,20.0,51.0,-4.656612873077393e-10,-20.0
32,100,100,10,moving_belt,blue,false,true,joint 1 -,false,2024-03-04 15:04:18.431736,16.595,0.158,236.8,292.8220520019531,106.5785140991211,84.958251953125,0.0,20.0,51.0,-4.656612873077393e-10,-20.0
32,100,100,10,go_to_pick_down,blue,true,false,joint 3 +,false,2024-03-04 15:04:19.814119,16.386,0.158,236.8,292.4510803222656,106.44348907470703,74.1922378540039,0.0,20.0,51.0,4.800000190734863,-20.0
32,100,100,10,go_to_pick_up_from_pick_down,blue,true,false,joint 3 -,true,2024-03-04 15:04:20.501600,16.5,0.16,236.8,285.79046630859375,104.01922607421875,38.655242919921875,0.0,20.0,51.0,17.799997329711914,-20.0
32,100,100,10,go_to_color_detect_up_from_pick_up,blue,true,false,joint 1 +,true,2024-03-04 15:04:21.882137,20.886,0.16,236.8,279.79071044921875,137.18922424316406,84.958251953125,6.120002746582031,26.840002059936523,51.0,0.0,-20.0
32,100,100,10,go_to_color_detect_up_from_pick_up,blue,true,false,joint 1 +,true,2024-03-04 15:04:22.569298,22.519,0.206,236.8,132.375244140625,282.1001892089844,84.958251953125,44.861732482910156,64.94501495361328,51.0,0.0,-20.0
32,100,100,10,go_to_color_detect_down,blue,true,false,joint 3 +,true,2024-03-04 15:04:23.953046,22.158,0.206,236.8,121.9303970336914,261.4805603027344,5.84765625,45.0,65.0,51.0,33.650245666503906,-20.0
32,100,100,10,go_to_color_detect_up_from_color_detect_down,blue,true,false,joint 3 -,false,2024-03-04 15:04:24.641242,22.158,0.204,236.8,118.6042709350586,254.34765625,-5.301177978515625,45.0,65.0,51.0,36.959999084472656,-20.0
32,100,100,10,detecting_color,blue,false,false,detecting_color,false,2024-03-04 15:04:26.021521,21.855,0.204,236.8,131.69407653808594,282.4188232421875,84.958251953125,45.0,65.0,51.0,-4.656612873077393e-10,-20.0
32,100,100,10,detecting_color,blue,false,false,detecting_color,false,2024-03-04 15:04:26.714002,17.127,0.158,236.8,131.69407653808594,282.4188232421875,84.958251953125,45.0,65.0,51.0,-4.656612873077393e-10,-20.0
32,100,100,10,go_to_color_detect_down,blue,true,false,joint 3 +,false,2024-03-04 15:04:28.090350,16.158,0.158,236.8,129.5434112548828,277.8067321777344,46.61455154418945,45.0,65.0,51.0,16.23999786376953,-20.0
32,100,100,10,go_to_color_detect_up_from_color_detect_down,blue,true,false,joint 3 -,true,2024-03-04 15:04:28.778675,16.253,0.156,236.8,111.23545837402344,238.54519653320312,-24.077789306640625,45.0,65.0,51.0,47.7599983215332,-20.0
32,100,100,10,go_to_color_detect_up_from_color_detect_down,blue,true,false,joint 3 -,true,2024-03-04 15:04:29.477494,16.253,0.156,236.8,131.5928192138672,282.2016906738281,76.56852722167969,45.0,65.0,51.0,2.7805356979370117,-20.0
32,100,100,10,go_to_red_up,red,true,false,joint 1 +,true,2024-03-04 15:04:30.857220,22.994,0.207,236.8,21.08601951599121,310.9004821777344,84.958251953125,66.12000274658203,87.44000244140625,51.0,-4.656612873077393e-10,-20.0
32,100,100,10,go_to_pick_up_from_red,red,true,false,joint 1 -,false,2024-03-04 15:04:31.550303,22.766,0.207,236.8,-178.73486328125,255.2598114013672,84.958251953125,105.0,124.95999908447266,51.0,-4.656612873077393e-10,-20.0
32,100,100,10,go_to_pick_up_from_red,red,true,false,joint 1 -,false,2024-03-04 15:04:32.931157,21.589,0.207,236.8,116.63208770751953,288.96484375,84.958251953125,48.019996643066406,66.07999420166016,51.0,-4.656612873077393e-10,-20.0
32,100,100,10,moving_belt,red,false,true,joint 1 -,false,2024-03-04 15:04:33.620981,16.481,0.156,236.8,292.8220520019531,106.57848358154297,84.958251953125,-3.814697265625e-06,20.0,51.0,-4.656612873077393e-10,-20.0
32,100,100,10,moving_belt,red,false,true,joint 1 -,false,2024-03-04 15:04:35.013670,16.31,0.156,236.8,292.8220520019531,106.5785140991211,84.958251953125,0.0,20.0,51.0,-4.656612873077393e-10,-20.0
32,100,100,10,moving_belt,red,false,true,joint 1 -,false,2024-03-04 15:04:35.701972,16.31,0.158,236.8,292.8220520019531,106.5785140991211,84.958251953125,0.0,20.0,51.0,-4.656612873077393e-10,-20.0
32,100,100,10,moving_belt,red,false,true,joint 1 -,false,2024-03-04 15:04:37.083734,16.633,0.158,236.8,292.8220520019531,106.5785140991211,84.958251953125,0.0,20.0,51.0,-4.656612873077393e-10,-20.0
32,100,100,10,moving_belt,red,false,true,joint 1 -,false,2024-03-04 15:04:37.774618,16.538,0.158,236.8,292.8220520019531,106.5785140991211,84.958251953125,0.0,20.0,51.0,-4.656612873077393e-10,-20.0
32,100,100,10,moving_belt,red,false,true,joint 1 -,false,2024-03-04 15:04:38.462811,16.538,0.158,236.8,292.8220520019531,106.5785140991211,84.958251953125,0.0,20.0,51.0,-4.656612873077393e-10,-20.0
32,100,100,10,moving_belt,red,false,true,joint 1 -,false,2024-03-04 15:04:39.839958,16.519,0.158,236.8,292.8220520019531,106.5785140991211,84.958251953125,0.0,20.0,51.0,-4.656612873077393e-10,-20.0
32,100,100,10,moving_belt,red,false,true,joint 1 -,false,2024-03-04 15:04:40.526906,16.519,0.158,236.8,292.8220520019531,106.5785140991211,84.958251953125,0.0,20.0,51.0,-4.656612873077393e-10,-20.0
32,100,100,10,moving_belt,red,false,true,joint 1 -,false,2024-03-04 15:04:41.905766,16.5,0.159,236.8,292.8220520019531,106.5785140991211,84.958251953125,0.0,20.0,51.0,-4.656612873077393e-10,-20.0
32,100,100,10,moving_belt,red,false,true,joint 1 -,false,2024-03-04 15:04:42.595250,16.462,0.159,236.8,292.8220520019531,106.5785140991211,84.958251953125,0.0,20.0,51.0,-4.656612873077393e-10,-20.0
32,100,100,10,moving_belt,red,false,true,joint 1 -,false,2024-03-04 15:04:43.978221,16.462,0.159,236.8,292.8220520019531,106.5785140991211,84.958251953125,0.0,20.0,51.0,-4.656612873077393e-10,-20.0
32,100,100,10,moving_belt,red,false,true,joint 1 -,false,2024-03-04 15:04:44.666560,16.5,0.161,236.8,292.8220520019531,106.5785140991211,84.958251953125,0.0,20.0,51.0,-4.656612873077393e-10,-20.0
32,100,100,10,moving_belt,red,false,true,joint 1 -,false,2024-03-04 15:04:46.042190,16.595,0.161,236.8,292.8220520019531,106.5785140991211,84.958251953125,0.0,20.0,51.0,-4.656612873077393e-10,-20.0
32,100,100,10,moving_belt,red,false,true,joint 1 -,false,2024-03-04 15:04:46.770083,16.595,0.158,236.8,292.8220520019531,106.5785140991211,84.958251953125,0.0,20.0,51.0,-4.656612873077393e-10,-20.0
32,100,100,10,moving_belt,red,false,true,joint 1 -,false,2024-03-04 15:04:47.459807,16.481,0.158,236.8,292.8220520019531,106.5785140991211,84.958251953125,0.0,20.0,51.0,-4.656612873077393e-10,-20.0
32,100,100,10,moving_belt,red,false,true,joint 1 -,false,2024-03-04 15:04:48.848044,16.481,0.159,236.8,292.8220520019531,106.5785140991211,84.958251953125,0.0,20.0,51.0,-4.656612873077393e-10,-20.0
32,100,100,10,moving_belt,red,false,true,joint 1 -,false,2024-03-04 15:04:49.539663,16.614,0.159,236.8,292.8220520019531,106.5785140991211,84.958251953125,0.0,20.0,51.0,-4.656612873077393e-10,-20.0
32,100,100,10,moving_belt,red,false,true,joint 1 -,false,2024-03-04 15:04:50.916538,16.5,0.159,236.8,292.8220520019531,106.5785140991211,84.958251953125,0.0,20.0,51.0,-4.656612873077393e-10,-20.0
32,100,100,10,moving_belt,red,false,true,joint 1 -,false,2024-03-04 15:04:51.605212,16.5,0.159,236.8,292.8220520019531,106.5785140991211,84.958251953125,0.0,20.0,51.0,-4.656612873077393e-10,-20.0
32,100,100,10,moving_belt,red,false,true,joint 1 -,false,2024-03-04 15:04:52.987155,16.614,0.159,236.8,292.8220520019531,106.5785140991211,84.958251953125,0.0,20.0,51.0,-4.656612873077393e-10,-20.0
32,100,100,10,moving_belt,red,false,true,joint 1 -,false,2024-03-04 15:04:53.675709,16.538,0.159,236.8,292.8220520019531,106.5785140991211,84.958251953125,0.0,20.0,51.0,-4.656612873077393e-10,-20.0
32,100,100,10,moving_belt,red,false,true,joint 1 -,false,2024-03-04 15:04:55.052301,16.519,0.159,236.8,292.8220520019531,106.5785140991211,84.958251953125,0.0,20.0,51.0,-4.656612873077393e-10,-20.0
32,100,100,10,moving_belt,red,false,true,joint 1 -,false,2024-03-04 15:04:55.755702,16.405,0.158,236.8,292.8220520019531,106.5785140991211,84.958251953125,0.0,20.0,51.0,-4.656612873077393e-10,-20.0
32,100,100,10,moving_belt,red,false,true,joint 1 -,false,2024-03-04 15:04:57.140596,16.614,0.158,236.8,292.8220520019531,106.5785140991211,84.958251953125,0.0,20.0,51.0,-4.656612873077393e-10,-20.0
32,100,100,10,moving_belt,red,false,true,joint 1 -,false,2024-03-04 15:04:57.834911,16.614,0.159,236.8,292.8220520019531,106.5785140991211,84.958251953125,0.0,20.0,51.0,-4.656612873077393e-10,-20.0
32,100,100,10,moving_belt,red,false,true,joint 1 -,false,2024-03-04 15:04:58.523601,16.671,0.159,236.8,292.8220520019531,106.5785140991211,84.958251953125,0.0,20.0,51.0,-4.656612873077393e-10,-20.0
32,100,100,10,moving_belt,red,false,true,joint 1 -,false,2024-03-04 15:04:59.905794,16.405,0.158,236.8,292.8220520019531,106.5785140991211,84.958251953125,0.0,20.0,51.0,-4.656612873077393e-10,-20.0
32,100,100,10,go_to_pick_down,red,true,false,joint 3 +,false,2024-03-04 15:05:00.595223,16.405,0.158,236.8,292.795654296875,106.56890869140625,82.08492279052734,0.0,20.0,51.0,1.440000057220459,-20.0
32,100,100,10,go_to_pick_up_from_pick_down,red,true,false,joint 3 -,true,2024-03-04 15:05:01.971811,16.044,0.154,236.8,283.5084533691406,103.18864440917969,31.895137786865234,0.0,20.0,51.0,20.87999725341797,-20.0
32,100,100,10,go_to_color_detect_up_from_pick_up,red,true,false,joint 1 +,true,2024-03-04 15:05:02.661354,16.044,0.154,236.8,288.514892578125,117.74076843261719,84.958251953125,2.200002670288086,22.640003204345703,51.0,0.0,-20.0
32,100,100,10,go_to_color_detect_up_from_pick_up,red,true,false,joint 1 +,true,2024-03-04 15:05:04.038636,22.956,0.212,236.8,138.93450927734375,278.9281921386719,84.958251953125,43.52204132080078,63.84532165527344,51.0,0.0,-20.0
32,100,100,10,go_to_color_detect_down,red,true,false,joint 3 +,true,2024-03-04 15:05:04.727575,22.728,0.212,236.8,125.1656494140625,268.4185791015625,19.361297607421875,45.0,65.0,51.0,27.793838500976562,-20.0
32,100,100,10,go_to_color_detect_up_from_color_detect_down,red,true,false,joint 3 -,false,2024-03-04 15:05:06.104484,22.804,0.207,236.8,116.34143829345703,249.49501037597656,-11.791847229003906,45.0,65.0,51.0,40.39999771118164,-20.0
32,100,100,10,go_to_color_detect_up_from_color_detect_down,red,true,false,joint 3 -,false,2024-03-04 15:05:06.793478,17.487,0.207,236.8,131.69383239746094,282.4183349609375,84.55030822753906,45.0,65.0,51.0,0.06772007793188095,-20.0
32,100,100,10,detecting_color,red,false,false,detecting_color,false,2024-03-04 15:05:07.481864,17.487,0.207,236.8,131.69407653808594,282.4188232421875,84.958251953125,45.0,65.0,51.0,-4.656612873077393e-10,-20.0
32,100,100,10,go_to_color_detect_down,red,true,false,joint 3 +,false,2024-03-04 15:05:08.861167,16.12,0.153,236.8,130.3365020751953,279.50750732421875,54.395233154296875,45.0,65.0,51.0,12.999999046325684,-20.0
32,100,100,10,go_to_color_detect_up_from_color_detect_down,red,true,false,joint 3 -,true,2024-03-04 15:05:09.550477,16.158,0.153,236.8,111.13883972167969,238.33799743652344,-24.284042358398438,45.0,65.0,51.0,47.959999084472656,-20.0
32,100,100,10,go_to_color_detect_up_from_color_detect_down,red,true,false,joint 3 -,true,2024-03-04 15:05:10.932329,16.177,0.166,236.8,131.11474609375,281.1764831542969,64.9298095703125,45.0,65.0,51.0,7.059505462646484,-20.0
32,100,100,10,go_to_green_up,green,true,false,joint 1 +,true,2024-03-04 15:05:11.619079,23.81,0.166,236.8,28.0257511138916,310.35186767578125,84.958251953125,64.84000396728516,86.08982849121094,51.0,-4.656612873077393e-10,-20.0
32,100,100,10,go_to_pick_up_from_green,green,true,false,joint 1 -,false,2024-03-04 15:05:13.001940,22.899,0.208,236.8,-61.379634857177734,305.5098571777344,84.958251953125,81.35999298095703,100.79999542236328,51.0,-4.656612873077393e-10,-20.0
32,100,100,10,go_to_pick_up_from_green,green,true,false,joint 1 -,false,2024-03-04 15:05:13.689127,22.899,0.208,236.8,242.70750427246094,195.4400177001953,84.958251953125,18.842727661132812,37.634910583496094,51.0,-4.656612873077393e-10,-20.0
32,100,100,10,moving_belt,green,false,true,joint 1 -,false,2024-03-04 15:05:15.072967,16.196,0.156,236.8,292.8220520019531,106.5785140991211,84.958251953125,0.0,20.0,51.0,-4.656612873077393e-10,-20.0
32,100,100,10,moving_belt,green,false,true,joint 1 -,false,2024-03-04 15:05:15.765696,16.253,0.156,236.8,292.8220520019531,106.5785140991211,84.958251953125,0.0,20.0,51.0,-4.656612873077393e-10,-20.0
32,100,100,10,moving_belt,green,false,true,joint 1 -,false,2024-03-04 15:05:17.148439,16.652,0.158,236.8,292.8220520019531,106.5785140991211,84.958251953125,0.0,20.0,51.0,-4.656612873077393e-10,-20.0
32,100,100,10,moving_belt,green,false,true,joint 1 -,false,2024-03-04 15:05:17.840734,16.462,0.158,236.8,292.8220520019531,106.5785140991211,84.958251953125,0.0,20.0,51.0,-4.656612873077393e-10,-20.0
32,100,100,10,moving_belt,green,false,true,joint 1 -,false,2024-03-04 15:05:18.528433,16.462,0.158,236.8,292.8220520019531,106.5785140991211,84.958251953125,0.0,20.0,51.0,-4.656612873077393e-10,-20.0
32,100,100,10,moving_belt,green,false,true,joint 1 -,false,2024-03-04 15:05:19.926432,16.557,0.156,236.8,292.8220520019531,106.5785140991211,84.958251953125,0.0,20.0,51.0,-4.656612873077393e-10,-20.0
32,100,100,10,moving_belt,green,false,true,joint 1 -,false,2024-03-04 15:05:20.617103,16.481,0.156,236.8,292.8220520019531,106.5785140991211,84.958251953125,0.0,20.0,51.0,-4.656612873077393e-10,-20.0
32,100,100,10,moving_belt,green,false,true,joint 1 -,false,2024-03-04 15:05:21.997980,16.443,0.157,236.8,292.8220520019531,106.5785140991211,84.958251953125,0.0,20.0,51.0,-4.656612873077393e-10,-20.0
32,100,100,10,moving_belt,green,false,true,joint 1 -,false,2024-03-04 15:05:22.686987,16.443,0.157,236.8,292.8220520019531,106.5785140991211,84.958251953125,0.0,20.0,51.0,-4.656612873077393e-10,-20.0
32,100,100,10,moving_belt,green,false,true,joint 1 -,false,2024-03-04 15:05:24.068817,16.5,0.158,236.8,292.8220520019531,106.5785140991211,84.958251953125,0.0,20.0,51.0,-4.656612873077393e-10,-20.0
32,100,100,10,moving_belt,green,false,true,joint 1 -,false,2024-03-04 15:05:24.760290,16.5,0.158,236.8,292.8220520019531,106.5785140991211,84.958251953125,0.0,20.0,51.0,-4.656612873077393e-10,-20.0
32,100,100,10,moving_belt,green,false,true,joint 1 -,false,2024-03-04 15:05:26.138671,16.614,0.158,236.8,292.8220520019531,106.5785140991211,84.958251953125,0.0,20.0,51.0,-4.656612873077393e-10,-20.0
