demetriskallis/dobot_magician_pick_and_place_and_color_sorting/Sampling/WholeSystemExperiments_training_data/payload_32g/joint_measurements__armv_100_arma_90_belts_60_cube_32g.csv
cube/weight,arm/velocity_ratio,arm/acceleration_ratio,belt/speed,dobot/operation,dobot/color,dobot/moving_arm,dobot/moving_belt,dobot/operation2,dobot/suction,meross/sample_timestamp,meross/power,meross/current,meross/voltage,dobot/pose_x,dobot/pose_y,dobot/pose_z,dobot/pose_rHead,dobot/pose_joint1Angle,dobot/pose_joint2Angle,dobot/pose_joint3Angle,dobot/pose_joint4Angle
32,100,90,60,homing,,,,homing,,,,,,185.45982360839844,74.43291473388672,63.78917694091797,1.8676910400390625,21.46769142150879,4.792337894439697,28.764904022216797,-20.0
32,100,90,60,homing,,,,homing,,,,,,199.62237548828125,9.301178932189941,63.78917694091797,-17.332298278808594,2.267702579498291,4.792337894439697,28.764904022216797,-20.0
32,100,90,60,homing,,,,homing,,,,,,191.17584228515625,-58.20137405395508,63.78917694091797,-36.932289123535156,-17.332290649414062,4.792337894439697,28.764904022216797,-20.0
32,100,90,60,homing,,,,homing,,2024-03-04 14:01:36.475797,16.424,0.154,236.8,160.57485961914062,-118.95928955078125,63.78917694091797,-56.53229522705078,-36.93229675292969,4.792337894439697,28.764904022216797,-20.0
32,100,90,60,homing,,,,homing,,2024-03-04 14:01:37.171471,16.424,0.154,236.8,105.50664520263672,-169.71725463867188,63.78917694091797,-78.13237762451172,-58.532379150390625,4.792337894439697,28.764904022216797,-20.0
32,100,90,60,homing,,,,homing,,2024-03-04 14:01:38.550502,16.614,0.153,236.8,43.823402404785156,-194.9746551513672,63.78917694091797,-97.33245086669922,-77.73245239257812,4.792337894439697,28.764904022216797,-20.0
32,100,90,60,homing,,,,homing,,2024-03-04 14:01:39.237427,16.614,0.153,236.8,-22.73512077331543,-198.54147338867188,63.78917694091797,-116.53252410888672,-96.93252563476562,4.792337894439697,28.764904022216797,-20.0
32,100,90,60,homing,,,,homing,,2024-03-04 14:01:40.629130,16.633,0.153,236.8,-94.22685241699219,-176.2296905517578,63.78917694091797,-138.13259887695312,-118.53260803222656,4.792337894439697,28.764904022216797,-20.0
32,100,90,60,homing,,,,homing,,2024-03-04 14:01:41.323146,16.633,0.153,236.8,-144.94007873535156,-137.5789794921875,63.78917694091797,-156.4925079345703,-136.47250366210938,4.792337894439697,28.764904022216797,-20.0
32,100,90,60,homing,,,,homing,,2024-03-04 14:01:42.009850,16.576,0.153,236.8,-142.61415100097656,-139.98858642578125,63.78917694091797,-155.5323028564453,-135.51229858398438,4.792337894439697,28.764904022216797,-20.0
32,100,90,60,homing,,,,homing,,2024-03-04 14:01:43.391283,16.348,0.157,236.8,-119.34254455566406,-163.29449462890625,62.06050109863281,-145.37754821777344,-125.69290924072266,6.232143402099609,29.432079315185547,-19.175405502319336
32,100,90,60,homing,,,,homing,,2024-03-04 14:01:44.087920,16.348,0.157,236.8,-30.034225463867188,-209.6417999267578,54.3746337890625,-114.19808197021484,-97.55297088623047,11.858461380004883,32.039188385009766,-15.953140258789062
32,100,90,60,homing,,,,homing,,2024-03-04 14:01:45.471668,16.842,0.158,236.8,80.15399169921875,-212.71673583984375,38.174095153808594,-79.79090881347656,-68.75304412841797,21.737743377685547,36.61703109741211,-10.295150756835938
32,100,90,60,homing,,,,homing,,2024-03-04 14:01:46.165417,16.842,0.158,236.8,193.79286193847656,-145.7849884033203,15.61865234375,-40.91633987426758,-36.353126525878906,32.95269012451172,41.81379699707031,-3.872204303741455
32,100,90,60,homing,,,,homing,,2024-03-04 14:01:47.553507,16.899,0.159,236.8,245.61595153808594,-38.609527587890625,3.2022781372070312,-9.720707893371582,-8.47642993927002,38.40961456298828,44.34241485595703,-0.7469545602798462
32,100,90,60,homing,,,,homing,,2024-03-04 14:01:48.243381,16.69,0.159,236.8,250.35574340820312,-0.5987081527709961,-2.1927490234375,-0.1370185762643814,-0.11211691796779633,40.34419250488281,45.410343170166016,0.0
32,100,90,60,homing,,,,homing,,2024-03-04 14:01:49.618383,16.348,0.156,236.8,249.99998474121094,0.00017966009909287095,-7.62939453125e-06,4.117506250622682e-05,4.117506250622682e-05,39.71385955810547,44.94676971435547,0.0
32,100,90,60,homing,,,,homing,,2024-03-04 14:01:50.304042,16.348,0.156,236.8,249.99998474121094,0.00017966009909287095,-7.62939453125e-06,4.117506250622682e-05,4.117506250622682e-05,39.71385955810547,44.94676971435547,0.0
32,100,90,60,homing,,,,homing,,2024-03-04 14:01:51.680192,16.538,0.155,236.8,249.99998474121094,0.00017966009909287095,-7.62939453125e-06,4.117506250622682e-05,4.117506250622682e-05,39.71385955810547,44.94676971435547,0.0
32,100,90,60,homing,,,,homing,,2024-03-04 14:01:52.367512,16.538,0.155,236.8,249.99998474121094,0.00017966009909287095,-7.62939453125e-06,4.117506250622682e-05,4.117506250622682e-05,39.71385955810547,44.94676971435547,0.0
32,100,90,60,homing,,,,homing,,2024-03-04 14:01:53.058397,16.557,0.155,236.8,249.99998474121094,0.00017966009909287095,-7.62939453125e-06,4.117506250622682e-05,4.117506250622682e-05,39.71385955810547,44.94676971435547,0.0
32,100,90,60,homing,,,,homing,,2024-03-04 14:01:54.465591,16.462,0.155,236.8,249.99998474121094,0.00017966009909287095,-7.62939453125e-06,4.117506250622682e-05,4.117506250622682e-05,39.71385955810547,44.94676971435547,0.0
32,100,90,60,homing,,,,homing,,2024-03-04 14:01:55.160297,16.462,0.155,236.8,249.99998474121094,0.00017966009909287095,-7.62939453125e-06,4.117506250622682e-05,4.117506250622682e-05,39.71385955810547,44.94676971435547,0.0
32,100,90,60,homing,,,,homing,,2024-03-04 14:01:56.543909,16.5,0.156,236.8,253.9459686279297,16.456512451171875,10.332481384277344,4.124641418457031e-05,4.0236592292785645,38.0170783996582,40.321563720703125,-4.023618221282959
32,100,90,60,homing,,,,homing,,2024-03-04 14:01:57.239407,16.5,0.156,236.8,274.0179748535156,98.96334075927734,62.450130462646484,4.1961669921875e-05,19.969287872314453,41.7871208190918,14.89669132232666,-19.96924591064453
32,100,90,60,go_to_pick_up_from_homing,nothing,,,go_to_pick_up_from_homing,,2024-03-04 14:01:58.622275,17.336,0.162,236.8,292.1529235839844,106.49137878417969,83.97672271728516,5.7220458984375e-06,20.019453048706055,50.68764877319336,0.49704810976982117,-20.019447326660156
32,100,90,60,moving_belt,nothing,false,true,go_to_pick_up_from_homing,,2024-03-04 14:01:59.310219,16.804,0.162,236.8,292.8220520019531,106.5785140991211,84.958251953125,0.0,20.0,51.0,0.0,-20.0
32,100,90,60,moving_belt,nothing,false,true,go_to_pick_up_from_homing,,2024-03-04 14:02:00.688180,16.234,0.155,236.8,292.8220520019531,106.5785140991211,84.958251953125,0.0,20.0,51.0,0.0,-20.0
32,100,90,60,moving_belt,nothing,false,true,go_to_pick_up_from_homing,,2024-03-04 14:02:01.378984,16.405,0.155,236.8,292.8220520019531,106.5785140991211,84.958251953125,0.0,20.0,51.0,0.0,-20.0
32,100,90,60,moving_belt,nothing,false,true,go_to_pick_up_from_homing,,2024-03-04 14:02:02.073229,16.405,0.155,236.8,292.8220520019531,106.5785140991211,84.958251953125,0.0,20.0,51.0,0.0,-20.0
32,100,90,60,go_to_pick_down,nothing,true,false,joint 3 +,,2024-03-04 14:02:03.456060,16.348,0.154,236.8,292.0255126953125,106.2885971069336,69.194580078125,0.0,20.0,51.0,6.803999423980713,-20.0
32,100,90,60,go_to_pick_up_from_pick_down,nothing,true,false,joint 3 -,true,2024-03-04 14:02:04.142647,16.272,0.154,236.8,287.1612548828125,104.51815795898438,43.30739212036133,0.0,20.0,51.0,15.843998908996582,-20.0
32,100,90,60,go_to_color_detect_up_from_pick_up,nothing,true,false,joint 1 +,true,2024-03-04 14:02:05.520644,22.994,0.153,236.8,289.3661804199219,115.63279724121094,84.958251953125,1.7820014953613281,22.13840103149414,51.0,0.0,-20.0
32,100,90,60,go_to_color_detect_up_from_pick_up,nothing,true,false,joint 1 +,true,2024-03-04 14:02:06.208139,22.31,0.153,236.8,151.8721923828125,272.10028076171875,84.958251953125,40.83201599121094,61.33536911010742,51.0,0.0,-20.0
32,100,90,60,go_to_color_detect_down,nothing,true,false,joint 3 +,true,2024-03-04 14:02:07.580313,22.538,0.203,236.8,126.84941101074219,272.0294189453125,28.04738998413086,45.0,65.0,51.0,24.008398056030273,-20.0
32,100,90,60,go_to_color_detect_up_from_color_detect_down,nothing,true,false,joint 3 -,false,2024-03-04 14:02:08.269023,22.026,0.203,236.8,111.39925384521484,238.89645385742188,-23.726089477539062,45.0,65.0,51.0,47.51400375366211,-20.0
32,100,90,60,go_to_color_detect_up_from_color_detect_down,nothing,true,false,joint 3 -,false,2024-03-04 14:02:09.644081,22.045,0.198,236.8,130.8036651611328,280.5093688964844,60.159324645996094,45.0,65.0,51.0,8.93529987335205,-20.0
32,100,90,60,detecting_color,nothing,false,false,detecting_color,false,2024-03-04 14:02:10.332871,16.937,0.198,236.8,131.69407653808594,282.4188232421875,84.958251953125,45.0,65.0,51.0,0.0,-20.0
32,100,90,60,go_to_color_detect_down,nothing,true,false,joint 3 +,false,2024-03-04 14:02:11.019857,16.937,0.155,236.8,131.69371032714844,282.4180603027344,84.4594955444336,45.0,65.0,51.0,0.3240000009536743,-20.0
32,100,90,60,go_to_color_detect_down,nothing,true,false,joint 3 +,false,2024-03-04 14:02:12.396216,16.196,0.155,236.8,115.84672546386719,248.43409729003906,-13.114761352539062,45.0,65.0,51.0,42.46345901489258,-20.0
32,100,90,60,go_to_color_detect_up_from_color_detect_down,nothing,true,false,joint 3 -,true,2024-03-04 14:02:13.083770,16.196,0.153,236.8,118.3367691040039,253.7740020751953,-6.109001159667969,45.0,65.0,51.0,37.470001220703125,-20.0
32,100,90,60,go_to_red_up,red,true,false,joint 1 +,true,2024-03-04 14:02:14.460480,23.298,0.153,236.8,131.69305419921875,282.4166564941406,84.11367797851562,45.0,65.0,51.0,0.2002355009317398,-20.0
32,100,90,60,go_to_red_up,red,true,false,joint 1 +,true,2024-03-04 14:02:15.148149,23.298,0.199,236.8,-58.966617584228516,305.9847412109375,84.958251953125,80.90779876708984,102.14114379882812,51.0,0.0,-20.0
32,100,90,60,go_to_pick_up_from_red,red,true,false,joint 1 -,false,2024-03-04 14:02:16.541485,22.899,0.199,236.8,-175.69110107421875,257.3642578125,84.958251953125,104.3196029663086,124.09280395507812,51.0,0.0,-20.0
32,100,90,60,go_to_pick_up_from_red,red,true,false,joint 1 -,false,2024-03-04 14:02:17.231405,18.38,0.199,236.8,70.7020492553711,303.48797607421875,84.958251953125,56.88599395751953,75.10399627685547,51.0,0.0,-20.0
32,100,90,60,go_to_pick_up_from_red,red,true,false,joint 1 -,false,2024-03-04 14:02:18.611431,16.481,0.153,236.8,291.95184326171875,108.93964385986328,84.958251953125,0.46268272399902344,20.30537986755371,51.0,0.0,-20.0
32,100,90,60,moving_belt,red,false,true,joint 1 -,false,2024-03-04 14:02:19.330138,16.481,0.153,236.8,292.8220520019531,106.5785140991211,84.958251953125,0.0,20.0,51.0,0.0,-20.0
32,100,90,60,moving_belt,red,false,true,joint 1 -,false,2024-03-04 14:02:20.044748,16.557,0.155,236.8,292.8220520019531,106.5785140991211,84.958251953125,0.0,20.0,51.0,0.0,-20.0
32,100,90,60,moving_belt,red,false,true,joint 1 -,false,2024-03-04 14:02:21.445201,16.291,0.155,236.8,292.8220520019531,106.5785140991211,84.958251953125,0.0,20.0,51.0,0.0,-20.0
32,100,90,60,moving_belt,red,false,true,joint 1 -,false,2024-03-04 14:02:22.141880,15.987,0.153,236.8,292.8220520019531,106.5785140991211,84.958251953125,0.0,20.0,51.0,0.0,-20.0
32,100,90,60,go_to_pick_down,red,true,false,joint 3 +,false,2024-03-04 14:02:23.663004,16.348,0.153,236.8,291.64520263671875,106.15017700195312,65.81058502197266,0.0,20.0,51.0,8.197198867797852,-20.0
32,100,90,60,go_to_pick_up_from_pick_down,red,true,false,joint 3 -,true,2024-03-04 14:02:24.392351,16.348,0.153,236.8,285.6086120605469,103.95303344726562,38.07609558105469,0.0,20.0,51.0,18.11199951171875,-20.0
32,100,90,60,go_to_color_detect_up_from_pick_up,red,true,false,joint 1 +,true,2024-03-04 14:02:25.229543,16.272,0.153,236.8,291.097900390625,111.20140838623047,84.958251953125,0.9072036743164062,21.16640281677246,51.0,0.0,-20.0
32,100,90,60,go_to_color_detect_up_from_pick_up,red,true,false,joint 1 +,true,2024-03-04 14:02:26.034136,23.317,0.153,236.8,159.8983917236328,267.46258544921875,84.958251953125,39.12755584716797,59.72810745239258,51.0,0.0,-20.0
32,100,90,60,go_to_color_detect_down,red,true,false,joint 3 +,true,2024-03-04 14:02:27.650079,22.519,0.204,236.8,128.59408569335938,275.7708740234375,39.1025390625,45.0,65.0,51.0,19.277999877929688,-20.0
32,100,90,60,go_to_color_detect_up_from_color_detect_down,red,true,false,joint 3 -,false,2024-03-04 14:02:28.334940,22.253,0.2,236.8,111.21711730957031,238.505859375,-24.117027282714844,45.0,65.0,51.0,47.80560302734375,-20.0
32,100,90,60,go_to_color_detect_up_from_color_detect_down,red,true,false,joint 3 -,false,2024-03-04 14:02:29.024268,22.253,0.2,236.8,130.4762725830078,279.8072509765625,55.994781494140625,45.0,65.0,51.0,10.5216064453125,-20.0
32,100,90,60,detecting_color,red,false,false,detecting_color,false,2024-03-04 14:02:30.415038,16.747,0.2,236.8,131.69407653808594,282.4188232421875,84.958251953125,45.0,65.0,51.0,0.0,-20.0
32,100,90,60,detecting_color,red,false,false,detecting_color,false,2024-03-04 14:02:31.104147,16.747,0.156,236.8,131.69407653808594,282.4188232421875,84.958251953125,45.0,65.0,51.0,0.0,-20.0
32,100,90,60,detecting_color,red,false,false,detecting_color,false,2024-03-04 14:02:31.799436,16.329,0.156,236.8,131.69407653808594,282.4188232421875,84.958251953125,45.0,65.0,51.0,0.0,-20.0
32,100,90,60,detecting_color,red,false,false,detecting_color,false,2024-03-04 14:02:33.005819,16.329,0.156,236.8,131.69407653808594,282.4188232421875,84.958251953125,45.0,65.0,51.0,0.0,-20.0
32,100,90,60,go_to_color_detect_down,red,true,false,joint 3 +,false,2024-03-04 14:02:34.430237,16.234,0.155,236.8,126.84941101074219,272.0294189453125,28.04738998413086,45.0,65.0,51.0,24.008398056030273,-20.0
32,100,90,60,go_to_color_detect_up_from_color_detect_down,red,true,false,joint 3 -,true,2024-03-04 14:02:35.119318,16.234,0.154,236.8,111.52896118164062,239.1746063232422,-23.44579315185547,45.0,65.0,51.0,47.319602966308594,-20.0
32,100,90,60,go_to_color_detect_up_from_color_detect_down,red,true,false,joint 3 -,true,2024-03-04 14:02:36.497391,23.317,0.154,236.8,131.46200561523438,281.921142578125,72.26398468017578,45.0,65.0,51.0,4.40382719039917,-20.0
32,100,90,60,go_to_green_up,green,true,false,joint 1 +,true,2024-03-04 14:02:37.189478,23.317,0.208,236.8,63.96669006347656,304.97869873046875,84.958251953125,58.15440368652344,79.09400177001953,51.0,0.0,-20.0
32,100,90,60,go_to_pick_up_from_green,green,true,false,joint 1 -,false,2024-03-04 14:02:38.566870,22.766,0.208,236.8,-80.14110565185547,301.13311767578125,84.958251953125,84.90280151367188,104.80560302734375,51.0,0.0,-20.0
32,100,90,60,go_to_pick_up_from_green,green,true,false,joint 1 -,false,2024-03-04 14:02:39.258547,19.272,0.162,236.8,182.32366943359375,252.7089385986328,84.958251953125,34.1904182434082,52.71818161010742,51.0,0.0,-20.0
32,100,90,60,moving_belt,green,false,true,joint 1 -,false,2024-03-04 14:02:40.643232,16.253,0.162,236.8,292.8220520019531,106.5785140991211,84.958251953125,0.0,20.0,51.0,0.0,-20.0
32,100,90,60,moving_belt,green,false,true,joint 1 -,false,2024-03-04 14:02:41.330723,16.253,0.162,236.8,292.8220520019531,106.5785140991211,84.958251953125,0.0,20.0,51.0,0.0,-20.0
32,100,90,60,moving_belt,green,false,true,joint 1 -,false,2024-03-04 14:02:42.708329,16.538,0.156,236.8,292.8220520019531,106.5785140991211,84.958251953125,0.0,20.0,51.0,0.0,-20.0
32,100,90,60,moving_belt,green,false,true,joint 1 -,false,2024-03-04 14:02:43.410346,16.386,0.156,236.8,292.8220520019531,106.5785140991211,84.958251953125,0.0,20.0,51.0,0.0,-20.0
32,100,90,60,moving_belt,green,false,true,joint 1 -,false,2024-03-04 14:02:44.097719,16.177,0.153,236.8,292.8220520019531,106.5785140991211,84.958251953125,0.0,20.0,51.0,0.0,-20.0
32,100,90,60,go_to_pick_down,green,true,false,joint 3 +,false,2024-03-04 14:02:45.473757,16.386,0.153,236.8,289.2992858886719,105.29633331298828,51.97169494628906,0.0,20.0,51.0,13.716449737548828,-20.0
32,100,90,60,go_to_pick_up_from_pick_down,green,true,false,joint 3 -,true,2024-03-04 14:02:46.173408,16.386,0.151,236.8,288.4127197265625,104.97364807128906,48.113643646240234,0.0,20.0,51.0,13.802799224853516,-20.0
32,100,90,60,go_to_color_detect_up_from_pick_up,green,true,false,joint 1 +,true,2024-03-04 14:02:47.563745,22.937,0.151,236.8,284.9214172363281,126.18841552734375,84.958251953125,3.88800048828125,24.406400680541992,51.0,0.0,-20.0
32,100,90,60,go_to_color_detect_up_from_pick_up,green,true,false,joint 1 +,true,2024-03-04 14:02:48.307857,22.386,0.199,236.8,133.0045166015625,281.8040771484375,84.958251953125,44.733856201171875,64.8484115600586,51.0,0.0,-20.0
32,100,90,60,go_to_color_detect_down,green,true,false,joint 3 +,true,2024-03-04 14:02:49.703515,22.064,0.199,236.8,124.623046875,267.2549743652344,16.847244262695312,45.0,65.0,51.0,28.736207962036133,-20.0
32,100,90,60,go_to_color_detect_up_from_color_detect_down,green,true,false,joint 3 -,false,2024-03-04 14:02:50.422202,21.95,0.2,236.8,112.07002258300781,240.33493041992188,-22.259140014648438,45.0,65.0,51.0,46.5420036315918,-20.0
32,100,90,60,go_to_color_detect_up_from_color_detect_down,green,true,false,joint 3 -,false,2024-03-04 14:02:51.116060,21.95,0.2,236.8,131.5846710205078,282.1842346191406,76.23837280273438,45.0,65.0,51.0,2.947767734527588,-20.0
32,100,90,60,detecting_color,green,false,false,detecting_color,false,2024-03-04 14:02:52.515831,16.538,0.155,236.8,131.69407653808594,282.4188232421875,84.958251953125,45.0,65.0,51.0,0.0,-20.0
32,100,90,60,go_to_color_detect_down,green,true,false,joint 3 +,false,2024-03-04 14:02:53.216048,16.538,0.155,236.8,131.69371032714844,282.4180603027344,84.4594955444336,45.0,65.0,51.0,0.3240000009536743,-20.0
32,100,90,60,go_to_color_detect_down,green,true,false,joint 3 +,false,2024-03-04 14:02:54.600038,16.234,0.155,236.8,115.84672546386719,248.43409729003906,-13.114761352539062,45.0,65.0,51.0,42.46345901489258,-20.0
32,100,90,60,go_to_color_detect_up_from_color_detect_down,green,true,false,joint 3 -,true,2024-03-04 14:02:55.310559,16.196,0.153,236.8,118.87596130371094,254.93031311035156,-4.468605041503906,45.0,65.0,51.0,36.627601623535156,-20.0
32,100,90,60,go_to_blue_up,blue,true,false,joint 1 +,true,2024-03-04 14:02:56.016824,23.336,0.153,236.8,131.69369506835938,282.41802978515625,84.44451904296875,45.0,65.0,51.0,0.10368238389492035,-20.0
32,100,90,60,go_to_blue_up,blue,true,false,joint 1 +,true,2024-03-04 14:02:57.442471,22.861,0.203,236.8,27.58109474182129,310.3917236328125,84.958251953125,64.92208862304688,84.97686004638672,51.0,0.0,-20.0
32,100,90,60,go_to_pick_up_from_blue,blue,true,false,joint 1 -,false,2024-03-04 14:02:58.133934,22.215,0.203,236.8,175.41067504882812,257.55548095703125,84.958251953125,35.742794036865234,54.34959411621094,51.0,0.0,-20.0
32,100,90,60,moving_belt,blue,false,true,joint 1 -,false,2024-03-04 14:02:59.526156,16.31,0.155,236.8,292.8220520019531,106.5785140991211,84.958251953125,0.0,20.0,51.0,0.0,-20.0
32,100,90,60,moving_belt,blue,false,true,joint 1 -,false,2024-03-04 14:03:00.230435,16.386,0.155,236.8,292.8220520019531,106.5785140991211,84.958251953125,0.0,20.0,51.0,0.0,-20.0
32,100,90,60,moving_belt,blue,false,true,joint 1 -,false,2024-03-04 14:03:01.614640,16.348,0.154,236.8,292.8220520019531,106.5785140991211,84.958251953125,0.0,20.0,51.0,0.0,-20.0
32,100,90,60,moving_belt,blue,false,true,joint 1 -,false,2024-03-04 14:03:02.323556,16.348,0.154,236.8,292.8220520019531,106.5785140991211,84.958251953125,0.0,20.0,51.0,0.0,-20.0
32,100,90,60,moving_belt,blue,false,true,joint 1 -,false,2024-03-04 14:03:03.695790,16.272,0.155,236.8,292.8220520019531,106.5785140991211,84.958251953125,0.0,20.0,51.0,0.0,-20.0
32,100,90,60,go_to_pick_down,blue,true,false,joint 3 +,false,2024-03-04 14:03:04.382502,16.253,0.155,236.8,289.2992858886719,105.29633331298828,51.97169494628906,0.0,20.0,51.0,13.716449737548828,-20.0
32,100,90,60,go_to_pick_up_from_pick_down,blue,true,false,joint 3 -,true,2024-03-04 14:03:05.076254,16.177,0.155,236.8,290.0633544921875,105.57443237304688,55.726593017578125,0.0,20.0,51.0,10.627598762512207,-20.0
32,100,90,60,go_to_color_detect_up_from_pick_up,blue,true,false,joint 1 +,true,2024-03-04 14:03:06.463476,23.279,0.19,236.8,279.7044677734375,137.36497497558594,84.958251953125,6.156002044677734,26.80400276184082,51.0,0.0,-20.0
32,100,90,60,go_to_color_detect_up_from_pick_up,blue,true,false,joint 1 +,true,2024-03-04 14:03:07.159373,22.177,0.19,236.8,135.6449432373047,280.54266357421875,84.958251953125,44.19580078125,64.40755462646484,51.0,0.0,-20.0
32,100,90,60,go_to_color_detect_down,blue,true,false,joint 3 +,true,2024-03-04 14:03:07.855724,22.177,0.19,236.8,126.31938934326172,270.8927917480469,25.148277282714844,45.0,65.0,51.0,25.238950729370117,-20.0
32,100,90,60,go_to_color_detect_up_from_color_detect_down,blue,true,false,joint 3 -,false,2024-03-04 14:03:09.046038,22.348,0.202,236.8,113.45853424072266,243.31260681152344,-19.08000946044922,45.0,65.0,51.0,44.597999572753906,-20.0
32,100,90,60,go_to_color_detect_up_from_color_detect_down,blue,true,false,joint 3 -,false,2024-03-04 14:03:10.443482,21.551,0.171,236.8,131.55123901367188,282.1125183105469,74.99565124511719,45.0,65.0,51.0,3.4007208347320557,-20.0
32,100,90,60,detecting_color,blue,false,false,detecting_color,false,2024-03-04 14:03:11.133065,16.918,0.171,236.8,131.69407653808594,282.4188232421875,84.958251953125,45.0,65.0,51.0,0.0,-20.0
32,100,90,60,go_to_color_detect_down,blue,true,false,joint 3 +,false,2024-03-04 14:03:12.513830,16.234,0.154,236.8,131.67396545410156,282.3757019042969,81.21796417236328,45.0,65.0,51.0,1.781999945640564,-20.0
32,100,90,60,go_to_color_detect_down,blue,true,false,joint 3 +,false,2024-03-04 14:03:13.207975,16.234,0.154,236.8,115.84672546386719,248.43409729003906,-13.114761352539062,45.0,65.0,51.0,42.46345901489258,-20.0
32,100,90,60,go_to_color_detect_up_from_color_detect_down,blue,true,false,joint 3 -,true,2024-03-04 14:03:14.590128,19.861,0.171,236.8,122.29449462890625,262.2613830566406,7.213356018066406,45.0,65.0,51.0,30.892797470092773,-20.0
32,100,90,60,go_to_red_up,red,true,false,joint 1 +,true,2024-03-04 14:03:15.282481,19.861,0.171,236.8,131.69407653808594,282.4188232421875,84.958251953125,45.0,65.03240203857422,51.0,0.0,-20.0
32,100,90,60,go_to_red_up,red,true,false,joint 1 +,true,2024-03-04 14:03:16.662359,22.215,0.2,236.8,-100.73587036132812,294.883056640625,84.958251953125,88.86083221435547,109.86737823486328,51.0,0.0,-20.0
32,100,90,60,go_to_pick_up_from_red,red,true,false,joint 1 -,false,2024-03-04 14:03:17.376337,22.538,0.2,236.8,-167.3057098388672,262.8926086425781,84.958251953125,102.4728012084961,122.05159759521484,51.0,0.0,-20.0
32,100,90,60,go_to_pick_up_from_red,red,true,false,joint 1 -,false,2024-03-04 14:03:18.067212,22.538,0.2,236.8,126.17060089111328,284.9293212890625,84.958251953125,46.11558532714844,64.40308380126953,51.0,0.0,-20.0
32,100,90,60,go_to_pick_up_from_red,red,true,false,joint 1 -,false,2024-03-04 14:03:19.443009,16.69,0.155,236.8,292.8220520019531,106.5785140991211,84.958251953125,0.0,20.0,51.0,0.0,-20.0
32,100,90,60,moving_belt,red,false,true,joint 1 -,false,2024-03-04 14:03:20.136475,16.367,0.155,236.8,292.8220520019531,106.5785140991211,84.958251953125,0.0,20.0,51.0,0.0,-20.0
32,100,90,60,moving_belt,red,false,true,joint 1 -,false,2024-03-04 14:03:21.516766,16.614,0.154,236.8,292.8220520019531,106.5785140991211,84.958251953125,0.0,20.0,51.0,0.0,-20.0
32,100,90,60,moving_belt,red,false,true,joint 1 -,false,2024-03-04 14:03:22.209103,16.31,0.154,236.8,292.8220520019531,106.5785140991211,84.958251953125,0.0,20.0,51.0,0.0,-20.0
32,100,90,60,moving_belt,red,false,true,joint 1 -,false,2024-03-04 14:03:23.591488,16.291,0.155,236.8,292.8220520019531,106.5785140991211,84.958251953125,0.0,20.0,51.0,0.0,-20.0
32,100,90,60,go_to_pick_down,red,true,false,joint 3 +,false,2024-03-04 14:03:24.278694,16.291,0.155,236.8,291.64520263671875,106.15017700195312,65.81058502197266,0.0,20.0,51.0,8.197198867797852,-20.0
32,100,90,60,go_to_pick_up_from_pick_down,red,true,false,joint 3 -,true,2024-03-04 14:03:25.683502,16.272,0.153,236.8,285.2557373046875,103.82460021972656,36.97457504272461,0.0,20.0,51.0,18.597999572753906,-20.0
32,100,90,60,go_to_color_detect_up_from_pick_up,red,true,false,joint 1 +,true,2024-03-04 14:03:26.375915,17.924,0.153,236.8,286.952392578125,121.49919891357422,84.958251953125,2.9484004974365234,23.402000427246094,51.0,0.0,-20.0
32,100,90,60,go_to_color_detect_up_from_pick_up,red,true,false,joint 1 +,true,2024-03-04 14:03:27.071558,22.88,0.153,236.8,145.1169891357422,275.76220703125,84.958251953125,42.244876861572266,62.651031494140625,51.0,0.0,-20.0
32,100,90,60,go_to_color_detect_down,red,true,false,joint 3 +,true,2024-03-04 14:03:28.455129,22.405,0.204,236.8,128.9454345703125,276.52435302734375,41.716670989990234,45.0,65.0,51.0,18.17639923095703,-20.0
32,100,90,60,go_to_color_detect_up_from_color_detect_down,red,true,false,joint 3 -,false,2024-03-04 14:03:29.151807,22.405,0.204,236.8,111.68415069580078,239.50743103027344,-23.108306884765625,45.0,65.0,51.0,47.092803955078125,-20.0
32,100,90,60,go_to_color_detect_up_from_color_detect_down,red,true,false,joint 3 -,false,2024-03-04 14:03:30.539502,17.506,0.2,236.8,131.0603485107422,281.059814453125,64.01529693603516,45.0,65.0,51.0,7.478593349456787,-20.0
32,100,90,60,detecting_color,red,false,false,detecting_color,false,2024-03-04 14:03:31.229221,17.506,0.2,236.8,131.69407653808594,282.4188232421875,84.958251953125,45.0,65.0,51.0,0.0,-20.0
32,100,90,60,detecting_color,red,false,false,detecting_color,false,2024-03-04 14:03:32.607318,16.405,0.154,236.8,131.69407653808594,282.4188232421875,84.958251953125,45.0,65.0,51.0,0.0,-20.0
32,100,90,60,detecting_color,red,false,false,detecting_color,false,2024-03-04 14:03:33.298195,16.196,0.154,236.8,131.69407653808594,282.4188232421875,84.958251953125,45.0,65.0,51.0,0.0,-20.0
32,100,90,60,detecting_color,red,false,false,detecting_color,false,2024-03-04 14:03:34.673880,16.215,0.155,236.8,131.69407653808594,282.4188232421875,84.958251953125,45.0,65.0,51.0,0.0,-20.0
32,100,90,60,go_to_color_detect_down,red,true,false,joint 3 +,false,2024-03-04 14:03:35.369674,16.234,0.155,236.8,125.19728088378906,268.4864196777344,19.511634826660156,45.0,65.0,51.0,27.602855682373047,-20.0
32,100,90,60,go_to_color_detect_up_from_color_detect_down,red,true,false,joint 3 -,true,2024-03-04 14:03:36.058169,16.234,0.155,236.8,112.30008697509766,240.82830810546875,-21.745933532714844,45.0,65.0,51.0,46.21800231933594,-20.0
32,100,90,60,go_to_color_detect_up_from_color_detect_down,red,true,false,joint 3 -,true,2024-03-04 14:03:37.519735,23.355,0.154,236.8,131.61187744140625,282.2425537109375,77.39869689941406,45.0,65.0,51.0,2.527214527130127,-20.0
32,100,90,60,go_to_green_up,green,true,false,joint 1 +,true,2024-03-04 14:03:38.204069,23.355,0.203,236.8,42.790916442871094,308.6627197265625,84.958251953125,62.107200622558594,83.17639923095703,51.0,0.0,-20.0
32,100,90,60,go_to_pick_up_from_green,green,true,false,joint 1 -,false,2024-03-04 14:03:39.600672,22.747,0.203,236.8,-77.0718765258789,301.9331970214844,84.958251953125,84.3196029663086,104.09280395507812,51.0,0.0,-20.0
32,100,90,60,go_to_pick_up_from_green,green,true,false,joint 1 -,false,2024-03-04 14:03:40.293187,16.956,0.203,236.8,211.91043090820312,228.46817016601562,84.958251953125,27.153240203857422,45.84300231933594,51.0,0.0,-20.0
32,100,90,60,moving_belt,green,false,true,joint 1 -,false,2024-03-04 14:03:41.676714,16.253,0.154,236.8,292.8220520019531,106.5785140991211,84.958251953125,0.0,20.0,51.0,0.0,-20.0
32,100,90,60,moving_belt,green,false,true,joint 1 -,false,2024-03-04 14:03:42.381967,16.253,0.154,236.8,292.8220520019531,106.5785140991211,84.958251953125,0.0,20.0,51.0,0.0,-20.0
32,100,90,60,moving_belt,green,false,true,joint 1 -,false,2024-03-04 14:03:43.082467,16.424,0.156,236.8,292.8220520019531,106.5785140991211,84.958251953125,0.0,20.0,51.0,0.0,-20.0
32,100,90,60,moving_belt,green,false,true,joint 1 -,false,2024-03-04 14:03:44.481989,16.253,0.156,236.8,292.8220520019531,106.5785140991211,84.958251953125,0.0,20.0,51.0,0.0,-20.0
32,100,90,60,moving_belt,green,false,true,joint 1 -,false,2024-03-04 14:03:45.264601,16.253,0.154,236.8,292.8220520019531,106.5785140991211,84.958251953125,0.0,20.0,51.0,0.0,-20.0
32,100,90,60,go_to_pick_down,green,true,false,joint 3 +,false,2024-03-04 14:03:46.664870,16.253,0.154,236.8,287.20989990234375,104.53585815429688,43.48297882080078,0.0,20.0,51.0,16.97519874572754,-20.0
32,100,90,60,go_to_pick_up_from_pick_down,green,true,false,joint 3 -,true,2024-03-04 14:03:47.353995,16.253,0.153,236.8,290.0633544921875,105.57443237304688,55.726593017578125,0.0,20.0,51.0,10.627598762512207,-20.0
32,100,90,60,go_to_color_detect_up_from_pick_up,green,true,false,joint 1 +,true,2024-03-04 14:03:48.739872,22.329,0.153,236.8,281.1641845703125,134.35189819335938,84.958251953125,5.540401458740234,26.156002044677734,51.0,0.0,-20.0
32,100,90,60,go_to_color_detect_up_from_pick_up,green,true,false,joint 1 +,true,2024-03-04 14:03:49.427712,22.329,0.202,236.8,132.03619384765625,282.259033203125,84.958251953125,44.930564880371094,64.98031616210938,51.0,0.0,-20.0
32,100,90,60,go_to_color_detect_down,green,true,false,joint 3 +,true,2024-03-04 14:03:50.122941,22.424,0.202,236.8,123.45897674560547,264.75860595703125,11.820358276367188,45.0,65.0,51.0,30.905715942382812,-20.0
32,100,90,60,go_to_color_detect_up_from_color_detect_down,green,true,false,joint 3 -,false,2024-03-04 14:03:51.518535,21.836,0.194,236.8,112.83258056640625,241.97023010253906,-20.537734985351562,45.0,65.0,51.0,45.472801208496094,-20.0
32,100,90,60,go_to_color_detect_up_from_color_detect_down,green,true,false,joint 3 -,false,2024-03-04 14:03:52.206827,21.836,0.194,236.8,131.6639862060547,282.35430908203125,80.38367462158203,45.0,65.0,51.0,1.4599547386169434,-20.0
32,100,90,60,detecting_color,green,false,false,detecting_color,false,2024-03-04 14:03:53.585453,16.291,0.152,236.8,131.69407653808594,282.4188232421875,84.958251953125,45.0,65.0,51.0,0.0,-20.0
32,100,90,60,go_to_color_detect_down,green,true,false,joint 3 +,false,2024-03-04 14:03:54.280366,16.291,0.152,236.8,131.6811981201172,282.3912353515625,81.96590423583984,45.0,65.0,51.0,1.4579999446868896,-20.0
32,100,90,60,go_to_color_detect_down,green,true,false,joint 3 +,false,2024-03-04 14:03:55.681740,16.253,0.152,236.8,116.31205749511719,249.4320068359375,-11.871322631835938,45.0,65.0,51.0,41.848506927490234,-20.0
32,100,90,60,go_to_color_detect_up_from_color_detect_down,green,true,false,joint 3 -,true,2024-03-04 14:03:56.370065,16.139,0.153,236.8,118.3367691040039,253.7740020751953,-6.109001159667969,45.0,65.0,51.0,37.470001220703125,-20.0
32,100,90,60,go_to_blue_up,blue,true,false,joint 1 +,true,2024-03-04 14:03:57.749950,23.089,0.153,236.8,131.69407653808594,282.4188232421875,84.958251953125,45.0,65.03240203857422,51.0,0.0,-20.0
32,100,90,60,go_to_pick_up_from_blue,blue,true,false,joint 1 -,false,2024-03-04 14:03:57.749950,23.089,0.153,236.8,27.163175582885742,310.4285583496094,84.958251953125,64.99922943115234,85.0,51.0,0.0,-20.0
32,100,90,60,go_to_pick_up_from_blue,blue,true,false,joint 1 -,false,2024-03-04 14:03:59.690269,22.14,0.2,236.8,194.07159423828125,243.80308532714844,84.958251953125,31.479583740234375,50.067569732666016,51.0,0.0,-20.0
32,100,90,60,moving_belt,blue,false,true,joint 1 -,false,2024-03-04 14:04:00.383127,16.386,0.154,236.8,292.8220520019531,106.5785140991211,84.958251953125,0.0,20.0,51.0,0.0,-20.0
32,100,90,60,moving_belt,blue,false,true,joint 1 -,false,2024-03-04 14:04:01.078428,16.386,0.154,236.8,292.8220520019531,106.5785140991211,84.958251953125,0.0,20.0,51.0,0.0,-20.0
32,100,90,60,moving_belt,blue,false,true,joint 1 -,false,2024-03-04 14:04:02.462797,16.614,0.154,236.8,292.8220520019531,106.5785140991211,84.958251953125,0.0,20.0,51.0,0.0,-20.0
32,100,90,60,moving_belt,blue,false,true,joint 1 -,false,2024-03-04 14:04:03.721777,16.348,0.154,236.8,292.8220520019531,106.5785140991211,84.958251953125,0.0,20.0,51.0,0.0,-20.0
32,100,90,60,moving_belt,blue,false,true,joint 1 -,false,2024-03-04 14:04:04.410449,16.348,0.154,236.8,292.8220520019531,106.5785140991211,84.958251953125,0.0,20.0,51.0,0.0,-20.0
32,100,90,60,go_to_pick_down,blue,true,false,joint 3 +,false,2024-03-04 14:04:05.098043,16.348,0.152,236.8,288.4624938964844,104.99176788330078,48.3188362121582,0.0,20.0,51.0,15.117149353027344,-20.0
32,100,90,60,go_to_pick_up_from_pick_down,blue,true,false,joint 3 -,true,2024-03-04 14:04:06.487415,16.253,0.152,236.8,291.1091003417969,105.9550552368164,61.880035400390625,0.0,20.0,51.0,8.283548355102539,-20.0
32,100,90,60,go_to_color_detect_up_from_pick_up,blue,true,false,joint 1 +,true,2024-03-04 14:04:07.176802,16.253,0.186,236.8,274.63433837890625,147.24034118652344,84.958251953125,8.197200775146484,28.942399978637695,51.0,0.0,-20.0
32,100,90,60,go_to_color_detect_up_from_pick_up,blue,true,false,joint 1 +,true,2024-03-04 14:04:08.557890,22.348,0.186,236.8,133.0045166015625,281.8040771484375,84.958251953125,44.733856201171875,64.8484115600586,51.0,0.0,-20.0
32,100,90,60,go_to_color_detect_down,blue,true,false,joint 3 +,true,2024-03-04 14:04:09.250423,22.102,0.2,236.8,121.7035903930664,260.9941711425781,5.0133514404296875,45.0,65.0,51.0,33.91697311401367,-20.0
32,100,90,60,go_to_color_detect_up_from_color_detect_down,blue,true,false,joint 3 -,false,2024-03-04 14:04:10.640785,21.893,0.2,236.8,114.17365264892578,244.84617614746094,-17.36302947998047,45.0,65.0,51.0,43.59360122680664,-20.0
32,100,90,60,go_to_color_detect_up_from_color_detect_down,blue,true,false,joint 3 -,false,2024-03-04 14:04:11.330691,18.494,0.17,236.8,131.61187744140625,282.2425537109375,77.39869689941406,45.0,65.0,51.0,2.527214527130127,-20.0
32,100,90,60,detecting_color,blue,false,false,detecting_color,false,2024-03-04 14:04:12.712761,16.766,0.17,236.8,131.69407653808594,282.4188232421875,84.958251953125,45.0,65.0,51.0,0.0,-20.0
32,100,90,60,go_to_color_detect_down,blue,true,false,joint 3 +,false,2024-03-04 14:04:13.409431,16.31,0.155,236.8,131.55108642578125,282.1122131347656,74.99072265625,45.0,65.0,51.0,4.406399726867676,-20.0
32,100,90,60,go_to_color_detect_down,blue,true,false,joint 3 +,false,2024-03-04 14:04:14.106720,16.31,0.155,236.8,113.45806121826172,243.3115692138672,-19.081138610839844,45.0,65.0,51.0,45.4727783203125,-20.0
32,100,90,60,go_to_color_detect_up_from_color_detect_down,blue,true,false,joint 3 -,true,2024-03-04 14:04:15.483166,16.101,0.173,236.8,125.77094268798828,269.7166442871094,22.315776824951172,45.0,65.0,51.0,23.99159812927246,-20.0
32,100,90,60,go_to_red_up,red,true,false,joint 1 +,true,2024-03-04 14:04:16.174151,23.241,0.173,236.8,128.33108520507812,283.9627685546875,84.958251953125,45.680397033691406,65.90719604492188,51.0,0.0,-20.0
32,100,90,60,go_to_red_up,red,true,false,joint 1 +,true,2024-03-04 14:04:17.551694,22.234,0.2,236.8,-100.73587036132812,294.883056640625,84.958251953125,88.86083221435547,109.86737823486328,51.0,0.0,-20.0
32,100,90,60,go_to_pick_up_from_red,red,true,false,joint 1 -,false,2024-03-04 14:04:18.245382,22.234,0.2,236.8,-153.25521850585938,271.3236999511719,84.958251953125,99.45960235595703,118.84400177001953,51.0,0.0,-20.0
32,100,90,60,go_to_pick_up_from_red,red,true,false,joint 1 -,false,2024-03-04 14:04:19.666998,16.367,0.2,236.8,172.7774200439453,259.3293151855469,84.958251953125,36.32657241821289,54.8084716796875,51.0,0.0,-20.0
32,100,90,60,moving_belt,red,false,true,joint 1 -,false,2024-03-04 14:04:20.436415,16.367,0.155,236.8,292.8220520019531,106.5785140991211,84.958251953125,0.0,20.0,51.0,0.0,-20.0
32,100,90,60,moving_belt,red,false,true,joint 1 -,false,2024-03-04 14:04:21.128347,16.443,0.155,236.8,292.8220520019531,106.5785140991211,84.958251953125,0.0,20.0,51.0,0.0,-20.0
32,100,90,60,moving_belt,red,false,true,joint 1 -,false,2024-03-04 14:04:22.568787,16.31,0.154,236.8,292.8220520019531,106.5785140991211,84.958251953125,0.0,20.0,51.0,0.0,-20.0
32,100,90,60,moving_belt,red,false,true,joint 1 -,false,2024-03-04 14:04:23.257506,16.31,0.154,236.8,292.8220520019531,106.5785140991211,84.958251953125,0.0,20.0,51.0,0.0,-20.0
32,100,90,60,moving_belt,red,false,true,joint 1 -,false,2024-03-04 14:04:24.654390,16.386,0.154,236.8,292.8220520019531,106.5785140991211,84.958251953125,0.0,20.0,51.0,0.0,-20.0
32,100,90,60,go_to_pick_down,red,true,false,joint 3 +,false,2024-03-04 14:04:25.349720,16.386,0.154,236.8,289.70947265625,105.44562530517578,53.92823791503906,0.0,20.0,51.0,12.967499732971191,-20.0
32,100,90,60,go_to_pick_up_from_pick_down,red,true,false,joint 3 -,true,2024-03-04 14:04:26.734406,16.348,0.153,236.8,287.5741271972656,104.66842651367188,44.82444381713867,0.0,20.0,51.0,15.195999145507812,-20.0
32,100,90,60,go_to_color_detect_up_from_pick_up,red,true,false,joint 1 +,true,2024-03-04 14:04:27.427565,22.083,0.153,236.8,281.1641845703125,134.35189819335938,84.958251953125,5.540401458740234,26.156002044677734,51.0,0.0,-20.0
32,100,90,60,go_to_color_detect_up_from_pick_up,red,true,false,joint 1 +,true,2024-03-04 14:04:28.539952,22.234,0.153,236.8,136.83921813964844,279.9620666503906,84.958251953125,43.95164489746094,64.19580078125,51.0,0.0,-20.0
32,100,90,60,go_to_color_detect_down,red,true,false,joint 3 +,true,2024-03-04 14:04:29.227803,22.424,0.204,236.8,126.84941101074219,272.0294189453125,28.04738998413086,45.0,65.0,51.0,24.008398056030273,-20.0
32,100,90,60,go_to_color_detect_up_from_color_detect_down,red,true,false,joint 3 -,false,2024-03-04 14:04:29.916627,21.912,0.204,236.8,113.13411712646484,242.61688232421875,-19.84064483642578,45.0,65.0,51.0,45.05160140991211,-20.0
32,100,90,60,go_to_color_detect_up_from_color_detect_down,red,true,false,joint 3 -,false,2024-03-04 14:04:31.586112,21.988,0.198,236.8,131.5106658935547,282.0255126953125,73.67076110839844,45.0,65.0,51.0,3.8860740661621094,-20.0
32,100,90,60,detecting_color,red,false,false,detecting_color,false,2024-03-04 14:04:32.274808,16.956,0.198,236.8,131.69407653808594,282.4188232421875,84.958251953125,45.0,65.0,51.0,0.0,-20.0
32,100,90,60,detecting_color,red,false,false,detecting_color,false,2024-03-04 14:04:33.663624,16.215,0.154,236.8,131.69407653808594,282.4188232421875,84.958251953125,45.0,65.0,51.0,0.0,-20.0
32,100,90,60,detecting_color,red,false,false,detecting_color,false,2024-03-04 14:04:34.364769,16.177,0.154,236.8,131.69407653808594,282.4188232421875,84.958251953125,45.0,65.0,51.0,0.0,-20.0
32,100,90,60,go_to_color_detect_down,red,true,false,joint 3 +,false,2024-03-04 14:04:35.753123,16.329,0.154,236.8,131.69398498535156,282.41864013671875,84.70886993408203,45.0,65.0,51.0,0.19439999759197235,-20.0
32,100,90,60,go_to_color_detect_down,red,true,false,joint 3 +,false,2024-03-04 14:04:36.442353,16.329,0.154,236.8,119.4204330444336,256.0979309082031,-2.762237548828125,45.0,65.0,51.0,37.47838592529297,-20.0
32,100,90,60,go_to_color_detect_up_from_color_detect_down,red,true,false,joint 3 -,true,2024-03-04 14:04:37.661553,16.177,0.154,236.8,118.87596130371094,254.93031311035156,-4.468605041503906,45.0,65.0,51.0,36.627601623535156,-20.0
32,100,90,60,go_to_color_detect_up_from_color_detect_down,red,true,false,joint 3 -,true,2024-03-04 14:04:38.359828,21.0,0.153,236.8,131.69369506835938,282.41802978515625,84.44451904296875,45.0,65.0,51.0,0.10368238389492035,-20.0
32,100,90,60,go_to_green_up,green,true,false,joint 1 +,true,2024-03-04 14:04:39.735029,22.102,0.199,236.8,-13.617950439453125,311.3170166015625,84.958251953125,72.50468444824219,93.38832092285156,51.0,0.0,-20.0
32,100,90,60,go_to_pick_up_from_green,green,true,false,joint 1 -,false,2024-03-04 14:04:40.423918,22.102,0.199,236.8,-36.911556243896484,309.4208679199219,84.958251953125,76.80280303955078,96.05760192871094,51.0,0.0,-20.0
32,100,90,60,go_to_pick_up_from_green,green,true,false,joint 1 -,false,2024-03-04 14:04:41.117938,22.177,0.199,236.8,256.74005126953125,176.60198974609375,84.958251953125,14.522640228271484,33.56880569458008,51.0,0.0,-20.0
32,100,90,60,moving_belt,green,false,true,joint 1 -,false,2024-03-04 14:04:42.492449,16.405,0.152,236.8,292.8220520019531,106.5785140991211,84.958251953125,0.0,20.0,51.0,0.0,-20.0
32,100,90,60,moving_belt,green,false,true,joint 1 -,false,2024-03-04 14:04:43.182838,16.671,0.152,236.8,292.8220520019531,106.5785140991211,84.958251953125,0.0,20.0,51.0,0.0,-20.0
32,100,90,60,moving_belt,green,false,true,joint 1 -,false,2024-03-04 14:04:44.569495,16.215,0.154,236.8,292.8220520019531,106.5785140991211,84.958251953125,0.0,20.0,51.0,0.0,-20.0
32,100,90,60,moving_belt,green,false,true,joint 1 -,false,2024-03-04 14:04:45.258191,16.215,0.154,236.8,292.8220520019531,106.5785140991211,84.958251953125,0.0,20.0,51.0,0.0,-20.0
32,100,90,60,moving_belt,green,false,true,joint 1 -,false,2024-03-04 14:04:46.640097,16.272,0.153,236.8,292.8220520019531,106.5785140991211,84.958251953125,0.0,20.0,51.0,0.0,-20.0
32,100,90,60,go_to_pick_down,green,true,false,joint 3 +,false,2024-03-04 14:04:47.328901,16.462,0.153,236.8,283.5929260253906,103.21939086914062,32.128028869628906,0.0,20.0,51.0,21.293243408203125,-20.0
32,100,90,60,go_to_pick_up_from_pick_down,green,true,false,joint 3 -,true,2024-03-04 14:04:48.715463,15.987,0.167,236.8,292.57049560546875,106.48695373535156,76.09077453613281,0.0,20.0,51.0,3.00100040435791,-20.0
32,100,90,60,go_to_color_detect_up_from_pick_up,green,true,false,joint 1 +,true,2024-03-04 14:04:49.405144,22.918,0.167,236.8,255.0537567138672,179.02877807617188,84.958251953125,15.065998077392578,36.070396423339844,51.0,0.0,-20.0
32,100,90,60,go_to_color_detect_down,green,true,false,joint 3 +,true,2024-03-04 14:04:50.788850,21.912,0.199,236.8,131.6811981201172,282.3912353515625,81.96590423583984,45.0,65.0,51.0,1.4579999446868896,-20.0
32,100,90,60,go_to_color_detect_down,green,true,false,joint 3 +,true,2024-03-04 14:04:51.487129,21.912,0.199,236.8,116.31205749511719,249.4320068359375,-11.871322631835938,45.0,65.0,51.0,41.848506927490234,-20.0
32,100,90,60,go_to_color_detect_up_from_color_detect_down,green,true,false,joint 3 -,false,2024-03-04 14:04:52.174829,21.722,0.199,236.8,118.3367691040039,253.7740020751953,-6.109001159667969,45.0,65.0,51.0,37.470001220703125,-20.0
32,100,90,60,detecting_color,green,false,false,detecting_color,false,2024-03-04 14:04:53.553821,18.76,0.185,236.8,131.69407653808594,282.4188232421875,84.958251953125,45.0,65.0,51.0,0.0,-20.0
32,100,90,60,detecting_color,green,false,false,detecting_color,false,2024-03-04 14:04:54.239044,16.671,0.185,236.8,131.69407653808594,282.4188232421875,84.958251953125,45.0,65.0,51.0,0.0,-20.0
32,100,90,60,detecting_color,green,false,false,detecting_color,false,2024-03-04 14:04:55.619286,16.177,0.154,236.8,131.69407653808594,282.4188232421875,84.958251953125,45.0,65.0,51.0,0.0,-20.0
32,100,90,60,go_to_color_detect_down,green,true,false,joint 3 +,false,2024-03-04 14:04:56.313643,16.177,0.154,236.8,125.19728088378906,268.4864196777344,19.511634826660156,45.0,65.0,51.0,27.602855682373047,-20.0
32,100,90,60,go_to_color_detect_up_from_color_detect_down,green,true,false,joint 3 -,true,2024-03-04 14:04:57.695929,16.348,0.152,236.8,113.80525207519531,244.05613708496094,-18.254592895507812,45.0,65.0,51.0,44.11199951171875,-20.0
32,100,90,60,go_to_color_detect_up_from_color_detect_down,green,true,false,joint 3 -,true,2024-03-04 14:04:58.387038,16.348,0.152,236.8,131.55123901367188,282.1125183105469,74.99565124511719,45.0,65.0,51.0,3.4007208347320557,-20.0
32,100,90,60,go_to_blue_up,blue,true,false,joint 1 +,true,2024-03-04 14:04:59.767017,21.912,0.2,236.8,40.175575256347656,309.0140075683594,84.958251953125,62.59239959716797,82.9711685180664,51.0,0.0,-20.0
32,100,90,60,go_to_pick_up_from_blue,blue,true,false,joint 1 -,false,2024-03-04 14:05:00.457294,21.912,0.2,236.8,122.6401138305664,286.4666442871094,84.958251953125,46.82360076904297,65.72200012207031,51.0,0.0,-20.0
32,100,90,60,go_to_pick_up_from_blue,blue,true,false,joint 1 -,false,2024-03-04 14:05:01.149969,20.108,0.2,236.8,290.802001953125,111.97286224365234,84.958251953125,1.059122085571289,20.813508987426758,51.0,0.0,-20.0
32,100,90,60,moving_belt,blue,false,true,joint 1 -,false,2024-03-04 14:05:02.537354,16.31,0.154,236.8,292.8220520019531,106.5785140991211,84.958251953125,0.0,20.0,51.0,0.0,-20.0
32,100,90,60,moving_belt,blue,false,true,joint 1 -,false,2024-03-04 14:05:03.228064,16.614,0.154,236.8,292.8220520019531,106.5785140991211,84.958251953125,0.0,20.0,51.0,0.0,-20.0
32,100,90,60,moving_belt,blue,false,true,joint 1 -,false,2024-03-04 14:05:04.495104,16.614,0.154,236.8,292.8220520019531,106.5785140991211,84.958251953125,0.0,20.0,51.0,0.0,-20.0
32,100,90,60,moving_belt,blue,false,true,joint 1 -,false,2024-03-04 14:05:05.180964,16.386,0.154,236.8,292.8220520019531,106.5785140991211,84.958251953125,0.0,20.0,51.0,0.0,-20.0
32,100,90,60,go_to_pick_down,blue,true,false,joint 3 +,false,2024-03-04 14:05:06.565645,16.348,0.154,236.8,292.30535888671875,106.39045715332031,72.25575256347656,0.0,20.0,51.0,5.540399551391602,-20.0
32,100,90,60,go_to_pick_up_from_pick_down,blue,true,false,joint 3 -,true,2024-03-04 14:05:07.254594,16.386,0.154,236.8,285.9775695800781,104.08732604980469,39.259552001953125,0.0,20.0,51.0,17.593599319458008,-20.0
32,100,90,60,go_to_color_detect_up_from_pick_up,blue,true,false,joint 1 +,true,2024-03-04 14:05:08.634701,18.285,0.205,236.8,290.59185791015625,112.51715850830078,84.958251953125,1.166402816772461,21.4580020904541,51.0,0.0,-20.0
32,100,90,60,go_to_color_detect_up_from_pick_up,blue,true,false,joint 1 +,true,2024-03-04 14:05:09.324045,22.481,0.205,236.8,157.0862274169922,269.12384033203125,84.958251953125,39.72810745239258,60.296260833740234,51.0,0.0,-20.0
32,100,90,60,go_to_color_detect_down,blue,true,false,joint 3 +,true,2024-03-04 14:05:10.706719,21.893,0.199,236.8,128.59408569335938,275.7708740234375,39.1025390625,45.0,65.0,51.0,19.277999877929688,-20.0
32,100,90,60,go_to_color_detect_up_from_color_detect_down,blue,true,false,joint 3 -,false,2024-03-04 14:05:11.401810,21.893,0.199,236.8,111.21711730957031,238.505859375,-24.117027282714844,45.0,65.0,51.0,47.80560302734375,-20.0
32,100,90,60,go_to_color_detect_up_from_color_detect_down,blue,true,false,joint 3 -,false,2024-03-04 14:05:12.788425,16.823,0.161,236.8,130.4762725830078,279.8072509765625,55.994781494140625,45.0,65.0,51.0,10.5216064453125,-20.0
32,100,90,60,detecting_color,blue,false,false,detecting_color,false,2024-03-04 14:05:13.477144,16.823,0.161,236.8,131.69407653808594,282.4188232421875,84.958251953125,45.0,65.0,51.0,0.0,-20.0
32,100,90,60,go_to_color_detect_down,blue,true,false,joint 3 +,false,2024-03-04 14:05:14.171020,16.367,0.161,236.8,131.69371032714844,282.4180603027344,84.4594955444336,45.0,65.0,51.0,0.3240000009536743,-20.0
32,100,90,60,go_to_color_detect_down,blue,true,false,joint 3 +,false,2024-03-04 14:05:15.547189,16.348,0.155,236.8,118.87044525146484,254.91847229003906,-4.485679626464844,45.0,65.0,51.0,38.28773880004883,-20.0
32,100,90,60,go_to_color_detect_up_from_color_detect_down,blue,true,false,joint 3 -,true,2024-03-04 14:05:16.245716,16.348,0.155,236.8,119.42627716064453,256.1104736328125,-2.7436447143554688,45.0,65.0,51.0,35.75279998779297,-20.0
32,100,90,60,go_to_color_detect_up_from_color_detect_down,blue,true,false,joint 3 -,true,2024-03-04 14:05:17.627410,23.07,0.193,236.8,131.6939697265625,282.4186096191406,84.6922378540039,45.0,65.0,51.0,0.03952924907207489,-20.0
32,100,90,60,go_to_red_up,red,true,false,joint 1 +,true,2024-03-04 14:05:18.318112,22.272,0.193,236.8,-30.68109130859375,310.1006164550781,84.958251953125,75.65040588378906,97.01335144042969,51.0,0.0,-20.0
32,100,90,60,go_to_pick_up_from_red,red,true,false,joint 1 -,false,2024-03-04 14:05:19.706556,22.443,0.199,236.8,-174.6710205078125,258.05767822265625,84.958251953125,104.09280395507812,123.83360290527344,51.0,0.0,-20.0
32,100,90,60,go_to_pick_up_from_red,red,true,false,joint 1 -,false,2024-03-04 14:05:20.400469,20.962,0.199,236.8,89.59996795654297,298.455322265625,84.958251953125,53.28959655761719,71.44749450683594,51.0,0.0,-20.0
32,100,90,60,go_to_pick_up_from_red,red,true,false,joint 1 -,false,2024-03-04 14:05:21.784661,16.329,0.155,236.8,290.0991516113281,113.78145599365234,84.958251953125,1.4158935546875,21.128992080688477,51.0,0.0,-20.0
32,100,90,60,moving_belt,red,false,true,joint 1 -,false,2024-03-04 14:05:22.480822,16.329,0.155,236.8,292.8220520019531,106.5785140991211,84.958251953125,0.0,20.0,51.0,0.0,-20.0
32,100,90,60,moving_belt,red,false,true,joint 1 -,false,2024-03-04 14:05:23.167556,16.424,0.155,236.8,292.8220520019531,106.5785140991211,84.958251953125,0.0,20.0,51.0,0.0,-20.0
32,100,90,60,moving_belt,red,false,true,joint 1 -,false,2024-03-04 14:05:24.543597,16.215,0.155,236.8,292.8220520019531,106.5785140991211,84.958251953125,0.0,20.0,51.0,0.0,-20.0
32,100,90,60,moving_belt,red,false,true,joint 1 -,false,2024-03-04 14:05:25.233895,16.291,0.155,236.8,292.8220520019531,106.5785140991211,84.958251953125,0.0,20.0,51.0,0.0,-20.0
32,100,90,60,go_to_pick_down,red,true,false,joint 3 +,false,2024-03-04 14:05:26.618554,16.5,0.154,236.8,292.41375732421875,106.42990112304688,73.6641845703125,0.0,20.0,51.0,4.957199573516846,-20.0
32,100,90,60,go_to_pick_up_from_pick_down,red,true,false,joint 3 -,true,2024-03-04 14:05:27.304411,16.5,0.154,236.8,283.7904052734375,103.29126739501953,32.67695617675781,0.0,20.0,51.0,20.5419979095459,-20.0
32,100,90,60,go_to_color_detect_up_from_pick_up,red,true,false,joint 1 +,true,2024-03-04 14:05:28.690979,23.412,0.166,236.8,291.097900390625,111.20140838623047,84.958251953125,0.9072036743164062,21.16640281677246,51.0,0.0,-20.0
32,100,90,60,go_to_color_detect_up_from_pick_up,red,true,false,joint 1 +,true,2024-03-04 14:05:29.379799,22.69,0.166,236.8,159.8983917236328,267.46258544921875,84.958251953125,39.12755584716797,59.72810745239258,51.0,0.0,-20.0
32,100,90,60,go_to_color_detect_down,red,true,false,joint 3 +,true,2024-03-04 14:05:30.754579,22.842,0.205,236.8,130.64785766601562,280.17523193359375,58.093955993652344,45.0,65.0,51.0,11.37239933013916,-20.0
32,100,90,60,go_to_color_detect_up_from_color_detect_down,red,true,false,joint 3 -,false,2024-03-04 14:05:31.448870,22.367,0.205,236.8,111.13883972167969,238.33799743652344,-24.284042358398438,45.0,65.0,51.0,47.96760177612305,-20.0
32,100,90,60,go_to_color_detect_up_from_color_detect_down,red,true,false,joint 3 -,false,2024-03-04 14:05:32.134859,22.253,0.197,236.8,130.0664825439453,278.928466796875,51.53040313720703,45.0,65.0,51.0,12.237512588500977,-20.0
32,100,90,60,detecting_color,red,false,false,detecting_color,false,2024-03-04 14:05:33.517329,17.108,0.197,236.8,131.69407653808594,282.4188232421875,84.958251953125,45.0,65.0,51.0,0.0,-20.0
32,100,90,60,detecting_color,red,false,false,detecting_color,false,2024-03-04 14:05:34.214891,17.108,0.197,236.8,131.69407653808594,282.4188232421875,84.958251953125,45.0,65.0,51.0,0.0,-20.0
32,100,90,60,go_to_color_detect_down,red,true,false,joint 3 +,false,2024-03-04 14:05:35.594884,16.253,0.153,236.8,131.689697265625,282.4094543457031,83.21263885498047,45.0,65.0,51.0,0.9071999788284302,-20.0
32,100,90,60,go_to_color_detect_down,red,true,false,joint 3 +,false,2024-03-04 14:05:36.283547,16.12,0.153,236.8,114.56114959716797,245.6771697998047,-16.40869903564453,45.0,65.0,51.0,44.11391830444336,-20.0
32,100,90,60,go_to_color_detect_up_from_color_detect_down,red,true,false,joint 3 -,true,2024-03-04 14:05:37.666054,16.329,0.153,236.8,119.9863510131836,257.3115539550781,-0.9322891235351562,45.0,65.0,51.0,34.84560012817383,-20.0
32,100,90,60,go_to_green_up,green,true,false,joint 1 +,true,2024-03-04 14:05:38.353550,23.374,0.153,236.8,131.69406127929688,282.4187927246094,84.8568344116211,45.0,65.0,51.0,0.007776092737913132,-20.0
32,100,90,60,go_to_green_up,green,true,false,joint 1 +,true,2024-03-04 14:05:39.727293,22.804,0.209,236.8,-50.31007766723633,307.5266418457031,84.958251953125,79.29104614257812,99.88308715820312,51.0,0.0,-20.0
32,100,90,60,go_to_pick_up_from_green,green,true,false,joint 1 -,false,2024-03-04 14:05:40.415584,22.804,0.209,236.8,-19.716285705566406,310.9903564453125,84.958251953125,73.62760162353516,92.75279998779297,51.0,0.0,-20.0
32,100,90,60,go_to_pick_up_from_green,green,true,false,joint 1 -,false,2024-03-04 14:05:41.805176,20.507,0.162,236.8,262.38165283203125,168.1059112548828,84.958251953125,12.647369384765625,31.758333206176758,51.0,0.0,-20.0
32,100,90,60,moving_belt,green,false,true,joint 1 -,false,2024-03-04 14:05:42.498871,16.367,0.162,236.8,292.8220520019531,106.5785140991211,84.958251953125,0.0,20.0,51.0,0.0,-20.0
32,100,90,60,moving_belt,green,false,true,joint 1 -,false,2024-03-04 14:05:43.187553,16.367,0.156,236.8,292.8220520019531,106.5785140991211,84.958251953125,0.0,20.0,51.0,0.0,-20.0
32,100,90,60,moving_belt,green,false,true,joint 1 -,false,2024-03-04 14:05:43.877245,16.367,0.156,236.8,292.8220520019531,106.5785140991211,84.958251953125,0.0,20.0,51.0,0.0,-20.0
32,100,90,60,moving_belt,green,false,true,joint 1 -,false,2024-03-04 14:05:45.828244,16.367,0.155,236.8,292.8220520019531,106.5785140991211,84.958251953125,0.0,20.0,51.0,0.0,-20.0
32,100,90,60,go_to_pick_down,green,true,false,joint 3 +,false,2024-03-04 14:05:46.706157,16.367,0.155,236.8,292.8220520019531,106.5785140991211,84.958251953125,0.0,20.0,51.0,0.0,-20.0
32,100,90,60,go_to_pick_down,green,true,false,joint 3 +,false,2024-03-04 14:05:47.393847,16.234,0.155,236.8,283.2178955078125,103.0828857421875,31.103111267089844,0.0,20.0,51.0,21.65714454650879,-20.0
32,100,90,60,go_to_pick_up_from_pick_down,green,true,false,joint 3 -,true,2024-03-04 14:05:48.770425,16.158,0.153,236.8,292.8035888671875,106.57179260253906,82.5535888671875,0.0,20.0,51.0,0.7067517042160034,-20.0
32,100,90,60,go_to_color_detect_up_from_pick_up,green,true,false,joint 1 +,true,2024-03-04 14:05:49.456399,22.823,0.153,236.8,228.7252655029297,211.6328887939453,84.958251953125,22.77719497680664,43.9609489440918,51.0,0.0,-20.0
32,100,90,60,go_to_color_detect_down,green,true,false,joint 3 +,true,2024-03-04 14:05:50.145639,22.215,0.198,236.8,131.6811981201172,282.3912353515625,81.96590423583984,45.0,65.0,51.0,1.4579999446868896,-20.0
32,100,90,60,go_to_color_detect_down,green,true,false,joint 3 +,true,2024-03-04 14:05:51.545832,21.95,0.198,236.8,113.80427551269531,244.0540313720703,-18.256912231445312,45.0,65.0,51.0,45.052223205566406,-20.0
32,100,90,60,go_to_color_detect_up_from_color_detect_down,green,true,false,joint 3 -,false,2024-03-04 14:05:52.235685,21.76,0.197,236.8,121.71043395996094,261.00885009765625,5.038383483886719,45.0,65.0,51.0,31.929597854614258,-20.0
32,100,90,60,detecting_color,green,false,false,detecting_color,false,2024-03-04 14:05:53.609084,18.057,0.197,236.8,131.69407653808594,282.4188232421875,84.958251953125,45.0,65.0,51.0,0.0,-20.0
32,100,90,60,detecting_color,green,false,false,detecting_color,false,2024-03-04 14:05:54.298779,16.747,0.155,236.8,131.69407653808594,282.4188232421875,84.958251953125,45.0,65.0,51.0,0.0,-20.0
32,100,90,60,go_to_color_detect_down,green,true,false,joint 3 +,false,2024-03-04 14:05:55.678086,16.215,0.155,236.8,130.80224609375,280.5063171386719,60.13973617553711,45.0,65.0,51.0,10.529999732971191,-20.0
32,100,90,60,go_to_color_detect_down,green,true,false,joint 3 +,true,2024-03-04 14:05:56.369772,16.215,0.155,236.8,111.4034194946289,238.90538024902344,-23.71709442138672,45.0,65.0,51.0,47.79975891113281,-20.0
32,100,90,60,go_to_color_detect_up_from_color_detect_down,green,true,false,joint 3 -,true,2024-03-04 14:05:57.058478,16.215,0.153,236.8,129.56195068359375,277.8464660644531,46.777122497558594,45.0,65.0,51.0,14.083019256591797,-20.0
32,100,90,60,go_to_blue_up,blue,true,false,joint 1 +,true,2024-03-04 14:05:58.271826,22.88,0.153,236.8,112.24117279052734,290.69854736328125,84.958251953125,48.88800048828125,69.40640258789062,51.0,0.0,-20.0
32,100,90,60,go_to_pick_up_from_blue,blue,true,false,joint 1 -,false,2024-03-04 14:05:59.652330,22.102,0.202,236.8,36.799171447753906,309.43426513671875,84.958251953125,63.21800231933594,82.86160278320312,51.0,0.0,-20.0
32,100,90,60,go_to_pick_up_from_blue,blue,true,false,joint 1 -,false,2024-03-04 14:06:00.346628,22.102,0.202,236.8,269.34332275390625,156.7095947265625,84.958251953125,10.191740036010742,29.395326614379883,51.0,0.0,-20.0
32,100,90,60,moving_belt,blue,false,true,joint 1 -,false,2024-03-04 14:06:01.552568,16.443,0.156,236.8,292.8220520019531,106.5785140991211,84.958251953125,0.0,20.0,51.0,0.0,-20.0
32,100,90,60,moving_belt,blue,false,true,joint 1 -,false,2024-03-04 14:06:02.245565,16.367,0.156,236.8,292.8220520019531,106.5785140991211,84.958251953125,0.0,20.0,51.0,0.0,-20.0
32,100,90,60,moving_belt,blue,false,true,joint 1 -,false,2024-03-04 14:06:03.623559,16.519,0.155,236.8,292.8220520019531,106.5785140991211,84.958251953125,0.0,20.0,51.0,0.0,-20.0
32,100,90,60,moving_belt,blue,false,true,joint 1 -,false,2024-03-04 14:06:04.318589,16.177,0.155,236.8,292.8220520019531,106.5785140991211,84.958251953125,0.0,20.0,51.0,0.0,-20.0
32,100,90,60,go_to_pick_down,blue,true,false,joint 3 +,false,2024-03-04 14:06:05.739299,16.215,0.155,236.8,292.8220520019531,106.5785140991211,84.958251953125,0.0,20.0,51.0,0.0,-20.0
32,100,90,60,go_to_pick_down,blue,true,false,joint 3 +,false,2024-03-04 14:06:06.430787,16.215,0.155,236.8,282.8614196777344,102.95314025878906,30.149410247802734,0.0,20.0,51.0,21.95999526977539,-20.0
32,100,90,60,go_to_pick_up_from_pick_down,blue,true,false,joint 3 -,true,2024-03-04 14:06:07.815347,23.146,0.189,236.8,292.7749938964844,106.56138610839844,81.12152099609375,0.0,20.0,51.0,1.2002513408660889,-20.0
32,100,90,60,go_to_color_detect_up_from_pick_up,blue,true,false,joint 1 +,true,2024-03-04 14:06:08.503672,23.146,0.189,236.8,241.21578979492188,197.27818298339844,84.958251953125,19.277996063232422,40.41199493408203,51.0,0.0,-20.0
32,100,90,60,go_to_color_detect_down,blue,true,false,joint 3 +,true,2024-03-04 14:06:09.191047,22.14,0.189,236.8,131.66403198242188,282.35443115234375,80.38703155517578,45.0,65.0,51.0,2.138399839401245,-20.0
32,100,90,60,go_to_color_detect_down,blue,true,false,joint 3 +,true,2024-03-04 14:06:10.566980,21.95,0.203,236.8,115.39921569824219,247.47439575195312,-14.284370422363281,45.0,65.0,51.0,43.04601287841797,-20.0
32,100,90,60,go_to_color_detect_up_from_color_detect_down,blue,true,false,joint 3 -,false,2024-03-04 14:06:11.254327,21.95,0.203,236.8,120.55474853515625,258.5304870605469,0.967315673828125,45.0,65.0,51.0,33.90599822998047,-20.0
32,100,90,60,detecting_color,blue,false,false,detecting_color,false,2024-03-04 14:06:12.628875,17.165,0.179,236.8,131.69407653808594,282.4188232421875,84.93830108642578,45.0,65.0,51.0,0.0,-20.0
32,100,90,60,detecting_color,blue,false,false,detecting_color,false,2024-03-04 14:06:13.319632,17.165,0.179,236.8,131.69407653808594,282.4188232421875,84.958251953125,45.0,65.0,51.0,0.0,-20.0
32,100,90,60,go_to_color_detect_down,blue,true,false,joint 3 +,false,2024-03-04 14:06:14.693625,16.196,0.155,236.8,129.26637268066406,277.2126159667969,44.265968322753906,45.0,65.0,51.0,17.10719871520996,-20.0
32,100,90,60,go_to_color_detect_up_from_color_detect_down,blue,true,false,joint 3 -,true,2024-03-04 14:06:14.693625,16.196,0.155,236.8,111.13883972167969,238.33799743652344,-24.284042358398438,45.0,65.0,51.0,48.0,-20.0
32,100,90,60,go_to_color_detect_up_from_color_detect_down,blue,true,false,joint 3 -,true,2024-03-04 14:06:16.591334,18.722,0.162,236.8,129.56195068359375,277.8464660644531,46.777122497558594,45.0,65.0,51.0,14.083019256591797,-20.0
32,100,90,60,go_to_red_up,red,true,false,joint 1 +,true,2024-03-04 14:06:17.278204,23.222,0.162,236.8,90.0811538696289,298.3104553222656,84.958251953125,53.19719696044922,73.94239807128906,51.0,0.0,-20.0
32,100,90,60,go_to_red_up,red,true,false,joint 1 +,true,2024-03-04 14:06:18.655096,22.14,0.202,236.8,-160.85507202148438,266.8883056640625,84.958251953125,101.07759857177734,121.56575012207031,51.0,0.0,-20.0
32,100,90,60,go_to_pick_up_from_red,red,true,false,joint 1 -,false,2024-03-04 14:06:19.342797,22.633,0.202,236.8,-120.51888275146484,287.3655090332031,84.958251953125,92.75279998779297,111.84559631347656,51.0,0.0,-20.0
32,100,90,60,go_to_pick_up_from_red,red,true,false,joint 1 -,false,2024-03-04 14:06:20.731759,17.108,0.156,236.8,249.00709533691406,187.3477783203125,84.958251953125,16.957042694091797,35.92494201660156,51.0,0.0,-20.0
32,100,90,60,moving_belt,red,false,true,joint 1 -,false,2024-03-04 14:06:21.428605,16.31,0.156,236.8,292.8220520019531,106.5785140991211,84.958251953125,0.0,20.0,51.0,0.0,-20.0
32,100,90,60,moving_belt,red,false,true,joint 1 -,false,2024-03-04 14:06:22.811279,16.557,0.158,236.8,292.8220520019531,106.5785140991211,84.958251953125,0.0,20.0,51.0,0.0,-20.0
32,100,90,60,moving_belt,red,false,true,joint 1 -,false,2024-03-04 14:06:23.498263,16.557,0.158,236.8,292.8220520019531,106.5785140991211,84.958251953125,0.0,20.0,51.0,0.0,-20.0
32,100,90,60,moving_belt,red,false,true,joint 1 -,false,2024-03-04 14:06:24.190943,16.177,0.158,236.8,292.8220520019531,106.5785140991211,84.958251953125,0.0,20.0,51.0,0.0,-20.0
32,100,90,60,moving_belt,red,false,true,joint 1 -,false,2024-03-04 14:06:25.567375,16.519,0.155,236.8,292.8220520019531,106.5785140991211,84.958251953125,0.0,20.0,51.0,0.0,-20.0
32,100,90,60,go_to_pick_down,red,true,false,joint 3 +,false,2024-03-04 14:06:26.254731,16.348,0.155,236.8,284.070556640625,103.39323425292969,33.46719741821289,0.0,20.0,51.0,20.799745559692383,-20.0
32,100,90,60,go_to_pick_up_from_pick_down,red,true,false,joint 3 -,true,2024-03-04 14:06:27.636749,16.899,0.154,236.8,292.1600341796875,106.33756256103516,70.58356475830078,0.0,20.0,51.0,5.024799346923828,-20.0
32,100,90,60,go_to_color_detect_up_from_pick_up,red,true,false,joint 1 +,true,2024-03-04 14:06:28.323457,22.937,0.154,236.8,266.0571594238281,162.2261199951172,84.958251953125,11.372398376464844,32.24720001220703,51.0,0.0,-20.0
32,100,90,60,go_to_color_detect_down,red,true,false,joint 3 +,true,2024-03-04 14:06:29.697961,22.291,0.203,236.8,131.69371032714844,282.4180603027344,84.4594955444336,45.0,65.0,51.0,0.3240000009536743,-20.0
32,100,90,60,go_to_color_detect_down,red,true,false,joint 3 +,true,2024-03-04 14:06:30.389725,22.045,0.203,236.8,118.87044525146484,254.91847229003906,-4.485679626464844,45.0,65.0,51.0,38.28773880004883,-20.0
32,100,90,60,go_to_color_detect_up_from_color_detect_down,red,true,false,joint 3 -,false,2024-03-04 14:06:31.775765,21.855,0.199,236.8,116.31573486328125,249.43988037109375,-11.861381530761719,45.0,65.0,51.0,40.515602111816406,-20.0
32,100,90,60,go_to_color_detect_up_from_color_detect_down,red,true,false,joint 3 -,false,2024-03-04 14:06:32.461239,17.696,0.199,236.8,131.6939697265625,282.4186096191406,84.6922378540039,45.0,65.0,51.0,0.03952924907207489,-20.0
32,100,90,60,detecting_color,red,false,false,detecting_color,false,2024-03-04 14:06:33.850972,16.652,0.155,236.8,131.69407653808594,282.4188232421875,84.958251953125,45.0,65.0,51.0,0.0,-20.0
32,100,90,60,detecting_color,red,false,false,detecting_color,false,2024-03-04 14:06:34.540036,16.652,0.155,236.8,131.69407653808594,282.4188232421875,84.958251953125,45.0,65.0,51.0,0.0,-20.0
32,100,90,60,detecting_color,red,false,false,detecting_color,false,2024-03-04 14:06:35.232720,16.253,0.155,236.8,131.69407653808594,282.4188232421875,84.958251953125,45.0,65.0,51.0,0.0,-20.0
32,100,90,60,go_to_color_detect_down,red,true,false,joint 3 +,false,2024-03-04 14:06:36.606595,16.386,0.152,236.8,131.69407653808594,282.4188232421875,84.958251953125,45.0,65.0,51.0,0.0,-20.0
32,100,90,60,go_to_color_detect_down,red,true,false,joint 3 +,false,2024-03-04 14:06:37.294622,16.329,0.152,236.8,120.54835510253906,258.5167541503906,0.9455718994140625,45.0,65.0,51.0,35.76247787475586,-20.0
32,100,90,60,go_to_color_detect_up_from_color_detect_down,red,true,false,joint 3 -,true,2024-03-04 14:06:38.669942,16.367,0.155,236.8,114.17365264892578,244.84617614746094,-17.36302947998047,45.0,65.0,51.0,43.59360122680664,-20.0
32,100,90,60,go_to_color_detect_up_from_color_detect_down,red,true,false,joint 3 -,true,2024-03-04 14:06:39.357276,23.241,0.155,236.8,131.63365173339844,282.28924560546875,78.47644805908203,45.0,65.0,51.0,2.139061212539673,-20.0
32,100,90,60,go_to_green_up,green,true,false,joint 1 +,true,2024-03-04 14:06:40.733461,22.747,0.204,236.8,1.8525890111923218,311.6092224121094,84.958251953125,69.65936279296875,90.64020538330078,51.0,0.0,-20.0
32,100,90,60,go_to_pick_up_from_green,green,true,false,joint 1 -,false,2024-03-04 14:06:41.421849,22.329,0.204,236.8,-62.64821243286133,305.25225830078125,84.958251953125,81.5979995727539,101.11199951171875,51.0,0.0,-20.0
32,100,90,60,go_to_pick_up_from_green,green,true,false,joint 1 -,false,2024-03-04 14:06:42.803876,19.253,0.156,236.8,217.0791778564453,223.56289672851562,84.958251953125,25.843002319335938,44.56516647338867,51.0,0.0,-20.0
32,100,90,60,moving_belt,green,false,true,joint 1 -,false,2024-03-04 14:06:43.492177,16.367,0.156,236.8,292.8220520019531,106.5785140991211,84.958251953125,0.0,20.0,51.0,0.0,-20.0
32,100,90,60,moving_belt,green,false,true,joint 1 -,false,2024-03-04 14:06:44.181163,16.367,0.156,236.8,292.8220520019531,106.5785140991211,84.958251953125,0.0,20.0,51.0,0.0,-20.0
32,100,90,60,moving_belt,green,false,true,joint 1 -,false,2024-03-04 14:06:45.557900,16.652,0.158,236.8,292.8220520019531,106.5785140991211,84.958251953125,0.0,20.0,51.0,0.0,-20.0
32,100,90,60,moving_belt,green,false,true,joint 1 -,false,2024-03-04 14:06:46.245418,16.158,0.158,236.8,292.8220520019531,106.5785140991211,84.958251953125,0.0,20.0,51.0,0.0,-20.0
32,100,90,60,moving_belt,green,false,true,joint 1 -,false,2024-03-04 14:06:47.619960,16.31,0.153,236.8,292.8220520019531,106.5785140991211,84.958251953125,0.0,20.0,51.0,0.0,-20.0
32,100,90,60,go_to_pick_down,green,true,false,joint 3 +,false,2024-03-04 14:06:48.310531,16.12,0.153,236.8,287.6234436035156,104.6863784790039,45.00984191894531,0.0,20.0,51.0,16.388248443603516,-20.0
32,100,90,60,go_to_pick_up_from_pick_down,green,true,false,joint 3 -,true,2024-03-04 14:06:49.732204,16.785,0.152,236.8,291.619140625,106.14068603515625,65.60049438476562,0.0,20.0,51.0,6.882848739624023,-20.0
32,100,90,60,go_to_color_detect_up_from_pick_up,green,true,false,joint 1 +,true,2024-03-04 14:06:50.418907,22.804,0.152,236.8,274.63433837890625,147.24034118652344,84.958251953125,8.197200775146484,28.942399978637695,51.0,0.0,-20.0
32,100,90,60,go_to_color_detect_down,green,true,false,joint 3 +,true,2024-03-04 14:06:51.796291,22.329,0.2,236.8,131.69407653808594,282.4188232421875,84.958251953125,45.0,65.0,51.0,0.0,-20.0
32,100,90,60,go_to_color_detect_down,green,true,false,joint 3 +,true,2024-03-04 14:06:52.486622,22.064,0.2,236.8,121.7035903930664,260.9941711425781,5.0133514404296875,45.0,65.0,51.0,33.91697311401367,-20.0
32,100,90,60,go_to_color_detect_up_from_color_detect_down,green,true,false,joint 3 -,false,2024-03-04 14:06:53.867544,21.988,0.199,236.8,114.17365264892578,244.84617614746094,-17.36302947998047,45.0,65.0,51.0,43.59360122680664,-20.0
32,100,90,60,go_to_color_detect_up_from_color_detect_down,green,true,false,joint 3 -,false,2024-03-04 14:06:54.554256,17.867,0.199,236.8,131.6862335205078,282.4020080566406,82.62247467041016,45.0,65.0,51.0,0.6842952370643616,-20.0
32,100,90,60,detecting_color,green,false,false,detecting_color,false,2024-03-04 14:06:55.243949,17.867,0.199,236.8,131.69407653808594,282.4188232421875,84.958251953125,45.0,65.0,51.0,0.0,-20.0
32,100,90,60,detecting_color,green,false,false,detecting_color,false,2024-03-04 14:06:56.623378,16.196,0.156,236.8,131.69407653808594,282.4188232421875,84.958251953125,45.0,65.0,51.0,0.0,-20.0
32,100,90,60,go_to_color_detect_down,green,true,false,joint 3 +,false,2024-03-04 14:06:57.315527,16.196,0.156,236.8,131.164794921875,281.2837829589844,65.81058502197266,45.0,65.0,51.0,8.197198867797852,-20.0
32,100,90,60,go_to_color_detect_down,green,true,false,joint 3 +,false,2024-03-04 14:06:58.697949,16.31,0.155,236.8,111.8671875,239.8999481201172,-22.707305908203125,45.0,65.0,51.0,47.31570053100586,-20.0
32,100,90,60,go_to_color_detect_up_from_color_detect_down,green,true,false,joint 3 -,true,2024-03-04 14:06:59.388865,16.329,0.155,236.8,128.5986785888672,275.7807312011719,39.1356086730957,45.0,65.0,51.0,17.094280242919922,-20.0
32,100,90,60,go_to_blue_up,blue,true,false,joint 1 +,true,2024-03-04 14:07:00.767534,22.937,0.208,236.8,119.11312103271484,287.9510192871094,84.958251953125,47.527198791503906,67.94840240478516,51.0,0.0,-20.0
32,100,90,60,go_to_pick_up_from_blue,blue,true,false,joint 1 -,false,2024-03-04 14:07:01.458618,22.253,0.208,236.8,32.070594787597656,309.9599914550781,84.958251953125,64.09280395507812,83.83360290527344,51.0,0.0,-20.0
32,100,90,60,go_to_pick_up_from_blue,blue,true,false,joint 1 -,false,2024-03-04 14:07:02.834819,22.102,0.191,236.8,262.00543212890625,168.69168090820312,84.958251953125,12.775379180908203,31.88176727294922,51.0,0.0,-20.0
32,100,90,60,moving_belt,blue,false,true,joint 1 -,false,2024-03-04 14:07:03.523952,16.462,0.191,236.8,292.8220520019531,106.5785140991211,84.958251953125,0.0,20.0,51.0,0.0,-20.0
32,100,90,60,moving_belt,blue,false,true,joint 1 -,false,2024-03-04 14:07:04.211770,16.462,0.158,236.8,292.8220520019531,106.5785140991211,84.958251953125,0.0,20.0,51.0,0.0,-20.0
32,100,90,60,moving_belt,blue,false,true,joint 1 -,false,2024-03-04 14:07:05.595505,16.215,0.158,236.8,292.8220520019531,106.5785140991211,84.958251953125,0.0,20.0,51.0,0.0,-20.0
32,100,90,60,moving_belt,blue,false,true,joint 1 -,false,2024-03-04 14:07:06.287435,16.215,0.158,236.8,292.8220520019531,106.5785140991211,84.958251953125,0.0,20.0,51.0,0.0,-20.0
32,100,90,60,moving_belt,blue,false,true,joint 1 -,false,2024-03-04 14:07:07.662191,16.291,0.155,236.8,292.8220520019531,106.5785140991211,84.958251953125,0.0,20.0,51.0,0.0,-20.0
32,100,90,60,go_to_pick_down,blue,true,false,joint 3 +,false,2024-03-04 14:07:08.350531,16.443,0.155,236.8,283.2178955078125,103.0828857421875,31.103111267089844,0.0,20.0,51.0,21.65714454650879,-20.0
32,100,90,60,go_to_pick_up_from_pick_down,blue,true,false,joint 3 -,true,2024-03-04 14:07:09.724812,16.405,0.154,236.8,292.6325988769531,106.50955963134766,77.2623062133789,0.0,20.0,51.0,2.5760505199432373,-20.0
32,100,90,60,go_to_color_detect_up_from_pick_up,blue,true,false,joint 1 +,true,2024-03-04 14:07:10.412709,22.804,0.154,236.8,251.87635803222656,183.47213745117188,84.958251953125,16.070396423339844,37.10719680786133,51.0,0.0,-20.0
32,100,90,60,go_to_color_detect_down,blue,true,false,joint 3 +,true,2024-03-04 14:07:11.790713,22.064,0.197,236.8,131.686279296875,282.4021301269531,82.63080596923828,45.0,65.0,51.0,1.1663999557495117,-20.0
32,100,90,60,go_to_color_detect_down,blue,true,false,joint 3 +,true,2024-03-04 14:07:12.480397,22.064,0.197,236.8,116.79425048828125,250.466064453125,-10.552360534667969,45.0,65.0,51.0,41.20115280151367,-20.0
32,100,90,60,go_to_color_detect_up_from_color_detect_down,blue,true,false,joint 3 -,false,2024-03-04 14:07:13.862013,21.798,0.195,236.8,118.3367691040039,253.7740020751953,-6.109001159667969,45.0,65.0,51.0,37.470001220703125,-20.0
32,100,90,60,detecting_color,blue,false,false,detecting_color,false,2024-03-04 14:07:14.550017,18.057,0.195,236.8,131.69407653808594,282.4188232421875,84.958251953125,45.0,65.0,51.0,0.0,-20.0
32,100,90,60,detecting_color,blue,false,false,detecting_color,false,2024-03-04 14:07:15.237786,16.652,0.159,236.8,131.69407653808594,282.4188232421875,84.958251953125,45.0,65.0,51.0,0.0,-20.0
32,100,90,60,go_to_color_detect_down,blue,true,false,joint 3 +,false,2024-03-04 14:07:16.619079,16.215,0.159,236.8,129.82395935058594,278.40838623046875,49.16177749633789,45.0,65.0,51.0,15.065999031066895,-20.0
32,100,90,60,go_to_color_detect_up_from_color_detect_down,blue,true,false,joint 3 -,true,2024-03-04 14:07:17.309760,16.215,0.154,236.8,111.13883972167969,238.33799743652344,-24.284042358398438,45.0,65.0,51.0,48.0,-20.0
32,100,90,60,go_to_color_detect_up_from_color_detect_down,blue,true,false,joint 3 -,true,2024-03-04 14:07:18.694852,23.165,0.154,236.8,129.2700653076172,277.2205505371094,44.29623031616211,45.0,65.0,51.0,15.054372787475586,-20.0
32,100,90,60,go_to_red_up,red,true,false,joint 1 +,true,2024-03-04 14:07:19.391688,23.165,0.207,236.8,93.7852783203125,297.1667175292969,84.958251953125,52.484397888183594,73.19719696044922,51.0,0.0,-20.0
32,100,90,60,go_to_red_up,red,true,false,joint 1 +,true,2024-03-04 14:07:20.773446,22.386,0.207,236.8,-158.42373657226562,268.3386535644531,84.958251953125,100.55705261230469,121.07759857177734,51.0,0.0,-20.0
32,100,90,60,go_to_pick_up_from_red,red,true,false,joint 1 -,false,2024-03-04 14:07:21.460414,22.462,0.2,236.8,-120.51888275146484,287.3655090332031,84.958251953125,92.75279998779297,111.84559631347656,51.0,0.0,-20.0
32,100,90,60,go_to_pick_up_from_red,red,true,false,joint 1 -,false,2024-03-04 14:07:22.845023,16.424,0.2,236.8,249.00709533691406,187.3477783203125,84.958251953125,16.957042694091797,35.92494201660156,51.0,0.0,-20.0
32,100,90,60,moving_belt,red,false,true,joint 1 -,false,2024-03-04 14:07:23.533719,16.424,0.155,236.8,292.8220520019531,106.5785140991211,84.958251953125,0.0,20.0,51.0,0.0,-20.0
32,100,90,60,moving_belt,red,false,true,joint 1 -,false,2024-03-04 14:07:24.230915,16.329,0.155,236.8,292.8220520019531,106.5785140991211,84.958251953125,0.0,20.0,51.0,0.0,-20.0
32,100,90,60,moving_belt,red,false,true,joint 1 -,false,2024-03-04 14:07:25.607571,16.348,0.155,236.8,292.8220520019531,106.5785140991211,84.958251953125,0.0,20.0,51.0,0.0,-20.0
32,100,90,60,moving_belt,red,false,true,joint 1 -,false,2024-03-04 14:07:26.294397,16.519,0.155,236.8,292.8220520019531,106.5785140991211,84.958251953125,0.0,20.0,51.0,0.0,-20.0
32,100,90,60,moving_belt,red,false,true,joint 1 -,false,2024-03-04 14:07:27.676015,16.348,0.155,236.8,292.8220520019531,106.5785140991211,84.958251953125,0.0,20.0,51.0,0.0,-20.0
32,100,90,60,go_to_pick_down,red,true,false,joint 3 +,false,2024-03-04 14:07:28.371556,16.348,0.155,236.8,283.5929260253906,103.21939086914062,32.128028869628906,0.0,20.0,51.0,21.293243408203125,-20.0
32,100,90,60,go_to_pick_up_from_pick_down,red,true,false,joint 3 -,true,2024-03-04 14:07:29.754700,16.329,0.155,236.8,292.4942321777344,106.45919799804688,74.83688354492188,0.0,20.0,51.0,3.45835018157959,-20.0
32,100,90,60,go_to_color_detect_up_from_pick_up,red,true,false,joint 1 +,true,2024-03-04 14:07:30.448980,23.165,0.207,236.8,233.10289001464844,206.80130004882812,84.958251953125,21.57839584350586,42.77719497680664,51.0,0.0,-20.0
32,100,90,60,go_to_color_detect_down,red,true,false,joint 3 +,true,2024-03-04 14:07:31.824017,22.348,0.207,236.8,131.686279296875,282.4021301269531,82.63080596923828,45.0,65.0,51.0,1.1663999557495117,-20.0
32,100,90,60,go_to_color_detect_down,red,true,false,joint 3 +,true,2024-03-04 14:07:32.520677,22.348,0.199,236.8,116.79425048828125,250.466064453125,-10.552360534667969,45.0,65.0,51.0,41.20115280151367,-20.0
32,100,90,60,go_to_color_detect_up_from_color_detect_down,red,true,false,joint 3 -,false,2024-03-04 14:07:33.234852,22.196,0.199,236.8,118.3367691040039,253.7740020751953,-6.109001159667969,45.0,65.0,51.0,37.470001220703125,-20.0
32,100,90,60,detecting_color,red,false,false,detecting_color,false,2024-03-04 14:07:34.610628,16.937,0.159,236.8,131.69407653808594,282.4188232421875,84.958251953125,45.0,65.0,51.0,0.0,-20.0
32,100,90,60,detecting_color,red,false,false,detecting_color,false,2024-03-04 14:07:35.305979,16.937,0.159,236.8,131.69407653808594,282.4188232421875,84.958251953125,45.0,65.0,51.0,0.0,-20.0
32,100,90,60,detecting_color,red,false,false,detecting_color,false,2024-03-04 14:07:36.686595,16.31,0.159,236.8,131.69407653808594,282.4188232421875,84.958251953125,45.0,65.0,51.0,0.0,-20.0
32,100,90,60,detecting_color,red,false,false,detecting_color,false,2024-03-04 14:07:37.373059,16.272,0.155,236.8,131.69407653808594,282.4188232421875,84.958251953125,45.0,65.0,51.0,0.0,-20.0
32,100,90,60,go_to_color_detect_down,red,true,false,joint 3 +,false,2024-03-04 14:07:38.747117,16.177,0.155,236.8,130.64785766601562,280.17523193359375,58.093955993652344,45.0,65.0,51.0,11.37239933013916,-20.0
32,100,90,60,go_to_color_detect_down,red,true,false,joint 3 +,false,2024-03-04 14:07:39.439643,16.177,0.155,236.8,111.29994201660156,238.68348693847656,-23.939613342285156,45.0,65.0,51.0,47.89631271362305,-20.0
32,100,90,60,go_to_color_detect_up_from_color_detect_down,red,true,false,joint 3 -,true,2024-03-04 14:07:40.814677,22.956,0.155,236.8,128.21568298339844,274.95941162109375,36.4603271484375,45.0,65.0,51.0,18.16283416748047,-20.0
32,100,90,60,go_to_green_up,green,true,false,joint 1 +,true,2024-03-04 14:07:41.508702,23.032,0.211,236.8,112.24117279052734,290.69854736328125,84.958251953125,48.88800048828125,69.40640258789062,51.0,0.0,-20.0
32,100,90,60,go_to_green_up,green,true,false,joint 1 +,true,2024-03-04 14:07:42.884379,22.367,0.211,236.8,-76.74252319335938,302.01708984375,84.958251953125,84.25712585449219,104.46036529541016,51.0,0.0,-20.0
32,100,90,60,go_to_pick_up_from_green,green,true,false,joint 1 -,false,2024-03-04 14:07:43.575796,21.798,0.204,236.8,48.79237747192383,307.7710876464844,84.958251953125,60.991600036621094,79.72799682617188,51.0,0.0,-20.0
32,100,90,60,go_to_pick_up_from_green,green,true,false,joint 1 -,false,2024-03-04 14:07:44.268870,21.798,0.204,236.8,289.7281799316406,114.72274017333984,84.958251953125,1.6019210815429688,21.296085357666016,51.0,0.0,-20.0
32,100,90,60,moving_belt,green,false,true,joint 1 -,false,2024-03-04 14:07:45.646893,16.443,0.156,236.8,292.8220520019531,106.5785140991211,84.958251953125,0.0,20.0,51.0,0.0,-20.0
32,100,90,60,moving_belt,green,false,true,joint 1 -,false,2024-03-04 14:07:46.339660,16.5,0.156,236.8,292.8220520019531,106.5785140991211,84.958251953125,0.0,20.0,51.0,0.0,-20.0
32,100,90,60,moving_belt,green,false,true,joint 1 -,false,2024-03-04 14:07:47.714682,16.367,0.154,236.8,292.8220520019531,106.5785140991211,84.958251953125,0.0,20.0,51.0,0.0,-20.0
32,100,90,60,moving_belt,green,false,true,joint 1 -,false,2024-03-04 14:07:48.398978,16.5,0.154,236.8,292.8220520019531,106.5785140991211,84.958251953125,0.0,20.0,51.0,0.0,-20.0
32,100,90,60,go_to_pick_down,green,true,false,joint 3 +,false,2024-03-04 14:07:49.781691,16.386,0.154,236.8,292.7552490234375,106.55420684814453,80.38703155517578,0.0,20.0,51.0,2.138399839401245,-20.0
32,100,90,60,go_to_pick_up_from_pick_down,green,true,false,joint 3 -,true,2024-03-04 14:07:50.468235,16.386,0.155,236.8,282.9384460449219,102.9811782836914,30.353843688964844,0.0,20.0,51.0,21.67599868774414,-20.0
32,100,90,60,go_to_color_detect_up_from_pick_up,green,true,false,joint 1 +,true,2024-03-04 14:07:51.860906,23.146,0.155,236.8,292.458740234375,107.57142639160156,84.958251953125,0.19440078735351562,20.32400131225586,51.0,0.0,-20.0
32,100,90,60,go_to_color_detect_up_from_pick_up,green,true,false,joint 1 +,true,2024-03-04 14:07:52.558744,23.146,0.205,236.8,172.43882751464844,259.5545654296875,84.958251953125,36.401344299316406,57.13149642944336,51.0,0.0,-20.0
32,100,90,60,go_to_color_detect_down,green,true,false,joint 3 +,true,2024-03-04 14:07:53.244723,22.253,0.205,236.8,131.05935668945312,281.05767822265625,63.99890899658203,45.0,65.0,51.0,8.942399024963379,-20.0
32,100,90,60,go_to_color_detect_down,green,true,false,joint 3 +,true,2024-03-04 14:07:54.627234,21.874,0.199,236.8,111.14512634277344,238.35147094726562,-24.27069091796875,45.0,65.0,51.0,48.0,-20.0
32,100,90,60,go_to_color_detect_up_from_color_detect_down,green,true,false,joint 3 -,false,2024-03-04 14:07:55.321165,21.874,0.199,236.8,128.9495391845703,276.5331726074219,41.74835205078125,45.0,65.0,51.0,16.05812644958496,-20.0
32,100,90,60,detecting_color,green,false,false,detecting_color,false,2024-03-04 14:07:56.698513,17.051,0.162,236.8,131.69407653808594,282.4188232421875,84.958251953125,45.0,65.0,51.0,0.0,-20.0
32,100,90,60,detecting_color,green,false,false,detecting_color,false,2024-03-04 14:07:57.390202,17.051,0.162,236.8,131.69407653808594,282.4188232421875,84.958251953125,45.0,65.0,51.0,0.0,-20.0
32,100,90,60,go_to_color_detect_down,green,true,false,joint 3 +,false,2024-03-04 14:07:58.794116,16.386,0.156,236.8,123.45897674560547,264.75860595703125,11.820358276367188,45.0,65.0,51.0,30.905715942382812,-20.0
32,100,90,60,go_to_color_detect_up_from_color_detect_down,green,true,false,joint 3 -,true,2024-03-04 14:07:59.491063,16.215,0.156,236.8,115.40203857421875,247.48045349121094,-14.277069091796875,45.0,65.0,51.0,41.84400177001953,-20.0
32,100,90,60,go_to_color_detect_up_from_color_detect_down,green,true,false,joint 3 -,true,2024-03-04 14:08:00.864701,22.728,0.209,236.8,131.6639862060547,282.35430908203125,80.38367462158203,45.0,65.0,51.0,1.4599547386169434,-20.0
32,100,90,60,go_to_blue_up,blue,true,false,joint 1 +,true,2024-03-04 14:08:01.553613,22.766,0.209,236.8,47.341007232666016,307.9976806640625,84.958251953125,61.261695861816406,81.73766326904297,51.0,0.0,-20.0
32,100,90,60,go_to_pick_up_from_blue,blue,true,false,joint 1 -,false,2024-03-04 14:08:02.243307,22.215,0.209,236.8,133.72146606445312,281.4645690917969,84.958251953125,44.58799743652344,63.42159652709961,51.0,0.0,-20.0
32,100,90,60,go_to_pick_up_from_blue,blue,true,false,joint 1 -,false,2024-03-04 14:08:03.628560,16.842,0.178,236.8,292.0339050292969,108.71949005126953,84.958251953125,0.4194831848144531,20.27107048034668,51.0,0.0,-20.0
32,100,90,60,moving_belt,blue,false,true,joint 1 -,false,2024-03-04 14:08:04.315425,16.329,0.178,236.8,292.8220520019531,106.5785140991211,84.958251953125,0.0,20.0,51.0,0.0,-20.0
32,100,90,60,moving_belt,blue,false,true,joint 1 -,false,2024-03-04 14:08:05.724140,16.31,0.157,236.8,292.8220520019531,106.5785140991211,84.958251953125,0.0,20.0,51.0,0.0,-20.0
32,100,90,60,moving_belt,blue,false,true,joint 1 -,false,2024-03-04 14:08:06.435325,16.31,0.157,236.8,292.8220520019531,106.5785140991211,84.958251953125,0.0,20.0,51.0,0.0,-20.0
32,100,90,60,moving_belt,blue,false,true,joint 1 -,false,2024-03-04 14:08:07.823238,16.386,0.155,236.8,292.8220520019531,106.5785140991211,84.958251953125,0.0,20.0,51.0,0.0,-20.0
32,100,90,60,go_to_pick_down,blue,true,false,joint 3 +,false,2024-03-04 14:08:08.514283,16.367,0.155,236.8,291.8492126464844,106.22442626953125,67.54267883300781,0.0,20.0,51.0,7.484399318695068,-20.0
32,100,90,60,go_to_pick_up_from_pick_down,blue,true,false,joint 3 -,true,2024-03-04 14:08:09.895670,16.253,0.155,236.8,284.92071533203125,103.70266723632812,35.954429626464844,0.0,20.0,51.0,19.051599502563477,-20.0
32,100,90,60,go_to_color_detect_up_from_pick_up,blue,true,false,joint 1 +,true,2024-03-04 14:08:10.591544,23.146,0.155,236.8,292.2146911621094,108.23267364501953,84.958251953125,0.3240013122558594,20.48600196838379,51.0,0.0,-20.0
32,100,90,60,go_to_color_detect_up_from_pick_up,blue,true,false,joint 1 +,true,2024-03-04 14:08:11.279885,22.083,0.155,236.8,149.47593688964844,273.4239807128906,84.958251953125,41.33536911010742,61.80632400512695,51.0,0.0,-20.0
32,100,90,60,go_to_color_detect_down,blue,true,false,joint 3 +,true,2024-03-04 14:08:12.659321,22.291,0.198,236.8,129.55865478515625,277.83941650390625,46.74831771850586,45.0,65.0,51.0,16.070398330688477,-20.0
32,100,90,60,go_to_color_detect_up_from_color_detect_down,blue,true,false,joint 3 -,false,2024-03-04 14:08:13.347591,21.874,0.198,236.8,111.13883972167969,238.33799743652344,-24.284042358398438,45.0,65.0,51.0,48.0,-20.0
32,100,90,60,go_to_color_detect_up_from_color_detect_down,blue,true,false,joint 3 -,false,2024-03-04 14:08:14.746705,22.045,0.2,236.8,130.8036651611328,280.5093688964844,60.159324645996094,45.0,65.0,51.0,8.93529987335205,-20.0
32,100,90,60,detecting_color,blue,false,false,detecting_color,false,2024-03-04 14:08:15.439944,17.032,0.2,236.8,131.69407653808594,282.4188232421875,84.958251953125,45.0,65.0,51.0,0.0,-20.0
32,100,90,60,go_to_color_detect_down,blue,true,false,joint 3 +,false,2024-03-04 14:08:16.828077,16.291,0.155,236.8,131.69407653808594,282.4188232421875,84.958251953125,45.0,65.0,51.0,0.0,-20.0
32,100,90,60,go_to_color_detect_down,blue,true,false,joint 3 +,false,2024-03-04 14:08:17.528518,16.329,0.155,236.8,119.980224609375,257.29840087890625,-0.9524307250976562,45.0,65.0,51.0,36.63663101196289,-20.0
32,100,90,60,go_to_color_detect_up_from_color_detect_down,blue,true,false,joint 3 -,true,2024-03-04 14:08:18.219675,16.329,0.153,236.8,115.40203857421875,247.48045349121094,-14.277069091796875,45.0,65.0,51.0,41.84400177001953,-20.0
32,100,90,60,go_to_color_detect_up_from_color_detect_down,blue,true,false,joint 3 -,true,2024-03-04 14:08:19.392156,17.222,0.153,236.8,131.6639862060547,282.35430908203125,80.38367462158203,45.0,65.0,51.0,1.4599547386169434,-20.0
32,100,90,60,go_to_red_up,red,true,false,joint 1 +,true,2024-03-04 14:08:20.774666,22.158,0.204,236.8,-8.526833534240723,311.498046875,84.958251953125,71.56800079345703,92.89640045166016,51.0,0.0,-20.0
32,100,90,60,go_to_pick_up_from_red,red,true,false,joint 1 -,false,2024-03-04 14:08:21.463704,22.158,0.204,236.8,-178.73486328125,255.2598114013672,84.958251953125,105.0,125.0,51.0,0.0,-20.0
32,100,90,60,go_to_pick_up_from_red,red,true,false,joint 1 -,false,2024-03-04 14:08:22.869393,18.874,0.207,236.8,-7.972268581390381,311.5127258300781,84.958251953125,71.46599578857422,89.97559356689453,51.0,0.0,-20.0
32,100,90,60,go_to_pick_up_from_red,red,true,false,joint 1 -,false,2024-03-04 14:08:23.560908,18.874,0.207,236.8,286.123046875,123.43962097167969,84.958251953125,3.3364028930664062,22.887500762939453,51.0,0.0,-20.0
32,100,90,60,moving_belt,red,false,true,joint 1 -,false,2024-03-04 14:08:24.247400,16.462,0.207,236.8,292.8220520019531,106.5785140991211,84.958251953125,0.0,20.0,51.0,0.0,-20.0
32,100,90,60,moving_belt,red,false,true,joint 1 -,false,2024-03-04 14:08:25.649045,16.481,0.156,236.8,292.8220520019531,106.5785140991211,84.958251953125,0.0,20.0,51.0,0.0,-20.0
32,100,90,60,moving_belt,red,false,true,joint 1 -,false,2024-03-04 14:08:26.336324,16.443,0.156,236.8,292.8220520019531,106.5785140991211,84.958251953125,0.0,20.0,51.0,0.0,-20.0
32,100,90,60,moving_belt,red,false,true,joint 1 -,false,2024-03-04 14:08:27.730517,16.405,0.155,236.8,292.8220520019531,106.5785140991211,84.958251953125,0.0,20.0,51.0,0.0,-20.0
32,100,90,60,go_to_pick_down,red,true,false,joint 3 +,false,2024-03-04 14:08:28.420682,16.405,0.155,236.8,292.7258605957031,106.54350280761719,79.47317504882812,0.0,20.0,51.0,2.5271997451782227,-20.0
32,100,90,60,go_to_pick_up_from_pick_down,red,true,false,joint 3 -,true,2024-03-04 14:08:29.815775,16.31,0.154,236.8,283.0541687011719,103.02330017089844,30.662696838378906,0.0,20.0,51.0,21.51399803161621,-20.0
32,100,90,60,go_to_color_detect_up_from_pick_up,red,true,false,joint 1 +,true,2024-03-04 14:08:30.513869,16.044,0.154,236.8,292.8220520019531,106.5785140991211,84.9579849243164,0.0,20.0,51.0,0.0,-20.0
32,100,90,60,go_to_color_detect_up_from_pick_up,red,true,false,joint 1 +,true,2024-03-04 14:08:31.889568,22.196,0.207,236.8,194.66488647460938,243.3296661376953,84.958251953125,31.340023040771484,52.26457595825195,51.0,0.0,-20.0
32,100,90,60,go_to_color_detect_down,red,true,false,joint 3 +,true,2024-03-04 14:08:32.579314,22.196,0.207,236.8,131.05935668945312,281.05767822265625,63.99890899658203,45.0,65.0,51.0,8.942399024963379,-20.0
32,100,90,60,go_to_color_detect_down,red,true,false,joint 3 +,true,2024-03-04 14:08:33.267354,22.31,0.202,236.8,111.68727111816406,239.5141143798828,-23.10150146484375,45.0,65.0,51.0,47.50945281982422,-20.0
32,100,90,60,go_to_color_detect_up_from_color_detect_down,red,true,false,joint 3 -,false,2024-03-04 14:08:34.656981,19.158,0.202,236.8,126.85618591308594,272.0439453125,28.085601806640625,45.0,65.0,51.0,21.56289291381836,-20.0
32,100,90,60,detecting_color,red,false,false,detecting_color,false,2024-03-04 14:08:35.349198,19.158,0.162,236.8,131.69407653808594,282.4188232421875,84.958251953125,45.0,65.0,51.0,0.0,-20.0
32,100,90,60,detecting_color,red,false,false,detecting_color,false,2024-03-04 14:08:36.727163,16.861,0.162,236.8,131.69407653808594,282.4188232421875,84.958251953125,45.0,65.0,51.0,0.0,-20.0
32,100,90,60,detecting_color,red,false,false,detecting_color,false,2024-03-04 14:08:37.420420,16.234,0.162,236.8,131.69407653808594,282.4188232421875,84.958251953125,45.0,65.0,51.0,0.0,-20.0
32,100,90,60,detecting_color,red,false,false,detecting_color,false,2024-03-04 14:08:38.798660,16.348,0.155,236.8,131.69407653808594,282.4188232421875,84.958251953125,45.0,65.0,51.0,0.0,-20.0
32,100,90,60,detecting_color,red,false,false,detecting_color,false,2024-03-04 14:08:39.498639,16.329,0.155,236.8,131.69407653808594,282.4188232421875,84.958251953125,45.0,65.0,51.0,0.0,-20.0
32,100,90,60,go_to_color_detect_down,red,true,false,joint 3 +,false,2024-03-04 14:08:40.883353,16.253,0.156,236.8,131.164794921875,281.2837829589844,65.81058502197266,45.0,65.0,51.0,8.197198867797852,-20.0
32,100,90,60,go_to_color_detect_down,red,true,false,joint 3 +,false,2024-03-04 14:08:41.569455,16.253,0.156,236.8,111.17070007324219,238.4063262939453,-24.216156005859375,45.0,65.0,51.0,47.992218017578125,-20.0
32,100,90,60,go_to_color_detect_up_from_color_detect_down,red,true,false,joint 3 -,true,2024-03-04 14:08:42.261951,16.367,0.155,236.8,128.9495391845703,276.5331726074219,41.74835205078125,45.0,65.0,51.0,16.05812644958496,-20.0
32,100,90,60,go_to_green_up,green,true,false,joint 1 +,true,2024-03-04 14:08:43.660090,23.184,0.155,236.8,116.99307250976562,288.81890869140625,84.958251953125,47.948402404785156,68.4020004272461,51.0,0.0,-20.0
32,100,90,60,go_to_green_up,green,true,false,joint 1 +,true,2024-03-04 14:08:44.349418,22.367,0.202,236.8,-79.99855041503906,301.1709899902344,84.958251953125,84.87568664550781,104.94932556152344,51.0,0.0,-20.0
32,100,90,60,go_to_pick_up_from_green,green,true,false,joint 1 -,false,2024-03-04 14:08:45.731978,22.462,0.202,236.8,69.5489273071289,303.7543029785156,84.958251953125,57.103599548339844,75.7427978515625,51.0,0.0,-20.0
32,100,90,60,go_to_pick_up_from_green,green,true,false,joint 1 -,false,2024-03-04 14:08:46.420206,17.506,0.156,236.8,287.4474182128906,120.32337951660156,84.958251953125,2.7138290405273438,22.310792922973633,51.0,0.0,-20.0
32,100,90,60,moving_belt,green,false,true,joint 1 -,false,2024-03-04 14:08:47.814158,16.424,0.156,236.8,292.8220520019531,106.5785140991211,84.958251953125,0.0,20.0,51.0,0.0,-20.0
32,100,90,60,moving_belt,green,false,true,joint 1 -,false,2024-03-04 14:08:48.572827,16.576,0.155,236.8,292.8220520019531,106.5785140991211,84.958251953125,0.0,20.0,51.0,0.0,-20.0
32,100,90,60,moving_belt,green,false,true,joint 1 -,false,2024-03-04 14:08:49.262049,16.576,0.155,236.8,292.8220520019531,106.5785140991211,84.958251953125,0.0,20.0,51.0,0.0,-20.0
32,100,90,60,moving_belt,green,false,true,joint 1 -,false,2024-03-04 14:08:50.648954,16.234,0.155,236.8,292.8220520019531,106.5785140991211,84.958251953125,0.0,20.0,51.0,0.0,-20.0
32,100,90,60,go_to_pick_down,green,true,false,joint 3 +,false,2024-03-04 14:08:51.334991,16.443,0.157,236.8,292.6391906738281,106.511962890625,77.3970718383789,0.0,20.0,51.0,3.4019997119903564,-20.0
32,100,90,60,go_to_pick_up_from_pick_down,green,true,false,joint 3 -,true,2024-03-04 14:08:52.730522,16.272,0.157,236.8,283.19793701171875,103.07562255859375,31.049156188964844,0.0,20.0,51.0,21.319597244262695,-20.0
32,100,90,60,go_to_color_detect_up_from_pick_up,green,true,false,joint 1 +,true,2024-03-04 14:08:53.423848,18.76,0.155,236.8,292.458740234375,107.57142639160156,84.958251953125,0.19440078735351562,20.32400131225586,51.0,0.0,-20.0
32,100,90,60,go_to_color_detect_up_from_pick_up,green,true,false,joint 1 +,true,2024-03-04 14:08:54.806824,22.386,0.155,236.8,172.43882751464844,259.5545654296875,84.958251953125,36.401344299316406,57.13149642944336,51.0,0.0,-20.0
32,100,90,60,go_to_color_detect_down,green,true,false,joint 3 +,true,2024-03-04 14:08:55.498509,22.215,0.2,236.8,131.05935668945312,281.05767822265625,63.99890899658203,45.0,65.0,51.0,8.942399024963379,-20.0
32,100,90,60,go_to_color_detect_down,green,true,false,joint 3 +,true,2024-03-04 14:08:56.899732,21.855,0.2,236.8,111.14512634277344,238.35147094726562,-24.27069091796875,45.0,65.0,51.0,48.0,-20.0
32,100,90,60,go_to_color_detect_up_from_color_detect_down,green,true,false,joint 3 -,false,2024-03-04 14:08:57.605639,21.855,0.197,236.8,128.9495391845703,276.5331726074219,41.74835205078125,45.0,65.0,51.0,16.05812644958496,-20.0
32,100,90,60,detecting_color,green,false,false,detecting_color,false,2024-03-04 14:08:58.297321,16.633,0.197,236.8,131.69407653808594,282.4188232421875,84.958251953125,45.0,65.0,51.0,0.0,-20.0
32,100,90,60,detecting_color,green,false,false,detecting_color,false,2024-03-04 14:08:59.689485,16.31,0.155,236.8,131.69407653808594,282.4188232421875,84.958251953125,45.0,65.0,51.0,0.0,-20.0
32,100,90,60,go_to_color_detect_down,green,true,false,joint 3 +,false,2024-03-04 14:09:00.402725,16.31,0.155,236.8,129.26637268066406,277.2126159667969,44.265968322753906,45.0,65.0,51.0,17.10719871520996,-20.0
32,100,90,60,go_to_color_detect_up_from_color_detect_down,green,true,false,joint 3 -,true,2024-03-04 14:09:01.782626,16.082,0.154,236.8,111.68415069580078,239.50743103027344,-23.108306884765625,45.0,65.0,51.0,47.092803955078125,-20.0
32,100,90,60,go_to_color_detect_up_from_color_detect_down,green,true,false,joint 3 -,true,2024-03-04 14:09:02.484179,16.082,0.154,236.8,130.94015502929688,280.8020324707031,62.12635040283203,45.0,65.0,51.0,8.190746307373047,-20.0
32,100,90,60,go_to_blue_up,blue,true,false,joint 1 +,true,2024-03-04 14:09:03.171478,23.013,0.154,236.8,93.7852783203125,297.1667175292969,84.958251953125,52.484397888183594,73.19719696044922,51.0,0.0,-20.0
32,100,90,60,go_to_pick_up_from_blue,blue,true,false,joint 1 -,false,2024-03-04 14:09:04.790626,22.007,0.2,236.8,75.08238983154297,302.43408203125,84.958251953125,56.05760192871094,75.27999877929688,51.0,0.0,-20.0
32,100,90,60,go_to_pick_up_from_blue,blue,true,false,joint 1 -,false,2024-03-04 14:09:05.476239,22.007,0.2,236.8,281.7318115234375,133.157470703125,84.958251953125,5.297248840332031,24.727636337280273,51.0,0.0,-20.0
32,100,90,60,moving_belt,blue,false,true,joint 1 -,false,2024-03-04 14:09:06.855235,16.405,0.155,236.8,292.8220520019531,106.5785140991211,84.958251953125,0.0,20.0,51.0,0.0,-20.0
32,100,90,60,moving_belt,blue,false,true,joint 1 -,false,2024-03-04 14:09:07.544836,16.405,0.155,236.8,292.8220520019531,106.5785140991211,84.958251953125,0.0,20.0,51.0,0.0,-20.0
32,100,90,60,moving_belt,blue,false,true,joint 1 -,false,2024-03-04 14:09:08.930655,16.253,0.153,236.8,292.8220520019531,106.5785140991211,84.958251953125,0.0,20.0,51.0,0.0,-20.0
32,100,90,60,moving_belt,blue,false,true,joint 1 -,false,2024-03-04 14:09:09.618346,16.348,0.153,236.8,292.8220520019531,106.5785140991211,84.958251953125,0.0,20.0,51.0,0.0,-20.0
32,100,90,60,go_to_pick_down,blue,true,false,joint 3 +,false,2024-03-04 14:09:10.329966,16.348,0.153,236.8,292.7934265136719,106.56809997558594,81.96590423583984,0.0,20.0,51.0,1.4579999446868896,-20.0
32,100,90,60,go_to_pick_up_from_pick_down,blue,true,false,joint 3 -,true,2024-03-04 14:09:11.706660,16.348,0.154,236.8,282.7928466796875,102.92818450927734,29.968162536621094,0.0,20.0,51.0,21.902799606323242,-20.0
32,100,90,60,go_to_color_detect_up_from_pick_up,blue,true,false,joint 1 +,true,2024-03-04 14:09:12.394150,16.139,0.154,236.8,292.8218078613281,106.57843017578125,84.67974853515625,0.0,20.0,51.0,0.040002621710300446,-20.0
32,100,90,60,go_to_color_detect_up_from_pick_up,blue,true,false,joint 1 +,true,2024-03-04 14:09:13.785043,22.026,0.208,236.8,183.08999633789062,252.15428161621094,84.958251953125,34.016483306884766,54.84383773803711,51.0,0.0,-20.0
32,100,90,60,go_to_color_detect_down,blue,true,false,joint 3 +,true,2024-03-04 14:09:14.475658,22.026,0.208,236.8,131.33583068847656,281.6506042480469,69.194580078125,45.0,65.0,51.0,6.803999423980713,-20.0
32,100,90,60,go_to_color_detect_down,blue,true,false,joint 3 +,true,2024-03-04 14:09:15.851232,21.836,0.203,236.8,112.5554428100586,241.37591552734375,-21.170143127441406,45.0,65.0,51.0,46.5400390625,-20.0
32,100,90,60,go_to_color_detect_up_from_color_detect_down,blue,true,false,joint 3 -,false,2024-03-04 14:09:16.537265,21.836,0.203,236.8,128.21568298339844,274.95941162109375,36.4603271484375,45.0,65.0,51.0,18.16283416748047,-20.0
32,100,90,60,detecting_color,blue,false,false,detecting_color,false,2024-03-04 14:09:17.912640,17.032,0.161,236.8,131.69407653808594,282.4188232421875,84.958251953125,45.0,65.0,51.0,0.0,-20.0
32,100,90,60,detecting_color,blue,false,false,detecting_color,false,2024-03-04 14:09:18.609132,17.032,0.161,236.8,131.69407653808594,282.4188232421875,84.958251953125,45.0,65.0,51.0,0.0,-20.0
32,100,90,60,go_to_color_detect_down,blue,true,false,joint 3 +,false,2024-03-04 14:09:19.301570,16.253,0.152,236.8,123.45897674560547,264.75860595703125,11.820358276367188,45.0,65.0,51.0,30.905715942382812,-20.0
32,100,90,60,go_to_color_detect_up_from_color_detect_down,blue,true,false,joint 3 -,true,2024-03-04 14:09:20.680874,16.291,0.152,236.8,113.13411712646484,242.61688232421875,-19.84064483642578,45.0,65.0,51.0,45.05160140991211,-20.0
32,100,90,60,go_to_color_detect_up_from_color_detect_down,blue,true,false,joint 3 -,true,2024-03-04 14:09:21.369887,22.728,0.187,236.8,131.5106658935547,282.0255126953125,73.67076110839844,45.0,65.0,51.0,3.8860740661621094,-20.0
32,100,90,60,go_to_red_up,red,true,false,joint 1 +,true,2024-03-04 14:09:22.171433,22.728,0.187,236.8,37.023841857910156,309.407470703125,84.958251953125,63.17639923095703,84.27799987792969,51.0,0.0,-20.0
32,100,90,60,go_to_red_up,red,true,false,joint 1 +,true,2024-03-04 14:09:23.358707,22.728,0.187,236.8,-177.24041748046875,256.29974365234375,84.958251953125,104.66522979736328,124.7969741821289,51.0,0.0,-20.0
32,100,90,60,go_to_pick_up_from_red,red,true,false,joint 1 -,false,2024-03-04 14:09:24.765843,22.272,0.202,236.8,-7.972268581390381,311.5127258300781,84.958251953125,71.46599578857422,89.97559356689453,51.0,0.0,-20.0
32,100,90,60,go_to_pick_up_from_red,red,true,false,joint 1 -,false,2024-03-04 14:09:25.455713,16.348,0.157,236.8,278.3627014160156,140.06405639648438,84.958251953125,6.71021842956543,26.06691551208496,51.0,0.0,-20.0
32,100,90,60,moving_belt,red,false,true,joint 1 -,false,2024-03-04 14:09:26.832242,16.348,0.157,236.8,292.8220520019531,106.5785140991211,84.958251953125,0.0,20.0,51.0,0.0,-20.0
32,100,90,60,moving_belt,red,false,true,joint 1 -,false,2024-03-04 14:09:27.525517,16.348,0.157,236.8,292.8220520019531,106.5785140991211,84.958251953125,0.0,20.0,51.0,0.0,-20.0
32,100,90,60,moving_belt,red,false,true,joint 1 -,false,2024-03-04 14:09:28.899658,16.386,0.156,236.8,292.8220520019531,106.5785140991211,84.958251953125,0.0,20.0,51.0,0.0,-20.0
32,100,90,60,moving_belt,red,false,true,joint 1 -,false,2024-03-04 14:09:29.587052,16.386,0.156,236.8,292.8220520019531,106.5785140991211,84.958251953125,0.0,20.0,51.0,0.0,-20.0
32,100,90,60,go_to_pick_down,red,true,false,joint 3 +,false,2024-03-04 14:09:30.273381,16.272,0.154,236.8,292.81231689453125,106.5749740600586,83.21263885498047,0.0,20.0,51.0,0.9071999788284302,-20.0
32,100,90,60,go_to_pick_up_from_pick_down,red,true,false,joint 3 -,true,2024-03-04 14:09:31.658048,16.234,0.154,236.8,282.76361083984375,102.91754913330078,29.89107894897461,0.0,20.0,51.0,22.0,-20.0
32,100,90,60,go_to_pick_up_from_pick_down,red,true,false,joint 3 -,true,2024-03-04 14:09:32.344795,16.234,0.155,236.8,292.81658935546875,106.57653045654297,83.65338134765625,0.0,20.0,51.0,0.3428521156311035,-20.0
32,100,90,60,go_to_color_detect_up_from_pick_up,red,true,false,joint 1 +,true,2024-03-04 14:09:33.722390,22.272,0.155,236.8,194.66488647460938,243.3296661376953,84.958251953125,31.340023040771484,52.26457595825195,51.0,0.0,-20.0
32,100,90,60,go_to_color_detect_down,red,true,false,joint 3 +,true,2024-03-04 14:09:34.412880,22.386,0.203,236.8,131.55108642578125,282.1122131347656,74.99072265625,45.0,65.0,51.0,4.406399726867676,-20.0
32,100,90,60,go_to_color_detect_down,red,true,false,joint 3 +,true,2024-03-04 14:09:35.793233,21.836,0.203,236.8,113.45806121826172,243.3115692138672,-19.081138610839844,45.0,65.0,51.0,45.4727783203125,-20.0
