demetriskallis/dobot_magician_pick_and_place_and_color_sorting/Sampling/WholeSystemExperiments_training_data/payload_32g/joint_measurements__armv_50_arma_100_belts_60_cube_32g.csv
cube/weight,arm/velocity_ratio,arm/acceleration_ratio,belt/speed,dobot/operation,dobot/color,dobot/moving_arm,dobot/moving_belt,dobot/operation2,dobot/suction,meross/sample_timestamp,meross/power,meross/current,meross/voltage,dobot/pose_x,dobot/pose_y,dobot/pose_z,dobot/pose_rHead,dobot/pose_joint1Angle,dobot/pose_joint2Angle,dobot/pose_joint3Angle,dobot/pose_joint4Angle
32,50,100,60,homing,,,,homing,,,,,,177.98757934570312,74.57209014892578,61.13194274902344,2.7323951721191406,22.332395553588867,2.592123508453369,30.103538513183594,-20.0
32,50,100,60,homing,,,,homing,,,,,,192.90914916992188,5.160693168640137,61.13194274902344,-18.467592239379883,1.132407546043396,2.592123508453369,30.103538513183594,-20.0
32,50,100,60,homing,,,,homing,,,,,,183.46267700195312,-59.8499870300293,61.13194274902344,-38.06758499145508,-18.46758460998535,2.592123508453369,30.103538513183594,-20.0
32,50,100,60,homing,,,,homing,,2024-03-03 16:58:04.334711,16.443,0.158,235.0,148.5469970703125,-123.18426513671875,61.13194274902344,-59.6676025390625,-40.067604064941406,2.592123508453369,30.103538513183594,-20.0
32,50,100,60,homing,,,,homing,,2024-03-03 16:58:05.029510,16.462,0.158,235.0,99.77284240722656,-165.18458557128906,61.13194274902344,-78.86767578125,-59.267677307128906,2.592123508453369,30.103538513183594,-20.0
32,50,100,60,homing,,,,homing,,2024-03-03 16:58:06.444491,16.5,0.158,235.0,39.8991813659668,-188.80844116210938,61.13194274902344,-98.0677490234375,-78.4677505493164,2.592123508453369,30.103538513183594,-20.0
32,50,100,60,homing,,,,homing,,2024-03-03 16:58:07.133761,16.5,0.157,235.0,-32.407981872558594,-190.2374725341797,61.13194274902344,-119.66783142089844,-100.06783294677734,2.592123508453369,30.103538513183594,-20.0
32,50,100,60,homing,,,,homing,,2024-03-03 16:58:08.517638,16.481,0.157,235.0,-93.16832733154297,-168.9977264404297,61.13194274902344,-138.86790466308594,-119.26790618896484,2.592123508453369,30.103538513183594,-20.0
32,50,100,60,homing,,,,homing,,2024-03-03 16:58:09.264816,16.481,0.156,235.0,-139.72097778320312,-133.11129760742188,61.13194274902344,-156.38778686523438,-136.36778259277344,2.592123508453369,30.103538513183594,-20.0
32,50,100,60,homing,,,,homing,,2024-03-03 16:58:09.959135,16.443,0.156,235.0,-137.47071838378906,-135.4340057373047,61.13194274902344,-155.42758178710938,-135.40757751464844,2.592123508453369,30.103538513183594,-20.0
32,50,100,60,homing,,,,homing,,2024-03-03 16:58:11.339255,16.386,0.156,235.0,-104.55570220947266,-166.7994384765625,58.939170837402344,-140.9381103515625,-121.51690673828125,4.805491924285889,30.98855972290039,-18.80750846862793
32,50,100,60,homing,,,,homing,,2024-03-03 16:58:12.026543,16.386,0.156,235.0,-12.206647872924805,-208.34860229492188,50.99531555175781,-108.63270568847656,-92.75298309326172,11.539779663085938,33.68128204345703,-15.179290771484375
32,50,100,60,homing,,,,homing,,2024-03-03 16:58:13.404942,16.69,0.159,235.0,97.5563735961914,-205.0195770263672,34.15039825439453,-73.84553527832031,-63.95305633544922,22.725387573242188,38.15387725830078,-9.152844429016113
32,50,100,60,homing,,,,homing,,2024-03-03 16:58:14.095547,16.69,0.159,235.0,205.60610961914062,-129.24232482910156,13.016822814941406,-35.417869567871094,-31.553136825561523,33.80745315551758,42.58507537841797,-3.1821815967559814
32,50,100,60,homing,,,,homing,,2024-03-03 16:58:15.480728,16.88,0.159,236.8,247.79420471191406,-24.353300094604492,2.0377578735351562,-6.107717990875244,-5.251965522766113,38.85470199584961,44.60322952270508,-0.46288636326789856
32,50,100,60,homing,,,,homing,,2024-03-03 16:58:16.169424,16.785,0.16,236.8,250.65997314453125,-0.15384003520011902,-0.4828643798828125,-0.03516470268368721,-0.02420985698699951,39.950958251953125,44.932559967041016,0.0
32,50,100,60,homing,,,,homing,,2024-03-03 16:58:17.548016,16.462,0.16,235.0,249.99998474121094,0.00017966009909287095,-7.62939453125e-06,4.117506250622682e-05,4.117506250622682e-05,39.71385955810547,44.94676971435547,0.0
32,50,100,60,homing,,,,homing,,2024-03-03 16:58:18.298796,16.462,0.157,235.0,249.99998474121094,0.00017966009909287095,-7.62939453125e-06,4.117506250622682e-05,4.117506250622682e-05,39.71385955810547,44.94676971435547,0.0
32,50,100,60,homing,,,,homing,,2024-03-03 16:58:18.990769,16.386,0.157,235.0,249.99998474121094,0.00017966009909287095,-7.62939453125e-06,4.117506250622682e-05,4.117506250622682e-05,39.71385955810547,44.94676971435547,0.0
32,50,100,60,homing,,,,homing,,2024-03-03 16:58:20.389699,16.31,0.157,235.0,249.99998474121094,0.00017966009909287095,-7.62939453125e-06,4.117506250622682e-05,4.117506250622682e-05,39.71385955810547,44.94676971435547,0.0
32,50,100,60,homing,,,,homing,,2024-03-03 16:58:21.079529,16.386,0.157,235.0,249.99998474121094,0.00017966009909287095,-7.62939453125e-06,4.117506250622682e-05,4.117506250622682e-05,39.71385955810547,44.94676971435547,0.0
32,50,100,60,homing,,,,homing,,2024-03-03 16:58:22.462331,16.234,0.157,235.0,249.99998474121094,0.00017966009909287095,-7.62939453125e-06,4.117506250622682e-05,4.117506250622682e-05,39.71385955810547,44.94676971435547,0.0
32,50,100,60,homing,,,,homing,,2024-03-03 16:58:23.149615,16.234,0.157,235.0,249.99998474121094,0.00017966009909287095,-7.62939453125e-06,4.117506250622682e-05,4.117506250622682e-05,39.71385955810547,44.94676971435547,0.0
32,50,100,60,homing,,,,homing,,2024-03-03 16:58:24.559286,16.367,0.157,235.0,249.99998474121094,0.00017966009909287095,-7.62939453125e-06,4.117506250622682e-05,4.117506250622682e-05,39.71385955810547,44.94676971435547,0.0
32,50,100,60,homing,,,,homing,,2024-03-03 16:58:25.252957,16.367,0.157,235.0,249.99998474121094,0.00017966009909287095,-7.62939453125e-06,4.117506250622682e-05,4.117506250622682e-05,39.71385955810547,44.94676971435547,0.0
32,50,100,60,homing,,,,homing,,2024-03-03 16:58:25.947203,16.443,0.157,235.0,249.99998474121094,0.00017966009909287095,-7.62939453125e-06,4.117506250622682e-05,4.117506250622682e-05,39.71385955810547,44.94676971435547,0.0
32,50,100,60,homing,,,,homing,,2024-03-03 16:58:27.330887,16.405,0.157,235.0,249.99998474121094,0.00017966009909287095,-7.62939453125e-06,4.117506250622682e-05,4.117506250622682e-05,39.71385955810547,44.94676971435547,0.0
32,50,100,60,homing,,,,homing,,2024-03-03 16:58:28.022574,16.405,0.157,235.0,254.38058471679688,18.295320510864258,11.609367370605469,4.100799560546875e-05,4.463238716125488,37.842952728271484,39.749595642089844,-4.463197708129883
32,50,100,60,homing,,,,homing,,2024-03-03 16:58:29.400994,17.051,0.16,235.0,273.02392578125,94.88215637207031,59.883216857910156,4.1961669921875e-05,19.335371017456055,41.123924255371094,16.267364501953125,-19.335329055786133
32,50,100,60,go_to_pick_up_from_homing,nothing,,,go_to_pick_up_from_homing,,2024-03-03 16:58:30.091687,17.051,0.16,235.0,290.9906921386719,106.32007598876953,81.62326049804688,-1.9073486328125e-06,20.057762145996094,50.07228469848633,1.7165844440460205,-20.05776596069336
32,50,100,60,moving_belt,nothing,false,true,go_to_pick_up_from_homing,,2024-03-03 16:58:31.488078,16.69,0.161,235.0,292.8220520019531,106.5785140991211,84.958251953125,0.0,20.0,51.0,0.0,-20.0
32,50,100,60,moving_belt,nothing,false,true,go_to_pick_up_from_homing,,2024-03-03 16:58:32.177762,16.69,0.161,235.0,292.8220520019531,106.5785140991211,84.958251953125,0.0,20.0,51.0,0.0,-20.0
32,50,100,60,moving_belt,nothing,false,true,go_to_pick_up_from_homing,,2024-03-03 16:58:33.575236,16.481,0.157,235.0,292.8220520019531,106.5785140991211,84.958251953125,0.0,20.0,51.0,0.0,-20.0
32,50,100,60,moving_belt,nothing,false,true,go_to_pick_up_from_homing,,2024-03-03 16:58:34.322104,16.253,0.157,235.0,292.8220520019531,106.5785140991211,84.958251953125,0.0,20.0,51.0,0.0,-20.0
32,50,100,60,go_to_pick_down,nothing,true,false,joint 3 +,,2024-03-03 16:58:35.027734,16.253,0.157,235.0,292.37322998046875,106.41515350341797,73.11786651611328,0.0,20.0,51.0,5.119999885559082,-20.0
32,50,100,60,go_to_pick_up_from_pick_down,nothing,true,false,joint 3 -,true,2024-03-03 16:58:36.412116,16.5,0.157,235.0,282.979248046875,102.99602508544922,30.462482452392578,0.0,20.0,51.0,21.599998474121094,-20.0
32,50,100,60,go_to_color_detect_up_from_pick_up,nothing,true,false,joint 1 +,true,2024-03-03 16:58:37.103578,16.956,0.157,235.0,292.8220520019531,106.5785140991211,84.958251953125,0.0,20.0,51.0,0.0,-20.0
32,50,100,60,go_to_color_detect_up_from_pick_up,nothing,true,false,joint 1 +,true,2024-03-03 16:58:38.504781,22.291,0.209,235.0,240.03390502929688,198.7145233154297,84.958251953125,19.62000274658203,40.12000274658203,51.0,0.0,-20.0
32,50,100,60,go_to_color_detect_up_from_pick_up,nothing,true,false,joint 1 +,true,2024-03-03 16:58:39.190802,22.291,0.209,235.0,132.5806121826172,282.0037536621094,84.958251953125,44.82000732421875,64.92000579833984,51.0,0.0,-20.0
32,50,100,60,go_to_color_detect_down,nothing,true,false,joint 3 +,true,2024-03-03 16:58:40.626815,21.931,0.205,235.0,128.61312866210938,275.8117370605469,39.240047454833984,45.0,65.0,51.0,18.619998931884766,-20.0
32,50,100,60,go_to_color_detect_down,nothing,true,false,joint 3 +,true,2024-03-03 16:58:41.314233,21.893,0.205,235.0,115.64981079101562,248.01181030273438,-13.632530212402344,45.0,65.0,51.0,42.619998931884766,-20.0
32,50,100,60,go_to_color_detect_up_from_color_detect_down,nothing,true,false,joint 3 -,false,2024-03-03 16:58:42.000030,21.893,0.203,235.0,118.9352798461914,255.05751037597656,-4.2852325439453125,45.0,65.0,51.0,36.87999725341797,-20.0
32,50,100,60,go_to_color_detect_up_from_color_detect_down,nothing,true,false,joint 3 -,false,2024-03-03 16:58:43.375096,21.627,0.203,235.0,130.6773681640625,280.2384948730469,58.472415924072266,45.0,65.0,51.0,9.879997253417969,-20.0
32,50,100,60,detecting_color,nothing,false,false,detecting_color,false,2024-03-03 16:58:44.061469,16.614,0.159,235.0,131.69407653808594,282.4188232421875,84.958251953125,45.0,65.0,51.0,0.0,-20.0
32,50,100,60,detecting_color,nothing,false,false,detecting_color,false,2024-03-03 16:58:45.438853,16.481,0.159,235.0,131.69407653808594,282.4188232421875,84.958251953125,45.0,65.0,51.0,0.0,-20.0
32,50,100,60,go_to_color_detect_down,nothing,true,false,joint 3 +,false,2024-03-03 16:58:46.126562,16.291,0.159,235.0,128.44227600097656,275.4453430175781,38.02260208129883,45.0,65.0,51.0,19.119998931884766,-20.0
32,50,100,60,go_to_color_detect_down,nothing,true,false,joint 3 +,false,2024-03-03 16:58:47.505172,16.234,0.155,235.0,115.28445434570312,247.22830200195312,-14.580276489257812,45.0,65.0,51.0,43.119998931884766,-20.0
32,50,100,60,go_to_color_detect_up_from_color_detect_down,nothing,true,false,joint 3 -,true,2024-03-03 16:58:48.237344,16.234,0.155,235.0,120.84152221679688,259.1454772949219,1.9504470825195312,45.0,65.0,51.0,33.87999725341797,-20.0
32,50,100,60,go_to_color_detect_up_from_color_detect_down,nothing,true,false,joint 3 -,true,2024-03-03 16:58:49.627641,22.633,0.193,235.0,130.6773681640625,280.2384948730469,58.472415924072266,45.0,65.0,51.0,9.879997253417969,-20.0
32,50,100,60,go_to_red_up,red,true,false,joint 1 +,true,2024-03-03 16:58:50.319325,22.291,0.193,235.0,100.8344497680664,294.849365234375,84.958251953125,51.12001037597656,71.62001037597656,51.0,0.0,-20.0
32,50,100,60,go_to_red_up,red,true,false,joint 1 +,true,2024-03-03 16:58:51.009815,22.291,0.205,235.0,-44.01468276977539,308.4905700683594,84.958251953125,78.12001037597656,98.62001037597656,51.0,0.0,-20.0
32,50,100,60,go_to_red_up,red,true,false,joint 1 +,true,2024-03-03 16:58:52.391196,22.121,0.205,235.0,-165.68380737304688,263.91778564453125,84.958251953125,102.12001037597656,122.58000946044922,51.0,0.0,-20.0
32,50,100,60,go_to_pick_up_from_red,red,true,false,joint 1 -,false,2024-03-03 16:58:53.081875,22.196,0.206,235.0,-113.59964752197266,290.1703796386719,84.958251953125,91.37998962402344,110.87998962402344,51.0,0.0,-20.0
32,50,100,60,go_to_pick_up_from_red,red,true,false,joint 1 -,false,2024-03-03 16:58:54.461261,16.253,0.206,235.0,30.516559600830078,310.11688232421875,84.958251953125,64.37998962402344,83.87998962402344,51.0,0.0,-20.0
32,50,100,60,go_to_pick_up_from_red,red,true,false,joint 1 -,false,2024-03-03 16:58:55.149479,16.253,0.156,235.0,154.01414489746094,270.8936462402344,84.958251953125,40.37998962402344,59.87998962402344,51.0,0.0,-20.0
32,50,100,60,go_to_pick_up_from_red,red,true,false,joint 1 -,false,2024-03-03 16:58:56.527086,16.386,0.156,235.0,252.48468017578125,182.63409423828125,84.958251953125,15.879989624023438,35.37998962402344,51.0,0.0,-20.0
32,50,100,60,moving_belt,red,false,true,joint 1 -,false,2024-03-03 16:58:57.212945,16.291,0.156,235.0,292.8220520019531,106.5785140991211,84.958251953125,0.0,20.0,51.0,0.0,-20.0
32,50,100,60,moving_belt,red,false,true,joint 1 -,false,2024-03-03 16:58:58.585603,16.5,0.156,235.0,292.8220520019531,106.5785140991211,84.958251953125,0.0,20.0,51.0,0.0,-20.0
32,50,100,60,moving_belt,red,false,true,joint 1 -,false,2024-03-03 16:58:59.315103,16.063,0.156,235.0,292.8220520019531,106.5785140991211,84.958251953125,0.0,20.0,51.0,0.0,-20.0
32,50,100,60,moving_belt,red,false,true,joint 1 -,false,2024-03-03 16:59:00.011772,16.063,0.156,235.0,292.8220520019531,106.5785140991211,84.958251953125,0.0,20.0,51.0,0.0,-20.0
32,50,100,60,moving_belt,red,false,true,joint 1 -,false,2024-03-03 16:59:01.390434,16.424,0.156,235.0,292.8220520019531,106.5785140991211,84.958251953125,0.0,20.0,51.0,0.0,-20.0
32,50,100,60,go_to_pick_down,red,true,false,joint 3 +,false,2024-03-03 16:59:02.078129,16.424,0.157,235.0,288.6485900878906,105.05949401855469,49.09708023071289,0.0,20.0,51.0,14.619999885559082,-20.0
32,50,100,60,go_to_pick_up_from_pick_down,red,true,false,joint 3 -,true,2024-03-03 16:59:03.506359,16.31,0.157,235.0,290.33905029296875,105.67477416992188,57.21161651611328,0.0,20.0,51.0,10.379997253417969,-20.0
32,50,100,60,go_to_color_detect_up_from_pick_up,red,true,false,joint 1 +,true,2024-03-03 16:59:04.198036,23.241,0.214,235.0,282.14239501953125,132.28529357910156,84.958251953125,5.120002746582031,25.62000274658203,51.0,0.0,-20.0
32,50,100,60,go_to_color_detect_up_from_pick_up,red,true,false,joint 1 +,true,2024-03-03 16:59:05.617453,22.424,0.214,235.0,203.9446258544922,235.6062774658203,84.958251953125,29.12000274658203,49.62000274658203,51.0,0.0,-20.0
32,50,100,60,go_to_color_detect_down,red,true,false,joint 3 +,true,2024-03-03 16:59:06.304427,22.424,0.207,235.0,131.5701141357422,282.15301513671875,75.67684173583984,45.0,65.0,51.0,4.119998455047607,-20.0
32,50,100,60,go_to_color_detect_down,red,true,false,joint 3 +,true,2024-03-03 16:59:06.993324,22.367,0.207,235.0,124.61442565917969,267.2364807128906,16.808265686035156,45.0,65.0,51.0,28.119998931884766,-20.0
32,50,100,60,go_to_color_detect_up_from_color_detect_down,red,true,false,joint 3 -,false,2024-03-03 16:59:08.369421,22.386,0.205,235.0,111.13883972167969,238.33799743652344,-24.284042358398438,45.0,65.0,51.0,48.0,-20.0
32,50,100,60,go_to_color_detect_up_from_color_detect_down,red,true,false,joint 3 -,false,2024-03-03 16:59:09.057122,22.386,0.205,235.0,125.69808197021484,269.5603942871094,21.951148986816406,45.0,65.0,51.0,24.87999725341797,-20.0
32,50,100,60,go_to_color_detect_up_from_color_detect_down,red,true,false,joint 3 -,false,2024-03-03 16:59:10.439880,17.62,0.159,235.0,131.67857360839844,282.3855895996094,81.67452239990234,45.0,65.0,51.0,0.979996919631958,-20.0
32,50,100,60,detecting_color,red,false,false,detecting_color,false,2024-03-03 16:59:11.126584,16.842,0.159,235.0,131.69407653808594,282.4188232421875,84.958251953125,45.0,65.0,51.0,0.0,-20.0
32,50,100,60,detecting_color,red,false,false,detecting_color,false,2024-03-03 16:59:12.514932,16.386,0.156,235.0,131.69407653808594,282.4188232421875,84.958251953125,45.0,65.0,51.0,0.0,-20.0
32,50,100,60,go_to_color_detect_down,red,true,false,joint 3 +,false,2024-03-03 16:59:13.208212,16.31,0.156,235.0,131.69407653808594,282.4188232421875,84.958251953125,45.0,65.0,51.0,0.0,-20.0
32,50,100,60,go_to_color_detect_down,red,true,false,joint 3 +,false,2024-03-03 16:59:14.583220,16.329,0.156,235.0,127.3234634399414,273.0460510253906,30.796234130859375,45.0,65.0,51.0,22.119998931884766,-20.0
32,50,100,60,go_to_color_detect_down,red,true,false,joint 3 +,false,2024-03-03 16:59:15.274906,16.329,0.156,235.0,113.05118560791016,242.4390411376953,-20.0333251953125,45.0,65.0,51.0,46.0,-20.0
32,50,100,60,go_to_color_detect_up_from_color_detect_down,red,true,false,joint 3 -,true,2024-03-03 16:59:15.970570,16.405,0.156,235.0,120.84152221679688,259.1454772949219,1.9504470825195312,45.0,65.0,51.0,33.87999725341797,-20.0
32,50,100,60,go_to_color_detect_up_from_color_detect_down,red,true,false,joint 3 -,true,2024-03-03 16:59:17.351995,22.975,0.214,235.0,131.179443359375,281.3152160644531,66.07618713378906,45.0,65.0,51.0,6.879997253417969,-20.0
32,50,100,60,go_to_green_up,green,true,false,joint 1 +,true,2024-03-03 16:59:18.049662,22.861,0.214,235.0,85.26505279541016,299.7225341796875,84.958251953125,54.12001037597656,74.62001037597656,51.0,0.0,-20.0
32,50,100,60,go_to_green_up,green,true,false,joint 1 +,true,2024-03-03 16:59:19.462510,22.462,0.207,235.0,-44.01468276977539,308.4905700683594,84.958251953125,78.12001037597656,98.62001037597656,51.0,0.0,-20.0
32,50,100,60,go_to_pick_up_from_green,green,true,false,joint 1 -,false,2024-03-03 16:59:20.156202,22.519,0.207,235.0,-12.940330505371094,311.3459167480469,84.958251953125,72.37998962402344,91.87998962402344,51.0,0.0,-20.0
32,50,100,60,go_to_pick_up_from_green,green,true,false,joint 1 -,false,2024-03-03 16:59:21.537103,16.348,0.157,235.0,114.8141860961914,289.6919860839844,84.958251953125,48.37998962402344,67.87998962402344,51.0,0.0,-20.0
32,50,100,60,go_to_pick_up_from_green,green,true,false,joint 1 -,false,2024-03-03 16:59:22.252355,16.348,0.157,235.0,222.71632385253906,217.9476318359375,84.958251953125,24.379989624023438,43.87998962402344,51.0,0.0,-20.0
32,50,100,60,moving_belt,green,false,true,joint 1 -,false,2024-03-03 16:59:23.641322,16.367,0.157,235.0,292.78485107421875,106.68067169189453,84.958251953125,0.019989013671875,19.999988555908203,51.0,0.0,-20.0
32,50,100,60,moving_belt,green,false,true,joint 1 -,false,2024-03-03 16:59:24.329304,16.329,0.157,235.0,292.8220520019531,106.5785140991211,84.958251953125,0.0,20.0,51.0,0.0,-20.0
32,50,100,60,moving_belt,green,false,true,joint 1 -,false,2024-03-03 16:59:25.016208,16.158,0.157,235.0,292.8220520019531,106.5785140991211,84.958251953125,0.0,20.0,51.0,0.0,-20.0
32,50,100,60,moving_belt,green,false,true,joint 1 -,false,2024-03-03 16:59:26.396245,16.462,0.157,235.0,292.8220520019531,106.5785140991211,84.958251953125,0.0,20.0,51.0,0.0,-20.0
32,50,100,60,moving_belt,green,false,true,joint 1 -,false,2024-03-03 16:59:27.087110,16.462,0.157,235.0,292.8220520019531,106.5785140991211,84.958251953125,0.0,20.0,51.0,0.0,-20.0
32,50,100,60,go_to_pick_down,green,true,false,joint 3 +,false,2024-03-03 16:59:28.457549,16.443,0.158,235.0,290.87957763671875,105.87151336669922,60.39265441894531,0.0,20.0,51.0,10.119999885559082,-20.0
32,50,100,60,go_to_pick_up_from_pick_down,green,true,false,joint 3 -,true,2024-03-03 16:59:29.151227,16.253,0.158,235.0,285.7752685546875,104.0136947631836,38.606536865234375,0.0,20.0,51.0,17.87999725341797,-20.0
32,50,100,60,go_to_color_detect_up_from_pick_up,green,true,false,joint 1 +,true,2024-03-03 16:59:30.526205,20.412,0.193,235.0,292.59820556640625,107.19156646728516,84.958251953125,0.12000083923339844,20.240001678466797,51.0,0.0,-20.0
32,50,100,60,go_to_color_detect_up_from_pick_up,green,true,false,joint 1 +,true,2024-03-03 16:59:31.220006,22.747,0.193,235.0,219.8828887939453,220.80589294433594,84.958251953125,25.12000274658203,45.62000274658203,51.0,0.0,-20.0
32,50,100,60,go_to_color_detect_down,green,true,false,joint 3 +,true,2024-03-03 16:59:32.598786,22.083,0.206,235.0,131.69407653808594,282.4188232421875,84.958251953125,45.0,65.0,51.0,0.0,-20.0
32,50,100,60,go_to_color_detect_down,green,true,false,joint 3 +,true,2024-03-03 16:59:33.311194,22.083,0.206,235.0,127.90286254882812,274.28857421875,34.39208984375,45.0,65.0,51.0,20.619998931884766,-20.0
32,50,100,60,go_to_color_detect_down,green,true,false,joint 3 +,true,2024-03-03 16:59:34.022419,21.741,0.204,235.0,112.1597900390625,240.52743530273438,-22.059532165527344,45.0,65.0,51.0,47.02000045776367,-20.0
32,50,100,60,go_to_color_detect_up_from_color_detect_down,green,true,false,joint 3 -,false,2024-03-03 16:59:35.400494,22.121,0.204,235.0,121.74225616455078,261.07708740234375,5.154701232910156,45.0,65.0,51.0,32.37999725341797,-20.0
32,50,100,60,go_to_color_detect_up_from_color_detect_down,green,true,false,joint 3 -,false,2024-03-03 16:59:36.090287,19.196,0.204,235.0,130.94943237304688,280.82196044921875,62.26652526855469,45.0,65.0,51.0,8.379997253417969,-20.0
32,50,100,60,detecting_color,green,false,false,detecting_color,false,2024-03-03 16:59:37.476453,16.937,0.161,235.0,131.69407653808594,282.4188232421875,84.958251953125,45.0,65.0,51.0,0.0,-20.0
32,50,100,60,go_to_color_detect_down,green,true,false,joint 3 +,false,2024-03-03 16:59:38.163150,16.348,0.161,235.0,131.69407653808594,282.4188232421875,84.958251953125,45.0,65.0,51.0,0.0,-20.0
32,50,100,60,go_to_color_detect_down,green,true,false,joint 3 +,false,2024-03-03 16:59:39.543924,16.519,0.157,235.0,126.91519165039062,272.1705017089844,28.41946792602539,45.0,65.0,51.0,23.119998931884766,-20.0
32,50,100,60,go_to_color_detect_down,green,true,false,joint 3 +,false,2024-03-03 16:59:40.245193,16.519,0.157,235.0,112.42742156982422,241.10137939453125,-21.459625244140625,45.0,65.0,51.0,46.720001220703125,-20.0
32,50,100,60,go_to_color_detect_up_from_color_detect_down,green,true,false,joint 3 -,true,2024-03-03 16:59:41.620592,21.475,0.158,235.0,122.03458404541016,261.7040100097656,6.23504638671875,45.0,65.0,51.0,31.87999725341797,-20.0
32,50,100,60,go_to_color_detect_up_from_color_detect_down,green,true,false,joint 3 -,true,2024-03-03 16:59:42.308878,22.671,0.158,235.0,131.42041015625,281.8319396972656,71.17542266845703,45.0,65.0,51.0,4.879997253417969,-20.0
32,50,100,60,go_to_blue_up,blue,true,false,joint 1 +,true,2024-03-03 16:59:43.006281,22.671,0.209,235.0,74.7529296875,302.51568603515625,84.958251953125,56.12001037597656,76.62001037597656,51.0,0.0,-20.0
32,50,100,60,go_to_pick_up_from_blue,blue,true,false,joint 1 -,false,2024-03-03 16:59:44.384254,22.272,0.209,235.0,68.08283996582031,304.0862731933594,84.958251953125,57.37998962402344,76.87998962402344,51.0,0.0,-20.0
32,50,100,60,go_to_pick_up_from_blue,blue,true,false,joint 1 -,false,2024-03-03 16:59:45.074501,22.272,0.165,235.0,198.71453857421875,240.0338897705078,84.958251953125,30.379989624023438,49.87998962402344,51.0,0.0,-20.0
32,50,100,60,go_to_pick_up_from_blue,blue,true,false,joint 1 -,false,2024-03-03 16:59:46.454107,16.576,0.165,235.0,279.16534423828125,138.45738220214844,84.958251953125,6.3799896240234375,25.879989624023438,51.0,0.0,-20.0
32,50,100,60,moving_belt,blue,false,true,joint 1 -,false,2024-03-03 16:59:47.142466,16.576,0.159,235.0,292.8220520019531,106.5785140991211,84.958251953125,0.0,20.0,51.0,0.0,-20.0
32,50,100,60,moving_belt,blue,false,true,joint 1 -,false,2024-03-03 16:59:48.558738,16.709,0.159,235.0,292.8220520019531,106.5785140991211,84.958251953125,0.0,20.0,51.0,0.0,-20.0
32,50,100,60,moving_belt,blue,false,true,joint 1 -,false,2024-03-03 16:59:49.244974,16.538,0.159,235.0,292.8220520019531,106.5785140991211,84.958251953125,0.0,20.0,51.0,0.0,-20.0
32,50,100,60,moving_belt,blue,false,true,joint 1 -,false,2024-03-03 16:59:50.629610,16.215,0.158,235.0,292.8220520019531,106.5785140991211,84.958251953125,0.0,20.0,51.0,0.0,-20.0
32,50,100,60,go_to_pick_down,blue,true,false,joint 3 +,false,2024-03-03 16:59:51.325993,16.215,0.158,235.0,292.7784423828125,106.56263732910156,81.26412963867188,0.0,20.0,51.0,1.8000000715255737,-20.0
32,50,100,60,go_to_pick_up_from_pick_down,blue,true,false,joint 3 -,true,2024-03-03 16:59:52.020670,16.405,0.157,235.0,282.76361083984375,102.91754913330078,29.891090393066406,0.0,20.0,51.0,22.0,-20.0
32,50,100,60,go_to_pick_up_from_pick_down,blue,true,false,joint 3 -,true,2024-03-03 16:59:53.470361,16.386,0.157,235.0,292.6475830078125,106.51500701904297,77.57234191894531,0.0,20.0,51.0,2.419997215270996,-20.0
32,50,100,60,go_to_color_detect_up_from_pick_up,blue,true,false,joint 1 +,true,2024-03-03 16:59:54.159655,23.127,0.213,235.0,251.7174072265625,183.69015502929688,84.958251953125,16.12000274658203,36.62000274658203,51.0,0.0,-20.0
32,50,100,60,go_to_color_detect_up_from_pick_up,blue,true,false,joint 1 +,true,2024-03-03 16:59:55.545432,22.064,0.213,236.8,155.2417755126953,270.1919860839844,84.958251953125,40.12000274658203,60.62000274658203,51.0,0.0,-20.0
32,50,100,60,go_to_color_detect_down,blue,true,false,joint 3 +,true,2024-03-03 16:59:56.239749,22.064,0.205,236.8,130.5277099609375,279.91754150390625,56.607173919677734,45.0,65.0,51.0,11.619998931884766,-20.0
32,50,100,60,go_to_color_detect_down,blue,true,false,joint 3 +,true,2024-03-03 16:59:57.617784,21.931,0.205,235.0,118.44404602050781,254.00405883789062,-5.7863922119140625,45.0,65.0,51.0,38.619998931884766,-20.0
32,50,100,60,go_to_color_detect_up_from_color_detect_down,blue,true,false,joint 3 -,false,2024-03-03 16:59:58.306261,21.969,0.203,235.0,115.82393646240234,248.38522338867188,-13.174934387207031,45.0,65.0,51.0,41.37999725341797,-20.0
32,50,100,60,go_to_color_detect_up_from_color_detect_down,blue,true,false,joint 3 -,false,2024-03-03 16:59:59.492691,21.969,0.203,235.0,128.8577423095703,276.3363037109375,41.0482292175293,45.0,65.0,51.0,16.87999725341797,-20.0
32,50,100,60,detecting_color,blue,false,false,detecting_color,false,2024-03-03 17:00:00.209165,16.766,0.159,235.0,131.69407653808594,282.4188232421875,84.958251953125,45.0,65.0,51.0,0.0,-20.0
32,50,100,60,detecting_color,blue,false,false,detecting_color,false,2024-03-03 17:00:01.605638,16.804,0.159,235.0,131.69407653808594,282.4188232421875,84.958251953125,45.0,65.0,51.0,0.0,-20.0
32,50,100,60,go_to_color_detect_down,blue,true,false,joint 3 +,false,2024-03-03 17:00:02.292342,16.405,0.156,235.0,130.9087371826172,280.7346496582031,61.658355712890625,45.0,65.0,51.0,9.619998931884766,-20.0
32,50,100,60,go_to_color_detect_down,blue,true,false,joint 3 +,false,2024-03-03 17:00:02.980151,16.215,0.156,235.0,119.75267791748047,256.8104248046875,-1.695068359375,45.0,65.0,51.0,36.619998931884766,-20.0
32,50,100,60,go_to_color_detect_up_from_color_detect_down,blue,true,false,joint 3 -,true,2024-03-03 17:00:04.411956,16.519,0.156,235.0,114.72245788574219,246.02308654785156,-16.006317138671875,45.0,65.0,51.0,42.87999725341797,-20.0
32,50,100,60,go_to_color_detect_up_from_color_detect_down,blue,true,false,joint 3 -,true,2024-03-03 17:00:05.146703,16.519,0.16,235.0,128.1739959716797,274.8699951171875,36.17897415161133,45.0,65.0,51.0,18.87999725341797,-20.0
32,50,100,60,go_to_red_up,red,true,false,joint 1 +,true,2024-03-03 17:00:06.532673,22.443,0.16,235.0,126.14859008789062,284.9390563964844,84.958251953125,46.12000274658203,66.44000244140625,51.0,0.0,-20.0
32,50,100,60,go_to_red_up,red,true,false,joint 1 +,true,2024-03-03 17:00:07.248966,22.026,0.206,235.0,2.0666279792785645,311.60784912109375,84.958251953125,69.62001037597656,90.12001037597656,51.0,0.0,-20.0
32,50,100,60,go_to_red_up,red,true,false,joint 1 +,true,2024-03-03 17:00:08.637250,22.007,0.206,235.0,-124.85441589355469,285.5085144042969,84.958251953125,93.62001037597656,114.12001037597656,51.0,0.0,-20.0
32,50,100,60,go_to_pick_up_from_red,red,true,false,joint 1 -,false,2024-03-03 17:00:09.327940,22.121,0.205,235.0,-143.3084259033203,276.7063903808594,84.958251953125,97.37998962402344,116.87998962402344,51.0,0.0,-20.0
32,50,100,60,go_to_pick_up_from_red,red,true,false,joint 1 -,false,2024-03-03 17:00:10.028681,18.456,0.205,235.0,-18.37213706970215,311.0726623535156,84.958251953125,73.37998962402344,92.87998962402344,51.0,0.0,-20.0
32,50,100,60,go_to_pick_up_from_red,red,true,false,joint 1 -,false,2024-03-03 17:00:10.755185,18.456,0.205,235.0,109.74090576171875,291.6516418457031,84.958251953125,49.37998962402344,68.87998962402344,51.0,0.0,-20.0
32,50,100,60,go_to_pick_up_from_red,red,true,false,joint 1 -,false,2024-03-03 17:00:12.626347,16.329,0.157,235.0,230.1869354248047,210.0421600341797,84.958251953125,22.379989624023438,41.87998962402344,51.0,0.0,-20.0
32,50,100,60,go_to_pick_up_from_red,red,true,false,joint 1 -,false,2024-03-03 17:00:13.316038,16.329,0.157,235.0,292.48577880859375,107.49787902832031,84.958251953125,0.17999267578125,20.079994201660156,51.0,0.0,-20.0
32,50,100,60,moving_belt,red,false,true,joint 1 -,false,2024-03-03 17:00:14.020233,16.557,0.157,235.0,292.8220520019531,106.5785140991211,84.958251953125,0.0,20.0,51.0,0.0,-20.0
32,50,100,60,moving_belt,red,false,true,joint 1 -,false,2024-03-03 17:00:15.401893,16.652,0.157,235.0,292.8220520019531,106.5785140991211,84.958251953125,0.0,20.0,51.0,0.0,-20.0
32,50,100,60,moving_belt,red,false,true,joint 1 -,false,2024-03-03 17:00:16.095142,16.31,0.157,235.0,292.8220520019531,106.5785140991211,84.958251953125,0.0,20.0,51.0,0.0,-20.0
32,50,100,60,moving_belt,red,false,true,joint 1 -,false,2024-03-03 17:00:17.485683,16.481,0.157,235.0,292.8220520019531,106.5785140991211,84.958251953125,0.0,20.0,51.0,0.0,-20.0
32,50,100,60,go_to_pick_down,red,true,false,joint 3 +,false,2024-03-03 17:00:18.170393,16.481,0.157,235.0,292.0347900390625,106.29197692871094,69.28641510009766,0.0,20.0,51.0,6.619999885559082,-20.0
32,50,100,60,go_to_pick_up_from_pick_down,red,true,false,joint 3 -,true,2024-03-03 17:00:19.550370,16.234,0.157,235.0,285.39019775390625,103.87354278564453,37.39094924926758,0.0,20.0,51.0,18.37999725341797,-20.0
32,50,100,60,go_to_color_detect_up_from_pick_up,red,true,false,joint 1 +,true,2024-03-03 17:00:20.247643,17.26,0.178,235.0,292.8220520019531,106.5785140991211,84.958251953125,0.0,20.040000915527344,51.0,0.0,-20.0
32,50,100,60,go_to_color_detect_up_from_pick_up,red,true,false,joint 1 +,true,2024-03-03 17:00:21.623435,21.95,0.178,235.0,223.7030029296875,216.93478393554688,84.958251953125,24.12000274658203,44.62000274658203,51.0,0.0,-20.0
32,50,100,60,go_to_color_detect_down,red,true,false,joint 3 +,true,2024-03-03 17:00:22.338045,21.95,0.204,235.0,131.69407653808594,282.4188232421875,84.958251953125,45.0,65.0,51.0,0.0,-20.0
32,50,100,60,go_to_color_detect_down,red,true,false,joint 3 +,true,2024-03-03 17:00:23.024748,22.026,0.204,235.0,127.90286254882812,274.28857421875,34.39208984375,45.0,65.0,51.0,20.619998931884766,-20.0
32,50,100,60,go_to_color_detect_down,red,true,false,joint 3 +,true,2024-03-03 17:00:24.405437,21.589,0.202,235.0,112.1597900390625,240.52743530273438,-22.059532165527344,45.0,65.0,51.0,47.02000045776367,-20.0
32,50,100,60,go_to_color_detect_up_from_color_detect_down,red,true,false,joint 3 -,false,2024-03-03 17:00:25.097114,21.589,0.202,235.0,122.32291412353516,262.32232666015625,7.321388244628906,45.0,65.0,51.0,31.37999725341797,-20.0
32,50,100,60,go_to_color_detect_up_from_color_detect_down,red,true,false,joint 3 -,false,2024-03-03 17:00:26.479663,20.222,0.159,235.0,131.03079223632812,280.9964294433594,63.534812927246094,45.0,65.0,51.0,7.879997253417969,-20.0
32,50,100,60,detecting_color,red,false,false,detecting_color,false,2024-03-03 17:00:27.169021,16.728,0.159,235.0,131.69407653808594,282.4188232421875,84.958251953125,45.0,65.0,51.0,0.0,-20.0
32,50,100,60,detecting_color,red,false,false,detecting_color,false,2024-03-03 17:00:28.553391,16.31,0.155,235.0,131.69407653808594,282.4188232421875,84.958251953125,45.0,65.0,51.0,0.0,-20.0
32,50,100,60,detecting_color,red,false,false,detecting_color,false,2024-03-03 17:00:29.240093,16.177,0.155,235.0,131.69407653808594,282.4188232421875,84.958251953125,45.0,65.0,51.0,0.0,-20.0
32,50,100,60,go_to_color_detect_down,red,true,false,joint 3 +,false,2024-03-03 17:00:30.617486,16.31,0.156,235.0,131.69407653808594,282.4188232421875,84.958251953125,45.0,65.0,51.0,0.0,-20.0
32,50,100,60,go_to_color_detect_down,red,true,false,joint 3 +,false,2024-03-03 17:00:31.306769,16.31,0.156,235.0,128.2669219970703,275.0693054199219,36.80873489379883,45.0,65.0,51.0,19.619998931884766,-20.0
32,50,100,60,go_to_color_detect_down,red,true,false,joint 3 +,false,2024-03-03 17:00:32.681973,16.272,0.156,235.0,112.7247543334961,241.739013671875,-20.784706115722656,45.0,65.0,51.0,46.380001068115234,-20.0
32,50,100,60,go_to_color_detect_up_from_color_detect_down,red,true,false,joint 3 -,true,2024-03-03 17:00:33.373186,16.31,0.155,235.0,120.84152221679688,259.1454772949219,1.9504470825195312,45.0,65.0,51.0,33.87999725341797,-20.0
32,50,100,60,go_to_color_detect_up_from_color_detect_down,red,true,false,joint 3 -,true,2024-03-03 17:00:34.060878,23.127,0.155,235.0,130.6773681640625,280.2384948730469,58.472415924072266,45.0,65.0,51.0,9.879997253417969,-20.0
32,50,100,60,go_to_green_up,green,true,false,joint 1 +,true,2024-03-03 17:00:35.464359,22.272,0.206,235.0,87.87732696533203,298.9670715332031,84.958251953125,53.62001037597656,74.12001037597656,51.0,0.0,-20.0
32,50,100,60,go_to_green_up,green,true,false,joint 1 +,true,2024-03-03 17:00:36.165015,22.045,0.206,235.0,-41.32089614868164,308.8629455566406,84.958251953125,77.62001037597656,98.12001037597656,51.0,0.0,-20.0
32,50,100,60,go_to_pick_up_from_green,green,true,false,joint 1 -,false,2024-03-03 17:00:37.554377,21.266,0.204,235.0,-31.92344856262207,309.9751892089844,84.958251953125,75.87998962402344,95.37998962402344,51.0,0.0,-20.0
32,50,100,60,go_to_pick_up_from_green,green,true,false,joint 1 -,false,2024-03-03 17:00:38.249252,21.266,0.204,235.0,112.28182220458984,290.682861328125,84.958251953125,48.87998962402344,68.37998962402344,51.0,0.0,-20.0
32,50,100,60,go_to_pick_up_from_green,green,true,false,joint 1 -,false,2024-03-03 17:00:39.634396,16.291,0.155,235.0,220.805908203125,219.88287353515625,84.958251953125,24.879989624023438,44.37998962402344,51.0,0.0,-20.0
32,50,100,60,go_to_pick_up_from_green,green,true,false,joint 1 -,false,2024-03-03 17:00:40.350999,16.462,0.155,235.0,290.36822509765625,113.093017578125,84.958251953125,1.2799873352050781,20.97998809814453,51.0,0.0,-20.0
32,50,100,60,moving_belt,green,false,true,joint 1 -,false,2024-03-03 17:00:41.039294,16.462,0.155,235.0,292.8220520019531,106.5785140991211,84.958251953125,0.0,20.0,51.0,0.0,-20.0
32,50,100,60,moving_belt,green,false,true,joint 1 -,false,2024-03-03 17:00:42.416652,16.386,0.159,235.0,292.8220520019531,106.5785140991211,84.958251953125,0.0,20.0,51.0,0.0,-20.0
32,50,100,60,moving_belt,green,false,true,joint 1 -,false,2024-03-03 17:00:43.120497,16.386,0.159,235.0,292.8220520019531,106.5785140991211,84.958251953125,0.0,20.0,51.0,0.0,-20.0
32,50,100,60,moving_belt,green,false,true,joint 1 -,false,2024-03-03 17:00:44.611113,16.348,0.156,235.0,292.8220520019531,106.5785140991211,84.958251953125,0.0,20.0,51.0,0.0,-20.0
32,50,100,60,go_to_pick_down,green,true,false,joint 3 +,false,2024-03-03 17:00:45.334818,16.386,0.156,235.0,292.0347900390625,106.29197692871094,69.28641510009766,0.0,20.0,51.0,6.619999885559082,-20.0
32,50,100,60,go_to_pick_up_from_pick_down,green,true,false,joint 3 -,true,2024-03-03 17:00:46.035681,16.329,0.155,235.0,283.5084533691406,103.18864440917969,31.895137786865234,0.0,20.0,51.0,20.87999725341797,-20.0
32,50,100,60,go_to_color_detect_up_from_pick_up,green,true,false,joint 1 +,true,2024-03-03 17:00:47.598081,22.918,0.155,235.0,292.74755859375,106.78292846679688,84.958251953125,0.04000091552734375,20.1200008392334,51.0,0.0,-20.0
32,50,100,60,go_to_color_detect_up_from_pick_up,green,true,false,joint 1 +,true,2024-03-03 17:00:48.343587,22.177,0.204,235.0,232.95265197753906,206.97052001953125,84.958251953125,21.62000274658203,42.12000274658203,51.0,0.0,-20.0
32,50,100,60,go_to_color_detect_up_from_pick_up,green,true,false,joint 1 +,true,2024-03-03 17:00:49.238734,21.969,0.204,235.0,134.15354919433594,281.2588806152344,84.958251953125,44.50000762939453,64.68000793457031,51.0,0.0,-20.0
32,50,100,60,go_to_color_detect_down,green,true,false,joint 3 +,true,2024-03-03 17:00:50.109418,21.969,0.204,235.0,127.90286254882812,274.28857421875,34.39208984375,45.0,65.0,51.0,20.619998931884766,-20.0
32,50,100,60,go_to_color_detect_down,green,true,false,joint 3 +,true,2024-03-03 17:00:50.951205,21.817,0.203,235.0,114.16761779785156,244.83322143554688,-17.377769470214844,45.0,65.0,51.0,44.619998931884766,-20.0
32,50,100,60,go_to_color_detect_up_from_color_detect_down,green,true,false,joint 3 -,false,2024-03-03 17:00:52.035214,21.665,0.203,235.0,119.9056396484375,257.1384582519531,-1.1969146728515625,45.0,65.0,51.0,35.37999725341797,-20.0
32,50,100,60,go_to_color_detect_up_from_color_detect_down,green,true,false,joint 3 -,false,2024-03-03 17:00:53.504047,16.785,0.189,235.0,130.94943237304688,280.82196044921875,62.26652526855469,45.0,65.0,51.0,8.379997253417969,-20.0
32,50,100,60,detecting_color,green,false,false,detecting_color,false,2024-03-03 17:00:54.288636,16.614,0.189,235.0,131.69407653808594,282.4188232421875,84.958251953125,45.0,65.0,51.0,0.0,-20.0
32,50,100,60,go_to_color_detect_down,green,true,false,joint 3 +,false,2024-03-03 17:00:55.225502,16.614,0.158,235.0,131.69407653808594,282.4188232421875,84.958251953125,45.0,65.0,51.0,0.0,-20.0
32,50,100,60,go_to_color_detect_down,green,true,false,joint 3 +,false,2024-03-03 17:00:56.093598,16.443,0.158,235.0,127.52101135253906,273.4696960449219,31.99085235595703,45.0,65.0,51.0,21.619998931884766,-20.0
32,50,100,60,go_to_color_detect_down,green,true,false,joint 3 +,false,2024-03-03 17:00:57.531303,16.12,0.155,235.0,113.40601348876953,243.19998168945312,-19.203903198242188,45.0,65.0,51.0,45.57999801635742,-20.0
32,50,100,60,go_to_color_detect_up_from_color_detect_down,green,true,false,joint 3 -,true,2024-03-03 17:00:58.232948,16.158,0.155,235.0,120.53343200683594,258.4847717285156,0.8948974609375,45.0,65.0,51.0,34.37999725341797,-20.0
32,50,100,60,go_to_color_detect_up_from_color_detect_down,green,true,false,joint 3 -,true,2024-03-03 17:00:59.703878,22.405,0.21,235.0,131.10745239257812,281.16082763671875,64.80473327636719,45.0,65.0,51.0,7.379997253417969,-20.0
32,50,100,60,go_to_blue_up,blue,true,false,joint 1 +,true,2024-03-03 17:01:00.419040,22.405,0.21,235.0,90.48291778564453,298.1888122558594,84.958251953125,53.12001037597656,73.62001037597656,51.0,0.0,-20.0
32,50,100,60,go_to_pick_up_from_blue,blue,true,false,joint 1 -,false,2024-03-03 17:01:01.105743,22.234,0.204,235.0,52.07490539550781,307.23272705078125,84.958251953125,60.37998962402344,79.87998962402344,51.0,0.0,-20.0
32,50,100,60,go_to_pick_up_from_blue,blue,true,false,joint 1 -,false,2024-03-03 17:01:02.528682,21.874,0.204,235.0,185.87979125976562,250.10484313964844,84.958251953125,33.37998962402344,52.87998962402344,51.0,0.0,-20.0
32,50,100,60,go_to_pick_up_from_blue,blue,true,false,joint 1 -,false,2024-03-03 17:01:03.219368,16.367,0.156,235.0,271.53643798828125,152.8780059814453,84.958251953125,9.379989624023438,28.879989624023438,51.0,0.0,-20.0
32,50,100,60,moving_belt,blue,false,true,joint 1 -,false,2024-03-03 17:01:04.056559,16.424,0.156,235.0,292.8220520019531,106.5785140991211,84.958251953125,0.0,20.0,51.0,0.0,-20.0
32,50,100,60,moving_belt,blue,false,true,joint 1 -,false,2024-03-03 17:01:05.454837,16.785,0.159,235.0,292.8220520019531,106.5785140991211,84.958251953125,0.0,20.0,51.0,0.0,-20.0
32,50,100,60,moving_belt,blue,false,true,joint 1 -,false,2024-03-03 17:01:06.148131,16.785,0.159,235.0,292.8220520019531,106.5785140991211,84.958251953125,0.0,20.0,51.0,0.0,-20.0
32,50,100,60,moving_belt,blue,false,true,joint 1 -,false,2024-03-03 17:01:07.531505,16.177,0.159,235.0,292.8220520019531,106.5785140991211,84.958251953125,0.0,20.0,51.0,0.0,-20.0
32,50,100,60,go_to_pick_down,blue,true,false,joint 3 +,false,2024-03-03 17:01:08.229714,16.367,0.156,235.0,292.822021484375,106.57849884033203,84.85562896728516,0.0,20.0,51.0,0.11999999731779099,-20.0
32,50,100,60,go_to_pick_down,blue,true,false,joint 3 +,false,2024-03-03 17:01:09.610922,16.367,0.156,235.0,283.6299133300781,103.23284912109375,32.23026657104492,0.0,20.0,51.0,21.279996871948242,-20.0
32,50,100,60,go_to_pick_up_from_pick_down,blue,true,false,joint 3 -,true,2024-03-03 17:01:10.300616,16.861,0.155,235.0,292.09527587890625,106.31399536132812,69.89879608154297,0.0,20.0,51.0,5.379997253417969,-20.0
32,50,100,60,go_to_color_detect_up_from_pick_up,blue,true,false,joint 1 +,true,2024-03-03 17:01:11.685542,22.785,0.155,235.0,259.49029541015625,172.5355682373047,84.958251953125,13.620002746582031,34.12000274658203,51.0,0.0,-20.0
32,50,100,60,go_to_color_detect_up_from_pick_up,blue,true,false,joint 1 +,true,2024-03-03 17:01:12.392523,22.064,0.204,235.0,166.87965393066406,263.16326904296875,84.958251953125,37.62000274658203,58.12000274658203,51.0,0.0,-20.0
32,50,100,60,go_to_color_detect_down,blue,true,false,joint 3 +,true,2024-03-03 17:01:13.156901,21.95,0.204,235.0,130.9087371826172,280.7346496582031,61.658355712890625,45.0,65.0,51.0,9.619998931884766,-20.0
32,50,100,60,go_to_color_detect_down,blue,true,false,joint 3 +,true,2024-03-03 17:01:14.533007,21.931,0.203,235.0,119.75267791748047,256.8104248046875,-1.695068359375,45.0,65.0,51.0,36.619998931884766,-20.0
32,50,100,60,go_to_color_detect_up_from_color_detect_down,blue,true,false,joint 3 -,false,2024-03-03 17:01:15.223577,21.912,0.203,235.0,114.34838104248047,245.22088623046875,-16.934837341308594,45.0,65.0,51.0,43.37999725341797,-20.0
32,50,100,60,go_to_color_detect_up_from_color_detect_down,blue,true,false,joint 3 -,false,2024-03-03 17:01:16.627538,21.418,0.159,235.0,127.99186706542969,274.47943115234375,34.9707145690918,45.0,65.0,51.0,19.37999725341797,-20.0
32,50,100,60,detecting_color,blue,false,false,detecting_color,false,2024-03-03 17:01:17.320438,16.804,0.159,235.0,131.69407653808594,282.4188232421875,84.958251953125,45.0,65.0,51.0,0.0,-20.0
32,50,100,60,detecting_color,blue,false,false,detecting_color,false,2024-03-03 17:01:18.704808,16.405,0.155,235.0,131.69407653808594,282.4188232421875,84.958251953125,45.0,65.0,51.0,0.0,-20.0
32,50,100,60,go_to_color_detect_down,blue,true,false,joint 3 +,false,2024-03-03 17:01:19.396237,16.291,0.155,235.0,130.30931091308594,279.44921875,54.094154357910156,45.0,65.0,51.0,12.619998931884766,-20.0
32,50,100,60,go_to_color_detect_down,blue,true,false,joint 3 +,false,2024-03-03 17:01:20.082536,16.291,0.155,235.0,119.75267791748047,256.8104248046875,-1.695068359375,45.0,65.0,51.0,36.619998931884766,-20.0
32,50,100,60,go_to_color_detect_up_from_color_detect_down,blue,true,false,joint 3 -,true,2024-03-03 17:01:21.464792,16.386,0.155,235.0,114.72245788574219,246.02308654785156,-16.006317138671875,45.0,65.0,51.0,42.87999725341797,-20.0
32,50,100,60,go_to_color_detect_up_from_color_detect_down,blue,true,false,joint 3 -,true,2024-03-03 17:01:22.155406,18.399,0.155,235.0,128.1739959716797,274.8699951171875,36.17897415161133,45.0,65.0,51.0,18.87999725341797,-20.0
32,50,100,60,go_to_red_up,red,true,false,joint 1 +,true,2024-03-03 17:01:23.014727,22.424,0.207,235.0,129.7191619873047,283.3313903808594,84.958251953125,45.40000915527344,65.60000610351562,51.0,0.0,-20.0
32,50,100,60,go_to_red_up,red,true,false,joint 1 +,true,2024-03-03 17:01:24.430771,22.215,0.207,235.0,-6.09105110168457,311.55517578125,84.958251953125,71.12001037597656,91.62001037597656,51.0,0.0,-20.0
32,50,100,60,go_to_red_up,red,true,false,joint 1 +,true,2024-03-03 17:01:25.123445,22.215,0.204,235.0,-132.2853240966797,282.14239501953125,84.958251953125,95.12001037597656,115.62001037597656,51.0,0.0,-20.0
32,50,100,60,go_to_pick_up_from_red,red,true,false,joint 1 -,false,2024-03-03 17:01:26.506406,22.215,0.204,235.0,-150.50262451171875,272.8601989746094,84.958251953125,98.87998962402344,118.37998962402344,51.0,0.0,-20.0
32,50,100,60,go_to_pick_up_from_red,red,true,false,joint 1 -,false,2024-03-03 17:01:27.196291,22.215,0.155,235.0,-23.79831314086914,310.70465087890625,84.958251953125,74.37998962402344,93.87998962402344,51.0,0.0,-20.0
32,50,100,60,go_to_pick_up_from_red,red,true,false,joint 1 -,false,2024-03-03 17:01:28.593459,16.386,0.155,235.0,119.8525619506836,287.64404296875,84.958251953125,47.37998962402344,66.87998962402344,51.0,0.0,-20.0
32,50,100,60,go_to_pick_up_from_red,red,true,false,joint 1 -,false,2024-03-03 17:01:29.282948,16.424,0.155,235.0,224.6097869873047,215.99578857421875,84.958251953125,23.879989624023438,43.37998962402344,51.0,0.0,-20.0
32,50,100,60,moving_belt,red,false,true,joint 1 -,false,2024-03-03 17:01:30.657100,16.443,0.156,235.0,292.8220520019531,106.57848358154297,84.958251953125,-3.814697265625e-06,20.0,51.0,0.0,-20.0
32,50,100,60,moving_belt,red,false,true,joint 1 -,false,2024-03-03 17:01:31.379686,16.177,0.156,235.0,292.8220520019531,106.5785140991211,84.958251953125,0.0,20.0,51.0,0.0,-20.0
32,50,100,60,moving_belt,red,false,true,joint 1 -,false,2024-03-03 17:01:32.065999,16.177,0.159,235.0,292.8220520019531,106.5785140991211,84.958251953125,0.0,20.0,51.0,0.0,-20.0
32,50,100,60,moving_belt,red,false,true,joint 1 -,false,2024-03-03 17:01:33.457164,16.367,0.159,235.0,292.8220520019531,106.5785140991211,84.958251953125,0.0,20.0,51.0,0.0,-20.0
32,50,100,60,moving_belt,red,false,true,joint 1 -,false,2024-03-03 17:01:34.148405,16.557,0.157,235.0,292.8220520019531,106.5785140991211,84.958251953125,0.0,20.0,51.0,0.0,-20.0
32,50,100,60,go_to_pick_down,red,true,false,joint 3 +,false,2024-03-03 17:01:35.524781,16.177,0.157,235.0,291.7568664550781,106.1908187866211,66.7379150390625,0.0,20.0,51.0,7.619999885559082,-20.0
32,50,100,60,go_to_pick_up_from_pick_down,red,true,false,joint 3 -,true,2024-03-03 17:01:36.215835,16.424,0.155,235.0,286.51544189453125,104.2831039428711,41.0482292175293,0.0,20.0,51.0,16.87999725341797,-20.0
32,50,100,60,go_to_color_detect_up_from_pick_up,red,true,false,joint 1 +,true,2024-03-03 17:01:37.608776,23.222,0.155,235.0,292.07086181640625,108.62020111083984,84.958251953125,0.40000152587890625,20.60000228881836,51.0,0.0,-20.0
32,50,100,60,go_to_color_detect_up_from_pick_up,red,true,false,joint 1 +,true,2024-03-03 17:01:38.298469,22.937,0.21,235.0,227.45497131347656,212.99758911132812,84.958251953125,23.12000274658203,43.62000274658203,51.0,0.0,-20.0
32,50,100,60,go_to_color_detect_down,red,true,false,joint 3 +,true,2024-03-03 17:01:39.684612,22.747,0.21,235.0,131.69406127929688,282.4187927246094,84.85562896728516,45.0,65.0,51.0,0.1199999451637268,-20.0
32,50,100,60,go_to_color_detect_down,red,true,false,joint 3 +,true,2024-03-03 17:01:40.429680,22.728,0.207,235.0,127.3234634399414,273.0460510253906,30.796234130859375,45.0,65.0,51.0,22.119998931884766,-20.0
32,50,100,60,go_to_color_detect_down,red,true,false,joint 3 +,true,2024-03-03 17:01:41.123226,22.462,0.207,235.0,113.05118560791016,242.4390411376953,-20.0333251953125,45.0,65.0,51.0,46.0,-20.0
32,50,100,60,go_to_color_detect_up_from_color_detect_down,red,true,false,joint 3 -,false,2024-03-03 17:01:42.606865,18.285,0.187,235.0,122.32291412353516,262.32232666015625,7.321388244628906,45.0,65.0,51.0,31.37999725341797,-20.0
32,50,100,60,go_to_color_detect_up_from_color_detect_down,red,true,false,joint 3 -,false,2024-03-03 17:01:43.302537,18.285,0.187,235.0,131.10745239257812,281.16082763671875,64.80473327636719,45.0,65.0,51.0,7.379997253417969,-20.0
32,50,100,60,detecting_color,red,false,false,detecting_color,false,2024-03-03 17:01:44.693425,16.766,0.157,235.0,131.69407653808594,282.4188232421875,84.958251953125,45.0,65.0,51.0,0.0,-20.0
32,50,100,60,detecting_color,red,false,false,detecting_color,false,2024-03-03 17:01:45.408621,16.272,0.157,235.0,131.69407653808594,282.4188232421875,84.958251953125,45.0,65.0,51.0,0.0,-20.0
32,50,100,60,detecting_color,red,false,false,detecting_color,false,2024-03-03 17:01:46.112269,16.272,0.157,235.0,131.69407653808594,282.4188232421875,84.958251953125,45.0,65.0,51.0,0.0,-20.0
32,50,100,60,detecting_color,red,false,false,detecting_color,false,2024-03-03 17:01:47.513678,16.329,0.155,235.0,131.69407653808594,282.4188232421875,84.958251953125,45.0,65.0,51.0,0.0,-20.0
32,50,100,60,go_to_color_detect_down,red,true,false,joint 3 +,false,2024-03-03 17:01:48.210947,16.329,0.155,235.0,131.69256591796875,282.41558837890625,83.9320068359375,45.0,65.0,51.0,0.5999996662139893,-20.0
32,50,100,60,go_to_color_detect_down,red,true,false,joint 3 +,false,2024-03-03 17:01:49.625689,16.348,0.154,235.0,126.70448303222656,271.7186279296875,27.237503051757812,45.0,65.0,51.0,23.619998931884766,-20.0
32,50,100,60,go_to_color_detect_down,red,true,false,joint 3 +,false,2024-03-03 17:01:50.324588,16.158,0.154,235.0,112.1597900390625,240.52743530273438,-22.059532165527344,45.0,65.0,51.0,47.02000045776367,-20.0
32,50,100,60,go_to_color_detect_up_from_color_detect_down,red,true,false,joint 3 -,true,2024-03-03 17:01:51.038315,16.158,0.154,235.0,123.70389556884766,265.2838439941406,12.840118408203125,45.0,65.0,51.0,28.87999725341797,-20.0
32,50,100,60,go_to_color_detect_up_from_color_detect_down,red,true,false,joint 3 -,true,2024-03-03 17:01:52.460342,23.241,0.177,235.0,131.42041015625,281.8319396972656,71.17542266845703,45.0,65.0,51.0,4.879997253417969,-20.0
32,50,100,60,go_to_green_up,green,true,false,joint 1 +,true,2024-03-03 17:01:53.151603,23.317,0.177,235.0,74.7529296875,302.51568603515625,84.958251953125,56.12001037597656,76.62001037597656,51.0,0.0,-20.0
32,50,100,60,go_to_green_up,green,true,false,joint 1 +,true,2024-03-03 17:01:54.564883,22.823,0.21,235.0,-70.09815216064453,303.6280212402344,84.958251953125,83.00000762939453,103.3800048828125,51.0,0.0,-20.0
32,50,100,60,go_to_pick_up_from_green,green,true,false,joint 1 -,false,2024-03-03 17:01:55.258564,22.88,0.21,235.0,-4.785818099975586,311.5779724121094,84.958251953125,70.87998962402344,90.37998962402344,51.0,0.0,-20.0
32,50,100,60,go_to_pick_up_from_green,green,true,false,joint 1 -,false,2024-03-03 17:01:56.688685,17.146,0.182,235.0,122.35812377929688,286.5871887207031,84.958251953125,46.87998962402344,66.37998962402344,51.0,0.0,-20.0
32,50,100,60,go_to_pick_up_from_green,green,true,false,joint 1 -,false,2024-03-03 17:01:57.381171,16.424,0.182,235.0,239.12974548339844,199.80165100097656,84.958251953125,19.879989624023438,39.37998962402344,51.0,0.0,-20.0
32,50,100,60,moving_belt,green,false,true,joint 1 -,false,2024-03-03 17:01:58.077841,16.424,0.156,235.0,292.8220520019531,106.5785140991211,84.958251953125,0.0,20.0,51.0,0.0,-20.0
32,50,100,60,moving_belt,green,false,true,joint 1 -,false,2024-03-03 17:01:59.470637,16.595,0.156,235.0,292.8220520019531,106.5785140991211,84.958251953125,0.0,20.0,51.0,0.0,-20.0
32,50,100,60,moving_belt,green,false,true,joint 1 -,false,2024-03-03 17:02:00.169654,16.595,0.156,235.0,292.8220520019531,106.5785140991211,84.958251953125,0.0,20.0,51.0,0.0,-20.0
32,50,100,60,moving_belt,green,false,true,joint 1 -,false,2024-03-03 17:02:01.362608,16.348,0.156,235.0,292.8220520019531,106.5785140991211,84.958251953125,0.0,20.0,51.0,0.0,-20.0
32,50,100,60,moving_belt,green,false,true,joint 1 -,false,2024-03-03 17:02:02.053884,16.177,0.155,235.0,292.8220520019531,106.5785140991211,84.958251953125,0.0,20.0,51.0,0.0,-20.0
32,50,100,60,go_to_pick_down,green,true,false,joint 3 +,false,2024-03-03 17:02:03.560844,16.443,0.155,235.0,290.6729431152344,105.79631042480469,59.12882614135742,0.0,20.0,51.0,10.619999885559082,-20.0
32,50,100,60,go_to_pick_up_from_pick_down,green,true,false,joint 3 -,true,2024-03-03 17:02:04.356175,16.443,0.156,235.0,286.51544189453125,104.2831039428711,41.0482292175293,0.0,20.0,51.0,16.87999725341797,-20.0
32,50,100,60,go_to_color_detect_up_from_pick_up,green,true,false,joint 1 +,true,2024-03-03 17:02:05.126215,16.31,0.156,235.0,288.514892578125,117.74076843261719,84.958251953125,2.200002670288086,22.640003204345703,51.0,0.0,-20.0
32,50,100,60,go_to_color_detect_up_from_pick_up,green,true,false,joint 1 +,true,2024-03-03 17:02:06.588655,22.007,0.204,235.0,215.99578857421875,224.60977172851562,84.958251953125,26.12000274658203,46.62000274658203,51.0,0.0,-20.0
32,50,100,60,go_to_color_detect_down,green,true,false,joint 3 +,true,2024-03-03 17:02:07.286322,22.026,0.204,235.0,131.69393920898438,282.4185485839844,84.65037536621094,45.0,65.0,51.0,0.2399998903274536,-20.0
32,50,100,60,go_to_color_detect_down,green,true,false,joint 3 +,true,2024-03-03 17:02:08.674211,21.817,0.202,235.0,125.8183364868164,269.81829833984375,22.554481506347656,45.0,65.0,51.0,25.619998931884766,-20.0
32,50,100,60,go_to_color_detect_down,green,true,false,joint 3 +,true,2024-03-03 17:02:09.370110,21.684,0.202,235.0,111.39604949951172,238.88958740234375,-23.732986450195312,45.0,65.0,51.0,47.81999969482422,-20.0
32,50,100,60,go_to_color_detect_up_from_color_detect_down,green,true,false,joint 3 -,false,2024-03-03 17:02:10.063749,21.855,0.202,235.0,123.43585205078125,264.7090148925781,11.725044250488281,45.0,65.0,51.0,29.37999725341797,-20.0
32,50,100,60,go_to_color_detect_up_from_color_detect_down,green,true,false,joint 3 -,false,2024-03-03 17:02:11.497314,16.785,0.159,235.0,131.36721801757812,281.7178955078125,69.89879608154297,45.0,65.0,51.0,5.379997253417969,-20.0
32,50,100,60,detecting_color,green,false,false,detecting_color,false,2024-03-03 17:02:12.202564,16.785,0.159,235.0,131.69407653808594,282.4188232421875,84.958251953125,45.0,65.0,51.0,0.0,-20.0
32,50,100,60,go_to_color_detect_down,green,true,false,joint 3 +,false,2024-03-03 17:02:13.602917,16.424,0.156,235.0,131.68740844726562,282.404541015625,82.8031997680664,45.0,65.0,51.0,1.1199994087219238,-20.0
32,50,100,60,go_to_color_detect_down,green,true,false,joint 3 +,false,2024-03-03 17:02:14.297583,16.424,0.156,235.0,124.86368560791016,267.7710266113281,17.947479248046875,45.0,65.0,51.0,27.619998931884766,-20.0
32,50,100,60,go_to_color_detect_up_from_color_detect_down,green,true,false,joint 3 -,true,2024-03-03 17:02:15.686903,16.386,0.156,235.0,111.13883972167969,238.33799743652344,-24.284042358398438,45.0,65.0,51.0,48.0,-20.0
32,50,100,60,go_to_color_detect_up_from_color_detect_down,green,true,false,joint 3 -,true,2024-03-03 17:02:16.379980,17.393,0.156,235.0,124.2275619506836,266.4068603515625,15.086639404296875,45.0,65.0,51.0,27.87999725341797,-20.0
32,50,100,60,go_to_color_detect_up_from_color_detect_down,green,true,false,joint 3 -,true,2024-03-03 17:02:17.079640,22.576,0.156,235.0,131.66925048828125,282.3656005859375,80.80248260498047,45.0,65.0,51.0,1.2799969911575317,-20.0
32,50,100,60,go_to_blue_up,blue,true,false,joint 1 +,true,2024-03-03 17:02:18.464609,22.329,0.207,235.0,53.468421936035156,306.9932556152344,84.958251953125,60.12001037597656,80.62001037597656,51.0,0.0,-20.0
32,50,100,60,go_to_pick_up_from_blue,blue,true,false,joint 1 -,false,2024-03-03 17:02:19.158854,21.874,0.207,235.0,102.06873321533203,294.4243469238281,84.958251953125,50.87998962402344,70.37998962402344,51.0,0.0,-20.0
32,50,100,60,go_to_pick_up_from_blue,blue,true,false,joint 1 -,false,2024-03-03 17:02:20.562738,17.43,0.204,235.0,212.99761962890625,227.45494079589844,84.958251953125,26.879989624023438,46.37998962402344,51.0,0.0,-20.0
32,50,100,60,go_to_pick_up_from_blue,blue,true,false,joint 1 -,false,2024-03-03 17:02:21.254673,16.405,0.204,235.0,287.0972595214844,121.15648651123047,84.958251953125,2.8799896240234375,22.41999053955078,51.0,0.0,-20.0
32,50,100,60,moving_belt,blue,false,true,joint 1 -,false,2024-03-03 17:02:22.675331,16.405,0.156,235.0,292.8220520019531,106.5785140991211,84.958251953125,0.0,20.0,51.0,0.0,-20.0
32,50,100,60,moving_belt,blue,false,true,joint 1 -,false,2024-03-03 17:02:23.372001,16.405,0.156,235.0,292.8220520019531,106.5785140991211,84.958251953125,0.0,20.0,51.0,0.0,-20.0
32,50,100,60,moving_belt,blue,false,true,joint 1 -,false,2024-03-03 17:02:24.755366,16.424,0.157,235.0,292.8220520019531,106.5785140991211,84.958251953125,0.0,20.0,51.0,0.0,-20.0
32,50,100,60,moving_belt,blue,false,true,joint 1 -,false,2024-03-03 17:02:25.448810,16.424,0.157,235.0,292.8220520019531,106.5785140991211,84.958251953125,0.0,20.0,51.0,0.0,-20.0
32,50,100,60,go_to_pick_down,blue,true,false,joint 3 +,false,2024-03-03 17:02:26.139788,16.31,0.156,235.0,292.465087890625,106.4485855102539,74.3969497680664,0.0,20.0,51.0,4.619999885559082,-20.0
32,50,100,60,go_to_pick_up_from_pick_down,blue,true,false,joint 3 -,true,2024-03-03 17:02:27.529141,16.063,0.156,236.8,282.979248046875,102.99602508544922,30.462482452392578,0.0,20.0,51.0,21.599998474121094,-20.0
32,50,100,60,go_to_color_detect_up_from_pick_up,blue,true,false,joint 1 +,true,2024-03-03 17:02:28.228802,16.063,0.183,236.8,292.8220520019531,106.5785140991211,84.958251953125,0.0,20.0,51.0,0.0,-20.0
32,50,100,60,go_to_color_detect_up_from_pick_up,blue,true,false,joint 1 +,true,2024-03-03 17:02:29.615395,22.083,0.183,235.0,238.2906951904297,200.80160522460938,84.958251953125,20.12000274658203,40.62000274658203,51.0,0.0,-20.0
32,50,100,60,go_to_color_detect_up_from_pick_up,blue,true,false,joint 1 +,true,2024-03-03 17:02:29.615395,22.083,0.183,235.0,137.969970703125,279.4065246582031,84.958251953125,43.720001220703125,64.02000427246094,51.0,0.0,-20.0
32,50,100,60,go_to_color_detect_down,blue,true,false,joint 3 +,true,2024-03-03 17:02:31.516679,21.893,0.203,235.0,128.2669219970703,275.0693054199219,36.80873489379883,45.0,65.0,51.0,19.619998931884766,-20.0
32,50,100,60,go_to_color_detect_down,blue,true,false,joint 3 +,true,2024-03-03 17:02:32.208558,21.76,0.203,235.0,114.91561889648438,246.4373321533203,-15.520462036132812,45.0,65.0,51.0,43.619998931884766,-20.0
32,50,100,60,go_to_color_detect_up_from_color_detect_down,blue,true,false,joint 3 -,false,2024-03-03 17:02:33.593067,21.532,0.2,235.0,118.9352798461914,255.05751037597656,-4.2852325439453125,45.0,65.0,51.0,36.87999725341797,-20.0
32,50,100,60,go_to_color_detect_up_from_color_detect_down,blue,true,false,joint 3 -,false,2024-03-03 17:02:34.285752,16.785,0.2,235.0,130.6773681640625,280.2384948730469,58.472415924072266,45.0,65.0,51.0,9.879997253417969,-20.0
32,50,100,60,detecting_color,blue,false,false,detecting_color,false,2024-03-03 17:02:35.679657,16.785,0.158,235.0,131.69407653808594,282.4188232421875,84.958251953125,45.0,65.0,51.0,0.0,-20.0
32,50,100,60,go_to_color_detect_down,blue,true,false,joint 3 +,false,2024-03-03 17:02:36.404239,16.785,0.158,235.0,131.69407653808594,282.4188232421875,84.958251953125,45.0,65.0,51.0,0.039999980479478836,-20.0
32,50,100,60,go_to_color_detect_down,blue,true,false,joint 3 +,false,2024-03-03 17:02:37.119125,16.234,0.156,235.0,127.52101135253906,273.4696960449219,31.99085235595703,45.0,65.0,51.0,21.619998931884766,-20.0
32,50,100,60,go_to_color_detect_down,blue,true,false,joint 3 +,false,2024-03-03 17:02:38.511008,16.139,0.156,236.8,113.40601348876953,243.19998168945312,-19.203903198242188,45.0,65.0,51.0,45.57999801635742,-20.0
32,50,100,60,go_to_color_detect_up_from_color_detect_down,blue,true,false,joint 3 -,true,2024-03-03 17:02:39.200452,16.31,0.156,236.8,122.32291412353516,262.32232666015625,7.321388244628906,45.0,65.0,51.0,31.37999725341797,-20.0
32,50,100,60,go_to_color_detect_up_from_color_detect_down,blue,true,false,joint 3 -,true,2024-03-03 17:02:40.588315,22.899,0.156,235.0,131.10745239257812,281.16082763671875,64.80473327636719,45.0,65.0,51.0,7.379997253417969,-20.0
32,50,100,60,go_to_red_up,red,true,false,joint 1 +,true,2024-03-03 17:02:41.283987,22.348,0.205,235.0,90.48291778564453,298.1888122558594,84.958251953125,53.12001037597656,73.62001037597656,51.0,0.0,-20.0
32,50,100,60,go_to_red_up,red,true,false,joint 1 +,true,2024-03-03 17:02:42.676747,21.893,0.205,235.0,-54.75397872924805,306.7666015625,84.958251953125,80.12001037597656,100.62001037597656,51.0,0.0,-20.0
32,50,100,60,go_to_red_up,red,true,false,joint 1 +,true,2024-03-03 17:02:43.367446,21.893,0.202,235.0,-172.98822021484375,259.188720703125,84.958251953125,103.72000122070312,124.02000427246094,51.0,0.0,-20.0
32,50,100,60,go_to_pick_up_from_red,red,true,false,joint 1 -,false,2024-03-03 17:02:44.757693,17.563,0.202,235.0,-105.96495056152344,293.0446472167969,84.958251953125,89.87998962402344,109.37998962402344,51.0,0.0,-20.0
32,50,100,60,go_to_pick_up_from_red,red,true,false,joint 1 -,false,2024-03-03 17:02:44.757693,17.563,0.202,235.0,38.62400436401367,309.2117614746094,84.958251953125,62.87998962402344,82.37998962402344,51.0,0.0,-20.0
32,50,100,60,go_to_pick_up_from_red,red,true,false,joint 1 -,false,2024-03-03 17:02:46.676318,16.405,0.155,235.0,161.05255126953125,266.7691955566406,84.958251953125,38.87998962402344,58.37998962402344,51.0,0.0,-20.0
32,50,100,60,go_to_pick_up_from_red,red,true,false,joint 1 -,false,2024-03-03 17:02:47.370869,16.329,0.155,235.0,255.63363647460938,178.19981384277344,84.958251953125,14.879989624023438,34.37998962402344,51.0,0.0,-20.0
32,50,100,60,moving_belt,red,false,true,joint 1 -,false,2024-03-03 17:02:48.139295,16.329,0.155,235.0,292.8220520019531,106.5785140991211,84.958251953125,0.0,20.0,51.0,0.0,-20.0
32,50,100,60,moving_belt,red,false,true,joint 1 -,false,2024-03-03 17:02:49.622856,16.5,0.155,235.0,292.8220520019531,106.5785140991211,84.958251953125,0.0,20.0,51.0,0.0,-20.0
32,50,100,60,moving_belt,red,false,true,joint 1 -,false,2024-03-03 17:02:50.401260,16.5,0.156,235.0,292.8220520019531,106.5785140991211,84.958251953125,0.0,20.0,51.0,0.0,-20.0
32,50,100,60,moving_belt,red,false,true,joint 1 -,false,2024-03-03 17:02:51.237455,16.462,0.156,235.0,292.8220520019531,106.5785140991211,84.958251953125,0.0,20.0,51.0,0.0,-20.0
32,50,100,60,moving_belt,red,false,true,joint 1 -,false,2024-03-03 17:02:52.651476,16.443,0.157,235.0,292.8220520019531,106.5785140991211,84.958251953125,0.0,20.0,51.0,0.0,-20.0
32,50,100,60,go_to_pick_down,red,true,false,joint 3 +,false,2024-03-03 17:02:53.343358,16.443,0.157,235.0,289.48480224609375,105.36385345458984,52.84111785888672,0.0,20.0,51.0,13.119999885559082,-20.0
32,50,100,60,go_to_pick_up_from_pick_down,red,true,false,joint 3 -,true,2024-03-03 17:02:54.730738,17.355,0.155,235.0,288.78857421875,105.1104507446289,49.694549560546875,0.0,20.0,51.0,13.379997253417969,-20.0
32,50,100,60,go_to_color_detect_up_from_pick_up,red,true,false,joint 1 +,true,2024-03-03 17:02:55.425997,22.633,0.155,235.0,282.14239501953125,132.28529357910156,84.958251953125,5.120002746582031,25.62000274658203,51.0,0.0,-20.0
32,50,100,60,go_to_color_detect_up_from_pick_up,red,true,false,joint 1 +,true,2024-03-03 17:02:56.133071,22.633,0.155,235.0,203.9446258544922,235.6062774658203,84.958251953125,29.12000274658203,49.62000274658203,51.0,0.0,-20.0
32,50,100,60,go_to_color_detect_down,red,true,false,joint 3 +,true,2024-03-03 17:02:57.527412,21.817,0.203,236.8,131.60198974609375,282.2213439941406,76.95743560791016,45.0,65.0,51.0,3.6199984550476074,-20.0
32,50,100,60,go_to_color_detect_down,red,true,false,joint 3 +,true,2024-03-03 17:02:58.220091,21.817,0.203,236.8,124.86368560791016,267.7710266113281,17.947479248046875,45.0,65.0,51.0,27.619998931884766,-20.0
32,50,100,60,go_to_color_detect_up_from_color_detect_down,red,true,false,joint 3 -,false,2024-03-03 17:02:59.440993,21.817,0.2,236.8,111.13883972167969,238.33799743652344,-24.284042358398438,45.0,65.0,51.0,48.0,-20.0
32,50,100,60,go_to_color_detect_up_from_color_detect_down,red,true,false,joint 3 -,false,2024-03-03 17:03:00.132223,21.057,0.2,236.8,125.69808197021484,269.5603942871094,21.951148986816406,45.0,65.0,51.0,24.87999725341797,-20.0
32,50,100,60,go_to_color_detect_up_from_color_detect_down,red,true,false,joint 3 -,false,2024-03-03 17:03:01.532942,16.5,0.158,236.8,131.65623474121094,282.3376770019531,79.82803344726562,45.0,65.0,51.0,1.6199970245361328,-20.0
32,50,100,60,detecting_color,red,false,false,detecting_color,false,2024-03-03 17:03:02.233606,16.5,0.158,235.0,131.69407653808594,282.4188232421875,84.958251953125,45.0,65.0,51.0,0.0,-20.0
32,50,100,60,detecting_color,red,false,false,detecting_color,false,2024-03-03 17:03:03.215333,16.519,0.158,235.0,131.69407653808594,282.4188232421875,84.958251953125,45.0,65.0,51.0,0.0,-20.0
32,50,100,60,detecting_color,red,false,false,detecting_color,false,2024-03-03 17:03:04.602693,16.272,0.155,235.0,131.69407653808594,282.4188232421875,84.958251953125,45.0,65.0,51.0,0.0,-20.0
32,50,100,60,detecting_color,red,false,false,detecting_color,false,2024-03-03 17:03:05.303358,16.348,0.155,235.0,131.69407653808594,282.4188232421875,84.958251953125,45.0,65.0,51.0,0.0,-20.0
32,50,100,60,go_to_color_detect_down,red,true,false,joint 3 +,false,2024-03-03 17:03:06.686327,16.367,0.155,235.0,130.07241821289062,278.9411926269531,51.590538024902344,45.0,65.0,51.0,13.619998931884766,-20.0
32,50,100,60,go_to_color_detect_down,red,true,false,joint 3 +,false,2024-03-03 17:03:07.417571,16.367,0.155,235.0,117.07587432861328,251.07000732421875,-9.767173767089844,45.0,65.0,51.0,40.619998931884766,-20.0
32,50,100,60,go_to_color_detect_up_from_color_detect_down,red,true,false,joint 3 -,true,2024-03-03 17:03:08.128196,16.272,0.155,235.0,116.89373016357422,250.6793975830078,-10.276283264160156,45.0,65.0,51.0,39.87999725341797,-20.0
32,50,100,60,go_to_color_detect_up_from_color_detect_down,red,true,false,joint 3 -,true,2024-03-03 17:03:09.527791,18.551,0.155,235.0,129.17259216308594,277.0115051269531,43.503292083740234,45.0,65.0,51.0,15.879997253417969,-20.0
32,50,100,60,go_to_green_up,green,true,false,joint 1 +,true,2024-03-03 17:03:10.644665,22.443,0.206,235.0,116.12750244140625,289.1679992675781,84.958251953125,48.12001037597656,68.62001037597656,51.0,0.0,-20.0
32,50,100,60,go_to_green_up,green,true,false,joint 1 +,true,2024-03-03 17:03:11.336352,22.234,0.206,235.0,-11.527481079101562,311.40142822265625,84.958251953125,72.12001037597656,92.62001037597656,51.0,0.0,-20.0
32,50,100,60,go_to_pick_up_from_green,green,true,false,joint 1 -,false,2024-03-03 17:03:12.726468,21.95,0.203,235.0,-61.486263275146484,305.4884338378906,84.958251953125,81.37998962402344,100.87998962402344,51.0,0.0,-20.0
32,50,100,60,go_to_pick_up_from_green,green,true,false,joint 1 -,false,2024-03-03 17:03:13.425843,21.95,0.203,235.0,83.90420532226562,300.1063537597656,84.958251953125,54.37998962402344,73.87998962402344,51.0,0.0,-20.0
32,50,100,60,go_to_pick_up_from_green,green,true,false,joint 1 -,false,2024-03-03 17:03:14.119163,16.291,0.155,235.0,198.71453857421875,240.0338897705078,84.958251953125,30.379989624023438,49.87998962402344,51.0,0.0,-20.0
32,50,100,60,go_to_pick_up_from_green,green,true,false,joint 1 -,false,2024-03-03 17:03:14.813894,16.5,0.155,235.0,279.16534423828125,138.45738220214844,84.958251953125,6.3799896240234375,25.879989624023438,51.0,0.0,-20.0
32,50,100,60,moving_belt,green,false,true,joint 1 -,false,2024-03-03 17:03:16.764178,16.424,0.156,235.0,292.8220520019531,106.5785140991211,84.958251953125,0.0,20.0,51.0,0.0,-20.0
32,50,100,60,moving_belt,green,false,true,joint 1 -,false,2024-03-03 17:03:17.499505,16.462,0.156,235.0,292.8220520019531,106.5785140991211,84.958251953125,0.0,20.0,51.0,0.0,-20.0
32,50,100,60,moving_belt,green,false,true,joint 1 -,false,2024-03-03 17:03:18.192196,16.462,0.156,235.0,292.8220520019531,106.5785140991211,84.958251953125,0.0,20.0,51.0,0.0,-20.0
32,50,100,60,moving_belt,green,false,true,joint 1 -,false,2024-03-03 17:03:19.603079,16.367,0.156,235.0,292.8220520019531,106.5785140991211,84.958251953125,0.0,20.0,51.0,0.0,-20.0
32,50,100,60,go_to_pick_down,green,true,false,joint 3 +,false,2024-03-03 17:03:20.464405,16.329,0.156,235.0,292.795654296875,106.56890869140625,82.08492279052734,0.0,20.0,51.0,1.440000057220459,-20.0
32,50,100,60,go_to_pick_up_from_pick_down,green,true,false,joint 3 -,true,2024-03-03 17:03:21.187574,16.196,0.156,235.0,282.8717041015625,102.9568862915039,30.17666244506836,0.0,20.0,51.0,21.759998321533203,-20.0
32,50,100,60,go_to_pick_up_from_pick_down,green,true,false,joint 3 -,true,2024-03-03 17:03:22.577153,17.601,0.156,235.0,292.8111572265625,106.57454681396484,83.11105346679688,0.0,20.0,51.0,0.49999701976776123,-20.0
32,50,100,60,go_to_color_detect_up_from_pick_up,green,true,false,joint 1 +,true,2024-03-03 17:03:23.269437,22.614,0.212,235.0,251.7174072265625,183.69015502929688,84.958251953125,16.12000274658203,36.62000274658203,51.0,0.0,-20.0
32,50,100,60,go_to_color_detect_up_from_pick_up,green,true,false,joint 1 +,true,2024-03-03 17:03:24.677931,22.253,0.212,235.0,141.4701385498047,277.6507263183594,84.958251953125,43.0,63.380001068115234,51.0,0.0,-20.0
32,50,100,60,go_to_color_detect_down,green,true,false,joint 3 +,true,2024-03-03 17:03:25.382167,22.007,0.203,235.0,129.8170928955078,278.3936462402344,49.097084045410156,45.0,65.0,51.0,14.619998931884766,-20.0
32,50,100,60,go_to_color_detect_down,green,true,false,joint 3 +,true,2024-03-03 17:03:26.781688,21.912,0.203,235.0,118.10752868652344,253.2823944091797,-6.792144775390625,45.0,65.0,51.0,39.119998931884766,-20.0
32,50,100,60,go_to_color_detect_up_from_color_detect_down,green,true,false,joint 3 -,false,2024-03-03 17:03:27.472006,21.912,0.2,235.0,118.26951599121094,253.62979125976562,-6.310249328613281,45.0,65.0,51.0,37.87999725341797,-20.0
32,50,100,60,go_to_color_detect_up_from_color_detect_down,green,true,false,joint 3 -,false,2024-03-03 17:03:28.163270,21.266,0.2,235.0,129.74771118164062,278.2448425292969,48.4505500793457,45.0,65.0,51.0,13.879997253417969,-20.0
32,50,100,60,detecting_color,green,false,false,detecting_color,false,2024-03-03 17:03:29.551263,16.823,0.159,235.0,131.69407653808594,282.4188232421875,84.958251953125,45.0,65.0,51.0,0.0,-20.0
32,50,100,60,detecting_color,green,false,false,detecting_color,false,2024-03-03 17:03:30.244954,16.576,0.159,235.0,131.69407653808594,282.4188232421875,84.958251953125,45.0,65.0,51.0,0.0,-20.0
32,50,100,60,go_to_color_detect_down,green,true,false,joint 3 +,false,2024-03-03 17:03:31.638651,16.405,0.156,235.0,130.30931091308594,279.44921875,54.094154357910156,45.0,65.0,51.0,12.619998931884766,-20.0
32,50,100,60,go_to_color_detect_down,green,true,false,joint 3 +,false,2024-03-03 17:03:32.328933,16.405,0.156,235.0,119.75267791748047,256.8104248046875,-1.695068359375,45.0,65.0,51.0,36.619998931884766,-20.0
32,50,100,60,go_to_color_detect_up_from_color_detect_down,green,true,false,joint 3 -,true,2024-03-03 17:03:33.729461,17.506,0.161,235.0,116.54068756103516,249.92230224609375,-11.249855041503906,45.0,65.0,51.0,40.37999725341797,-20.0
32,50,100,60,go_to_color_detect_up_from_color_detect_down,green,true,false,joint 3 -,true,2024-03-03 17:03:34.447061,17.506,0.161,235.0,129.01742553710938,276.6787414550781,42.27413558959961,45.0,65.0,51.0,16.37999725341797,-20.0
32,50,100,60,go_to_blue_up,blue,true,false,joint 1 +,true,2024-03-03 17:03:35.155261,22.652,0.161,235.0,129.7191619873047,283.3313903808594,84.958251953125,45.40000915527344,65.60000610351562,51.0,0.0,-20.0
32,50,100,60,go_to_pick_up_from_blue,blue,true,false,joint 1 -,false,2024-03-03 17:03:36.536819,21.969,0.205,235.0,28.459104537963867,310.31243896484375,84.958251953125,64.75999450683594,84.59999084472656,51.0,0.0,-20.0
32,50,100,60,go_to_pick_up_from_blue,blue,true,false,joint 1 -,false,2024-03-03 17:03:37.232500,21.969,0.205,235.0,144.46627807617188,276.1036376953125,84.958251953125,42.37998962402344,61.87998962402344,51.0,0.0,-20.0
32,50,100,60,go_to_pick_up_from_blue,blue,true,false,joint 1 -,false,2024-03-03 17:03:38.643555,16.595,0.156,235.0,244.2779998779297,193.47349548339844,84.958251953125,18.379989624023438,37.87998962402344,51.0,0.0,-20.0
32,50,100,60,moving_belt,blue,false,true,joint 1 -,false,2024-03-03 17:03:39.437497,16.595,0.156,235.0,292.8220520019531,106.5785140991211,84.958251953125,0.0,20.0,51.0,0.0,-20.0
32,50,100,60,moving_belt,blue,false,true,joint 1 -,false,2024-03-03 17:03:40.132752,16.462,0.156,235.0,292.8220520019531,106.5785140991211,84.958251953125,0.0,20.0,51.0,0.0,-20.0
32,50,100,60,moving_belt,blue,false,true,joint 1 -,false,2024-03-03 17:03:41.520900,16.462,0.156,235.0,292.8220520019531,106.5785140991211,84.958251953125,0.0,20.0,51.0,0.0,-20.0
32,50,100,60,moving_belt,blue,false,true,joint 1 -,false,2024-03-03 17:03:42.219012,16.462,0.156,235.0,292.8220520019531,106.5785140991211,84.958251953125,0.0,20.0,51.0,0.0,-20.0
32,50,100,60,moving_belt,blue,false,true,joint 1 -,false,2024-03-03 17:03:43.603858,16.462,0.154,235.0,292.8220520019531,106.5785140991211,84.958251953125,0.0,20.0,51.0,0.0,-20.0
32,50,100,60,go_to_pick_down,blue,true,false,joint 3 +,false,2024-03-03 17:03:44.295553,16.462,0.154,235.0,289.7430419921875,105.45784759521484,54.094154357910156,0.0,20.0,51.0,12.619999885559082,-20.0
32,50,100,60,go_to_pick_up_from_pick_down,blue,true,false,joint 3 -,true,2024-03-03 17:03:45.717980,15.949,0.155,235.0,289.61004638671875,105.40943908691406,53.442283630371094,0.0,20.0,51.0,11.879997253417969,-20.0
32,50,100,60,go_to_color_detect_up_from_pick_up,blue,true,false,joint 1 +,true,2024-03-03 17:03:46.414245,23.051,0.155,235.0,284.4081115722656,127.3410873413086,84.958251953125,4.120002746582031,24.62000274658203,51.0,0.0,-20.0
32,50,100,60,go_to_color_detect_up_from_pick_up,blue,true,false,joint 1 +,true,2024-03-03 17:03:47.107524,22.31,0.204,235.0,208.02545166015625,232.01109313964844,84.958251953125,28.12000274658203,48.62000274658203,51.0,0.0,-20.0
32,50,100,60,go_to_color_detect_down,blue,true,false,joint 3 +,true,2024-03-03 17:03:48.499996,22.272,0.204,235.0,131.64828491210938,282.3206481933594,79.31524658203125,45.0,65.0,51.0,2.6399986743927,-20.0
32,50,100,60,go_to_color_detect_down,blue,true,false,joint 3 +,true,2024-03-03 17:03:49.197663,22.14,0.203,235.0,125.3495101928711,268.8128662109375,20.241119384765625,45.0,65.0,51.0,26.619998931884766,-20.0
32,50,100,60,go_to_color_detect_up_from_color_detect_down,blue,true,false,joint 3 -,false,2024-03-03 17:03:50.604738,22.007,0.203,235.0,111.20327758789062,238.47618103027344,-24.14659881591797,45.0,65.0,51.0,47.97999954223633,-20.0
32,50,100,60,go_to_color_detect_up_from_color_detect_down,blue,true,false,joint 3 -,false,2024-03-03 17:03:51.300412,22.007,0.202,235.0,125.22481536865234,268.54547119140625,19.642852783203125,45.0,65.0,51.0,25.87999725341797,-20.0
32,50,100,60,go_to_color_detect_up_from_color_detect_down,blue,true,false,joint 3 -,false,2024-03-03 17:03:52.719938,16.823,0.202,235.0,131.638671875,282.3000183105469,78.75127410888672,45.0,65.0,51.0,1.9999971389770508,-20.0
32,50,100,60,detecting_color,blue,false,false,detecting_color,false,2024-03-03 17:03:53.421190,16.823,0.16,235.0,131.69407653808594,282.4188232421875,84.958251953125,45.0,65.0,51.0,0.0,-20.0
32,50,100,60,go_to_color_detect_down,blue,true,false,joint 3 +,false,2024-03-03 17:03:54.810012,16.595,0.16,235.0,131.62814331054688,282.2774353027344,78.1873779296875,45.0,65.0,51.0,3.1199984550476074,-20.0
32,50,100,60,go_to_color_detect_down,blue,true,false,joint 3 +,false,2024-03-03 17:03:55.546275,16.462,0.156,235.0,125.10870361328125,268.2964782714844,19.09178924560547,45.0,65.0,51.0,27.119998931884766,-20.0
32,50,100,60,go_to_color_detect_up_from_color_detect_down,blue,true,false,joint 3 -,true,2024-03-03 17:03:56.251913,16.462,0.156,235.0,111.15496063232422,238.37257385253906,-24.24969482421875,45.0,65.0,51.0,48.0,-20.0
32,50,100,60,go_to_color_detect_up_from_color_detect_down,blue,true,false,joint 3 -,true,2024-03-03 17:03:57.643451,23.089,0.213,235.0,125.22481536865234,268.54547119140625,19.642852783203125,45.0,65.0,51.0,25.87999725341797,-20.0
32,50,100,60,go_to_color_detect_up_from_color_detect_down,blue,true,false,joint 3 -,true,2024-03-03 17:03:58.337696,22.614,0.213,235.0,131.638671875,282.3000183105469,78.75127410888672,45.0,65.0,51.0,1.9999971389770508,-20.0
32,50,100,60,go_to_red_up,red,true,false,joint 1 +,true,2024-03-03 17:03:59.724690,22.481,0.204,235.0,61.486236572265625,305.4884338378906,84.958251953125,58.62001037597656,79.12001037597656,51.0,0.0,-20.0
32,50,100,60,go_to_red_up,red,true,false,joint 1 +,true,2024-03-03 17:04:00.420694,22.272,0.204,235.0,-83.90419006347656,300.1063537597656,84.958251953125,85.62001037597656,106.12001037597656,51.0,0.0,-20.0
32,50,100,60,go_to_pick_up_from_red,red,true,false,joint 1 -,false,2024-03-03 17:04:01.810037,22.348,0.205,235.0,-178.73486328125,255.2598114013672,84.958251953125,105.0,124.95999908447266,51.0,0.0,-20.0
32,50,100,60,go_to_pick_up_from_red,red,true,false,joint 1 -,false,2024-03-03 17:04:02.505784,22.045,0.205,235.0,-74.75296020507812,302.51568603515625,84.958251953125,83.87998962402344,103.37998962402344,51.0,0.0,-20.0
32,50,100,60,go_to_pick_up_from_red,red,true,false,joint 1 -,false,2024-03-03 17:04:03.199426,16.576,0.205,235.0,70.73384857177734,303.4805603027344,84.958251953125,56.87998962402344,76.37998962402344,51.0,0.0,-20.0
32,50,100,60,go_to_pick_up_from_red,red,true,false,joint 1 -,false,2024-03-03 17:04:04.588498,16.405,0.157,235.0,188.0552520751953,248.47325134277344,84.958251953125,32.87998962402344,52.37998962402344,51.0,0.0,-20.0
32,50,100,60,go_to_pick_up_from_red,red,true,false,joint 1 -,false,2024-03-03 17:04:05.282438,16.405,0.157,235.0,272.8601989746094,150.50262451171875,84.958251953125,8.879989624023438,28.379989624023438,51.0,0.0,-20.0
32,50,100,60,moving_belt,red,false,true,joint 1 -,false,2024-03-03 17:04:06.677182,16.538,0.157,235.0,292.8220520019531,106.5785140991211,84.958251953125,0.0,20.0,51.0,0.0,-20.0
32,50,100,60,moving_belt,red,false,true,joint 1 -,false,2024-03-03 17:04:07.374259,16.576,0.157,236.8,292.8220520019531,106.5785140991211,84.958251953125,0.0,20.0,51.0,0.0,-20.0
32,50,100,60,moving_belt,red,false,true,joint 1 -,false,2024-03-03 17:04:08.766360,16.291,0.153,236.8,292.8220520019531,106.5785140991211,84.958251953125,0.0,20.0,51.0,0.0,-20.0
32,50,100,60,moving_belt,red,false,true,joint 1 -,false,2024-03-03 17:04:09.500111,16.462,0.153,236.8,292.8220520019531,106.5785140991211,84.958251953125,0.0,20.0,51.0,0.0,-20.0
32,50,100,60,go_to_pick_down,red,true,false,joint 3 +,false,2024-03-03 17:04:10.355777,16.462,0.153,236.8,292.822021484375,106.57849884033203,84.85562896728516,0.0,20.0,51.0,0.11999999731779099,-20.0
32,50,100,60,go_to_pick_down,red,true,false,joint 3 +,false,2024-03-03 17:04:11.154874,16.31,0.154,236.8,282.78167724609375,102.92411041259766,29.938671112060547,0.0,20.0,51.0,21.999996185302734,-20.0
32,50,100,60,go_to_pick_up_from_pick_down,red,true,false,joint 3 -,true,2024-03-03 17:04:12.732192,16.291,0.212,235.0,292.5817565917969,106.49105834960938,76.29144287109375,0.0,20.0,51.0,2.8799972534179688,-20.0
32,50,100,60,go_to_color_detect_up_from_pick_up,red,true,false,joint 1 +,true,2024-03-03 17:04:13.427494,23.07,0.212,235.0,260.9860534667969,170.26454162597656,84.958251953125,13.120002746582031,33.62000274658203,51.0,0.0,-20.0
32,50,100,60,go_to_color_detect_up_from_pick_up,red,true,false,joint 1 +,true,2024-03-03 17:04:14.813453,22.064,0.203,236.8,155.2417755126953,270.1919860839844,84.958251953125,40.12000274658203,60.62000274658203,51.0,0.0,-20.0
32,50,100,60,go_to_color_detect_down,red,true,false,joint 3 +,true,2024-03-03 17:04:15.512307,22.064,0.203,236.8,130.5277099609375,279.91754150390625,56.607173919677734,45.0,65.0,51.0,11.619998931884766,-20.0
32,50,100,60,go_to_color_detect_down,red,true,false,joint 3 +,true,2024-03-03 17:04:16.209211,21.912,0.203,235.0,120.38417053222656,258.1646728515625,0.3905029296875,45.0,65.0,51.0,35.619998931884766,-20.0
32,50,100,60,go_to_color_detect_up_from_color_detect_down,red,true,false,joint 3 -,false,2024-03-03 17:04:17.632441,21.779,0.202,235.0,115.82393646240234,248.38522338867188,-13.174934387207031,45.0,65.0,51.0,41.37999725341797,-20.0
32,50,100,60,go_to_color_detect_up_from_color_detect_down,red,true,false,joint 3 -,false,2024-03-03 17:04:18.332733,21.779,0.202,235.0,128.69354248046875,275.98419189453125,39.82566833496094,45.0,65.0,51.0,17.37999725341797,-20.0
32,50,100,60,detecting_color,red,false,false,detecting_color,false,2024-03-03 17:04:19.714054,16.728,0.159,235.0,131.69407653808594,282.4188232421875,84.958251953125,45.0,65.0,51.0,0.0,-20.0
32,50,100,60,detecting_color,red,false,false,detecting_color,false,2024-03-03 17:04:20.421337,16.747,0.159,235.0,131.69407653808594,282.4188232421875,84.958251953125,45.0,65.0,51.0,0.0,-20.0
32,50,100,60,go_to_color_detect_down,red,true,false,joint 3 +,false,2024-03-03 17:04:21.807320,16.272,0.156,235.0,131.5335235595703,282.0745544433594,74.3969497680664,45.0,65.0,51.0,4.619998455047607,-20.0
32,50,100,60,go_to_color_detect_down,red,true,false,joint 3 +,false,2024-03-03 17:04:22.502396,16.272,0.156,235.0,124.36100006103516,266.6929931640625,15.674247741699219,45.0,65.0,51.0,28.619998931884766,-20.0
32,50,100,60,go_to_color_detect_up_from_color_detect_down,red,true,false,joint 3 -,true,2024-03-03 17:04:23.204168,16.272,0.156,235.0,111.33187866210938,238.75196838378906,-23.871063232421875,45.0,65.0,51.0,47.599998474121094,-20.0
32,50,100,60,go_to_color_detect_up_from_color_detect_down,red,true,false,joint 3 -,true,2024-03-03 17:04:24.586700,23.146,0.157,235.0,125.69808197021484,269.5603942871094,21.951148986816406,45.0,65.0,51.0,24.87999725341797,-20.0
32,50,100,60,go_to_color_detect_up_from_color_detect_down,red,true,false,joint 3 -,true,2024-03-03 17:04:25.278504,23.146,0.157,235.0,131.66925048828125,282.3656005859375,80.80248260498047,45.0,65.0,51.0,1.2799969911575317,-20.0
32,50,100,60,go_to_green_up,green,true,false,joint 1 +,true,2024-03-03 17:04:26.764717,22.007,0.207,235.0,37.328338623046875,309.3708801269531,84.958251953125,63.12001037597656,83.62001037597656,51.0,0.0,-20.0
32,50,100,60,go_to_green_up,green,true,false,joint 1 +,false,2024-03-03 17:04:27.480314,22.045,0.207,235.0,-80.23149108886719,301.1090393066406,84.958251953125,84.92000579833984,104.9800033569336,51.0,0.0,-20.0
32,50,100,60,go_to_pick_up_from_green,green,true,false,joint 1 -,false,2024-03-03 17:04:28.180981,21.209,0.205,235.0,16.960407257080078,311.15283203125,84.958251953125,66.87998962402344,86.37998962402344,51.0,0.0,-20.0
32,50,100,60,go_to_pick_up_from_green,green,true,false,joint 1 -,false,2024-03-03 17:04:29.572531,16.348,0.205,235.0,156.37228393554688,269.539306640625,84.958251953125,39.87998962402344,59.37998962402344,51.0,0.0,-20.0
32,50,100,60,go_to_pick_up_from_green,green,true,false,joint 1 -,false,2024-03-03 17:04:30.263221,16.348,0.157,235.0,252.48468017578125,182.63409423828125,84.958251953125,15.879989624023438,35.37998962402344,51.0,0.0,-20.0
32,50,100,60,moving_belt,green,false,true,joint 1 -,false,2024-03-03 17:04:31.778336,16.405,0.157,235.0,292.8220520019531,106.5785140991211,84.958251953125,0.0,20.0,51.0,0.0,-20.0
32,50,100,60,moving_belt,green,false,true,joint 1 -,false,2024-03-03 17:04:32.470235,16.443,0.16,235.0,292.8220520019531,106.5785140991211,84.958251953125,0.0,20.0,51.0,0.0,-20.0
32,50,100,60,moving_belt,green,false,true,joint 1 -,false,2024-03-03 17:04:33.159920,16.215,0.16,235.0,292.8220520019531,106.5785140991211,84.958251953125,0.0,20.0,51.0,0.0,-20.0
32,50,100,60,moving_belt,green,false,true,joint 1 -,false,2024-03-03 17:04:34.552644,16.69,0.158,235.0,292.8220520019531,106.5785140991211,84.958251953125,0.0,20.0,51.0,0.0,-20.0
32,50,100,60,moving_belt,green,false,true,joint 1 -,false,2024-03-03 17:04:35.248326,16.69,0.158,235.0,292.8220520019531,106.5785140991211,84.958251953125,0.0,20.0,51.0,0.0,-20.0
32,50,100,60,go_to_pick_down,green,true,false,joint 3 +,false,2024-03-03 17:04:36.639248,16.044,0.158,235.0,288.34942626953125,104.95060729980469,47.85440444946289,0.0,20.0,51.0,15.119999885559082,-20.0
32,50,100,60,go_to_pick_up_from_pick_down,green,true,false,joint 3 -,true,2024-03-03 17:04:37.336279,16.177,0.155,235.0,290.7734069824219,105.83287048339844,59.7352294921875,0.0,20.0,51.0,9.379997253417969,-20.0
32,50,100,60,go_to_color_detect_up_from_pick_up,green,true,false,joint 1 +,true,2024-03-03 17:04:38.757292,23.013,0.155,235.0,277.35382080078125,142.05133056640625,84.958251953125,7.120002746582031,27.62000274658203,51.0,0.0,-20.0
32,50,100,60,go_to_color_detect_up_from_pick_up,green,true,false,joint 1 +,true,2024-03-03 17:04:39.445657,22.196,0.204,235.0,195.59783935546875,242.580322265625,84.958251953125,31.12000274658203,51.62000274658203,51.0,0.0,-20.0
32,50,100,60,go_to_color_detect_down,green,true,false,joint 3 +,true,2024-03-03 17:04:40.831377,22.121,0.204,235.0,131.3954620361328,281.7784729003906,70.5625,45.0,65.0,51.0,6.119998455047607,-20.0
32,50,100,60,go_to_color_detect_down,green,true,false,joint 3 +,true,2024-03-03 17:04:41.531309,22.121,0.203,235.0,123.57574462890625,265.009033203125,12.304183959960938,45.0,65.0,51.0,30.119998931884766,-20.0
32,50,100,60,go_to_color_detect_up_from_color_detect_down,green,true,false,joint 3 -,false,2024-03-03 17:04:42.222602,21.893,0.203,235.0,111.23545837402344,238.54519653320312,-24.077789306640625,45.0,65.0,51.0,47.7599983215332,-20.0
32,50,100,60,go_to_color_detect_up_from_color_detect_down,green,true,false,joint 3 -,false,2024-03-03 17:04:43.616612,16.804,0.196,235.0,126.80616760253906,271.9366760253906,27.804309844970703,45.0,65.0,51.0,22.37999725341797,-20.0
32,50,100,60,go_to_color_detect_up_from_color_detect_down,green,true,false,joint 3 -,false,2024-03-03 17:04:44.308681,16.804,0.196,235.0,131.69309997558594,282.416748046875,84.13726043701172,45.0,65.0,51.0,0.17999620735645294,-20.0
32,50,100,60,detecting_color,green,false,false,detecting_color,false,2024-03-03 17:04:45.691809,16.842,0.158,235.0,131.69407653808594,282.4188232421875,84.958251953125,45.0,65.0,51.0,0.0,-20.0
32,50,100,60,go_to_color_detect_down,green,true,false,joint 3 +,false,2024-03-03 17:04:46.382495,16.196,0.158,235.0,130.99232482910156,280.9139099121094,62.92582321166992,45.0,65.0,51.0,9.119998931884766,-20.0
32,50,100,60,go_to_color_detect_down,green,true,false,joint 3 +,false,2024-03-03 17:04:47.763479,16.215,0.156,235.0,121.8947525024414,261.40411376953125,5.715721130371094,45.0,65.0,51.0,33.119998931884766,-20.0
32,50,100,60,go_to_color_detect_up_from_color_detect_down,green,true,false,joint 3 -,true,2024-03-03 17:04:48.460731,16.386,0.156,235.0,114.34838104248047,245.22088623046875,-16.934837341308594,45.0,65.0,51.0,43.37999725341797,-20.0
32,50,100,60,go_to_color_detect_up_from_color_detect_down,green,true,false,joint 3 -,true,2024-03-03 17:04:49.159995,16.386,0.156,235.0,127.99186706542969,274.47943115234375,34.9707145690918,45.0,65.0,51.0,19.37999725341797,-20.0
32,50,100,60,go_to_blue_up,blue,true,false,joint 1 +,true,2024-03-03 17:04:50.560482,22.386,0.21,235.0,131.69407653808594,282.4188232421875,84.958251953125,45.0,65.04000091552734,51.0,0.0,-20.0
32,50,100,60,go_to_pick_up_from_blue,blue,true,false,joint 1 -,false,2024-03-03 17:04:51.254966,22.386,0.21,235.0,27.159029006958008,310.4289245605469,84.958251953125,65.0,84.95999908447266,51.0,0.0,-20.0
32,50,100,60,go_to_pick_up_from_blue,blue,true,false,joint 1 -,false,2024-03-03 17:04:52.654286,19.899,0.205,235.0,134.74241638183594,280.97723388671875,84.958251953125,44.37998962402344,63.87998962402344,51.0,0.0,-20.0
32,50,100,60,go_to_pick_up_from_blue,blue,true,false,joint 1 -,false,2024-03-03 17:04:53.404767,19.899,0.205,235.0,237.3770751953125,201.8808135986328,84.958251953125,20.379989624023438,39.87998962402344,51.0,0.0,-20.0
32,50,100,60,moving_belt,blue,false,true,joint 1 -,false,2024-03-03 17:04:54.798936,16.405,0.157,235.0,292.8220520019531,106.5785140991211,84.958251953125,0.0,20.0,51.0,0.0,-20.0
32,50,100,60,moving_belt,blue,false,true,joint 1 -,false,2024-03-03 17:04:55.492607,16.405,0.157,235.0,292.8220520019531,106.5785140991211,84.958251953125,0.0,20.0,51.0,0.0,-20.0
32,50,100,60,moving_belt,blue,false,true,joint 1 -,false,2024-03-03 17:04:56.183104,16.652,0.156,235.0,292.8220520019531,106.5785140991211,84.958251953125,0.0,20.0,51.0,0.0,-20.0
32,50,100,60,moving_belt,blue,false,true,joint 1 -,false,2024-03-03 17:04:57.634250,16.5,0.156,235.0,292.8220520019531,106.5785140991211,84.958251953125,0.0,20.0,51.0,0.0,-20.0
32,50,100,60,moving_belt,blue,false,true,joint 1 -,false,2024-03-03 17:04:58.328926,16.5,0.157,235.0,292.8220520019531,106.5785140991211,84.958251953125,0.0,20.0,51.0,0.0,-20.0
32,50,100,60,go_to_pick_down,blue,true,false,joint 3 +,false,2024-03-03 17:04:59.717870,16.329,0.157,235.0,290.4559631347656,105.71732330322266,57.866966247558594,0.0,20.0,51.0,11.119999885559082,-20.0
32,50,100,60,go_to_pick_up_from_pick_down,blue,true,false,joint 3 -,true,2024-03-03 17:05:00.409108,16.329,0.157,235.0,288.4942932128906,105.00334167480469,48.4505500793457,0.0,20.0,51.0,13.879997253417969,-20.0
32,50,100,60,go_to_color_detect_up_from_pick_up,blue,true,false,joint 1 +,true,2024-03-03 17:05:01.792270,22.367,0.157,235.0,288.514892578125,117.74076843261719,84.958251953125,2.200002670288086,22.640003204345703,51.0,0.0,-20.0
32,50,100,60,go_to_color_detect_up_from_pick_up,blue,true,false,joint 1 +,true,2024-03-03 17:05:02.485100,22.367,0.157,235.0,215.99578857421875,224.60977172851562,84.958251953125,26.12000274658203,46.62000274658203,51.0,0.0,-20.0
32,50,100,60,go_to_color_detect_down,blue,true,false,joint 3 +,true,2024-03-03 17:05:03.184760,22.083,0.204,235.0,131.6822052001953,282.3934020996094,82.08492279052734,45.0,65.0,51.0,1.4399992227554321,-20.0
32,50,100,60,go_to_color_detect_down,blue,true,false,joint 3 +,true,2024-03-03 17:05:04.576097,21.779,0.204,235.0,126.04634857177734,270.3072509765625,23.718326568603516,45.0,65.0,51.0,25.119998931884766,-20.0
32,50,100,60,go_to_color_detect_down,blue,true,false,joint 3 +,true,2024-03-03 17:05:05.293302,21.779,0.203,235.0,111.54015350341797,239.19862365722656,-23.421524047851562,45.0,65.0,51.0,47.68000030517578,-20.0
32,50,100,60,go_to_color_detect_up_from_color_detect_down,blue,true,false,joint 3 -,false,2024-03-03 17:05:06.727441,19.31,0.203,235.0,124.2275619506836,266.4068603515625,15.086639404296875,45.0,65.0,51.0,27.87999725341797,-20.0
32,50,100,60,go_to_color_detect_up_from_color_detect_down,blue,true,false,joint 3 -,false,2024-03-03 17:05:07.418942,19.31,0.16,235.0,131.51263427734375,282.02972412109375,73.73171997070312,45.0,65.0,51.0,3.8799972534179688,-20.0
32,50,100,60,detecting_color,blue,false,false,detecting_color,false,2024-03-03 17:05:08.136533,16.842,0.16,235.0,131.69407653808594,282.4188232421875,84.958251953125,45.0,65.0,51.0,0.0,-20.0
32,50,100,60,go_to_color_detect_down,blue,true,false,joint 3 +,false,2024-03-03 17:05:09.566792,16.348,0.157,235.0,131.60198974609375,282.2213439941406,76.95743560791016,45.0,65.0,51.0,3.6199984550476074,-20.0
32,50,100,60,go_to_color_detect_down,blue,true,false,joint 3 +,false,2024-03-03 17:05:10.263178,16.367,0.157,235.0,124.86368560791016,267.7710266113281,17.947479248046875,45.0,65.0,51.0,27.619998931884766,-20.0
32,50,100,60,go_to_color_detect_up_from_color_detect_down,blue,true,false,joint 3 -,true,2024-03-03 17:05:11.645298,16.443,0.156,235.0,111.23545837402344,238.54519653320312,-24.077789306640625,45.0,65.0,51.0,47.7599983215332,-20.0
32,50,100,60,go_to_color_detect_up_from_color_detect_down,blue,true,false,joint 3 -,true,2024-03-03 17:05:12.620624,16.443,0.156,235.0,125.46358489990234,269.0575256347656,20.7945556640625,45.0,65.0,51.0,25.37999725341797,-20.0
32,50,100,60,go_to_color_detect_up_from_color_detect_down,blue,true,false,joint 3 -,true,2024-03-03 17:05:13.314296,22.367,0.156,235.0,131.65623474121094,282.3376770019531,79.82803344726562,45.0,65.0,51.0,1.6199970245361328,-20.0
32,50,100,60,go_to_red_up,red,true,false,joint 1 +,true,2024-03-03 17:05:14.700579,22.234,0.206,235.0,42.721927642822266,308.6722717285156,84.958251953125,62.12001037597656,82.62001037597656,51.0,0.0,-20.0
32,50,100,60,go_to_red_up,red,true,false,joint 1 +,true,2024-03-03 17:05:14.700579,22.234,0.206,235.0,-86.5198974609375,299.36273193359375,84.958251953125,86.12001037597656,106.62001037597656,51.0,0.0,-20.0
32,50,100,60,go_to_pick_up_from_red,red,true,false,joint 1 -,false,2024-03-03 17:05:16.647068,21.969,0.204,235.0,-178.55662536621094,255.384521484375,84.958251953125,104.95999908447266,124.87999725341797,51.0,0.0,-20.0
32,50,100,60,go_to_pick_up_from_red,red,true,false,joint 1 -,false,2024-03-03 17:05:17.549740,22.102,0.204,235.0,-58.81808090209961,306.01336669921875,84.958251953125,80.87998962402344,100.37998962402344,51.0,0.0,-20.0
32,50,100,60,go_to_pick_up_from_red,red,true,false,joint 1 -,false,2024-03-03 17:05:18.241943,16.405,0.156,235.0,70.73384857177734,303.4805603027344,84.958251953125,56.87998962402344,76.37998962402344,51.0,0.0,-20.0
32,50,100,60,go_to_pick_up_from_red,red,true,false,joint 1 -,false,2024-03-03 17:05:19.736152,16.424,0.156,235.0,200.80162048339844,238.29066467285156,84.958251953125,29.879989624023438,49.37998962402344,51.0,0.0,-20.0
32,50,100,60,go_to_pick_up_from_red,red,true,false,joint 1 -,false,2024-03-03 17:05:20.429975,16.424,0.157,235.0,280.3629455566406,136.01596069335938,84.958251953125,5.8799896240234375,25.379989624023438,51.0,0.0,-20.0
32,50,100,60,moving_belt,red,false,true,joint 1 -,false,2024-03-03 17:05:21.118112,16.386,0.157,235.0,292.8220520019531,106.5785140991211,84.958251953125,0.0,20.0,51.0,0.0,-20.0
32,50,100,60,moving_belt,red,false,true,joint 1 -,false,2024-03-03 17:05:22.835369,16.766,0.155,235.0,292.8220520019531,106.5785140991211,84.958251953125,0.0,20.0,51.0,0.0,-20.0
32,50,100,60,moving_belt,red,false,true,joint 1 -,false,2024-03-03 17:05:23.549521,16.367,0.155,235.0,292.8220520019531,106.5785140991211,84.958251953125,0.0,20.0,51.0,0.0,-20.0
32,50,100,60,moving_belt,red,false,true,joint 1 -,false,2024-03-03 17:05:24.255322,16.367,0.155,235.0,292.8220520019531,106.5785140991211,84.958251953125,0.0,20.0,51.0,0.0,-20.0
32,50,100,60,go_to_pick_down,red,true,false,joint 3 +,false,2024-03-03 17:05:25.641626,16.652,0.155,235.0,292.7784423828125,106.56263732910156,81.26412963867188,0.0,20.0,51.0,1.8000000715255737,-20.0
32,50,100,60,go_to_pick_up_from_pick_down,red,true,false,joint 3 -,true,2024-03-03 17:05:26.361250,16.652,0.155,235.0,282.76361083984375,102.91754913330078,29.891090393066406,0.0,20.0,51.0,22.0,-20.0
32,50,100,60,go_to_pick_up_from_pick_down,red,true,false,joint 3 -,true,2024-03-03 17:05:27.750374,16.367,0.157,235.0,292.6988525390625,106.53367614746094,78.75127410888672,0.0,20.0,51.0,1.9999971389770508,-20.0
32,50,100,60,go_to_color_detect_up_from_pick_up,red,true,false,joint 1 +,true,2024-03-03 17:05:28.464993,23.222,0.157,235.0,248.47325134277344,188.0552520751953,84.958251953125,17.12000274658203,37.62000274658203,51.0,0.0,-20.0
32,50,100,60,go_to_color_detect_up_from_pick_up,red,true,false,joint 1 +,true,2024-03-03 17:05:29.199536,22.215,0.207,235.0,150.50265502929688,272.8601989746094,84.958251953125,41.12000274658203,61.62000274658203,51.0,0.0,-20.0
32,50,100,60,go_to_color_detect_down,red,true,false,joint 3 +,true,2024-03-03 17:05:30.597786,22.272,0.207,235.0,130.19317626953125,279.2001647949219,52.84112548828125,45.0,65.0,51.0,13.119998931884766,-20.0
32,50,100,60,go_to_color_detect_down,red,true,false,joint 3 +,true,2024-03-03 17:05:31.290549,22.272,0.203,235.0,117.42340850830078,251.81529235839844,-8.782600402832031,45.0,65.0,51.0,40.119998931884766,-20.0
32,50,100,60,go_to_color_detect_up_from_color_detect_down,red,true,false,joint 3 -,false,2024-03-03 17:05:32.227591,22.064,0.203,235.0,117.2431411743164,251.4287109375,-9.29547119140625,45.0,65.0,51.0,39.37999725341797,-20.0
32,50,100,60,go_to_color_detect_up_from_color_detect_down,red,true,false,joint 3 -,false,2024-03-03 17:05:33.824141,16.861,0.16,235.0,129.3231964111328,277.3345031738281,44.7356071472168,45.0,65.0,51.0,15.379997253417969,-20.0
32,50,100,60,detecting_color,red,false,false,detecting_color,false,2024-03-03 17:05:34.540534,16.861,0.16,235.0,131.69407653808594,282.4188232421875,84.958251953125,45.0,65.0,51.0,0.0,-20.0
32,50,100,60,detecting_color,red,false,false,detecting_color,false,2024-03-03 17:05:35.268088,16.88,0.16,235.0,131.69407653808594,282.4188232421875,84.958251953125,45.0,65.0,51.0,0.0,-20.0
32,50,100,60,detecting_color,red,false,false,detecting_color,false,2024-03-03 17:05:36.775047,16.443,0.157,235.0,131.69407653808594,282.4188232421875,84.958251953125,45.0,65.0,51.0,0.0,-20.0
32,50,100,60,detecting_color,red,false,false,detecting_color,false,2024-03-03 17:05:37.470729,16.367,0.157,235.0,131.69407653808594,282.4188232421875,84.958251953125,45.0,65.0,51.0,0.0,-20.0
32,50,100,60,detecting_color,red,false,false,detecting_color,false,2024-03-03 17:05:38.174375,16.367,0.157,235.0,131.69407653808594,282.4188232421875,84.958251953125,45.0,65.0,51.0,0.0,-20.0
32,50,100,60,detecting_color,red,false,false,detecting_color,false,2024-03-03 17:05:39.017555,16.595,0.157,235.0,131.69407653808594,282.4188232421875,84.958251953125,45.0,65.0,51.0,0.0,-20.0
32,50,100,60,go_to_color_detect_down,red,true,false,joint 3 +,false,2024-03-03 17:05:40.652314,16.5,0.158,235.0,129.39971923828125,277.49859619140625,45.377620697021484,45.0,65.0,51.0,16.119998931884766,-20.0
32,50,100,60,go_to_color_detect_down,red,true,false,joint 3 +,false,2024-03-03 17:05:41.341138,16.443,0.158,235.0,117.42340850830078,251.81529235839844,-8.782600402832031,45.0,65.0,51.0,40.119998931884766,-20.0
32,50,100,60,go_to_color_detect_up_from_color_detect_down,red,true,false,joint 3 -,true,2024-03-03 17:05:42.726875,16.519,0.158,235.0,118.6042709350586,254.34765625,-5.301177978515625,45.0,65.0,51.0,37.37999725341797,-20.0
32,50,100,60,go_to_color_detect_up_from_color_detect_down,red,true,false,joint 3 -,true,2024-03-03 17:05:43.422559,23.108,0.158,235.0,129.8800506591797,278.5286560058594,49.694549560546875,45.0,65.0,51.0,13.379997253417969,-20.0
32,50,100,60,go_to_green_up,green,true,false,joint 1 +,true,2024-03-03 17:05:44.805081,22.462,0.208,235.0,120.75553894042969,287.2661437988281,84.958251953125,47.20000457763672,67.64000701904297,51.0,0.0,-20.0
32,50,100,60,go_to_green_up,green,true,false,joint 1 +,true,2024-03-03 17:05:45.499615,22.291,0.208,235.0,-22.388225555419922,310.8094482421875,84.958251953125,74.12001037597656,94.62001037597656,51.0,0.0,-20.0
32,50,100,60,go_to_pick_up_from_green,green,true,false,joint 1 -,false,2024-03-03 17:05:46.195890,22.177,0.208,235.0,-56.145389556884766,306.5149841308594,84.958251953125,80.37998962402344,99.87998962402344,51.0,0.0,-20.0
32,50,100,60,go_to_pick_up_from_green,green,true,false,joint 1 -,false,2024-03-03 17:05:47.581864,22.121,0.206,235.0,73.37950897216797,302.85174560546875,84.958251953125,56.37998962402344,75.87998962402344,51.0,0.0,-20.0
32,50,100,60,go_to_pick_up_from_green,green,true,false,joint 1 -,false,2024-03-03 17:05:48.522135,16.424,0.206,235.0,202.87344360351562,236.529296875,84.958251953125,29.379989624023438,48.87998962402344,51.0,0.0,-20.0
32,50,100,60,go_to_pick_up_from_green,green,true,false,joint 1 -,false,2024-03-03 17:05:49.214165,16.519,0.157,235.0,281.5392150878906,133.56419372558594,84.958251953125,5.3799896240234375,24.879989624023438,51.0,0.0,-20.0
32,50,100,60,moving_belt,green,false,true,joint 1 -,false,2024-03-03 17:05:49.914826,16.519,0.157,236.8,292.8220520019531,106.5785140991211,84.958251953125,0.0,20.0,51.0,0.0,-20.0
32,50,100,60,moving_belt,green,false,true,joint 1 -,false,2024-03-03 17:05:51.296801,16.728,0.157,236.8,292.8220520019531,106.5785140991211,84.958251953125,0.0,20.0,51.0,0.0,-20.0
32,50,100,60,moving_belt,green,false,true,joint 1 -,false,2024-03-03 17:05:51.999235,16.557,0.159,236.8,292.8220520019531,106.5785140991211,84.958251953125,0.0,20.0,51.0,0.0,-20.0
32,50,100,60,moving_belt,green,false,true,joint 1 -,false,2024-03-03 17:05:53.350106,16.557,0.159,236.8,292.8220520019531,106.5785140991211,84.958251953125,0.0,20.0,51.0,0.0,-20.0
32,50,100,60,go_to_pick_down,green,true,false,joint 3 +,false,2024-03-03 17:05:54.751027,16.633,0.154,236.8,292.7538757324219,106.55370330810547,80.34086608886719,0.0,20.0,51.0,2.200000047683716,-20.0
32,50,100,60,go_to_pick_up_from_pick_down,green,true,false,joint 3 -,true,2024-03-03 17:05:55.447285,16.538,0.154,236.8,282.76361083984375,102.91754913330078,29.89107894897461,0.0,20.0,51.0,22.0,-20.0
32,50,100,60,go_to_pick_up_from_pick_down,green,true,false,joint 3 -,true,2024-03-03 17:05:56.842431,21.323,0.156,236.8,292.6988525390625,106.53367614746094,78.75127410888672,0.0,20.0,51.0,1.9999971389770508,-20.0
32,50,100,60,go_to_color_detect_up_from_pick_up,green,true,false,joint 1 +,true,2024-03-03 17:05:57.531334,22.329,0.156,236.8,248.47325134277344,188.0552520751953,84.958251953125,17.12000274658203,37.62000274658203,51.0,0.0,-20.0
