demetriskallis/dobot_magician_pick_and_place_and_color_sorting/Sampling/WholeSystemExperiments_training_data/payload_32g/joint_measurements__armv_100_arma_100_belts_50_cube_32g.csv
cube/weight,arm/velocity_ratio,arm/acceleration_ratio,belt/speed,dobot/operation,dobot/color,dobot/moving_arm,dobot/moving_belt,dobot/operation2,dobot/suction,meross/sample_timestamp,meross/power,meross/current,meross/voltage,dobot/pose_x,dobot/pose_y,dobot/pose_z,dobot/pose_rHead,dobot/pose_joint1Angle,dobot/pose_joint2Angle,dobot/pose_joint3Angle,dobot/pose_joint4Angle
32,100,100,50,homing,,,,homing,,,,,,184.6331329345703,55.78555679321289,70.80110931396484,-3.188190460205078,16.41180992126465,0.39674949645996094,25.893844604492188,-20.0
32,100,100,50,homing,,,,homing,,,,,,192.70916748046875,-8.037092208862305,70.80110931396484,-22.38818359375,-2.7881832122802734,0.39674949645996094,25.893844604492188,-20.0
32,100,100,50,homing,,,,homing,,,,,,179.3468780517578,-70.96562957763672,70.80110931396484,-41.588172912597656,-21.98817253112793,0.39674949645996094,25.893844604492188,-20.0
32,100,100,50,homing,,,,homing,,2024-03-04 15:52:34.881405,16.367,0.157,235.0,140.62823486328125,-132.00424194335938,70.80110931396484,-63.18820571899414,-43.58820724487305,0.39674949645996094,25.893844604492188,-20.0
32,100,100,50,homing,,,,homing,,2024-03-04 15:52:35.633728,16.348,0.157,235.0,88.19861602783203,-171.5296630859375,70.80110931396484,-82.78828430175781,-63.18828201293945,0.39674949645996094,25.893844604492188,-20.0
32,100,100,50,homing,,,,homing,,2024-03-04 15:52:37.021199,16.424,0.157,235.0,26.882068634033203,-190.99417114257812,70.80110931396484,-101.98834991455078,-82.38835144042969,0.39674949645996094,25.893844604492188,-20.0
32,100,100,50,homing,,,,homing,,2024-03-04 15:52:37.711754,16.424,0.157,235.0,-37.425079345703125,-189.21095275878906,70.80110931396484,-121.18842315673828,-101.58842468261719,0.39674949645996094,25.893844604492188,-20.0
32,100,100,50,homing,,,,homing,,2024-03-04 15:52:39.100108,16.386,0.157,235.0,-104.45037841796875,-162.1466522216797,70.80110931396484,-142.78851318359375,-123.18850708007812,0.39674949645996094,25.893844604492188,-20.0
32,100,100,50,homing,,,,homing,,2024-03-04 15:52:39.792049,16.234,0.157,235.0,-138.9969940185547,-133.72080993652344,70.80110931396484,-156.10833740234375,-136.0883331298828,0.39674949645996094,25.893844604492188,-20.0
32,100,100,50,homing,,,,homing,,2024-03-04 15:52:41.174917,16.329,0.158,235.0,-136.251220703125,-136.57070922851562,70.77751159667969,-154.92233276367188,-134.87290954589844,0.42792320251464844,25.908950805664062,-19.984142303466797
32,100,100,50,homing,,,,homing,,2024-03-04 15:52:41.867846,16.424,0.158,235.0,-84.06146240234375,-180.65771484375,66.53568267822266,-133.14410400390625,-114.3529281616211,4.07525110244751,27.676433563232422,-18.128803253173828
32,100,100,50,homing,,,,homing,,2024-03-04 15:52:43.260591,16.671,0.159,235.0,14.316532135009766,-212.90463256835938,54.92262268066406,-100.15776824951172,-85.5530014038086,12.404874801635742,31.712936401367188,-13.891653060913086
32,100,100,50,homing,,,,homing,,2024-03-04 15:52:43.951079,16.671,0.159,235.0,125.33470916748047,-195.62725830078125,33.00334930419922,-65.0396499633789,-56.753074645996094,24.85272979736328,37.745094299316406,-7.559621810913086
32,100,100,50,homing,,,,homing,,2024-03-04 15:52:44.663652,16.747,0.158,235.0,222.443603515625,-103.50572967529297,10.726341247558594,-27.297008514404297,-24.353132247924805,35.243473052978516,42.78040313720703,-2.2740085124969482
32,100,100,50,homing,,,,homing,,2024-03-04 15:52:46.040497,16.595,0.158,235.0,249.49884033203125,-9.028043746948242,0.855560302734375,-2.255094528198242,-1.8552690744400024,39.392127990722656,44.79086685180664,-0.16364505887031555
32,100,100,50,homing,,,,homing,,2024-03-04 15:52:46.735461,16.557,0.157,235.0,247.5392303466797,0.0001778916921466589,1.6470718383789062,4.117506250622682e-05,4.117506250622682e-05,38.57447814941406,45.04526901245117,0.0
32,100,100,50,homing,,,,homing,,2024-03-04 15:52:48.114078,16.158,0.157,235.0,250.0,0.00017966009909287095,-0.00133514404296875,4.117506250622682e-05,4.117506250622682e-05,39.71385955810547,44.946773529052734,0.0
32,100,100,50,homing,,,,homing,,2024-03-04 15:52:48.806687,16.158,0.157,235.0,249.99998474121094,0.00017966009909287095,-7.62939453125e-06,4.117506250622682e-05,4.117506250622682e-05,39.71385955810547,44.94676971435547,0.0
32,100,100,50,homing,,,,homing,,2024-03-04 15:52:50.188415,16.006,0.155,235.0,249.99879455566406,0.00017965924052987248,-0.00498199462890625,4.117506250622682e-05,4.117506250622682e-05,39.71385955810547,44.94676971435547,0.0
32,100,100,50,homing,,,,homing,,2024-03-04 15:52:50.880943,16.158,0.155,235.0,249.99998474121094,0.00017966009909287095,-7.62939453125e-06,4.117506250622682e-05,4.117506250622682e-05,39.71385955810547,44.94676971435547,0.0
32,100,100,50,homing,,,,homing,,2024-03-04 15:52:52.270226,16.006,0.157,235.0,249.97247314453125,0.0001796403230400756,0.00295257568359375,4.117506250622682e-05,4.117506250622682e-05,39.711788177490234,44.9481201171875,0.0
32,100,100,50,homing,,,,homing,,2024-03-04 15:52:52.961034,16.253,0.157,235.0,250.1285858154297,0.0001797525183064863,-0.07196044921875,4.117506250622682e-05,4.117506250622682e-05,39.774322509765625,44.93623733520508,0.0
32,100,100,50,homing,,,,homing,,2024-03-04 15:52:53.651641,16.253,0.157,235.0,250.00022888183594,0.0001796602737158537,0.0001373291015625,4.117506250622682e-05,4.117506250622682e-05,39.71385955810547,44.94676971435547,0.0
32,100,100,50,homing,,,,homing,,2024-03-04 15:52:55.035253,16.12,0.157,235.0,249.88487243652344,0.00017957737145479769,0.0153961181640625,4.117506250622682e-05,4.117506250622682e-05,39.69450378417969,44.958641052246094,0.0
32,100,100,50,homing,,,,homing,,2024-03-04 15:52:55.724981,16.158,0.156,235.0,249.99998474121094,0.00017966009909287095,-7.62939453125e-06,4.117506250622682e-05,4.117506250622682e-05,39.71385955810547,44.94676971435547,0.0
32,100,100,50,homing,,,,homing,,2024-03-04 15:52:57.103933,16.196,0.156,235.0,260.1128845214844,41.76937484741211,26.427383422851562,4.100799560546875e-05,9.613511085510254,37.02211380004883,32.90315628051758,-9.613470077514648
32,100,100,50,go_to_pick_up_from_homing,nothing,,,go_to_pick_up_from_homing,,2024-03-04 15:52:57.790557,16.196,0.156,235.0,276.8273010253906,103.4430160522461,66.67256164550781,4.00543212890625e-05,20.47686004638672,43.34144592285156,12.187082290649414,-20.476821899414062
32,100,100,50,moving_belt,nothing,false,true,go_to_pick_up_from_homing,,2024-03-04 15:52:59.172553,16.709,0.165,235.0,292.8220520019531,106.5785140991211,84.958251953125,0.0,20.0,51.0,0.0,-20.0
32,100,100,50,moving_belt,nothing,false,true,go_to_pick_up_from_homing,,2024-03-04 15:52:59.860622,16.709,0.165,235.0,292.8220520019531,106.5785140991211,84.958251953125,0.0,20.0,51.0,0.0,-20.0
32,100,100,50,moving_belt,nothing,false,true,go_to_pick_up_from_homing,,2024-03-04 15:53:01.245979,16.614,0.16,235.0,292.8220520019531,106.5785140991211,84.958251953125,0.0,20.0,51.0,0.0,-20.0
32,100,100,50,moving_belt,nothing,false,true,go_to_pick_up_from_homing,,2024-03-04 15:53:01.934836,16.69,0.16,235.0,292.8220520019531,106.5785140991211,84.958251953125,0.0,20.0,51.0,0.0,-20.0
32,100,100,50,moving_belt,nothing,false,true,go_to_pick_up_from_homing,,2024-03-04 15:53:03.315204,16.69,0.16,235.0,292.8220520019531,106.5785140991211,84.958251953125,0.0,20.0,51.0,0.0,-20.0
32,100,100,50,go_to_pick_down,nothing,true,false,joint 3 +,,2024-03-04 15:53:04.008700,16.785,0.16,235.0,292.8220520019531,106.5785140991211,84.958251953125,0.0,20.0,51.0,0.0,-20.0
32,100,100,50,go_to_pick_up_from_pick_down,nothing,true,false,joint 3 -,true,2024-03-04 15:53:04.710708,16.785,0.16,235.0,282.76361083984375,102.91754913330078,29.89107894897461,0.0,20.0,51.0,21.959999084472656,-20.0
32,100,100,50,go_to_color_detect_up_from_pick_up,nothing,true,false,joint 1 +,true,2024-03-04 15:53:06.104047,23.564,0.16,235.0,292.8220520019531,106.5785140991211,84.958251953125,0.0,20.0,51.0,0.0,-20.0
32,100,100,50,go_to_color_detect_up_from_pick_up,nothing,true,false,joint 1 +,true,2024-03-04 15:53:06.794848,23.564,0.204,235.0,168.22808837890625,262.3033142089844,84.958251953125,37.32594299316406,58.08922576904297,51.0,0.0,-20.0
32,100,100,50,go_to_color_detect_down,nothing,true,false,joint 3 +,true,2024-03-04 15:53:08.172408,22.253,0.204,235.0,130.10182189941406,279.0042419433594,51.890445709228516,45.0,65.0,51.0,14.039999008178711,-20.0
32,100,100,50,go_to_color_detect_up_from_color_detect_down,nothing,true,false,joint 3 -,false,2024-03-04 15:53:08.862288,21.969,0.204,235.0,111.81121826171875,239.7799072265625,-22.83026885986328,45.0,65.0,51.0,46.87999725341797,-20.0
32,100,100,50,go_to_color_detect_up_from_color_detect_down,nothing,true,false,joint 3 -,false,2024-03-04 15:53:10.256303,17.658,0.204,235.0,131.51309204101562,282.0307312011719,73.74609375,45.0,65.0,51.0,3.803098678588867,-20.0
32,100,100,50,detecting_color,nothing,false,false,detecting_color,false,2024-03-04 15:53:10.946298,17.658,0.204,235.0,131.69407653808594,282.4188232421875,84.958251953125,45.0,65.0,51.0,-4.656612873077393e-10,-20.0
32,100,100,50,go_to_color_detect_down,nothing,true,false,joint 3 +,false,2024-03-04 15:53:12.327167,16.424,0.158,235.0,131.62814331054688,282.2774353027344,78.1873779296875,45.0,65.0,51.0,3.119999408721924,-20.0
32,100,100,50,go_to_color_detect_down,nothing,true,false,joint 3 +,false,2024-03-04 15:53:13.021915,16.196,0.158,235.0,112.98084259033203,242.28819274902344,-20.196151733398438,45.0,65.0,51.0,46.08203125,-20.0
32,100,100,50,go_to_color_detect_up_from_color_detect_down,nothing,true,false,joint 3 -,true,2024-03-04 15:53:13.710414,16.462,0.158,235.0,128.73878479003906,276.0812072753906,40.15884017944336,45.0,65.0,51.0,16.572317123413086,-20.0
32,100,100,50,go_to_red_up,red,true,false,joint 1 +,true,2024-03-04 15:53:15.100150,23.469,0.158,235.0,107.59998321533203,292.4482421875,84.958251953125,49.80000305175781,70.44000244140625,51.0,-4.656612873077393e-10,-20.0
32,100,100,50,go_to_red_up,red,true,false,joint 1 +,true,2024-03-04 15:53:15.790575,22.14,0.208,235.0,-160.95790100097656,266.8263244628906,84.958251953125,101.09967803955078,121.6380615234375,51.0,-4.656612873077393e-10,-20.0
32,100,100,50,go_to_pick_up_from_red,red,true,false,joint 1 -,false,2024-03-04 15:53:17.172042,22.671,0.208,235.0,-45.30638122558594,308.30352783203125,84.958251953125,78.35999298095703,96.87998962402344,51.0,-4.656612873077393e-10,-20.0
32,100,100,50,go_to_pick_up_from_red,red,true,false,joint 1 -,false,2024-03-04 15:53:17.862747,17.07,0.157,235.0,277.10552978515625,142.53512573242188,84.958251953125,7.219991683959961,26.479991912841797,51.0,-4.656612873077393e-10,-20.0
32,100,100,50,moving_belt,red,false,true,joint 1 -,false,2024-03-04 15:53:19.242499,16.462,0.157,235.0,292.8220520019531,106.5785140991211,84.958251953125,0.0,20.0,51.0,-4.656612873077393e-10,-20.0
32,100,100,50,moving_belt,red,false,true,joint 1 -,false,2024-03-04 15:53:19.932321,16.842,0.163,235.0,292.8220520019531,106.5785140991211,84.958251953125,0.0,20.0,51.0,-4.656612873077393e-10,-20.0
32,100,100,50,moving_belt,red,false,true,joint 1 -,false,2024-03-04 15:53:21.314812,16.899,0.163,235.0,292.8220520019531,106.5785140991211,84.958251953125,0.0,20.0,51.0,-4.656612873077393e-10,-20.0
32,100,100,50,moving_belt,red,false,true,joint 1 -,false,2024-03-04 15:53:22.002930,16.899,0.163,235.0,292.8220520019531,106.5785140991211,84.958251953125,0.0,20.0,51.0,-4.656612873077393e-10,-20.0
32,100,100,50,moving_belt,red,false,true,joint 1 -,false,2024-03-04 15:53:22.701849,16.538,0.159,235.0,292.8220520019531,106.5785140991211,84.958251953125,0.0,20.0,51.0,-4.656612873077393e-10,-20.0
32,100,100,50,go_to_pick_down,red,true,false,joint 3 +,false,2024-03-04 15:53:24.083294,16.899,0.159,235.0,292.7202453613281,106.54145812988281,79.31524658203125,0.0,20.0,51.0,2.640000104904175,-20.0
32,100,100,50,go_to_pick_up_from_pick_down,red,true,false,joint 3 -,true,2024-03-04 15:53:24.773127,16.5,0.16,235.0,286.6444396972656,104.33004760742188,41.48917770385742,0.0,20.0,51.0,16.55999755859375,-20.0
32,100,100,50,go_to_color_detect_up_from_pick_up,red,true,false,joint 1 +,true,2024-03-04 15:53:26.157141,23.032,0.16,235.0,284.23004150390625,127.73807525634766,84.958251953125,4.200002670288086,24.800003051757812,51.0,0.0,-20.0
32,100,100,50,go_to_color_detect_up_from_pick_up,red,true,false,joint 1 +,true,2024-03-04 15:53:26.845502,22.234,0.207,235.0,133.78451538085938,281.4346008300781,84.958251953125,44.575164794921875,64.73844909667969,51.0,0.0,-20.0
32,100,100,50,go_to_color_detect_down,red,true,false,joint 3 +,true,2024-03-04 15:53:28.227191,22.367,0.207,235.0,119.38970947265625,256.03204345703125,-2.8599166870117188,45.0,65.0,51.0,37.61537170410156,-20.0
32,100,100,50,go_to_color_detect_up_from_color_detect_down,red,true,false,joint 3 -,false,2024-03-04 15:53:28.923860,22.102,0.205,235.0,117.4372329711914,251.84494018554688,-8.743080139160156,45.0,65.0,51.0,38.7599983215332,-20.0
32,100,100,50,detecting_color,red,false,false,detecting_color,false,2024-03-04 15:53:30.302569,19.177,0.205,235.0,131.69407653808594,282.4188232421875,84.94502258300781,45.0,65.0,51.0,-4.656612873077393e-10,-20.0
32,100,100,50,detecting_color,red,false,false,detecting_color,false,2024-03-04 15:53:30.996589,16.671,0.159,235.0,131.69407653808594,282.4188232421875,84.958251953125,45.0,65.0,51.0,-4.656612873077393e-10,-20.0
32,100,100,50,go_to_color_detect_down,red,true,false,joint 3 +,false,2024-03-04 15:53:31.688912,16.671,0.159,235.0,130.10182189941406,279.0042419433594,51.890445709228516,45.0,65.0,51.0,14.039999008178711,-20.0
32,100,100,50,go_to_color_detect_up_from_color_detect_down,red,true,false,joint 3 -,true,2024-03-04 15:53:33.067851,16.595,0.16,235.0,111.81121826171875,239.7799072265625,-22.83026885986328,45.0,65.0,51.0,46.87999725341797,-20.0
32,100,100,50,go_to_color_detect_up_from_color_detect_down,red,true,false,joint 3 -,true,2024-03-04 15:53:33.755791,16.595,0.16,235.0,131.51309204101562,282.0307312011719,73.74609375,45.0,65.0,51.0,3.803098678588867,-20.0
32,100,100,50,go_to_green_up,green,true,false,joint 1 +,true,2024-03-04 15:53:34.443803,23.45,0.16,235.0,34.73529052734375,309.6727294921875,84.958251953125,63.600006103515625,84.84000396728516,51.0,-4.656612873077393e-10,-20.0
32,100,100,50,go_to_pick_up_from_green,green,true,false,joint 1 -,false,2024-03-04 15:53:36.078337,22.652,0.207,235.0,-64.14976501464844,304.9402160644531,84.958251953125,81.87998962402344,101.35999298095703,51.0,-4.656612873077393e-10,-20.0
32,100,100,50,go_to_pick_up_from_green,green,true,false,joint 1 -,false,2024-03-04 15:53:36.779600,22.652,0.207,235.0,260.73724365234375,170.6453094482422,84.958251953125,13.20363998413086,32.195823669433594,51.0,-4.656612873077393e-10,-20.0
32,100,100,50,moving_belt,green,false,true,joint 1 -,false,2024-03-04 15:53:38.165902,16.557,0.159,235.0,292.8220520019531,106.5785140991211,84.958251953125,0.0,20.0,51.0,-4.656612873077393e-10,-20.0
32,100,100,50,moving_belt,green,false,true,joint 1 -,false,2024-03-04 15:53:38.862519,16.329,0.159,235.0,292.8220520019531,106.5785140991211,84.958251953125,0.0,20.0,51.0,-4.656612873077393e-10,-20.0
32,100,100,50,moving_belt,green,false,true,joint 1 -,false,2024-03-04 15:53:40.247000,16.785,0.162,235.0,292.8220520019531,106.5785140991211,84.958251953125,0.0,20.0,51.0,-4.656612873077393e-10,-20.0
32,100,100,50,moving_belt,green,false,true,joint 1 -,false,2024-03-04 15:53:40.936951,16.804,0.162,235.0,292.8220520019531,106.5785140991211,84.958251953125,0.0,20.0,51.0,-4.656612873077393e-10,-20.0
32,100,100,50,moving_belt,green,false,true,joint 1 -,false,2024-03-04 15:53:42.315656,16.671,0.161,235.0,292.8220520019531,106.5785140991211,84.958251953125,0.0,20.0,51.0,-4.656612873077393e-10,-20.0
32,100,100,50,go_to_pick_down,green,true,false,joint 3 +,false,2024-03-04 15:53:43.005311,16.918,0.161,235.0,292.8186950683594,106.5772933959961,83.9320068359375,0.0,20.0,51.0,0.6000000238418579,-20.0
32,100,100,50,go_to_pick_up_from_pick_down,green,true,false,joint 3 -,true,2024-03-04 15:53:43.699327,16.918,0.161,235.0,282.8717041015625,102.9568862915039,30.17666244506836,0.0,20.0,51.0,21.759998321533203,-20.0
32,100,100,50,go_to_color_detect_up_from_pick_up,green,true,false,joint 1 +,true,2024-03-04 15:53:45.075284,16.139,0.157,235.0,292.74755859375,106.78292846679688,84.958251953125,0.04000091552734375,20.1200008392334,51.0,0.0,-20.0
32,100,100,50,go_to_color_detect_up_from_pick_up,green,true,false,joint 1 +,true,2024-03-04 15:53:45.762489,23.108,0.157,235.0,144.79287719726562,275.9325256347656,84.958251953125,42.31219482421875,62.75547790527344,51.0,0.0,-20.0
32,100,100,50,go_to_color_detect_down,green,true,false,joint 3 +,true,2024-03-04 15:53:47.139101,21.722,0.204,235.0,126.9899673461914,272.3308410644531,28.846050262451172,45.0,65.0,51.0,23.79999542236328,-20.0
32,100,100,50,go_to_color_detect_up_from_color_detect_down,green,true,false,joint 3 -,false,2024-03-04 15:53:47.827799,21.722,0.204,235.0,114.85627746582031,246.31007385253906,-15.670166015625,45.0,65.0,51.0,42.55999755859375,-20.0
32,100,100,50,go_to_color_detect_up_from_color_detect_down,green,true,false,joint 3 -,false,2024-03-04 15:53:49.207042,16.899,0.204,235.0,131.68600463867188,282.4015197753906,82.5873794555664,45.0,65.0,51.0,0.6728465557098389,-20.0
32,100,100,50,detecting_color,green,false,false,detecting_color,false,2024-03-04 15:53:49.893914,16.899,0.204,235.0,131.69407653808594,282.4188232421875,84.958251953125,45.0,65.0,51.0,-4.656612873077393e-10,-20.0
32,100,100,50,go_to_color_detect_down,green,true,false,joint 3 +,false,2024-03-04 15:53:51.271105,16.006,0.156,235.0,131.02761840820312,280.9896240234375,63.484046936035156,45.0,65.0,51.0,9.239998817443848,-20.0
32,100,100,50,go_to_color_detect_up_from_color_detect_down,green,true,false,joint 3 -,true,2024-03-04 15:53:51.962350,16.006,0.156,235.0,111.15208435058594,238.3664093017578,-24.255813598632812,45.0,65.0,51.0,47.994842529296875,-20.0
32,100,100,50,go_to_color_detect_up_from_color_detect_down,green,true,false,joint 3 -,true,2024-03-04 15:53:53.342898,18.19,0.166,235.0,130.48638916015625,279.8289489746094,56.1141357421875,45.0,65.0,51.0,10.38463020324707,-20.0
32,100,100,50,go_to_blue_up,blue,true,false,joint 1 +,true,2024-03-04 15:53:54.032621,23.165,0.166,233.1,59.11566162109375,305.95599365234375,84.958251953125,59.06427764892578,79.7331314086914,51.0,-4.656612873077393e-10,-20.0
32,100,100,50,go_to_pick_up_from_blue,blue,true,false,joint 1 -,false,2024-03-04 15:53:54.721492,21.76,0.166,233.1,107.19156646728516,292.59820556640625,84.958251953125,49.87999725341797,68.75999450683594,51.0,-4.656612873077393e-10,-20.0
32,100,100,50,go_to_pick_up_from_blue,blue,true,false,joint 1 -,false,2024-03-04 15:53:56.108367,16.481,0.208,233.1,291.8267517089844,109.2743911743164,84.958251953125,0.5283889770507812,20.343486785888672,51.0,-4.656612873077393e-10,-20.0
32,100,100,50,moving_belt,blue,false,true,joint 1 -,false,2024-03-04 15:53:56.799073,16.481,0.208,233.1,292.8220520019531,106.5785140991211,84.958251953125,0.0,20.0,51.0,-4.656612873077393e-10,-20.0
32,100,100,50,moving_belt,blue,false,true,joint 1 -,false,2024-03-04 15:53:58.180710,16.671,0.16,233.1,292.8220520019531,106.5785140991211,84.958251953125,0.0,20.0,51.0,-4.656612873077393e-10,-20.0
32,100,100,50,moving_belt,blue,false,true,joint 1 -,false,2024-03-04 15:53:58.872073,16.671,0.16,233.1,292.8220520019531,106.5785140991211,84.958251953125,0.0,20.0,51.0,-4.656612873077393e-10,-20.0
32,100,100,50,moving_belt,blue,false,true,joint 1 -,false,2024-03-04 15:53:59.832052,16.709,0.16,233.1,292.8220520019531,106.5785140991211,84.958251953125,0.0,20.0,51.0,-4.656612873077393e-10,-20.0
32,100,100,50,moving_belt,blue,false,true,joint 1 -,false,2024-03-04 15:54:01.239152,16.861,0.16,233.1,292.8220520019531,106.5785140991211,84.958251953125,0.0,20.0,51.0,-4.656612873077393e-10,-20.0
32,100,100,50,go_to_pick_down,blue,true,false,joint 3 +,false,2024-03-04 15:54:01.928635,16.785,0.162,233.1,286.6092224121094,104.31723022460938,41.36827850341797,0.0,20.0,51.0,17.845497131347656,-20.0
32,100,100,50,go_to_pick_up_from_pick_down,blue,true,false,joint 3 -,true,2024-03-04 15:54:03.307827,16.481,0.162,233.1,292.04937744140625,106.29727935791016,69.43183135986328,0.0,20.0,51.0,5.386831283569336,-20.0
32,100,100,50,go_to_color_detect_up_from_pick_up,blue,true,false,joint 1 +,true,2024-03-04 15:54:03.995882,22.975,0.215,233.1,251.33216857910156,184.21690368652344,84.958251953125,16.23999786376953,37.39999771118164,51.0,0.0,-20.0
32,100,100,50,go_to_color_detect_down,blue,true,false,joint 3 +,true,2024-03-04 15:54:04.688521,22.975,0.215,233.1,131.68740844726562,282.404541015625,82.8031997680664,45.0,65.0,51.0,1.1199997663497925,-20.0
32,100,100,50,go_to_color_detect_down,blue,true,false,joint 3 +,true,2024-03-04 15:54:06.067422,22.083,0.205,233.1,112.3698501586914,240.9779052734375,-21.58929443359375,45.0,65.0,51.0,46.78459167480469,-20.0
32,100,100,50,go_to_color_detect_up_from_color_detect_down,blue,true,false,joint 3 -,false,2024-03-04 15:54:06.758811,22.102,0.205,233.1,127.3722915649414,273.1507568359375,31.08867645263672,45.0,65.0,51.0,20.206161499023438,-20.0
32,100,100,50,detecting_color,blue,false,false,detecting_color,false,2024-03-04 15:54:08.140954,17.07,0.167,233.1,131.69407653808594,282.4188232421875,84.958251953125,45.0,65.0,51.0,-4.656612873077393e-10,-20.0
32,100,100,50,detecting_color,blue,false,false,detecting_color,false,2024-03-04 15:54:08.829892,17.07,0.167,233.1,131.69407653808594,282.4188232421875,84.958251953125,45.0,65.0,51.0,-4.656612873077393e-10,-20.0
32,100,100,50,go_to_color_detect_down,blue,true,false,joint 3 +,false,2024-03-04 15:54:10.206296,16.291,0.158,233.1,121.9303970336914,261.4805603027344,5.84765625,45.0,65.0,51.0,33.650245666503906,-20.0
32,100,100,50,go_to_color_detect_up_from_color_detect_down,blue,true,false,joint 3 -,true,2024-03-04 15:54:10.896330,16.291,0.158,233.1,118.01263427734375,253.07888793945312,-7.072502136230469,45.0,65.0,51.0,37.87999725341797,-20.0
32,100,100,50,go_to_red_up,red,true,false,joint 1 +,true,2024-03-04 15:54:12.272478,23.431,0.215,233.1,131.69407653808594,282.4188232421875,84.94502258300781,45.0,65.0,51.0,-4.656612873077393e-10,-20.0
32,100,100,50,go_to_red_up,red,true,false,joint 1 +,true,2024-03-04 15:54:12.962806,23.431,0.215,233.1,-78.38388061523438,301.59527587890625,84.958251953125,84.56871795654297,105.82710266113281,51.0,-4.656612873077393e-10,-20.0
32,100,100,50,go_to_pick_up_from_red,red,true,false,joint 1 -,false,2024-03-04 15:54:14.350311,22.367,0.186,233.1,-143.40499877929688,276.6563415527344,84.958251953125,97.39999389648438,116.59999084472656,51.0,-4.656612873077393e-10,-20.0
32,100,100,50,go_to_pick_up_from_red,red,true,false,joint 1 -,false,2024-03-04 15:54:15.040155,22.367,0.186,233.1,222.2593536376953,218.4136199951172,84.958251953125,24.49999237060547,43.119991302490234,51.0,-4.656612873077393e-10,-20.0
32,100,100,50,moving_belt,red,false,true,joint 1 -,false,2024-03-04 15:54:15.728892,16.367,0.186,235.0,292.8220520019531,106.5785140991211,84.958251953125,0.0,20.0,51.0,-4.656612873077393e-10,-20.0
32,100,100,50,moving_belt,red,false,true,joint 1 -,false,2024-03-04 15:54:17.118084,16.329,0.161,235.0,292.8220520019531,106.5785140991211,84.958251953125,0.0,20.0,51.0,-4.656612873077393e-10,-20.0
32,100,100,50,moving_belt,red,false,true,joint 1 -,false,2024-03-04 15:54:17.808170,16.899,0.161,235.0,292.8220520019531,106.5785140991211,84.958251953125,0.0,20.0,51.0,-4.656612873077393e-10,-20.0
32,100,100,50,moving_belt,red,false,true,joint 1 -,false,2024-03-04 15:54:19.184409,16.576,0.16,235.0,292.8220520019531,106.5785140991211,84.958251953125,0.0,20.0,51.0,-4.656612873077393e-10,-20.0
32,100,100,50,moving_belt,red,false,true,joint 1 -,false,2024-03-04 15:54:19.875418,16.576,0.16,233.1,292.8220520019531,106.5785140991211,84.958251953125,0.0,20.0,51.0,-4.656612873077393e-10,-20.0
32,100,100,50,go_to_pick_down,red,true,false,joint 3 +,false,2024-03-04 15:54:21.256587,16.823,0.162,233.1,292.8220520019531,106.5785140991211,84.958251953125,0.0,20.0,51.0,-4.656612873077393e-10,-20.0
32,100,100,50,go_to_pick_up_from_pick_down,red,true,false,joint 3 -,true,2024-03-04 15:54:21.946534,16.823,0.162,235.0,282.76361083984375,102.91754913330078,29.89107894897461,0.0,20.0,51.0,21.959999084472656,-20.0
32,100,100,50,go_to_color_detect_up_from_pick_up,red,true,false,joint 1 +,true,2024-03-04 15:54:23.326104,16.367,0.214,235.0,292.8220520019531,106.5785140991211,84.958251953125,0.0,20.0,51.0,0.0,-20.0
32,100,100,50,go_to_color_detect_up_from_pick_up,red,true,false,joint 1 +,true,2024-03-04 15:54:24.015919,23.203,0.214,235.0,171.88888549804688,259.9190979003906,84.958251953125,36.52266311645508,57.32594299316406,51.0,0.0,-20.0
32,100,100,50,go_to_color_detect_down,red,true,false,joint 3 +,true,2024-03-04 15:54:24.707820,22.329,0.214,235.0,128.44918823242188,275.4601745605469,38.07123947143555,45.0,65.0,51.0,19.839996337890625,-20.0
32,100,100,50,go_to_color_detect_up_from_color_detect_down,red,true,false,joint 3 -,false,2024-03-04 15:54:26.084159,22.026,0.205,235.0,111.81121826171875,239.7799072265625,-22.83026885986328,45.0,65.0,51.0,46.87999725341797,-20.0
32,100,100,50,go_to_color_detect_up_from_color_detect_down,red,true,false,joint 3 -,false,2024-03-04 15:54:26.776879,22.234,0.205,235.0,131.51309204101562,282.0307312011719,73.74609375,45.0,65.0,51.0,3.803098678588867,-20.0
32,100,100,50,detecting_color,red,false,false,detecting_color,false,2024-03-04 15:54:28.161552,16.975,0.165,235.0,131.69407653808594,282.4188232421875,84.958251953125,45.0,65.0,51.0,-4.656612873077393e-10,-20.0
32,100,100,50,go_to_color_detect_down,red,true,false,joint 3 +,false,2024-03-04 15:54:28.856522,16.424,0.165,235.0,131.62814331054688,282.2774353027344,78.1873779296875,45.0,65.0,51.0,3.119999408721924,-20.0
32,100,100,50,go_to_color_detect_down,red,true,false,joint 3 +,false,2024-03-04 15:54:30.233716,16.386,0.158,235.0,112.66073608398438,241.60171508789062,-20.93079376220703,45.0,65.0,51.0,46.453311920166016,-20.0
32,100,100,50,go_to_color_detect_up_from_color_detect_down,red,true,false,joint 3 -,true,2024-03-04 15:54:30.923173,17.411,0.158,235.0,129.11343383789062,276.8846435546875,43.03013229370117,45.0,65.0,51.0,15.441036224365234,-20.0
32,100,100,50,go_to_green_up,green,true,false,joint 1 +,true,2024-03-04 15:54:32.320079,23.431,0.216,235.0,104.32667541503906,293.6318664550781,84.958251953125,50.44000244140625,71.12000274658203,51.0,-4.656612873077393e-10,-20.0
32,100,100,50,go_to_pick_up_from_green,green,true,false,joint 1 -,false,2024-03-04 15:54:33.013280,22.045,0.216,235.0,-80.65180969238281,300.9967041015625,84.958251953125,85.0,105.0,51.0,-4.656612873077393e-10,-20.0
32,100,100,50,go_to_pick_up_from_green,green,true,false,joint 1 -,false,2024-03-04 15:54:34.387840,22.215,0.177,235.0,200.52999877929688,238.519287109375,84.958251953125,29.945266723632812,48.417449951171875,51.0,-4.656612873077393e-10,-20.0
32,100,100,50,moving_belt,green,false,true,joint 1 -,false,2024-03-04 15:54:35.081216,16.443,0.177,235.0,292.8220520019531,106.5785140991211,84.958251953125,0.0,20.0,51.0,-4.656612873077393e-10,-20.0
32,100,100,50,moving_belt,green,false,true,joint 1 -,false,2024-03-04 15:54:35.770482,16.443,0.177,235.0,292.8220520019531,106.5785140991211,84.958251953125,0.0,20.0,51.0,-4.656612873077393e-10,-20.0
32,100,100,50,moving_belt,green,false,true,joint 1 -,false,2024-03-04 15:54:37.152268,16.861,0.161,235.0,292.8220520019531,106.5785140991211,84.958251953125,0.0,20.0,51.0,-4.656612873077393e-10,-20.0
32,100,100,50,moving_belt,green,false,true,joint 1 -,false,2024-03-04 15:54:37.841928,16.709,0.161,235.0,292.8220520019531,106.5785140991211,84.958251953125,0.0,20.0,51.0,-4.656612873077393e-10,-20.0
32,100,100,50,moving_belt,green,false,true,joint 1 -,false,2024-03-04 15:54:39.235724,16.747,0.159,235.0,292.8220520019531,106.5785140991211,84.958251953125,0.0,20.0,51.0,-4.656612873077393e-10,-20.0
32,100,100,50,moving_belt,green,false,true,joint 1 -,false,2024-03-04 15:54:39.927645,16.747,0.159,235.0,292.8220520019531,106.5785140991211,84.958251953125,0.0,20.0,51.0,-4.656612873077393e-10,-20.0
32,100,100,50,go_to_pick_down,green,true,false,joint 3 +,false,2024-03-04 15:54:41.310220,16.785,0.161,235.0,283.73455810546875,103.27093505859375,32.52097702026367,0.0,20.0,51.0,21.174827575683594,-20.0
32,100,100,50,go_to_pick_up_from_pick_down,green,true,false,joint 3 -,true,2024-03-04 15:54:41.998730,18.874,0.161,235.0,292.755859375,106.5544204711914,80.40839385986328,0.0,20.0,51.0,1.417501449584961,-20.0
32,100,100,50,go_to_color_detect_up_from_pick_up,green,true,false,joint 1 +,true,2024-03-04 15:54:43.381109,22.88,0.212,235.0,187.9271240234375,248.57017517089844,84.958251953125,32.9095344543457,53.87281799316406,51.0,0.0,-20.0
32,100,100,50,go_to_color_detect_down,green,true,false,joint 3 +,true,2024-03-04 15:54:44.074052,22.519,0.212,235.0,131.02761840820312,280.9896240234375,63.484046936035156,45.0,65.0,51.0,9.239998817443848,-20.0
32,100,100,50,go_to_color_detect_up_from_color_detect_down,green,true,false,joint 3 -,false,2024-03-04 15:54:44.780307,21.988,0.203,235.0,111.15208435058594,238.3664093017578,-24.255813598632812,45.0,65.0,51.0,47.994842529296875,-20.0
32,100,100,50,go_to_color_detect_up_from_color_detect_down,green,true,false,joint 3 -,false,2024-03-04 15:54:46.159127,21.969,0.203,235.0,131.11474609375,281.1764831542969,64.9298095703125,45.0,65.0,51.0,7.059505462646484,-20.0
32,100,100,50,detecting_color,green,false,false,detecting_color,false,2024-03-04 15:54:46.856288,17.336,0.164,235.0,131.69407653808594,282.4188232421875,84.958251953125,45.0,65.0,51.0,-4.656612873077393e-10,-20.0
32,100,100,50,go_to_color_detect_down,green,true,false,joint 3 +,false,2024-03-04 15:54:48.232884,16.177,0.164,235.0,131.69256591796875,282.41558837890625,83.9320068359375,45.0,65.0,51.0,0.5999999046325684,-20.0
32,100,100,50,go_to_color_detect_down,green,true,false,joint 3 +,false,2024-03-04 15:54:48.925064,16.177,0.164,235.0,115.47264099121094,247.63186645507812,-14.094192504882812,45.0,65.0,51.0,43.01434326171875,-20.0
32,100,100,50,go_to_color_detect_up_from_color_detect_down,green,true,false,joint 3 -,true,2024-03-04 15:54:50.300233,16.272,0.158,235.0,121.74224090576172,261.0770568847656,5.154693603515625,45.0,65.0,51.0,31.76000213623047,-20.0
32,100,100,50,go_to_blue_up,blue,true,false,joint 1 +,true,2024-03-04 15:54:50.988500,22.102,0.158,235.0,124.55525970458984,285.6391296386719,84.958251953125,46.44000244140625,66.80000305175781,51.0,-4.656612873077393e-10,-20.0
32,100,100,50,go_to_pick_up_from_blue,blue,true,false,joint 1 -,false,2024-03-04 15:54:52.368540,22.196,0.216,235.0,36.89640426635742,309.42266845703125,84.958251953125,63.19999694824219,82.79999542236328,51.0,-4.656612873077393e-10,-20.0
32,100,100,50,go_to_pick_up_from_blue,blue,true,false,joint 1 -,false,2024-03-04 15:54:53.059289,22.196,0.216,235.0,267.9519348144531,159.0769805908203,84.958251953125,10.696643829345703,29.79174041748047,51.0,-4.656612873077393e-10,-20.0
32,100,100,50,moving_belt,blue,false,true,joint 1 -,false,2024-03-04 15:54:53.748993,16.462,0.158,235.0,292.8220520019531,106.5785140991211,84.958251953125,0.0,20.0,51.0,-4.656612873077393e-10,-20.0
32,100,100,50,moving_belt,blue,false,true,joint 1 -,false,2024-03-04 15:54:55.155938,16.766,0.158,235.0,292.8220520019531,106.5785140991211,84.958251953125,0.0,20.0,51.0,-4.656612873077393e-10,-20.0
32,100,100,50,moving_belt,blue,false,true,joint 1 -,false,2024-03-04 15:54:55.850339,16.652,0.16,235.0,292.8220520019531,106.5785140991211,84.958251953125,0.0,20.0,51.0,-4.656612873077393e-10,-20.0
32,100,100,50,moving_belt,blue,false,true,joint 1 -,false,2024-03-04 15:54:57.229426,16.861,0.16,233.1,292.8220520019531,106.5785140991211,84.958251953125,0.0,20.0,51.0,-4.656612873077393e-10,-20.0
32,100,100,50,moving_belt,blue,false,true,joint 1 -,false,2024-03-04 15:54:57.918490,16.861,0.16,233.1,292.8220520019531,106.5785140991211,84.958251953125,0.0,20.0,51.0,-4.656612873077393e-10,-20.0
32,100,100,50,go_to_pick_down,blue,true,false,joint 3 +,false,2024-03-04 15:54:59.313206,16.595,0.16,235.0,292.795654296875,106.56890869140625,82.08492279052734,0.0,20.0,51.0,1.440000057220459,-20.0
32,100,100,50,go_to_pick_up_from_pick_down,blue,true,false,joint 3 -,true,2024-03-04 15:55:00.003830,16.861,0.158,235.0,284.6556396484375,103.6061782836914,35.16378402709961,0.0,20.0,51.0,19.359996795654297,-20.0
32,100,100,50,go_to_color_detect_up_from_pick_up,blue,true,false,joint 1 +,true,2024-03-04 15:55:01.383697,18.399,0.158,235.0,289.329833984375,115.72370147705078,84.958251953125,1.8000030517578125,22.200002670288086,51.0,0.0,-20.0
32,100,100,50,go_to_color_detect_up_from_pick_up,blue,true,false,joint 1 +,true,2024-03-04 15:55:02.084946,22.652,0.205,235.0,140.7002410888672,278.0416564941406,84.958251953125,43.15876007080078,63.52204132080078,51.0,0.0,-20.0
32,100,100,50,go_to_color_detect_down,blue,true,false,joint 3 +,true,2024-03-04 15:55:02.782970,22.443,0.205,235.0,122.58028411865234,262.8742370605469,8.309219360351562,45.0,65.0,51.0,32.558963775634766,-20.0
32,100,100,50,go_to_color_detect_up_from_color_detect_down,blue,true,false,joint 3 -,false,2024-03-04 15:55:04.160932,22.064,0.204,235.0,114.85627746582031,246.31007385253906,-15.670166015625,45.0,65.0,51.0,42.55999755859375,-20.0
32,100,100,50,go_to_color_detect_up_from_color_detect_down,blue,true,false,joint 3 -,false,2024-03-04 15:55:04.854471,22.064,0.204,235.0,131.68978881835938,282.4096374511719,83.23200988769531,45.0,65.0,51.0,0.4615650475025177,-20.0
32,100,100,50,detecting_color,blue,false,false,detecting_color,false,2024-03-04 15:55:06.240706,17.374,0.204,235.0,131.69407653808594,282.4188232421875,84.958251953125,45.0,65.0,51.0,-4.656612873077393e-10,-20.0
32,100,100,50,go_to_color_detect_down,blue,true,false,joint 3 +,false,2024-03-04 15:55:06.927562,16.12,0.158,235.0,131.02761840820312,280.9896240234375,63.484046936035156,45.0,65.0,51.0,9.239998817443848,-20.0
32,100,100,50,go_to_color_detect_up_from_color_detect_down,blue,true,false,joint 3 -,true,2024-03-04 15:55:08.314603,16.405,0.158,235.0,111.17107391357422,238.40711975097656,-24.215347290039062,45.0,65.0,51.0,47.87999725341797,-20.0
32,100,100,50,go_to_color_detect_up_from_color_detect_down,blue,true,false,joint 3 -,true,2024-03-04 15:55:09.005229,20.943,0.16,235.0,131.11474609375,281.1764831542969,64.9298095703125,45.0,65.0,51.0,7.059505462646484,-20.0
32,100,100,50,go_to_red_up,red,true,false,joint 1 +,true,2024-03-04 15:55:10.414705,22.899,0.16,235.0,64.788330078125,304.8052062988281,84.958251953125,58.0,79.04000091552734,51.0,-4.656612873077393e-10,-20.0
32,100,100,50,go_to_pick_up_from_red,red,true,false,joint 1 -,false,2024-03-04 15:55:11.106028,22.215,0.204,235.0,-178.73486328125,255.2598114013672,84.958251953125,105.0,125.0,51.0,-4.656612873077393e-10,-20.0
32,100,100,50,go_to_pick_up_from_red,red,true,false,joint 1 -,false,2024-03-04 15:55:11.794200,22.386,0.204,235.0,44.66058349609375,308.3977355957031,84.958251953125,61.75999450683594,79.87999725341797,51.0,-4.656612873077393e-10,-20.0
32,100,100,50,go_to_pick_up_from_red,red,true,false,joint 1 -,false,2024-03-04 15:55:13.175786,16.481,0.158,235.0,290.3681945800781,113.09305572509766,84.958251953125,1.2799949645996094,20.979995727539062,51.0,-4.656612873077393e-10,-20.0
32,100,100,50,moving_belt,red,false,true,joint 1 -,false,2024-03-04 15:55:13.871720,16.481,0.158,235.0,292.8220520019531,106.5785140991211,84.958251953125,0.0,20.0,51.0,-4.656612873077393e-10,-20.0
32,100,100,50,moving_belt,red,false,true,joint 1 -,false,2024-03-04 15:55:15.248126,16.557,0.16,235.0,292.8220520019531,106.5785140991211,84.958251953125,0.0,20.0,51.0,-4.656612873077393e-10,-20.0
32,100,100,50,moving_belt,red,false,true,joint 1 -,false,2024-03-04 15:55:15.938329,16.557,0.16,235.0,292.8220520019531,106.5785140991211,84.958251953125,0.0,20.0,51.0,-4.656612873077393e-10,-20.0
32,100,100,50,moving_belt,red,false,true,joint 1 -,false,2024-03-04 15:55:17.323256,16.671,0.161,235.0,292.8220520019531,106.5785140991211,84.958251953125,0.0,20.0,51.0,-4.656612873077393e-10,-20.0
32,100,100,50,moving_belt,red,false,true,joint 1 -,false,2024-03-04 15:55:18.014628,16.728,0.161,235.0,292.8220520019531,106.5785140991211,84.958251953125,0.0,20.0,51.0,-4.656612873077393e-10,-20.0
32,100,100,50,go_to_pick_down,red,true,false,joint 3 +,false,2024-03-04 15:55:19.393471,16.861,0.161,233.1,291.0296630859375,105.92613983154297,61.35441970825195,0.0,20.0,51.0,10.119999885559082,-20.0
32,100,100,50,go_to_pick_up_from_pick_down,red,true,false,joint 3 -,true,2024-03-04 15:55:20.088974,16.386,0.159,233.1,291.0575866699219,105.93629455566406,61.53761291503906,0.0,20.0,51.0,8.331497192382812,-20.0
32,100,100,50,go_to_color_detect_up_from_pick_up,red,true,false,joint 1 +,true,2024-03-04 15:55:20.779544,16.386,0.159,235.0,266.9938049316406,160.6798858642578,84.958251953125,11.040000915527344,32.0,51.0,0.0,-20.0
32,100,100,50,go_to_color_detect_down,red,true,false,joint 3 +,true,2024-03-04 15:55:22.159776,23.241,0.21,235.0,131.69406127929688,282.4187927246094,84.85562896728516,45.0,65.0,51.0,0.1199999749660492,-20.0
32,100,100,50,go_to_color_detect_down,red,true,false,joint 3 +,true,2024-03-04 15:55:22.853623,22.918,0.21,235.0,114.10951232910156,244.70863342285156,-17.519325256347656,45.0,65.0,51.0,44.728187561035156,-20.0
32,100,100,50,go_to_color_detect_up_from_color_detect_down,red,true,false,joint 3 -,false,2024-03-04 15:55:24.233601,22.823,0.209,235.0,123.6932373046875,265.260986328125,12.795387268066406,45.0,65.0,51.0,28.160003662109375,-20.0
32,100,100,50,detecting_color,red,false,false,detecting_color,false,2024-03-04 15:55:24.925343,16.785,0.209,235.0,131.69407653808594,282.4188232421875,84.958251953125,45.0,65.0,51.0,-4.656612873077393e-10,-20.0
32,100,100,50,detecting_color,red,false,false,detecting_color,false,2024-03-04 15:55:26.309804,16.291,0.157,235.0,131.69407653808594,282.4188232421875,84.958251953125,45.0,65.0,51.0,-4.656612873077393e-10,-20.0
32,100,100,50,detecting_color,red,false,false,detecting_color,false,2024-03-04 15:55:26.999073,16.291,0.157,235.0,131.69407653808594,282.4188232421875,84.958251953125,45.0,65.0,51.0,-4.656612873077393e-10,-20.0
32,100,100,50,detecting_color,red,false,false,detecting_color,false,2024-03-04 15:55:28.379051,16.405,0.158,235.0,131.69407653808594,282.4188232421875,84.958251953125,45.0,65.0,51.0,-4.656612873077393e-10,-20.0
32,100,100,50,go_to_color_detect_down,red,true,false,joint 3 +,false,2024-03-04 15:55:29.065107,16.405,0.158,235.0,131.64828491210938,282.3206481933594,79.31524658203125,45.0,65.0,51.0,2.6399993896484375,-20.0
32,100,100,50,go_to_color_detect_down,red,true,false,joint 3 +,false,2024-03-04 15:55:29.755659,16.348,0.158,235.0,112.98084259033203,242.28819274902344,-20.196151733398438,45.0,65.0,51.0,46.08203125,-20.0
32,100,100,50,go_to_color_detect_up_from_color_detect_down,red,true,false,joint 3 -,true,2024-03-04 15:55:31.138522,16.462,0.158,235.0,128.73878479003906,276.0812072753906,40.15884017944336,45.0,65.0,51.0,16.572317123413086,-20.0
32,100,100,50,go_to_green_up,green,true,false,joint 1 +,true,2024-03-04 15:55:31.833508,23.905,0.158,235.0,107.59998321533203,292.4482421875,84.958251953125,49.80000305175781,70.44000244140625,51.0,-4.656612873077393e-10,-20.0
32,100,100,50,go_to_pick_up_from_green,green,true,false,joint 1 -,false,2024-03-04 15:55:33.262412,22.861,0.21,235.0,-80.6219253540039,301.0047302246094,84.958251953125,84.99430847167969,105.0,51.0,-4.656612873077393e-10,-20.0
32,100,100,50,go_to_pick_up_from_green,green,true,false,joint 1 -,false,2024-03-04 15:55:33.950243,22.899,0.21,235.0,187.00885009765625,249.2617645263672,84.958251953125,33.12090301513672,51.513084411621094,51.0,-4.656612873077393e-10,-20.0
32,100,100,50,moving_belt,green,false,true,joint 1 -,false,2024-03-04 15:55:35.396463,16.405,0.158,235.0,292.8220520019531,106.5785140991211,84.958251953125,0.0,20.0,51.0,-4.656612873077393e-10,-20.0
32,100,100,50,moving_belt,green,false,true,joint 1 -,false,2024-03-04 15:55:36.087539,16.595,0.158,235.0,292.8220520019531,106.5785140991211,84.958251953125,0.0,20.0,51.0,-4.656612873077393e-10,-20.0
32,100,100,50,moving_belt,green,false,true,joint 1 -,false,2024-03-04 15:55:36.779507,16.595,0.158,235.0,292.8220520019531,106.5785140991211,84.958251953125,0.0,20.0,51.0,-4.656612873077393e-10,-20.0
32,100,100,50,moving_belt,green,false,true,joint 1 -,false,2024-03-04 15:55:38.159568,16.88,0.162,235.0,292.8220520019531,106.5785140991211,84.958251953125,0.0,20.0,51.0,-4.656612873077393e-10,-20.0
32,100,100,50,moving_belt,green,false,true,joint 1 -,false,2024-03-04 15:55:38.856916,16.899,0.162,235.0,292.8220520019531,106.5785140991211,84.958251953125,0.0,20.0,51.0,-4.656612873077393e-10,-20.0
32,100,100,50,moving_belt,green,false,true,joint 1 -,false,2024-03-04 15:55:40.235078,16.747,0.159,235.0,292.8220520019531,106.5785140991211,84.958251953125,0.0,20.0,51.0,-4.656612873077393e-10,-20.0
32,100,100,50,go_to_pick_down,green,true,false,joint 3 +,false,2024-03-04 15:55:40.926615,16.785,0.159,235.0,284.0044860839844,103.36918640136719,33.279571533203125,0.0,20.0,51.0,20.89866065979004,-20.0
32,100,100,50,go_to_pick_up_from_pick_down,green,true,false,joint 3 -,true,2024-03-04 15:55:42.313870,17.222,0.155,235.0,292.7230224609375,106.54247283935547,79.39258575439453,0.0,20.0,51.0,1.7736676931381226,-20.0
32,100,100,50,go_to_color_detect_up_from_pick_up,green,true,false,joint 1 +,true,2024-03-04 15:55:43.002126,22.728,0.155,235.0,196.68409729003906,241.700439453125,84.958251953125,30.862972259521484,51.906253814697266,51.0,0.0,-20.0
32,100,100,50,go_to_color_detect_down,green,true,false,joint 3 +,true,2024-03-04 15:55:44.379324,22.272,0.202,235.0,131.2519073486328,281.4706115722656,67.45097351074219,45.0,65.0,51.0,7.599998474121094,-20.0
32,100,100,50,go_to_color_detect_down,green,true,false,joint 3 +,false,2024-03-04 15:55:45.069016,21.95,0.202,235.0,111.26680755615234,238.6124267578125,-24.010658264160156,45.0,65.0,51.0,47.932281494140625,-20.0
32,100,100,50,go_to_color_detect_up_from_color_detect_down,green,true,false,joint 3 -,false,2024-03-04 15:55:45.757998,21.988,0.2,235.0,130.98873901367188,280.9062194824219,62.869842529296875,45.0,65.0,51.0,7.83078670501709,-20.0
32,100,100,50,detecting_color,green,false,false,detecting_color,false,2024-03-04 15:55:47.143452,17.241,0.2,235.0,131.69407653808594,282.4188232421875,84.958251953125,45.0,65.0,51.0,-4.656612873077393e-10,-20.0
32,100,100,50,go_to_color_detect_down,green,true,false,joint 3 +,false,2024-03-04 15:55:47.840193,17.241,0.156,235.0,131.69407653808594,282.4188232421875,84.958251953125,45.0,65.0,51.0,-4.656612873077393e-10,-20.0
32,100,100,50,go_to_color_detect_down,green,true,false,joint 3 +,false,2024-03-04 15:55:49.220570,16.215,0.156,235.0,115.47264099121094,247.63186645507812,-14.094192504882812,45.0,65.0,51.0,43.01434326171875,-20.0
32,100,100,50,go_to_color_detect_up_from_color_detect_down,green,true,false,joint 3 -,true,2024-03-04 15:55:49.916075,16.215,0.156,235.0,121.74224090576172,261.0770568847656,5.154693603515625,45.0,65.0,51.0,31.76000213623047,-20.0
32,100,100,50,go_to_blue_up,blue,true,false,joint 1 +,true,2024-03-04 15:55:51.292360,23.127,0.157,235.0,129.7191619873047,283.3313903808594,84.958251953125,45.40000915527344,65.60000610351562,51.0,-4.656612873077393e-10,-20.0
32,100,100,50,go_to_pick_up_from_blue,blue,true,false,joint 1 -,false,2024-03-04 15:55:51.982086,23.127,0.157,235.0,39.05567932128906,309.1575622558594,84.958251953125,62.79999542236328,82.35999298095703,51.0,-4.656612873077393e-10,-20.0
32,100,100,50,go_to_pick_up_from_blue,blue,true,false,joint 1 -,false,2024-03-04 15:55:53.359417,16.215,0.203,235.0,270.4308166503906,154.82542419433594,84.958251953125,9.791740417480469,28.926837921142578,51.0,-4.656612873077393e-10,-20.0
32,100,100,50,moving_belt,blue,false,true,joint 1 -,false,2024-03-04 15:55:54.052051,16.215,0.203,235.0,292.8220520019531,106.5785140991211,84.958251953125,0.0,20.0,51.0,-4.656612873077393e-10,-20.0
32,100,100,50,moving_belt,blue,false,true,joint 1 -,false,2024-03-04 15:55:55.437640,16.538,0.158,235.0,292.8220520019531,106.5785140991211,84.958251953125,0.0,20.0,51.0,-4.656612873077393e-10,-20.0
32,100,100,50,moving_belt,blue,false,true,joint 1 -,false,2024-03-04 15:55:56.131842,16.614,0.158,235.0,292.8220520019531,106.5785140991211,84.958251953125,0.0,20.0,51.0,-4.656612873077393e-10,-20.0
32,100,100,50,moving_belt,blue,false,true,joint 1 -,false,2024-03-04 15:55:56.823031,16.614,0.16,235.0,292.8220520019531,106.5785140991211,84.958251953125,0.0,20.0,51.0,-4.656612873077393e-10,-20.0
32,100,100,50,moving_belt,blue,false,true,joint 1 -,false,2024-03-04 15:55:58.211645,16.728,0.16,235.0,292.8220520019531,106.5785140991211,84.958251953125,0.0,20.0,51.0,-4.656612873077393e-10,-20.0
32,100,100,50,go_to_pick_down,blue,true,false,joint 3 +,false,2024-03-04 15:55:58.900324,16.728,0.161,235.0,292.7784423828125,106.56263732910156,81.26412963867188,0.0,20.0,51.0,1.8000000715255737,-20.0
32,100,100,50,go_to_pick_up_from_pick_down,blue,true,false,joint 3 -,true,2024-03-04 15:56:00.284492,16.88,0.161,235.0,283.1217346191406,103.04788970947266,30.843944549560547,0.0,20.0,51.0,21.39999771118164,-20.0
32,100,100,50,go_to_color_detect_up_from_pick_up,blue,true,false,joint 1 +,true,2024-03-04 15:56:00.978804,17.013,0.198,235.0,290.6828918457031,112.28178405761719,84.958251953125,1.1200027465820312,21.44000244140625,51.0,0.0,-20.0
32,100,100,50,go_to_color_detect_up_from_pick_up,blue,true,false,joint 1 +,true,2024-03-04 15:56:02.369841,22.158,0.198,235.0,142.65377807617188,277.04443359375,84.958251953125,42.75547790527344,63.15876007080078,51.0,0.0,-20.0
32,100,100,50,go_to_color_detect_down,blue,true,false,joint 3 +,true,2024-03-04 15:56:03.096790,22.158,0.203,235.0,126.41095733642578,271.08917236328125,25.637104034423828,45.0,65.0,51.0,25.171276092529297,-20.0
32,100,100,50,go_to_color_detect_up_from_color_detect_down,blue,true,false,joint 3 -,false,2024-03-04 15:56:03.793030,21.893,0.203,235.0,115.32848358154297,247.32272338867188,-14.466949462890625,45.0,65.0,51.0,41.87999725341797,-20.0
32,100,100,50,go_to_color_detect_up_from_color_detect_down,blue,true,false,joint 3 -,false,2024-03-04 15:56:05.174999,22.007,0.162,235.0,131.6920623779297,282.4145202636719,83.77405548095703,45.0,65.0,51.0,0.2902834713459015,-20.0
32,100,100,50,detecting_color,blue,false,false,detecting_color,false,2024-03-04 15:56:05.867377,17.26,0.162,235.0,131.69407653808594,282.4188232421875,84.958251953125,45.0,65.0,51.0,-4.656612873077393e-10,-20.0
32,100,100,50,go_to_color_detect_down,blue,true,false,joint 3 +,false,2024-03-04 15:56:07.249696,16.234,0.162,235.0,130.7275390625,280.3460998535156,59.12882995605469,45.0,65.0,51.0,11.039999008178711,-20.0
32,100,100,50,go_to_color_detect_up_from_color_detect_down,blue,true,false,joint 3 -,true,2024-03-04 15:56:08.455341,16.253,0.157,235.0,111.14300537109375,238.34693908691406,-24.275192260742188,45.0,65.0,51.0,48.0,-20.0
32,100,100,50,go_to_color_detect_up_from_color_detect_down,blue,true,false,joint 3 -,true,2024-03-04 15:56:09.146287,19.671,0.157,235.0,131.31553649902344,281.6070556640625,68.75533294677734,45.0,65.0,51.0,5.6369428634643555,-20.0
32,100,100,50,go_to_red_up,red,true,false,joint 1 +,true,2024-03-04 15:56:09.856802,23.336,0.214,235.0,53.46846008300781,306.9932556152344,84.958251953125,60.12000274658203,81.24000549316406,51.0,-4.656612873077393e-10,-20.0
32,100,100,50,go_to_pick_up_from_red,red,true,false,joint 1 -,false,2024-03-04 15:56:11.242657,22.158,0.214,235.0,-178.3797149658203,255.50814819335938,84.958251953125,104.92032623291016,124.97871398925781,51.0,-4.656612873077393e-10,-20.0
32,100,100,50,go_to_pick_up_from_red,red,true,false,joint 1 -,false,2024-03-04 15:56:11.936432,22.462,0.205,235.0,75.38642120361328,302.35845947265625,84.958251953125,56.0,74.0,51.0,-4.656612873077393e-10,-20.0
32,100,100,50,go_to_pick_up_from_red,red,true,false,joint 1 -,false,2024-03-04 15:56:13.318643,16.424,0.205,235.0,291.880859375,109.1297607421875,84.958251953125,0.4999961853027344,20.319995880126953,51.0,-4.656612873077393e-10,-20.0
32,100,100,50,moving_belt,red,false,true,joint 1 -,false,2024-03-04 15:56:14.008377,16.367,0.157,235.0,292.8220520019531,106.5785140991211,84.958251953125,0.0,20.0,51.0,-4.656612873077393e-10,-20.0
32,100,100,50,moving_belt,red,false,true,joint 1 -,false,2024-03-04 15:56:15.399484,16.899,0.157,235.0,292.8220520019531,106.5785140991211,84.958251953125,0.0,20.0,51.0,-4.656612873077393e-10,-20.0
32,100,100,50,moving_belt,red,false,true,joint 1 -,false,2024-03-04 15:56:16.090978,16.899,0.161,235.0,292.8220520019531,106.5785140991211,84.958251953125,0.0,20.0,51.0,-4.656612873077393e-10,-20.0
32,100,100,50,moving_belt,red,false,true,joint 1 -,false,2024-03-04 15:56:16.782797,16.842,0.161,235.0,292.8220520019531,106.5785140991211,84.958251953125,0.0,20.0,51.0,-4.656612873077393e-10,-20.0
32,100,100,50,moving_belt,red,false,true,joint 1 -,false,2024-03-04 15:56:18.163399,16.899,0.16,235.0,292.8220520019531,106.5785140991211,84.958251953125,0.0,20.0,51.0,-4.656612873077393e-10,-20.0
32,100,100,50,go_to_pick_down,red,true,false,joint 3 +,false,2024-03-04 15:56:18.859063,16.728,0.16,235.0,288.90997314453125,105.15463256835938,50.22156524658203,0.0,20.0,51.0,14.464665412902832,-20.0
32,100,100,50,go_to_pick_up_from_pick_down,red,true,false,joint 3 -,true,2024-03-04 15:56:20.240249,16.234,0.16,235.0,290.7051086425781,105.8080062866211,59.321231842041016,0.0,20.0,51.0,9.16766357421875,-20.0
32,100,100,50,go_to_color_detect_up_from_pick_up,red,true,false,joint 1 +,true,2024-03-04 15:56:20.928972,22.823,0.179,235.0,251.33216857910156,184.21690368652344,84.958251953125,16.23999786376953,37.39999771118164,51.0,0.0,-20.0
32,100,100,50,go_to_color_detect_down,red,true,false,joint 3 +,true,2024-03-04 15:56:22.317770,22.196,0.179,235.0,131.68740844726562,282.404541015625,82.8031997680664,45.0,65.0,51.0,1.1199997663497925,-20.0
32,100,100,50,go_to_color_detect_down,red,true,false,joint 3 +,true,2024-03-04 15:56:23.009870,21.817,0.202,235.0,114.53912353515625,245.6299285888672,-16.463424682617188,45.0,65.0,51.0,44.19690704345703,-20.0
32,100,100,50,go_to_color_detect_up_from_color_detect_down,red,true,false,joint 3 -,false,2024-03-04 15:56:24.404318,22.064,0.202,235.0,126.8277587890625,271.9830017089844,27.925533294677734,45.0,65.0,51.0,21.4974422454834,-20.0
32,100,100,50,detecting_color,red,false,false,detecting_color,false,2024-03-04 15:56:25.093130,17.165,0.162,235.0,131.69407653808594,282.4188232421875,84.958251953125,45.0,65.0,51.0,-4.656612873077393e-10,-20.0
32,100,100,50,detecting_color,red,false,false,detecting_color,false,2024-03-04 15:56:25.812890,17.165,0.162,233.1,131.69407653808594,282.4188232421875,84.958251953125,45.0,65.0,51.0,-4.656612873077393e-10,-20.0
32,100,100,50,go_to_color_detect_down,red,true,false,joint 3 +,false,2024-03-04 15:56:27.193372,16.272,0.157,233.1,122.58028411865234,262.8742370605469,8.309219360351562,45.0,65.0,51.0,32.558963775634766,-20.0
32,100,100,50,go_to_color_detect_up_from_color_detect_down,red,true,false,joint 3 -,true,2024-03-04 15:56:27.881682,16.253,0.157,235.0,114.85627746582031,246.31007385253906,-15.670166015625,45.0,65.0,51.0,42.55999755859375,-20.0
32,100,100,50,go_to_green_up,green,true,false,joint 1 +,true,2024-03-04 15:56:29.258162,18.855,0.212,235.0,131.69407653808594,282.4188232421875,84.94502258300781,45.0,65.0,51.0,-4.656612873077393e-10,-20.0
32,100,100,50,go_to_green_up,green,true,false,joint 1 +,true,2024-03-04 15:56:29.947489,23.203,0.212,235.0,-50.826839447021484,307.441650390625,84.958251953125,79.38733673095703,100.03715515136719,51.0,-4.656612873077393e-10,-20.0
32,100,100,50,go_to_pick_up_from_green,green,true,false,joint 1 -,false,2024-03-04 15:56:31.329593,19.747,0.197,235.0,6.743490695953369,311.541748046875,84.958251953125,68.75999450683594,87.59999084472656,51.0,-4.656612873077393e-10,-20.0
32,100,100,50,go_to_pick_up_from_green,green,true,false,joint 1 -,false,2024-03-04 15:56:32.020502,19.747,0.197,235.0,289.1708984375,116.1202621459961,84.958251953125,1.8785552978515625,21.510738372802734,51.0,-4.656612873077393e-10,-20.0
32,100,100,50,moving_belt,green,false,true,joint 1 -,false,2024-03-04 15:56:33.410431,16.272,0.16,235.0,292.8220520019531,106.5785140991211,84.958251953125,0.0,20.0,51.0,-4.656612873077393e-10,-20.0
32,100,100,50,moving_belt,green,false,true,joint 1 -,false,2024-03-04 15:56:34.101498,16.937,0.16,235.0,292.8220520019531,106.5785140991211,84.958251953125,0.0,20.0,51.0,-4.656612873077393e-10,-20.0
32,100,100,50,moving_belt,green,false,true,joint 1 -,false,2024-03-04 15:56:34.796586,16.937,0.16,235.0,292.8220520019531,106.5785140991211,84.958251953125,0.0,20.0,51.0,-4.656612873077393e-10,-20.0
32,100,100,50,moving_belt,green,false,true,joint 1 -,false,2024-03-04 15:56:36.186200,16.823,0.159,235.0,292.8220520019531,106.5785140991211,84.958251953125,0.0,20.0,51.0,-4.656612873077393e-10,-20.0
32,100,100,50,moving_belt,green,false,true,joint 1 -,false,2024-03-04 15:56:36.878309,16.823,0.159,235.0,292.8220520019531,106.5785140991211,84.958251953125,0.0,20.0,51.0,-4.656612873077393e-10,-20.0
32,100,100,50,go_to_pick_down,green,true,false,joint 3 +,false,2024-03-04 15:56:38.265622,16.918,0.16,235.0,291.0296630859375,105.92613983154297,61.35441970825195,0.0,20.0,51.0,10.119999885559082,-20.0
32,100,100,50,go_to_pick_up_from_pick_down,green,true,false,joint 3 -,true,2024-03-04 15:56:38.965896,16.462,0.16,235.0,288.9488830566406,105.1688003540039,50.392372131347656,0.0,20.0,51.0,12.75999641418457,-20.0
32,100,100,50,go_to_color_detect_up_from_pick_up,green,true,false,joint 1 +,true,2024-03-04 15:56:40.343370,22.519,0.213,235.0,276.154052734375,144.369873046875,84.958251953125,7.600002288818359,28.400001525878906,51.0,0.0,-20.0
32,100,100,50,go_to_color_detect_down,green,true,false,joint 3 +,true,2024-03-04 15:56:41.045023,22.14,0.213,235.0,131.6935272216797,282.41766357421875,84.34249877929688,45.0,65.0,51.0,0.3999999165534973,-20.0
32,100,100,50,go_to_color_detect_down,green,true,false,joint 3 +,true,2024-03-04 15:56:42.442717,22.064,0.202,235.0,115.97435760498047,248.70779418945312,-12.776542663574219,45.0,65.0,51.0,42.363059997558594,-20.0
32,100,100,50,go_to_color_detect_up_from_color_detect_down,green,true,false,joint 3 -,false,2024-03-04 15:56:43.136005,22.064,0.202,235.0,121.74224090576172,261.0770568847656,5.154693603515625,45.0,65.0,51.0,31.76000213623047,-20.0
32,100,100,50,detecting_color,green,false,false,detecting_color,false,2024-03-04 15:56:43.829664,19.272,0.202,235.0,131.69407653808594,282.4188232421875,84.958251953125,45.0,65.0,51.0,-4.656612873077393e-10,-20.0
32,100,100,50,detecting_color,green,false,false,detecting_color,false,2024-03-04 15:56:45.214120,16.823,0.165,235.0,131.69407653808594,282.4188232421875,84.958251953125,45.0,65.0,51.0,-4.656612873077393e-10,-20.0
32,100,100,50,go_to_color_detect_down,green,true,false,joint 3 +,false,2024-03-04 15:56:45.904517,16.462,0.165,235.0,126.41095733642578,271.08917236328125,25.637104034423828,45.0,65.0,51.0,25.171276092529297,-20.0
32,100,100,50,go_to_color_detect_up_from_color_detect_down,green,true,false,joint 3 -,true,2024-03-04 15:56:47.294268,16.462,0.155,235.0,114.85627746582031,246.31007385253906,-15.670166015625,45.0,65.0,51.0,42.55999755859375,-20.0
32,100,100,50,go_to_color_detect_up_from_color_detect_down,green,true,false,joint 3 -,true,2024-03-04 15:56:47.990389,23.431,0.155,235.0,131.68978881835938,282.4096374511719,83.23200988769531,45.0,65.0,51.0,0.4615650475025177,-20.0
32,100,100,50,go_to_blue_up,blue,true,false,joint 1 +,true,2024-03-04 15:56:49.385541,22.424,0.213,235.0,30.13475799560547,310.1542053222656,84.958251953125,64.45052337646484,84.6393814086914,51.0,-4.656612873077393e-10,-20.0
32,100,100,50,go_to_pick_up_from_blue,blue,true,false,joint 1 -,false,2024-03-04 15:56:50.085450,21.817,0.213,235.0,221.58935546875,219.0933380126953,84.958251953125,24.675479888916016,43.29057693481445,51.0,-4.656612873077393e-10,-20.0
32,100,100,50,moving_belt,blue,false,true,joint 1 -,false,2024-03-04 15:56:51.471991,16.557,0.159,235.0,292.8220520019531,106.5785140991211,84.958251953125,0.0,20.0,51.0,-4.656612873077393e-10,-20.0
32,100,100,50,moving_belt,blue,false,true,joint 1 -,false,2024-03-04 15:56:52.226183,16.557,0.159,235.0,292.8220520019531,106.5785140991211,84.958251953125,0.0,20.0,51.0,-4.656612873077393e-10,-20.0
32,100,100,50,moving_belt,blue,false,true,joint 1 -,false,2024-03-04 15:56:52.918295,16.823,0.161,235.0,292.8220520019531,106.5785140991211,84.958251953125,0.0,20.0,51.0,-4.656612873077393e-10,-20.0
32,100,100,50,moving_belt,blue,false,true,joint 1 -,false,2024-03-04 15:56:54.311249,16.709,0.161,235.0,292.8220520019531,106.5785140991211,84.958251953125,0.0,20.0,51.0,-4.656612873077393e-10,-20.0
32,100,100,50,moving_belt,blue,false,true,joint 1 -,false,2024-03-04 15:56:54.997797,16.728,0.161,235.0,292.8220520019531,106.5785140991211,84.958251953125,0.0,20.0,51.0,-4.656612873077393e-10,-20.0
32,100,100,50,moving_belt,blue,false,true,joint 1 -,false,2024-03-04 15:56:56.389063,16.69,0.161,235.0,292.8220520019531,106.5785140991211,84.958251953125,0.0,20.0,51.0,-4.656612873077393e-10,-20.0
32,100,100,50,go_to_pick_up_from_pick_down,blue,true,false,joint 3 -,true,2024-03-04 15:56:57.079952,16.462,0.159,235.0,282.77099609375,102.92022705078125,29.9105224609375,0.0,20.0,51.0,22.0,-20.0
32,100,100,50,go_to_color_detect_up_from_pick_up,blue,true,false,joint 1 +,true,2024-03-04 15:56:58.460207,22.918,0.159,235.0,292.8217468261719,106.57840728759766,84.64908599853516,0.0,20.0,51.0,0.04433741420507431,-20.0
32,100,100,50,go_to_color_detect_up_from_pick_up,blue,true,false,joint 1 +,true,2024-03-04 15:56:59.150592,22.102,0.159,235.0,183.7216796875,251.6944122314453,84.958251953125,33.87281799316406,54.79610061645508,51.0,0.0,-20.0
32,100,100,50,go_to_color_detect_down,blue,true,false,joint 3 +,true,2024-03-04 15:56:59.842710,22.102,0.203,235.0,129.5434112548828,277.8067321777344,46.61455154418945,45.0,65.0,51.0,16.23999786376953,-20.0
32,100,100,50,go_to_color_detect_up_from_color_detect_down,blue,true,false,joint 3 -,false,2024-03-04 15:57:01.228602,21.893,0.203,235.0,111.33187866210938,238.75196838378906,-23.871063232421875,45.0,65.0,51.0,47.599998474121094,-20.0
32,100,100,50,go_to_color_detect_up_from_color_detect_down,blue,true,false,joint 3 -,false,2024-03-04 15:57:01.930129,18.931,0.202,235.0,131.5928192138672,282.2016906738281,76.56852722167969,45.0,65.0,51.0,2.7805356979370117,-20.0
32,100,100,50,detecting_color,blue,false,false,detecting_color,false,2024-03-04 15:57:03.312455,16.747,0.202,235.0,131.69407653808594,282.4188232421875,84.958251953125,45.0,65.0,51.0,-4.656612873077393e-10,-20.0
32,100,100,50,go_to_color_detect_down,blue,true,false,joint 3 +,false,2024-03-04 15:57:04.000696,16.747,0.157,235.0,131.52725219726562,282.0610656738281,74.1922378540039,45.0,65.0,51.0,4.799999237060547,-20.0
32,100,100,50,go_to_color_detect_down,blue,true,false,joint 3 +,false,2024-03-04 15:57:05.380508,16.196,0.157,235.0,112.10877227783203,240.4180145263672,-22.173080444335938,45.0,65.0,51.0,47.07587432861328,-20.0
32,100,100,50,go_to_color_detect_up_from_color_detect_down,blue,true,false,joint 3 -,true,2024-03-04 15:57:06.073547,16.367,0.157,235.0,130.0281982421875,278.8463439941406,51.144752502441406,45.0,65.0,51.0,12.287192344665527,-20.0
32,100,100,50,go_to_red_up,red,true,false,joint 1 +,true,2024-03-04 15:57:07.452329,22.14,0.157,233.1,89.02467346191406,298.62744140625,84.958251953125,53.40000915527344,74.24000549316406,51.0,-4.656612873077393e-10,-20.0
32,100,100,50,go_to_red_up,red,true,false,joint 1 +,true,2024-03-04 15:57:08.146261,22.14,0.202,233.1,-171.4998321533203,260.17596435546875,84.958251953125,103.39161682128906,123.7300033569336,51.0,-4.656612873077393e-10,-20.0
32,100,100,50,go_to_pick_up_from_red,red,true,false,joint 1 -,false,2024-03-04 15:57:08.839949,22.443,0.202,235.0,6.090987205505371,311.55517578125,84.958251953125,68.87999725341797,87.15999603271484,51.0,-4.656612873077393e-10,-20.0
32,100,100,50,go_to_pick_up_from_red,red,true,false,joint 1 -,false,2024-03-04 15:57:10.351898,17.298,0.159,235.0,287.0972595214844,121.1565170288086,84.958251953125,2.879993438720703,22.419994354248047,51.0,-4.656612873077393e-10,-20.0
32,100,100,50,moving_belt,red,false,true,joint 1 -,false,2024-03-04 15:57:11.048287,16.367,0.159,235.0,292.8220520019531,106.5785140991211,84.958251953125,0.0,20.0,51.0,-4.656612873077393e-10,-20.0
32,100,100,50,moving_belt,red,false,true,joint 1 -,false,2024-03-04 15:57:12.428942,16.861,0.161,235.0,292.8220520019531,106.5785140991211,84.958251953125,0.0,20.0,51.0,-4.656612873077393e-10,-20.0
32,100,100,50,moving_belt,red,false,true,joint 1 -,false,2024-03-04 15:57:13.122798,16.728,0.161,235.0,292.8220520019531,106.5785140991211,84.958251953125,0.0,20.0,51.0,-4.656612873077393e-10,-20.0
32,100,100,50,moving_belt,red,false,true,joint 1 -,false,2024-03-04 15:57:13.816053,16.728,0.161,235.0,292.8220520019531,106.5785140991211,84.958251953125,0.0,20.0,51.0,-4.656612873077393e-10,-20.0
32,100,100,50,moving_belt,red,false,true,joint 1 -,false,2024-03-04 15:57:15.204653,16.842,0.159,235.0,292.8220520019531,106.5785140991211,84.958251953125,0.0,20.0,51.0,-4.656612873077393e-10,-20.0
32,100,100,50,go_to_pick_down,red,true,false,joint 3 +,false,2024-03-04 15:57:15.897536,16.557,0.159,235.0,291.3401794433594,106.0391616821289,63.484046936035156,0.0,20.0,51.0,9.239999771118164,-20.0
32,100,100,50,go_to_pick_up_from_pick_down,red,true,false,joint 3 -,true,2024-03-04 15:57:17.276252,16.462,0.157,235.0,288.4822998046875,104.99897766113281,48.40084457397461,0.0,20.0,51.0,13.599996566772461,-20.0
32,100,100,50,go_to_color_detect_up_from_pick_up,red,true,false,joint 1 +,true,2024-03-04 15:57:17.963489,23.336,0.157,235.0,276.154052734375,144.369873046875,84.958251953125,7.600002288818359,28.400001525878906,51.0,0.0,-20.0
32,100,100,50,go_to_color_detect_down,red,true,false,joint 3 +,true,2024-03-04 15:57:19.372788,22.102,0.204,235.0,131.69393920898438,282.4185485839844,84.65037536621094,45.0,65.0,51.0,0.2399999499320984,-20.0
32,100,100,50,go_to_color_detect_down,red,true,false,joint 3 +,true,2024-03-04 15:57:20.082982,22.215,0.204,235.0,116.49774169921875,249.8302001953125,-11.367164611816406,45.0,65.0,51.0,41.67177963256836,-20.0
32,100,100,50,go_to_color_detect_up_from_color_detect_down,red,true,false,joint 3 -,false,2024-03-04 15:57:21.491328,21.988,0.204,235.0,124.98181915283203,268.02435302734375,18.49610137939453,45.0,65.0,51.0,25.56000518798828,-20.0
32,100,100,50,detecting_color,red,false,false,detecting_color,false,2024-03-04 15:57:22.179846,18.209,0.204,235.0,131.69407653808594,282.4188232421875,84.958251953125,45.0,65.0,51.0,-4.656612873077393e-10,-20.0
32,100,100,50,detecting_color,red,false,false,detecting_color,false,2024-03-04 15:57:22.871774,16.69,0.204,235.0,131.69407653808594,282.4188232421875,84.958251953125,45.0,65.0,51.0,-4.656612873077393e-10,-20.0
32,100,100,50,go_to_color_detect_down,red,true,false,joint 3 +,false,2024-03-04 15:57:24.256668,16.329,0.159,235.0,123.23137664794922,264.2705383300781,10.889289855957031,45.0,65.0,51.0,31.427682876586914,-20.0
32,100,100,50,go_to_color_detect_up_from_color_detect_down,red,true,false,joint 3 -,true,2024-03-04 15:57:24.945509,16.329,0.159,235.0,114.85627746582031,246.31007385253906,-15.670166015625,45.0,65.0,51.0,42.55999755859375,-20.0
32,100,100,50,go_to_color_detect_up_from_color_detect_down,red,true,false,joint 3 -,true,2024-03-04 15:57:26.328913,23.317,0.159,233.1,131.68978881835938,282.4096374511719,83.23200988769531,45.0,65.0,51.0,0.4615650475025177,-20.0
32,100,100,50,go_to_green_up,green,true,false,joint 1 +,true,2024-03-04 15:57:27.030557,22.234,0.159,233.1,-47.12175369262695,308.0312805175781,84.958251953125,78.69751739501953,99.38733673095703,51.0,-4.656612873077393e-10,-20.0
32,100,100,50,go_to_pick_up_from_green,green,true,false,joint 1 -,false,2024-03-04 15:57:28.406039,22.234,0.203,235.0,6.743490695953369,311.541748046875,84.958251953125,68.75999450683594,87.59999084472656,51.0,-4.656612873077393e-10,-20.0
32,100,100,50,go_to_pick_up_from_green,green,true,false,joint 1 -,false,2024-03-04 15:57:29.092596,16.538,0.203,235.0,282.58990478515625,131.32656860351562,84.958251953125,4.92546272277832,24.317644119262695,51.0,-4.656612873077393e-10,-20.0
32,100,100,50,moving_belt,green,false,true,joint 1 -,false,2024-03-04 15:57:30.480333,16.424,0.158,235.0,292.8220520019531,106.5785140991211,84.958251953125,0.0,20.0,51.0,-4.656612873077393e-10,-20.0
32,100,100,50,moving_belt,green,false,true,joint 1 -,false,2024-03-04 15:57:31.169580,16.424,0.158,235.0,292.8220520019531,106.5785140991211,84.958251953125,0.0,20.0,51.0,-4.656612873077393e-10,-20.0
32,100,100,50,moving_belt,green,false,true,joint 1 -,false,2024-03-04 15:57:31.862392,16.69,0.159,235.0,292.8220520019531,106.5785140991211,84.958251953125,0.0,20.0,51.0,-4.656612873077393e-10,-20.0
32,100,100,50,moving_belt,green,false,true,joint 1 -,false,2024-03-04 15:57:33.252285,16.766,0.159,235.0,292.8220520019531,106.5785140991211,84.958251953125,0.0,20.0,51.0,-4.656612873077393e-10,-20.0
32,100,100,50,moving_belt,green,false,true,joint 1 -,false,2024-03-04 15:57:33.942711,16.899,0.159,235.0,292.8220520019531,106.5785140991211,84.958251953125,0.0,20.0,51.0,-4.656612873077393e-10,-20.0
32,100,100,50,go_to_pick_down,green,true,false,joint 3 +,false,2024-03-04 15:57:35.337408,16.823,0.16,235.0,292.54339599609375,106.47708892822266,75.62562561035156,0.0,20.0,51.0,4.200000286102295,-20.0
32,100,100,50,go_to_pick_up_from_pick_down,green,true,false,joint 3 -,true,2024-03-04 15:57:36.028877,16.823,0.16,235.0,288.0148620605469,104.82884216308594,46.5154914855957,0.0,20.0,51.0,14.399996757507324,-20.0
32,100,100,50,go_to_color_detect_up_from_pick_up,green,true,false,joint 1 +,true,2024-03-04 15:57:37.414984,23.089,0.156,235.0,281.399169921875,133.8590087890625,84.958251953125,5.44000244140625,26.12000274658203,51.0,0.0,-20.0
32,100,100,50,go_to_color_detect_down,green,true,false,joint 3 +,true,2024-03-04 15:57:38.102699,23.089,0.156,235.0,132.375244140625,282.1001892089844,84.958251953125,44.861732482910156,64.94501495361328,51.0,0.0,-20.0
32,100,100,50,go_to_color_detect_down,green,true,false,joint 3 +,true,2024-03-04 15:57:39.478387,21.969,0.206,235.0,117.60411071777344,252.20281982421875,-8.263710021972656,45.0,65.0,51.0,40.16921615600586,-20.0
32,100,100,50,go_to_color_detect_up_from_color_detect_down,green,true,false,joint 3 -,false,2024-03-04 15:57:40.166058,22.064,0.206,235.0,119.21041107177734,255.64755249023438,-3.4265670776367188,45.0,65.0,51.0,36.0,-20.0
32,100,100,50,detecting_color,green,false,false,detecting_color,false,2024-03-04 15:57:40.859448,22.064,0.182,235.0,131.69407653808594,282.4188232421875,84.958251953125,45.0,65.0,51.0,-4.656612873077393e-10,-20.0
32,100,100,50,detecting_color,green,false,false,detecting_color,false,2024-03-04 15:57:42.241083,17.241,0.182,235.0,131.69407653808594,282.4188232421875,84.958251953125,45.0,65.0,51.0,-4.656612873077393e-10,-20.0
32,100,100,50,go_to_color_detect_down,green,true,false,joint 3 +,false,2024-03-04 15:57:42.930012,16.215,0.158,235.0,129.2152099609375,277.1029052734375,43.8480224609375,45.0,65.0,51.0,17.39999771118164,-20.0
32,100,100,50,go_to_color_detect_up_from_color_detect_down,green,true,false,joint 3 -,true,2024-03-04 15:57:44.309638,16.348,0.158,235.0,112.5685043334961,241.4039306640625,-21.14051055908203,45.0,65.0,51.0,45.79999542236328,-20.0
32,100,100,50,go_to_color_detect_up_from_color_detect_down,green,true,false,joint 3 -,true,2024-03-04 15:57:44.997448,18.722,0.187,235.0,131.6209259033203,282.2619934082031,77.82721710205078,45.0,65.0,51.0,2.329254150390625,-20.0
32,100,100,50,go_to_blue_up,blue,true,false,joint 1 +,true,2024-03-04 15:57:46.379377,23.279,0.187,235.0,40.79572677612305,308.9327392578125,84.958251953125,62.47740173339844,82.90625762939453,51.0,-4.656612873077393e-10,-20.0
32,100,100,50,go_to_pick_up_from_blue,blue,true,false,joint 1 -,false,2024-03-04 15:57:47.066855,22.14,0.203,235.0,150.12155151367188,273.0700378417969,84.958251953125,41.19999694824219,59.79999542236328,51.0,-4.656612873077393e-10,-20.0
32,100,100,50,moving_belt,blue,false,true,joint 1 -,false,2024-03-04 15:57:48.441928,16.69,0.203,235.0,292.8220520019531,106.5785140991211,84.958251953125,0.0,20.0,51.0,-4.656612873077393e-10,-20.0
32,100,100,50,moving_belt,blue,false,true,joint 1 -,false,2024-03-04 15:57:49.172349,16.424,0.163,235.0,292.8220520019531,106.5785140991211,84.958251953125,0.0,20.0,51.0,-4.656612873077393e-10,-20.0
32,100,100,50,moving_belt,blue,false,true,joint 1 -,false,2024-03-04 15:57:49.900611,16.424,0.163,235.0,292.8220520019531,106.5785140991211,84.958251953125,0.0,20.0,51.0,-4.656612873077393e-10,-20.0
32,100,100,50,moving_belt,blue,false,true,joint 1 -,false,2024-03-04 15:57:51.304281,16.709,0.161,235.0,292.8220520019531,106.5785140991211,84.958251953125,0.0,20.0,51.0,-4.656612873077393e-10,-20.0
32,100,100,50,moving_belt,blue,false,true,joint 1 -,false,2024-03-04 15:57:51.994112,16.709,0.161,235.0,292.8220520019531,106.5785140991211,84.958251953125,0.0,20.0,51.0,-4.656612873077393e-10,-20.0
32,100,100,50,moving_belt,blue,false,true,joint 1 -,false,2024-03-04 15:57:53.372200,16.538,0.161,235.0,292.8220520019531,106.5785140991211,84.958251953125,0.0,20.0,51.0,-4.656612873077393e-10,-20.0
32,100,100,50,go_to_pick_down,blue,true,false,joint 3 +,false,2024-03-04 15:57:54.065612,16.614,0.161,235.0,284.6309814453125,103.59720611572266,35.090972900390625,0.0,20.0,51.0,20.226327896118164,-20.0
32,100,100,50,go_to_pick_up_from_pick_down,blue,true,false,joint 3 -,true,2024-03-04 15:57:55.449395,16.291,0.161,235.0,292.6222229003906,106.50578308105469,77.05435180664062,0.0,20.0,51.0,2.6060001850128174,-20.0
32,100,100,50,go_to_color_detect_up_from_pick_up,blue,true,false,joint 1 +,true,2024-03-04 15:57:56.140870,23.032,0.213,235.0,201.2184600830078,237.9387969970703,84.958251953125,29.77968978881836,50.862972259521484,51.0,0.0,-20.0
32,100,100,50,go_to_color_detect_down,blue,true,false,joint 3 +,true,2024-03-04 15:57:56.835814,22.177,0.213,235.0,131.4761962890625,281.95159912109375,72.65760803222656,45.0,65.0,51.0,5.439999103546143,-20.0
32,100,100,50,go_to_color_detect_down,blue,true,false,joint 3 +,true,2024-03-04 15:57:58.218761,21.893,0.199,235.0,111.67813110351562,239.4945068359375,-23.121429443359375,45.0,65.0,51.0,47.53843688964844,-20.0
32,100,100,50,go_to_color_detect_up_from_color_detect_down,blue,true,false,joint 3 -,false,2024-03-04 15:57:58.916228,21.893,0.199,235.0,130.48638916015625,279.8289489746094,56.1141357421875,45.0,65.0,51.0,10.38463020324707,-20.0
32,100,100,50,detecting_color,blue,false,false,detecting_color,false,2024-03-04 15:58:00.293060,17.108,0.166,235.0,131.69407653808594,282.4188232421875,84.958251953125,45.0,65.0,51.0,-4.656612873077393e-10,-20.0
32,100,100,50,go_to_color_detect_down,blue,true,false,joint 3 +,false,2024-03-04 15:58:00.984882,16.348,0.166,235.0,131.69393920898438,282.4185485839844,84.65037536621094,45.0,65.0,51.0,0.2399999499320984,-20.0
32,100,100,50,go_to_color_detect_down,blue,true,false,joint 3 +,false,2024-03-04 15:58:02.367073,16.405,0.157,235.0,116.49774169921875,249.8302001953125,-11.367164611816406,45.0,65.0,51.0,41.67177963256836,-20.0
32,100,100,50,go_to_color_detect_up_from_color_detect_down,blue,true,false,joint 3 -,true,2024-03-04 15:58:03.057258,16.405,0.157,235.0,121.0972900390625,259.6939697265625,2.8420028686523438,45.0,65.0,51.0,32.880001068115234,-20.0
32,100,100,50,go_to_red_up,red,true,false,joint 1 +,true,2024-03-04 15:58:04.435177,23.051,0.21,235.0,130.50990295410156,282.968017578125,84.958251953125,45.24000549316406,65.40000915527344,51.0,-4.656612873077393e-10,-20.0
32,100,100,50,go_to_red_up,red,true,false,joint 1 +,true,2024-03-04 15:58:05.128770,21.912,0.21,235.0,-137.6332550048828,279.57257080078125,84.958251953125,96.21096801757812,117.02935791015625,51.0,-4.656612873077393e-10,-20.0
32,100,100,50,go_to_pick_up_from_red,red,true,false,joint 1 -,false,2024-03-04 15:58:05.865306,21.912,0.21,235.0,-121.75757598876953,286.8428649902344,84.958251953125,93.0,112.0,51.0,-4.656612873077393e-10,-20.0
32,100,100,50,go_to_pick_up_from_red,red,true,false,joint 1 -,false,2024-03-04 15:58:07.246657,16.5,0.179,235.0,245.55577087402344,191.84915161132812,84.958251953125,17.99999237060547,36.81999206542969,51.0,-4.656612873077393e-10,-20.0
32,100,100,50,moving_belt,red,false,true,joint 1 -,false,2024-03-04 15:58:07.936860,16.5,0.179,235.0,292.8220520019531,106.5785140991211,84.958251953125,0.0,20.0,51.0,-4.656612873077393e-10,-20.0
32,100,100,50,moving_belt,red,false,true,joint 1 -,false,2024-03-04 15:58:09.324360,16.405,0.161,235.0,292.8220520019531,106.5785140991211,84.958251953125,0.0,20.0,51.0,-4.656612873077393e-10,-20.0
32,100,100,50,moving_belt,red,false,true,joint 1 -,false,2024-03-04 15:58:10.013704,16.728,0.161,235.0,292.8220520019531,106.5785140991211,84.958251953125,0.0,20.0,51.0,-4.656612873077393e-10,-20.0
32,100,100,50,moving_belt,red,false,true,joint 1 -,false,2024-03-04 15:58:11.404670,16.804,0.162,235.0,292.8220520019531,106.5785140991211,84.958251953125,0.0,20.0,51.0,-4.656612873077393e-10,-20.0
32,100,100,50,moving_belt,red,false,true,joint 1 -,false,2024-03-04 15:58:12.095758,16.937,0.162,235.0,292.8220520019531,106.5785140991211,84.958251953125,0.0,20.0,51.0,-4.656612873077393e-10,-20.0
32,100,100,50,go_to_pick_down,red,true,false,joint 3 +,false,2024-03-04 15:58:13.482187,16.69,0.162,235.0,292.8144836425781,106.57575988769531,83.41889953613281,0.0,20.0,51.0,0.8400000333786011,-20.0
32,100,100,50,go_to_pick_up_from_pick_down,red,true,false,joint 3 -,true,2024-03-04 15:58:14.174220,16.69,0.162,235.0,282.979248046875,102.99602508544922,30.462482452392578,0.0,20.0,51.0,21.599998474121094,-20.0
32,100,100,50,go_to_color_detect_up_from_pick_up,red,true,false,joint 1 +,true,2024-03-04 15:58:14.869085,16.348,0.162,235.0,292.59820556640625,107.19156646728516,84.958251953125,0.12000083923339844,20.240001678466797,51.0,0.0,-20.0
32,100,100,50,go_to_color_detect_up_from_pick_up,red,true,false,joint 1 +,true,2024-03-04 15:58:16.252717,23.45,0.214,235.0,142.65377807617188,277.04443359375,84.958251953125,42.75547790527344,63.15876007080078,51.0,0.0,-20.0
32,100,100,50,go_to_color_detect_down,red,true,false,joint 3 +,true,2024-03-04 15:58:16.943926,22.462,0.214,235.0,126.41095733642578,271.08917236328125,25.637104034423828,45.0,65.0,51.0,25.171276092529297,-20.0
32,100,100,50,go_to_color_detect_up_from_color_detect_down,red,true,false,joint 3 -,false,2024-03-04 15:58:18.323731,22.31,0.204,235.0,112.5685043334961,241.4039306640625,-21.14051055908203,45.0,65.0,51.0,45.79999542236328,-20.0
32,100,100,50,go_to_color_detect_up_from_color_detect_down,red,true,false,joint 3 -,false,2024-03-04 15:58:19.020140,22.31,0.204,235.0,131.68978881835938,282.4096374511719,83.23200988769531,45.0,65.0,51.0,0.4615650475025177,-20.0
32,100,100,50,detecting_color,red,false,false,detecting_color,false,2024-03-04 15:58:20.419351,16.975,0.166,233.1,131.69407653808594,282.4188232421875,84.958251953125,45.0,65.0,51.0,-4.656612873077393e-10,-20.0
32,100,100,50,go_to_color_detect_down,red,true,false,joint 3 +,false,2024-03-04 15:58:21.132761,16.424,0.166,233.1,131.3400115966797,281.6595458984375,69.28641510009766,45.0,65.0,51.0,6.839998722076416,-20.0
32,100,100,50,go_to_color_detect_down,red,true,false,joint 3 +,false,2024-03-04 15:58:22.514292,16.443,0.158,233.1,111.3722152709961,238.83848571777344,-23.7843017578125,45.0,65.0,51.0,47.840999603271484,-20.0
32,100,100,50,go_to_color_detect_up_from_color_detect_down,red,true,false,joint 3 -,true,2024-03-04 15:58:23.210167,16.709,0.158,235.0,129.11343383789062,276.8846435546875,43.03013229370117,45.0,65.0,51.0,15.441036224365234,-20.0
32,100,100,50,go_to_green_up,green,true,false,joint 1 +,true,2024-03-04 15:58:23.903023,23.583,0.214,235.0,80.0212173461914,301.16497802734375,84.958251953125,55.12000274658203,76.04000091552734,51.0,-4.656612873077393e-10,-20.0
32,100,100,50,go_to_pick_up_from_green,green,true,false,joint 1 -,false,2024-03-04 15:58:25.284727,22.31,0.214,235.0,-79.39026641845703,301.3319091796875,84.958251953125,84.75999450683594,104.59999084472656,51.0,-4.656612873077393e-10,-20.0
32,100,100,50,go_to_pick_up_from_green,green,true,false,joint 1 -,false,2024-03-04 15:58:25.976242,22.31,0.214,235.0,187.00885009765625,249.2617645263672,84.958251953125,33.12090301513672,51.513084411621094,51.0,-4.656612873077393e-10,-20.0
32,100,100,50,moving_belt,green,false,true,joint 1 -,false,2024-03-04 15:58:27.362105,16.481,0.165,235.0,292.8220520019531,106.5785140991211,84.958251953125,0.0,20.0,51.0,-4.656612873077393e-10,-20.0
32,100,100,50,moving_belt,green,false,true,joint 1 -,false,2024-03-04 15:58:28.052234,16.538,0.165,235.0,292.8220520019531,106.5785140991211,84.958251953125,0.0,20.0,51.0,-4.656612873077393e-10,-20.0
32,100,100,50,moving_belt,green,false,true,joint 1 -,false,2024-03-04 15:58:29.433911,16.709,0.161,235.0,292.8220520019531,106.5785140991211,84.958251953125,0.0,20.0,51.0,-4.656612873077393e-10,-20.0
32,100,100,50,moving_belt,green,false,true,joint 1 -,false,2024-03-04 15:58:30.121078,16.709,0.161,235.0,292.8220520019531,106.5785140991211,84.958251953125,0.0,20.0,51.0,-4.656612873077393e-10,-20.0
32,100,100,50,moving_belt,green,false,true,joint 1 -,false,2024-03-04 15:58:31.504768,16.842,0.16,235.0,292.8220520019531,106.5785140991211,84.958251953125,0.0,20.0,51.0,-4.656612873077393e-10,-20.0
32,100,100,50,moving_belt,green,false,true,joint 1 -,false,2024-03-04 15:58:32.194444,16.823,0.16,235.0,292.8220520019531,106.5785140991211,84.958251953125,0.0,20.0,51.0,-4.656612873077393e-10,-20.0
32,100,100,50,go_to_pick_down,green,true,false,joint 3 +,false,2024-03-04 15:58:32.884233,16.766,0.16,235.0,284.3038635253906,103.4781494140625,34.13602828979492,0.0,20.0,51.0,20.582494735717773,-20.0
32,100,100,50,go_to_pick_up_from_pick_down,green,true,false,joint 3 -,true,2024-03-04 15:58:34.271871,17.772,0.16,235.0,292.8188171386719,106.57733154296875,83.95038604736328,0.0,20.0,51.0,0.23666994273662567,-20.0
32,100,100,50,go_to_color_detect_up_from_pick_up,green,true,false,joint 1 +,true,2024-03-04 15:58:34.960284,22.804,0.206,235.0,192.2506866455078,245.2415313720703,84.958251953125,31.906253814697266,52.9095344543457,51.0,0.0,-20.0
32,100,100,50,go_to_color_detect_down,green,true,false,joint 3 +,true,2024-03-04 15:58:36.370301,22.405,0.206,235.0,131.14834594726562,281.24853515625,65.51657104492188,45.0,65.0,51.0,8.399998664855957,-20.0
32,100,100,50,go_to_color_detect_up_from_color_detect_down,green,true,false,joint 3 -,false,2024-03-04 15:58:37.062529,22.007,0.204,235.0,111.13883972167969,238.33799743652344,-24.284042358398438,45.0,65.0,51.0,48.0,-20.0
32,100,100,50,go_to_color_detect_up_from_color_detect_down,green,true,false,joint 3 -,false,2024-03-04 15:58:38.455590,21.988,0.204,235.0,130.84326171875,280.5942687988281,60.71308135986328,45.0,65.0,51.0,8.642067909240723,-20.0
32,100,100,50,detecting_color,green,false,false,detecting_color,false,2024-03-04 15:58:39.145353,17.279,0.204,235.0,131.69407653808594,282.4188232421875,84.958251953125,45.0,65.0,51.0,-4.656612873077393e-10,-20.0
32,100,100,50,go_to_color_detect_down,green,true,false,joint 3 +,false,2024-03-04 15:58:40.532376,16.272,0.163,235.0,131.6935272216797,282.41766357421875,84.34249877929688,45.0,65.0,51.0,0.3999999165534973,-20.0
32,100,100,50,go_to_color_detect_down,green,true,false,joint 3 +,false,2024-03-04 15:58:41.221098,16.272,0.163,235.0,115.97435760498047,248.70779418945312,-12.776542663574219,45.0,65.0,51.0,42.363059997558594,-20.0
32,100,100,50,go_to_color_detect_up_from_color_detect_down,green,true,false,joint 3 -,true,2024-03-04 15:58:41.909481,16.367,0.159,235.0,126.23455047607422,270.7108459472656,24.69955062866211,45.0,65.0,51.0,22.828723907470703,-20.0
32,100,100,50,go_to_blue_up,blue,true,false,joint 1 +,true,2024-03-04 15:58:43.299235,22.956,0.159,235.0,120.75553894042969,287.2661437988281,84.958251953125,47.20000457763672,67.64000701904297,51.0,-4.656612873077393e-10,-20.0
32,100,100,50,go_to_pick_up_from_blue,blue,true,false,joint 1 -,false,2024-03-04 15:58:43.996112,22.956,0.207,235.0,39.05567932128906,309.1575622558594,84.958251953125,62.79999542236328,82.35999298095703,51.0,-4.656612873077393e-10,-20.0
32,100,100,50,go_to_pick_up_from_blue,blue,true,false,joint 1 -,false,2024-03-04 15:58:45.371219,16.538,0.207,235.0,281.9520263671875,132.69053649902344,84.958251953125,5.202322006225586,24.57741928100586,51.0,-4.656612873077393e-10,-20.0
32,100,100,50,moving_belt,blue,false,true,joint 1 -,false,2024-03-04 15:58:46.060762,16.538,0.158,235.0,292.8220520019531,106.5785140991211,84.958251953125,0.0,20.0,51.0,-4.656612873077393e-10,-20.0
32,100,100,50,moving_belt,blue,false,true,joint 1 -,false,2024-03-04 15:58:47.442459,16.614,0.158,235.0,292.8220520019531,106.5785140991211,84.958251953125,0.0,20.0,51.0,-4.656612873077393e-10,-20.0
32,100,100,50,moving_belt,blue,false,true,joint 1 -,false,2024-03-04 15:58:48.134325,16.652,0.162,235.0,292.8220520019531,106.5785140991211,84.958251953125,0.0,20.0,51.0,-4.656612873077393e-10,-20.0
32,100,100,50,moving_belt,blue,false,true,joint 1 -,false,2024-03-04 15:58:49.517943,16.652,0.162,235.0,292.8220520019531,106.5785140991211,84.958251953125,0.0,20.0,51.0,-4.656612873077393e-10,-20.0
32,100,100,50,moving_belt,blue,false,true,joint 1 -,false,2024-03-04 15:58:50.209940,16.861,0.162,235.0,292.8220520019531,106.5785140991211,84.958251953125,0.0,20.0,51.0,-4.656612873077393e-10,-20.0
32,100,100,50,go_to_pick_down,blue,true,false,joint 3 +,false,2024-03-04 15:58:50.944074,16.861,0.162,235.0,292.6172790527344,106.50399017333984,76.95742797851562,0.0,20.0,51.0,3.640000104904175,-20.0
32,100,100,50,go_to_pick_up_from_pick_down,blue,true,false,joint 3 -,true,2024-03-04 15:58:52.331686,16.842,0.162,235.0,284.6556396484375,103.6061782836914,35.16378402709961,0.0,20.0,51.0,19.359996795654297,-20.0
32,100,100,50,go_to_color_detect_up_from_pick_up,blue,true,false,joint 1 +,true,2024-03-04 15:58:53.022956,17.108,0.157,235.0,289.329833984375,115.72370147705078,84.958251953125,1.8000030517578125,22.200002670288086,51.0,0.0,-20.0
32,100,100,50,go_to_color_detect_up_from_pick_up,blue,true,false,joint 1 +,true,2024-03-04 15:58:54.400191,22.177,0.157,233.1,132.98190307617188,281.8147277832031,84.958251953125,44.73844909667969,64.86173248291016,51.0,0.0,-20.0
32,100,100,50,go_to_color_detect_down,blue,true,false,joint 3 +,true,2024-03-04 15:58:55.090047,22.177,0.205,233.1,122.58028411865234,262.8742370605469,8.309219360351562,45.0,65.0,51.0,32.558963775634766,-20.0
32,100,100,50,go_to_color_detect_up_from_color_detect_down,blue,true,false,joint 3 -,false,2024-03-04 15:58:56.476180,21.817,0.205,235.0,115.32848358154297,247.32272338867188,-14.466949462890625,45.0,65.0,51.0,41.87999725341797,-20.0
32,100,100,50,detecting_color,blue,false,false,detecting_color,false,2024-03-04 15:58:57.167390,21.817,0.18,235.0,131.69407653808594,282.4188232421875,84.94502258300781,45.0,65.0,51.0,-4.656612873077393e-10,-20.0
32,100,100,50,detecting_color,blue,false,false,detecting_color,false,2024-03-04 15:58:57.863253,17.241,0.18,235.0,131.69407653808594,282.4188232421875,84.958251953125,45.0,65.0,51.0,-4.656612873077393e-10,-20.0
32,100,100,50,go_to_color_detect_down,blue,true,false,joint 3 +,false,2024-03-04 15:58:59.256239,16.177,0.156,235.0,129.5434112548828,277.8067321777344,46.61455154418945,45.0,65.0,51.0,16.23999786376953,-20.0
32,100,100,50,go_to_color_detect_up_from_color_detect_down,blue,true,false,joint 3 -,true,2024-03-04 15:58:59.946757,16.177,0.156,235.0,111.33187866210938,238.75196838378906,-23.871063232421875,45.0,65.0,51.0,47.599998474121094,-20.0
32,100,100,50,go_to_color_detect_up_from_color_detect_down,blue,true,false,joint 3 -,true,2024-03-04 15:59:01.325299,21.304,0.204,235.0,131.31553649902344,281.6070556640625,68.75533294677734,45.0,65.0,51.0,5.6369428634643555,-20.0
32,100,100,50,go_to_red_up,red,true,false,joint 1 +,true,2024-03-04 15:59:02.019966,22.823,0.204,235.0,21.08601951599121,310.9004821777344,84.958251953125,66.12000274658203,87.44000244140625,51.0,-4.656612873077393e-10,-20.0
32,100,100,50,go_to_pick_up_from_red,red,true,false,joint 1 -,false,2024-03-04 15:59:03.412151,22.026,0.207,235.0,-178.73486328125,255.2598114013672,84.958251953125,105.0,124.95999908447266,51.0,-4.656612873077393e-10,-20.0
32,100,100,50,go_to_pick_up_from_red,red,true,false,joint 1 -,false,2024-03-04 15:59:04.101750,21.627,0.207,235.0,75.38642120361328,302.35845947265625,84.958251953125,56.0,74.0,51.0,-4.656612873077393e-10,-20.0
32,100,100,50,moving_belt,red,false,true,joint 1 -,false,2024-03-04 15:59:05.487824,16.31,0.157,235.0,292.8220520019531,106.5785140991211,84.958251953125,0.0,20.0,51.0,-4.656612873077393e-10,-20.0
32,100,100,50,moving_belt,red,false,true,joint 1 -,false,2024-03-04 15:59:06.192169,16.31,0.157,235.0,292.8220520019531,106.5785140991211,84.958251953125,0.0,20.0,51.0,-4.656612873077393e-10,-20.0
32,100,100,50,moving_belt,red,false,true,joint 1 -,false,2024-03-04 15:59:06.882270,16.443,0.157,235.0,292.8220520019531,106.5785140991211,84.958251953125,0.0,20.0,51.0,-4.656612873077393e-10,-20.0
32,100,100,50,moving_belt,red,false,true,joint 1 -,false,2024-03-04 15:59:08.269636,16.747,0.161,235.0,292.8220520019531,106.5785140991211,84.958251953125,0.0,20.0,51.0,-4.656612873077393e-10,-20.0
32,100,100,50,moving_belt,red,false,true,joint 1 -,false,2024-03-04 15:59:08.960609,16.652,0.161,235.0,292.8220520019531,106.5785140991211,84.958251953125,0.0,20.0,51.0,-4.656612873077393e-10,-20.0
32,100,100,50,moving_belt,red,false,true,joint 1 -,false,2024-03-04 15:59:10.337592,16.842,0.162,235.0,292.8220520019531,106.5785140991211,84.958251953125,0.0,20.0,51.0,-4.656612873077393e-10,-20.0
32,100,100,50,go_to_pick_down,red,true,false,joint 3 +,false,2024-03-04 15:59:11.024295,16.842,0.162,233.1,286.6092224121094,104.31723022460938,41.36827850341797,0.0,20.0,51.0,17.845497131347656,-20.0
32,100,100,50,go_to_pick_up_from_pick_down,red,true,false,joint 3 -,true,2024-03-04 15:59:12.413629,17.829,0.158,233.1,292.2120056152344,106.35647583007812,71.15796661376953,0.0,20.0,51.0,4.750665187835693,-20.0
32,100,100,50,go_to_color_detect_up_from_pick_up,red,true,false,joint 1 +,true,2024-03-04 15:59:13.155734,17.829,0.158,235.0,247.55128479003906,189.26724243164062,84.958251953125,17.39999771118164,38.599998474121094,51.0,0.0,-20.0
32,100,100,50,go_to_color_detect_down,red,true,false,joint 3 +,true,2024-03-04 15:59:14.535347,22.443,0.207,235.0,131.6822052001953,282.3934020996094,82.08492279052734,45.0,65.0,51.0,1.4399996995925903,-20.0
32,100,100,50,go_to_color_detect_down,red,true,false,joint 3 +,true,2024-03-04 15:59:15.230954,22.215,0.207,235.0,112.10877227783203,240.4180145263672,-22.173080444335938,45.0,65.0,51.0,47.07587432861328,-20.0
32,100,100,50,go_to_color_detect_up_from_color_detect_down,red,true,false,joint 3 -,false,2024-03-04 15:59:15.920609,22.102,0.207,235.0,127.3722915649414,273.1507568359375,31.08867645263672,45.0,65.0,51.0,20.206161499023438,-20.0
32,100,100,50,detecting_color,red,false,false,detecting_color,false,2024-03-04 15:59:17.301669,17.222,0.194,233.1,131.69407653808594,282.4188232421875,84.958251953125,45.0,65.0,51.0,-4.656612873077393e-10,-20.0
32,100,100,50,detecting_color,red,false,false,detecting_color,false,2024-03-04 15:59:17.996094,17.222,0.194,233.1,131.69407653808594,282.4188232421875,84.958251953125,45.0,65.0,51.0,-4.656612873077393e-10,-20.0
32,100,100,50,detecting_color,red,false,false,detecting_color,false,2024-03-04 15:59:19.375486,16.177,0.159,235.0,131.69407653808594,282.4188232421875,84.958251953125,45.0,65.0,51.0,-4.656612873077393e-10,-20.0
32,100,100,50,detecting_color,red,false,false,detecting_color,false,2024-03-04 15:59:20.073232,16.253,0.159,235.0,131.69407653808594,282.4188232421875,84.958251953125,45.0,65.0,51.0,-4.656612873077393e-10,-20.0
32,100,100,50,go_to_color_detect_down,red,true,false,joint 3 +,false,2024-03-04 15:59:21.451363,16.424,0.159,235.0,131.60198974609375,282.2213439941406,76.95742797851562,45.0,65.0,51.0,3.6399993896484375,-20.0
32,100,100,50,go_to_color_detect_down,red,true,false,joint 3 +,false,2024-03-04 15:59:22.142596,16.481,0.159,235.0,111.26680755615234,238.6124267578125,-24.010658264160156,45.0,65.0,51.0,47.932281494140625,-20.0
32,100,100,50,go_to_color_detect_up_from_color_detect_down,red,true,false,joint 3 -,true,2024-03-04 15:59:23.526650,19.082,0.158,235.0,129.45167541503906,277.6099853515625,45.82000732421875,45.0,65.0,51.0,14.349754333496094,-20.0
32,100,100,50,go_to_green_up,green,true,false,joint 1 +,true,2024-03-04 15:59:24.213656,23.222,0.158,235.0,100.83451843261719,294.8493347167969,84.958251953125,51.12000274658203,71.84000396728516,51.0,-4.656612873077393e-10,-20.0
32,100,100,50,go_to_pick_up_from_green,green,true,false,joint 1 -,false,2024-03-04 15:59:24.901390,22.253,0.205,235.0,-78.54850006103516,301.55242919921875,84.958251953125,84.59999084472656,104.39999389648438,51.0,-4.656612873077393e-10,-20.0
32,100,100,50,go_to_pick_up_from_green,green,true,false,joint 1 -,false,2024-03-04 15:59:26.279726,20.696,0.205,235.0,193.92901611328125,243.91651916503906,84.958251953125,31.513084411621094,49.94526672363281,51.0,-4.656612873077393e-10,-20.0
32,100,100,50,moving_belt,green,false,true,joint 1 -,false,2024-03-04 15:59:26.968134,20.696,0.205,235.0,292.8220520019531,106.5785140991211,84.958251953125,0.0,20.0,51.0,-4.656612873077393e-10,-20.0
32,100,100,50,moving_belt,green,false,true,joint 1 -,false,2024-03-04 15:59:28.368711,16.975,0.157,235.0,292.8220520019531,106.5785140991211,84.958251953125,0.0,20.0,51.0,-4.656612873077393e-10,-20.0
32,100,100,50,moving_belt,green,false,true,joint 1 -,false,2024-03-04 15:59:29.066545,16.975,0.157,235.0,292.8220520019531,106.5785140991211,84.958251953125,0.0,20.0,51.0,-4.656612873077393e-10,-20.0
32,100,100,50,moving_belt,green,false,true,joint 1 -,false,2024-03-04 15:59:30.447196,16.652,0.16,235.0,292.8220520019531,106.5785140991211,84.958251953125,0.0,20.0,51.0,-4.656612873077393e-10,-20.0
32,100,100,50,moving_belt,green,false,true,joint 1 -,false,2024-03-04 15:59:31.139461,16.804,0.16,235.0,292.8220520019531,106.5785140991211,84.958251953125,0.0,20.0,51.0,-4.656612873077393e-10,-20.0
32,100,100,50,moving_belt,green,false,true,joint 1 -,false,2024-03-04 15:59:32.522144,16.709,0.161,235.0,292.8220520019531,106.5785140991211,84.958251953125,0.0,20.0,51.0,-4.656612873077393e-10,-20.0
32,100,100,50,go_to_pick_down,green,true,false,joint 3 +,false,2024-03-04 15:59:33.211710,16.538,0.161,235.0,284.3038635253906,103.4781494140625,34.13602828979492,0.0,20.0,51.0,20.582494735717773,-20.0
32,100,100,50,go_to_pick_up_from_pick_down,green,true,false,joint 3 -,true,2024-03-04 15:59:33.905153,16.538,0.157,235.0,292.8188171386719,106.57733154296875,83.95038604736328,0.0,20.0,51.0,0.23666994273662567,-20.0
32,100,100,50,go_to_color_detect_up_from_pick_up,green,true,false,joint 1 +,true,2024-03-04 15:59:35.289449,22.234,0.157,235.0,187.9271240234375,248.57017517089844,84.958251953125,32.9095344543457,53.87281799316406,51.0,0.0,-20.0
32,100,100,50,go_to_color_detect_down,green,true,false,joint 3 +,true,2024-03-04 15:59:35.979136,22.234,0.205,235.0,130.88796997070312,280.69012451171875,61.35441970825195,45.0,65.0,51.0,10.119998931884766,-20.0
32,100,100,50,go_to_color_detect_up_from_color_detect_down,green,true,false,joint 3 -,false,2024-03-04 15:59:37.389450,22.026,0.205,235.0,111.33187866210938,238.75196838378906,-23.871063232421875,45.0,65.0,51.0,47.599998474121094,-20.0
32,100,100,50,go_to_color_detect_up_from_color_detect_down,green,true,false,joint 3 -,false,2024-03-04 15:59:38.079951,19.766,0.174,235.0,131.31553649902344,281.6070556640625,68.75533294677734,45.0,65.0,51.0,5.6369428634643555,-20.0
32,100,100,50,detecting_color,green,false,false,detecting_color,false,2024-03-04 15:59:39.458512,16.937,0.174,235.0,131.69407653808594,282.4188232421875,84.958251953125,45.0,65.0,51.0,-4.656612873077393e-10,-20.0
32,100,100,50,go_to_color_detect_down,green,true,false,joint 3 +,false,2024-03-04 15:59:40.150028,16.937,0.174,235.0,131.690673828125,282.4115295410156,83.41889953613281,45.0,65.0,51.0,0.8399998545646667,-20.0
32,100,100,50,go_to_color_detect_down,green,true,false,joint 3 +,false,2024-03-04 15:59:41.533875,16.215,0.156,235.0,112.66073608398438,241.60171508789062,-20.93079376220703,45.0,65.0,51.0,46.453311920166016,-20.0
32,100,100,50,go_to_color_detect_up_from_color_detect_down,green,true,false,joint 3 -,true,2024-03-04 15:59:42.223359,16.538,0.156,235.0,126.8277587890625,271.9830017089844,27.925533294677734,45.0,65.0,51.0,21.4974422454834,-20.0
32,100,100,50,go_to_blue_up,blue,true,false,joint 1 +,true,2024-03-04 15:59:42.913198,23.26,0.196,235.0,116.12750244140625,289.1679992675781,84.958251953125,48.12001037597656,68.64000701904297,51.0,-4.656612873077393e-10,-20.0
32,100,100,50,go_to_pick_up_from_blue,blue,true,false,joint 1 -,false,2024-03-04 15:59:44.298712,22.424,0.196,235.0,72.21610260009766,303.13128662109375,84.958251953125,56.59999084472656,75.75999450683594,51.0,-4.656612873077393e-10,-20.0
32,100,100,50,go_to_pick_up_from_blue,blue,true,false,joint 1 -,false,2024-03-04 15:59:44.992555,21.608,0.202,235.0,286.9644775390625,121.47071075439453,84.958251953125,2.9427108764648438,22.477807998657227,51.0,-4.656612873077393e-10,-20.0
32,100,100,50,moving_belt,blue,false,true,joint 1 -,false,2024-03-04 15:59:46.371253,16.5,0.202,235.0,292.8220520019531,106.5785140991211,84.958251953125,0.0,20.0,51.0,-4.656612873077393e-10,-20.0
32,100,100,50,moving_belt,blue,false,true,joint 1 -,false,2024-03-04 15:59:47.060700,16.899,0.161,235.0,292.8220520019531,106.5785140991211,84.958251953125,0.0,20.0,51.0,-4.656612873077393e-10,-20.0
32,100,100,50,moving_belt,blue,false,true,joint 1 -,false,2024-03-04 15:59:48.447441,16.614,0.161,235.0,292.8220520019531,106.5785140991211,84.958251953125,0.0,20.0,51.0,-4.656612873077393e-10,-20.0
32,100,100,50,moving_belt,blue,false,true,joint 1 -,false,2024-03-04 15:59:49.138648,16.614,0.161,235.0,292.8220520019531,106.5785140991211,84.958251953125,0.0,20.0,51.0,-4.656612873077393e-10,-20.0
32,100,100,50,moving_belt,blue,false,true,joint 1 -,false,2024-03-04 15:59:50.522961,16.595,0.161,235.0,292.8220520019531,106.5785140991211,84.958251953125,0.0,20.0,51.0,-4.656612873077393e-10,-20.0
32,100,100,50,go_to_pick_down,blue,true,false,joint 3 +,false,2024-03-04 15:59:51.216026,16.595,0.159,235.0,291.8388977050781,106.2206802368164,67.45097351074219,0.0,20.0,51.0,7.599999904632568,-20.0
32,100,100,50,go_to_pick_up_from_pick_down,blue,true,false,joint 3 -,true,2024-03-04 15:59:51.943106,16.462,0.159,235.0,287.09246826171875,104.49311828613281,43.060420989990234,0.0,20.0,51.0,15.879997253417969,-20.0
32,100,100,50,go_to_color_detect_up_from_pick_up,blue,true,false,joint 1 +,true,2024-03-04 15:59:53.336219,22.614,0.211,235.0,271.9091491699219,152.21412658691406,84.958251953125,9.240001678466797,30.1200008392334,51.0,0.0,-20.0
32,100,100,50,go_to_color_detect_down,blue,true,false,joint 3 +,true,2024-03-04 15:59:54.024558,22.045,0.211,235.0,131.69407653808594,282.4188232421875,84.958251953125,45.0,65.0,51.0,0.0,-20.0
32,100,100,50,go_to_color_detect_down,blue,true,false,joint 3 +,true,2024-03-04 15:59:55.417402,22.158,0.2,235.0,118.77991485595703,254.72433471679688,-4.7643280029296875,45.0,65.0,51.0,38.50665283203125,-20.0
32,100,100,50,go_to_color_detect_up_from_color_detect_down,blue,true,false,joint 3 -,false,2024-03-04 15:59:56.106976,21.855,0.2,235.0,121.74224090576172,261.0770568847656,5.154693603515625,45.0,65.0,51.0,31.76000213623047,-20.0
32,100,100,50,detecting_color,blue,false,false,detecting_color,false,2024-03-04 15:59:57.489327,19.405,0.2,235.0,131.69407653808594,282.4188232421875,84.958251953125,45.0,65.0,51.0,-4.656612873077393e-10,-20.0
32,100,100,50,detecting_color,blue,false,false,detecting_color,false,2024-03-04 15:59:58.179050,16.899,0.162,235.0,131.69407653808594,282.4188232421875,84.958251953125,45.0,65.0,51.0,-4.656612873077393e-10,-20.0
32,100,100,50,go_to_color_detect_down,blue,true,false,joint 3 +,false,2024-03-04 15:59:58.874951,16.899,0.162,235.0,128.006591796875,274.5110168457031,35.067237854003906,45.0,65.0,51.0,21.1199951171875,-20.0
32,100,100,50,go_to_color_detect_up_from_color_detect_down,blue,true,false,joint 3 -,true,2024-03-04 16:00:00.107173,16.329,0.162,235.0,112.03331756591797,240.25621032714844,-22.340538024902344,45.0,65.0,51.0,46.55999755859375,-20.0
32,100,100,50,go_to_color_detect_up_from_color_detect_down,blue,true,false,joint 3 -,true,2024-03-04 16:00:00.925446,16.538,0.158,235.0,131.55726623535156,282.1254577636719,75.20805358886719,45.0,65.0,51.0,3.271817207336426,-20.0
32,100,100,50,go_to_red_up,red,true,false,joint 1 +,true,2024-03-04 16:00:02.570316,22.538,0.212,235.0,-16.96043586730957,311.15283203125,84.958251953125,73.12001037597656,94.64000701904297,51.0,-4.656612873077393e-10,-20.0
32,100,100,50,go_to_pick_up_from_red,red,true,false,joint 1 -,false,2024-03-04 16:00:02.570316,22.538,0.212,235.0,-177.6640167236328,256.00628662109375,84.958251953125,104.75999450683594,124.59999084472656,51.0,-4.656612873077393e-10,-20.0
32,100,100,50,go_to_pick_up_from_red,red,true,false,joint 1 -,false,2024-03-04 16:00:04.586970,19.348,0.18,235.0,153.4464569091797,271.2156066894531,84.958251953125,40.49999237060547,58.719993591308594,51.0,-4.656612873077393e-10,-20.0
32,100,100,50,moving_belt,red,false,true,joint 1 -,false,2024-03-04 16:00:05.280776,16.538,0.18,235.0,292.8220520019531,106.5785140991211,84.958251953125,0.0,20.0,51.0,-4.656612873077393e-10,-20.0
32,100,100,50,moving_belt,red,false,true,joint 1 -,false,2024-03-04 16:00:05.973744,16.538,0.18,235.0,292.8220520019531,106.5785140991211,84.958251953125,0.0,20.0,51.0,-4.656612873077393e-10,-20.0
32,100,100,50,moving_belt,red,false,true,joint 1 -,false,2024-03-04 16:00:07.398558,16.918,0.161,235.0,292.8220520019531,106.5785140991211,84.958251953125,0.0,20.0,51.0,-4.656612873077393e-10,-20.0
32,100,100,50,moving_belt,red,false,true,joint 1 -,false,2024-03-04 16:00:08.089321,16.766,0.161,235.0,292.8220520019531,106.5785140991211,84.958251953125,0.0,20.0,51.0,-4.656612873077393e-10,-20.0
32,100,100,50,moving_belt,red,false,true,joint 1 -,false,2024-03-04 16:00:09.467687,16.88,0.161,235.0,292.8220520019531,106.5785140991211,84.958251953125,0.0,20.0,51.0,-4.656612873077393e-10,-20.0
32,100,100,50,moving_belt,red,false,true,joint 1 -,false,2024-03-04 16:00:10.163949,16.709,0.161,235.0,292.8220520019531,106.5785140991211,84.958251953125,0.0,20.0,51.0,-4.656612873077393e-10,-20.0
32,100,100,50,go_to_pick_down,red,true,false,joint 3 +,false,2024-03-04 16:00:11.542351,16.557,0.161,235.0,285.3606262207031,103.86277770996094,37.29911804199219,0.0,20.0,51.0,19.39399528503418,-20.0
32,100,100,50,go_to_pick_up_from_pick_down,red,true,false,joint 3 -,true,2024-03-04 16:00:12.236310,16.557,0.161,235.0,292.3475036621094,106.40579223632812,72.78374481201172,0.0,20.0,51.0,4.154499053955078,-20.0
32,100,100,50,go_to_color_detect_up_from_pick_up,red,true,false,joint 1 +,true,2024-03-04 16:00:12.926005,20.07,0.214,235.0,215.3290557861328,225.24905395507812,84.958251953125,26.289844512939453,47.493125915527344,51.0,0.0,-20.0
32,100,100,50,go_to_color_detect_down,red,true,false,joint 3 +,true,2024-03-04 16:00:14.304730,22.633,0.214,235.0,131.56875610351562,282.15008544921875,75.62562561035156,45.0,65.0,51.0,4.1999993324279785,-20.0
32,100,100,50,go_to_color_detect_down,red,true,false,joint 3 +,true,2024-03-04 16:00:14.995613,22.633,0.205,235.0,112.10877227783203,240.4180145263672,-22.173080444335938,45.0,65.0,51.0,47.07587432861328,-20.0
