demetriskallis/dobot_magician_pick_and_place_and_color_sorting/Sampling/WholeSystemExperiments_training_data/payload_32g/joint_measurements__armv_100_arma_100_belts_20_cube_32g.csv
cube/weight,arm/velocity_ratio,arm/acceleration_ratio,belt/speed,dobot/operation,dobot/color,dobot/moving_arm,dobot/moving_belt,dobot/operation2,dobot/suction,meross/sample_timestamp,meross/power,meross/current,meross/voltage,dobot/pose_x,dobot/pose_y,dobot/pose_z,dobot/pose_rHead,dobot/pose_joint1Angle,dobot/pose_joint2Angle,dobot/pose_joint3Angle,dobot/pose_joint4Angle
32,100,100,20,homing,,,,homing,,,,,,178.2726898,61.32295227,48.48838043,-1.017602921,18.58239746,4.130149364,35.88282013,-20
32,100,100,20,homing,,,,homing,,,,,,188.5235901,-0.715965211,48.48838043,-20.21759415,-0.617593884,4.130149364,35.88282013,-20
32,100,100,20,homing,,,,homing,,,,,,177.8017731,-62.67523575,48.48838043,-39.41758728,-19.81758499,4.130149364,35.88282013,-20
32,100,100,20,homing,,,,homing,,08:35.0,16.348,0.155,235,142.2435608,-123.7272263,48.48838043,-61.01760864,-41.41761017,4.130149364,35.88282013,-20
32,100,100,20,homing,,,,homing,,08:35.7,16.31,0.155,235,93.64147949,-163.6243439,48.48838043,-80.21768188,-60.61768341,4.130149364,35.88282013,-20
32,100,100,20,homing,,,,homing,,08:37.1,16.234,0.159,236.8,34.62198257,-185.3185883,48.48838043,-99.41775513,-79.81775665,4.130149364,35.88282013,-20
32,100,100,20,homing,,,,homing,,08:37.8,16.234,0.159,236.8,-36.02988052,-185.0500031,48.48838043,-121.0178375,-101.4178391,4.130149364,35.88282013,-20
32,100,100,20,homing,,,,homing,,08:38.5,16.291,0.159,236.8,-94.88275146,-162.9076996,48.48838043,-140.2179108,-120.6179123,4.130149364,35.88282013,-20
32,100,100,20,homing,,,,homing,,08:39.8,16.291,0.159,236.8,-136.7008209,-129.8250275,48.48838043,-156.4777832,-136.4577789,4.130149364,35.88282013,-20
32,100,100,20,homing,,,,homing,,08:40.5,16.291,0.159,236.8,-134.2290192,-132.3790894,48.48838043,-155.3975525,-135.3775482,4.130149364,35.88282013,-20
32,100,100,20,homing,,,,homing,,08:41.9,16.196,0.154,235,-111.6732941,-155.4504242,47.42030334,-144.8683167,-125.2129059,5.672493458,36.27569199,-19.13311768
32,100,100,20,homing,,,,homing,,08:42.6,16.196,0.154,235,-26.61796951,-200.7490692,42.44030762,-113.5061111,-96.95297241,11.4957819,37.75901031,-15.86010933
32,100,100,20,homing,,,,homing,,08:44.0,16.538,0.16,236.8,91.72344208,-203.6474152,28.88409424,-75.32798767,-65.15305328,22.93048096,40.67168045,-9.433181763
32,100,100,20,homing,,,,homing,,08:44.7,16.633,0.16,236.8,191.6333618,-144.1604614,13.11547089,-40.91633987,-36.35312653,32.82448959,43.19189835,-3.872204304
32,100,100,20,homing,,,,homing,,08:46.0,16.5,0.16,236.8,245.4690094,-36.58236313,2.589164734,-9.223384857,-8.03137207,38.45464325,44.62602234,-0.70774591
32,100,100,20,homing,,,,homing,,08:46.7,16.5,0.16,236.8,250.0997467,-0.044743657,-0.1068573,-0.010250401,-0.003541294,39.73537064,44.9492569,0
32,100,100,20,homing,,,,homing,,08:48.1,16.348,0.159,236.8,249.9999847,0.00017966,-7.63E-06,4.12E-05,4.12E-05,39.71385956,44.94676971,0
32,100,100,20,homing,,,,homing,,08:48.8,16.348,0.159,236.8,249.9999847,0.00017966,-7.63E-06,4.12E-05,4.12E-05,39.71385956,44.94676971,0
32,100,100,20,homing,,,,homing,,08:49.5,16.158,0.156,236.8,249.9999847,0.00017966,-7.63E-06,4.12E-05,4.12E-05,39.71385956,44.94676971,0
32,100,100,20,homing,,,,homing,,08:50.9,16.272,0.156,236.8,249.9999847,0.00017966,-7.63E-06,4.12E-05,4.12E-05,39.71385956,44.94676971,0
32,100,100,20,homing,,,,homing,,08:51.6,16.272,0.156,236.8,249.9999847,0.00017966,-7.63E-06,4.12E-05,4.12E-05,39.71385956,44.94676971,0
32,100,100,20,homing,,,,homing,,08:53.0,16.272,0.156,236.8,254.4497223,18.28497696,11.46458435,4.10E-05,4.45954752,37.90342331,39.77763367,-4.459506512
32,100,100,20,homing,,,,homing,,08:53.7,16.215,0.156,236.8,274.9832153,102.9307632,64.95623779,4.20E-05,20.53117371,42.4340744,13.63175297,-20.53113174
32,100,100,20,moving_belt,nothing,FALSE,TRUE,go_to_pick_up_from_homing,,08:55.0,17.051,0.164,236.8,292.822052,106.5785141,84.95825195,0,20,51,0,-20
32,100,100,20,moving_belt,nothing,FALSE,TRUE,go_to_pick_up_from_homing,,08:55.7,16.709,0.164,236.8,292.822052,106.5785141,84.95825195,0,20,51,0,-20
32,100,100,20,moving_belt,nothing,FALSE,TRUE,go_to_pick_up_from_homing,,08:56.5,16.709,0.161,236.8,292.822052,106.5785141,84.95825195,0,20,51,0,-20
32,100,100,20,moving_belt,nothing,FALSE,TRUE,go_to_pick_up_from_homing,,08:58.1,16.994,0.161,236.8,292.822052,106.5785141,84.95825195,0,20,51,0,-20
32,100,100,20,moving_belt,nothing,FALSE,TRUE,go_to_pick_up_from_homing,,08:58.8,16.994,0.162,236.8,292.822052,106.5785141,84.95825195,0,20,51,0,-20
32,100,100,20,moving_belt,nothing,FALSE,TRUE,go_to_pick_up_from_homing,,08:59.5,16.975,0.162,236.8,292.822052,106.5785141,84.95825195,0,20,51,0,-20
32,100,100,20,moving_belt,nothing,FALSE,TRUE,go_to_pick_up_from_homing,,09:00.9,16.899,0.162,236.8,292.822052,106.5785141,84.95825195,0,20,51,0,-20
32,100,100,20,moving_belt,nothing,FALSE,TRUE,go_to_pick_up_from_homing,,09:01.6,17.032,0.162,236.8,292.822052,106.5785141,84.95825195,0,20,51,0,-20
32,100,100,20,moving_belt,nothing,FALSE,TRUE,go_to_pick_up_from_homing,,09:02.9,16.918,0.163,236.8,292.822052,106.5785141,84.95825195,0,20,51,0,-20
32,100,100,20,moving_belt,nothing,FALSE,TRUE,go_to_pick_up_from_homing,,09:03.6,16.918,0.163,236.8,292.822052,106.5785141,84.95825195,0,20,51,0,-20
32,100,100,20,moving_belt,nothing,FALSE,TRUE,go_to_pick_up_from_homing,,09:05.0,16.937,0.163,236.8,292.822052,106.5785141,84.95825195,0,20,51,0,-20
32,100,100,20,moving_belt,nothing,FALSE,TRUE,go_to_pick_up_from_homing,,09:05.7,16.785,0.163,236.8,292.822052,106.5785141,84.95825195,0,20,51,0,-20
32,100,100,20,moving_belt,nothing,FALSE,TRUE,go_to_pick_up_from_homing,,09:07.1,16.937,0.163,236.8,292.822052,106.5785141,84.95825195,0,20,51,0,-20
32,100,100,20,moving_belt,nothing,FALSE,TRUE,go_to_pick_up_from_homing,,09:07.8,16.88,0.162,236.8,292.822052,106.5785141,84.95825195,0,20,51,0,-20
32,100,100,20,go_to_pick_down,nothing,TRUE,FALSE,joint 3 +,,09:08.5,16.88,0.162,236.8,284.3038635,103.4781494,34.13602829,0,20,51,20.58249474,-20
32,100,100,20,go_to_pick_up_from_pick_down,nothing,TRUE,FALSE,joint 3 -,TRUE,09:09.8,20.639,0.155,236.8,292.8188171,106.5773315,83.95038605,0,20,51,0.236669943,-20
32,100,100,20,go_to_color_detect_up_from_pick_up,nothing,TRUE,FALSE,joint 1 +,TRUE,09:10.5,20.639,0.155,236.8,196.6840973,241.7004395,84.95825195,30.86297226,51.90625381,51,0,-20
32,100,100,20,go_to_color_detect_down,nothing,TRUE,FALSE,joint 3 +,TRUE,09:11.9,22.5,0.206,236.8,131.2519073,281.4706116,67.45097351,45,65,51,7.599998474,-20
32,100,100,20,go_to_color_detect_up_from_color_detect_down,nothing,TRUE,FALSE,joint 3 -,FALSE,09:12.6,22.045,0.206,236.8,111.1388397,238.3379974,-24.28404236,45,65,51,48,-20
32,100,100,20,go_to_color_detect_up_from_color_detect_down,nothing,TRUE,FALSE,joint 3 -,FALSE,09:14.0,21.209,0.175,236.8,130.6764679,280.2365723,58.46072388,45,65,51,9.493349075,-20
32,100,100,20,detecting_color,nothing,FALSE,FALSE,detecting_color,FALSE,09:14.7,17.07,0.175,236.8,131.6940765,282.4188232,84.95825195,45,65,51,-4.66E-10,-20
32,100,100,20,go_to_color_detect_down,nothing,TRUE,FALSE,joint 3 +,FALSE,09:16.1,16.31,0.157,236.8,131.6935272,282.4176636,84.34249878,45,65,51,0.399999917,-20
32,100,100,20,go_to_color_detect_down,nothing,TRUE,FALSE,joint 3 +,FALSE,09:16.8,16.31,0.157,236.8,115.9743576,248.7077942,-12.77654266,45,65,51,42.36306,-20
32,100,100,20,go_to_color_detect_up_from_color_detect_down,nothing,TRUE,FALSE,joint 3 -,TRUE,09:17.5,16.196,0.157,236.8,125.614151,269.3804016,21.53419876,45,65,51,24.20000458,-20
32,100,100,20,go_to_red_up,red,TRUE,FALSE,joint 1 +,TRUE,09:18.9,23.317,0.206,236.8,122.7580948,286.4161072,84.95825195,46.80000305,67.20000458,51,-4.66E-10,-20
32,100,100,20,go_to_red_up,red,TRUE,FALSE,joint 1 +,TRUE,09:19.6,22.823,0.206,236.8,-141.6123962,277.578186,84.95825195,97.02935791,117.8077469,51,-4.66E-10,-20
32,100,100,20,go_to_pick_up_from_red,red,TRUE,FALSE,joint 1 -,FALSE,09:21.0,20.677,0.208,236.8,-81.49203491,300.7703247,84.95825195,85.15999603,103.8799973,51,-4.66E-10,-20
32,100,100,20,go_to_pick_up_from_red,red,TRUE,FALSE,joint 1 -,FALSE,09:21.7,20.677,0.208,236.8,268.275238,158.5311279,84.95825195,10.57999229,29.67999268,51,-4.66E-10,-20
32,100,100,20,moving_belt,red,FALSE,TRUE,joint 1 -,FALSE,09:23.1,16.386,0.157,236.8,292.822052,106.5785141,84.95825195,0,20,51,-4.66E-10,-20
32,100,100,20,moving_belt,red,FALSE,TRUE,joint 1 -,FALSE,09:23.7,16.937,0.157,236.8,292.822052,106.5785141,84.95825195,0,20,51,-4.66E-10,-20
32,100,100,20,moving_belt,red,FALSE,TRUE,joint 1 -,FALSE,09:25.1,17.051,0.163,236.8,292.822052,106.5785141,84.95825195,0,20,51,-4.66E-10,-20
32,100,100,20,moving_belt,red,FALSE,TRUE,joint 1 -,FALSE,09:25.8,17.032,0.163,236.8,292.822052,106.5785141,84.95825195,0,20,51,-4.66E-10,-20
32,100,100,20,moving_belt,red,FALSE,TRUE,joint 1 -,FALSE,09:26.5,17.032,0.163,236.8,292.822052,106.5785141,84.95825195,0,20,51,-4.66E-10,-20
32,100,100,20,moving_belt,red,FALSE,TRUE,joint 1 -,FALSE,09:27.9,16.918,0.162,236.8,292.822052,106.5785141,84.95825195,0,20,51,-4.66E-10,-20
32,100,100,20,moving_belt,red,FALSE,TRUE,joint 1 -,FALSE,09:28.6,17.013,0.162,236.8,292.822052,106.5785141,84.95825195,0,20,51,-4.66E-10,-20
32,100,100,20,moving_belt,red,FALSE,TRUE,joint 1 -,FALSE,09:30.0,16.975,0.164,236.8,292.822052,106.5785141,84.95825195,0,20,51,-4.66E-10,-20
32,100,100,20,moving_belt,red,FALSE,TRUE,joint 1 -,FALSE,09:30.7,16.899,0.164,236.8,292.822052,106.5785141,84.95825195,0,20,51,-4.66E-10,-20
32,100,100,20,moving_belt,red,FALSE,TRUE,joint 1 -,FALSE,09:32.1,16.956,0.163,236.8,292.822052,106.5785141,84.95825195,0,20,51,-4.66E-10,-20
32,100,100,20,moving_belt,red,FALSE,TRUE,joint 1 -,FALSE,09:32.8,16.956,0.163,236.8,292.822052,106.5785141,84.95825195,0,20,51,-4.66E-10,-20
32,100,100,20,moving_belt,red,FALSE,TRUE,joint 1 -,FALSE,09:33.5,17.032,0.162,236.8,292.822052,106.5785141,84.95825195,0,20,51,-4.66E-10,-20
32,100,100,20,moving_belt,red,FALSE,TRUE,joint 1 -,FALSE,09:34.9,16.975,0.162,236.8,292.822052,106.5785141,84.95825195,0,20,51,-4.66E-10,-20
32,100,100,20,go_to_pick_down,red,TRUE,FALSE,joint 3 +,FALSE,09:35.6,17.013,0.162,236.8,292.7202454,106.5414581,79.31524658,0,20,51,2.640000105,-20
32,100,100,20,go_to_pick_up_from_pick_down,red,TRUE,FALSE,joint 3 -,TRUE,09:36.9,16.481,0.162,236.8,284.3258057,103.4861374,34.19942093,0,20,51,19.79999733,-20
32,100,100,20,go_to_color_detect_up_from_pick_up,red,TRUE,FALSE,joint 1 +,TRUE,09:37.6,23.431,0.162,236.8,285.4649353,124.9539871,84.95825195,3.640003204,24.20000267,51,0,-20
32,100,100,20,go_to_color_detect_up_from_pick_up,red,TRUE,FALSE,joint 1 +,TRUE,09:39.0,22.785,0.216,236.8,134.7821808,280.9581909,84.95825195,44.37187958,64.57516479,51,0,-20
32,100,100,20,go_to_color_detect_down,red,TRUE,FALSE,joint 3 +,TRUE,09:39.7,22.918,0.216,236.8,123.2313766,264.2705383,10.88928986,45,65,51,31.42768288,-20
32,100,100,20,go_to_color_detect_up_from_color_detect_down,red,TRUE,FALSE,joint 3 -,FALSE,09:41.1,22.481,0.207,236.8,117.437233,251.8449402,-8.743080139,45,65,51,38.75999832,-20
32,100,100,20,detecting_color,red,FALSE,FALSE,detecting_color,FALSE,09:41.8,20.203,0.207,236.8,131.6940765,282.4188232,84.91607666,45,65,51,0.005157059,-20
32,100,100,20,detecting_color,red,FALSE,FALSE,detecting_color,FALSE,09:43.1,16.994,0.162,236.8,131.6940765,282.4188232,84.95825195,45,65,51,-4.66E-10,-20
32,100,100,20,go_to_color_detect_down,red,TRUE,FALSE,joint 3 +,FALSE,09:43.8,16.044,0.162,236.8,130.1018219,279.0042419,51.89044571,45,65,51,14.03999901,-20
32,100,100,20,go_to_color_detect_up_from_color_detect_down,red,TRUE,FALSE,joint 3 -,TRUE,09:44.5,16.044,0.156,236.8,111.1388397,238.3379974,-24.28404236,45,65,51,47.95999908,-20
32,100,100,20,go_to_color_detect_up_from_color_detect_down,red,TRUE,FALSE,joint 3 -,TRUE,09:45.9,23.659,0.156,236.8,131.513092,282.0307312,73.74609375,45,65,51,3.803098679,-20
32,100,100,20,go_to_green_up,green,TRUE,FALSE,joint 1 +,TRUE,09:46.6,23.659,0.218,236.8,34.73529053,309.6727295,84.95825195,63.6000061,84.84000397,51,-4.66E-10,-20
32,100,100,20,go_to_pick_up_from_green,green,TRUE,FALSE,joint 1 -,FALSE,09:48.0,23.013,0.218,236.8,-64.14976501,304.9402161,84.95825195,81.87998962,101.359993,51,-4.66E-10,-20
32,100,100,20,go_to_pick_up_from_green,green,TRUE,FALSE,joint 1 -,FALSE,09:48.7,16.766,0.167,236.8,238.3938904,200.6790771,84.95825195,20.09054565,38.84272766,51,-4.66E-10,-20
32,100,100,20,moving_belt,green,FALSE,TRUE,joint 1 -,FALSE,09:50.1,16.31,0.167,236.8,292.822052,106.5785141,84.95825195,0,20,51,-4.66E-10,-20
32,100,100,20,moving_belt,green,FALSE,TRUE,joint 1 -,FALSE,09:50.8,16.31,0.163,236.8,292.822052,106.5785141,84.95825195,0,20,51,-4.66E-10,-20
32,100,100,20,moving_belt,green,FALSE,TRUE,joint 1 -,FALSE,09:51.4,17.032,0.163,236.8,292.822052,106.5785141,84.95825195,0,20,51,-4.66E-10,-20
32,100,100,20,moving_belt,green,FALSE,TRUE,joint 1 -,FALSE,09:53.0,17.051,0.163,236.8,292.822052,106.5785141,84.95825195,0,20,51,-4.66E-10,-20
32,100,100,20,moving_belt,green,FALSE,TRUE,joint 1 -,FALSE,09:53.8,17.013,0.163,236.8,292.822052,106.5785141,84.95825195,0,20,51,-4.66E-10,-20
32,100,100,20,moving_belt,green,FALSE,TRUE,joint 1 -,FALSE,09:54.6,17.013,0.163,236.8,292.822052,106.5785141,84.95825195,0,20,51,-4.66E-10,-20
32,100,100,20,moving_belt,green,FALSE,TRUE,joint 1 -,FALSE,09:56.1,17.07,0.162,236.8,292.822052,106.5785141,84.95825195,0,20,51,-4.66E-10,-20
32,100,100,20,moving_belt,green,FALSE,TRUE,joint 1 -,FALSE,09:56.9,17.07,0.162,236.8,292.822052,106.5785141,84.95825195,0,20,51,-4.66E-10,-20
32,100,100,20,moving_belt,green,FALSE,TRUE,joint 1 -,FALSE,09:57.6,17.032,0.162,236.8,292.822052,106.5785141,84.95825195,0,20,51,-4.66E-10,-20
32,100,100,20,moving_belt,green,FALSE,TRUE,joint 1 -,FALSE,09:58.9,16.899,0.162,236.8,292.822052,106.5785141,84.95825195,0,20,51,-4.66E-10,-20
32,100,100,20,moving_belt,green,FALSE,TRUE,joint 1 -,FALSE,09:59.6,16.899,0.162,236.8,292.822052,106.5785141,84.95825195,0,20,51,-4.66E-10,-20
32,100,100,20,moving_belt,green,FALSE,TRUE,joint 1 -,FALSE,10:01.0,16.899,0.162,236.8,292.822052,106.5785141,84.95825195,0,20,51,-4.66E-10,-20
32,100,100,20,moving_belt,green,FALSE,TRUE,joint 1 -,FALSE,10:01.7,16.899,0.162,236.8,292.822052,106.5785141,84.95825195,0,20,51,-4.66E-10,-20
32,100,100,20,go_to_pick_down,green,TRUE,FALSE,joint 3 +,FALSE,10:03.1,16.899,0.162,236.8,292.8217468,106.5784073,84.65037537,0,20,51,0.24000001,-20
32,100,100,20,go_to_pick_up_from_pick_down,green,TRUE,FALSE,joint 3 -,TRUE,10:03.8,16.899,0.162,236.8,284.0235596,103.3761215,33.33361053,0,20,51,20.19999695,-20
32,100,100,20,go_to_color_detect_up_from_pick_up,green,TRUE,FALSE,joint 1 +,TRUE,10:04.5,17.108,0.158,236.8,290.6828918,112.2817841,84.95825195,1.120002747,21.44000244,51,0,-20
32,100,100,20,go_to_color_detect_up_from_pick_up,green,TRUE,FALSE,joint 1 +,TRUE,10:05.9,23.07,0.158,236.8,147.1151581,274.7013855,84.95825195,41.82891464,62.31219482,51,0,-20
32,100,100,20,go_to_color_detect_down,green,TRUE,FALSE,joint 3 +,TRUE,10:06.6,22.481,0.208,236.8,123.2313766,264.2705383,10.88928986,45,65,51,31.42768288,-20
32,100,100,20,go_to_color_detect_up_from_color_detect_down,green,TRUE,FALSE,joint 3 -,FALSE,10:08.0,22.234,0.208,236.8,114.8562775,246.3100739,-15.67016602,45,65,51,42.55999756,-20
32,100,100,20,go_to_color_detect_up_from_color_detect_down,green,TRUE,FALSE,joint 3 -,FALSE,10:08.6,22.234,0.194,236.8,131.6897888,282.4096375,83.23200989,45,65,51,0.461565048,-20
32,100,100,20,detecting_color,green,FALSE,FALSE,detecting_color,FALSE,10:10.0,17.184,0.194,236.8,131.6940765,282.4188232,84.95825195,45,65,51,-4.66E-10,-20
32,100,100,20,go_to_color_detect_down,green,TRUE,FALSE,joint 3 +,FALSE,10:10.7,16.253,0.157,236.8,131.0276184,280.989624,63.48404694,45,65,51,9.239998817,-20
32,100,100,20,go_to_color_detect_up_from_color_detect_down,green,TRUE,FALSE,joint 3 -,TRUE,10:12.1,16.291,0.157,236.8,111.1520844,238.3664093,-24.2558136,45,65,51,47.99484253,-20
32,100,100,20,go_to_color_detect_up_from_color_detect_down,green,TRUE,FALSE,joint 3 -,TRUE,10:12.8,20.81,0.175,236.8,131.223114,281.4088745,66.89193726,45,65,51,6.328224182,-20
32,100,100,20,go_to_blue_up,blue,TRUE,FALSE,joint 1 +,TRUE,10:13.5,20.81,0.175,236.8,66.87979126,304.3531189,84.95825195,57.60656738,78.35542297,51,-4.66E-10,-20
32,100,100,20,go_to_pick_up_from_blue,blue,TRUE,FALSE,joint 1 -,FALSE,10:14.9,22.386,0.205,236.8,137.1891937,279.790741,84.95825195,43.87999725,62.55999756,51,-4.66E-10,-20
32,100,100,20,moving_belt,blue,FALSE,TRUE,joint 1 -,FALSE,10:15.6,16.329,0.205,236.8,292.8148499,106.59832,84.95825195,0.003875732,20,51,-4.66E-10,-20
32,100,100,20,moving_belt,blue,FALSE,TRUE,joint 1 -,FALSE,10:16.9,16.595,0.158,236.8,292.822052,106.5785141,84.95825195,0,20,51,-4.66E-10,-20
32,100,100,20,moving_belt,blue,FALSE,TRUE,joint 1 -,FALSE,10:17.6,16.595,0.158,236.8,292.822052,106.5785141,84.95825195,0,20,51,-4.66E-10,-20
32,100,100,20,moving_belt,blue,FALSE,TRUE,joint 1 -,FALSE,10:19.0,16.994,0.162,236.8,292.822052,106.5785141,84.95825195,0,20,51,-4.66E-10,-20
32,100,100,20,moving_belt,blue,FALSE,TRUE,joint 1 -,FALSE,10:19.7,16.766,0.162,236.8,292.822052,106.5785141,84.95825195,0,20,51,-4.66E-10,-20
32,100,100,20,moving_belt,blue,FALSE,TRUE,joint 1 -,FALSE,10:21.1,16.975,0.162,236.8,292.822052,106.5785141,84.95825195,0,20,51,-4.66E-10,-20
32,100,100,20,moving_belt,blue,FALSE,TRUE,joint 1 -,FALSE,10:21.8,16.899,0.162,236.8,292.822052,106.5785141,84.95825195,0,20,51,-4.66E-10,-20
32,100,100,20,moving_belt,blue,FALSE,TRUE,joint 1 -,FALSE,10:22.5,16.899,0.162,236.8,292.822052,106.5785141,84.95825195,0,20,51,-4.66E-10,-20
32,100,100,20,moving_belt,blue,FALSE,TRUE,joint 1 -,FALSE,10:23.9,16.88,0.162,236.8,292.822052,106.5785141,84.95825195,0,20,51,-4.66E-10,-20
32,100,100,20,moving_belt,blue,FALSE,TRUE,joint 1 -,FALSE,10:24.7,16.785,0.162,236.8,292.822052,106.5785141,84.95825195,0,20,51,-4.66E-10,-20
32,100,100,20,moving_belt,blue,FALSE,TRUE,joint 1 -,FALSE,10:25.5,16.899,0.162,236.8,292.822052,106.5785141,84.95825195,0,20,51,-4.66E-10,-20
32,100,100,20,moving_belt,blue,FALSE,TRUE,joint 1 -,FALSE,10:27.0,16.899,0.162,236.8,292.822052,106.5785141,84.95825195,0,20,51,-4.66E-10,-20
32,100,100,20,moving_belt,blue,FALSE,TRUE,joint 1 -,FALSE,10:27.7,16.88,0.162,236.8,292.822052,106.5785141,84.95825195,0,20,51,-4.66E-10,-20
32,100,100,20,moving_belt,blue,FALSE,TRUE,joint 1 -,FALSE,10:29.1,16.994,0.162,236.8,292.822052,106.5785141,84.95825195,0,20,51,-4.66E-10,-20
32,100,100,20,go_to_pick_down,blue,TRUE,FALSE,joint 3 +,FALSE,10:29.8,16.994,0.162,236.8,285.7587891,104.0076904,38.55379105,0,20,51,18.91782951,-20
32,100,100,20,go_to_pick_up_from_pick_down,blue,TRUE,FALSE,joint 3 -,TRUE,10:31.1,22.386,0.159,236.8,292.4590759,106.4464035,74.30866241,0,20,51,3.598332644,-20
32,100,100,20,go_to_color_detect_up_from_pick_up,blue,TRUE,FALSE,joint 1 +,TRUE,10:31.8,22.386,0.159,236.8,210.5514221,229.7212219,84.95825195,27.49312592,48.6564064,51,0,-20
32,100,100,20,go_to_color_detect_down,blue,TRUE,FALSE,joint 3 +,TRUE,10:33.2,22.595,0.206,236.8,131.4761963,281.9515991,72.65760803,45,65,51,5.439999104,-20
32,100,100,20,go_to_color_detect_down,blue,TRUE,FALSE,joint 3 +,TRUE,10:33.9,22.045,0.206,236.8,111.6781311,239.4945068,-23.12142944,45,65,51,47.53843689,-20
32,100,100,20,go_to_color_detect_up_from_color_detect_down,blue,TRUE,FALSE,joint 3 -,FALSE,10:34.6,22.045,0.204,236.8,130.2709961,279.3670349,53.67488861,45,65,51,11.31591129,-20
32,100,100,20,detecting_color,blue,FALSE,FALSE,detecting_color,FALSE,10:35.9,16.747,0.204,236.8,131.6940765,282.4188232,84.95825195,45,65,51,-4.66E-10,-20
32,100,100,20,go_to_color_detect_down,blue,TRUE,FALSE,joint 3 +,FALSE,10:36.6,16.747,0.156,236.8,131.6940765,282.4188232,84.95825195,45,65,51,-4.66E-10,-20
32,100,100,20,go_to_color_detect_down,blue,TRUE,FALSE,joint 3 +,FALSE,10:38.0,16.177,0.156,236.8,116.4977417,249.8302002,-11.36716461,45,65,51,41.67177963,-20
32,100,100,20,go_to_color_detect_up_from_color_detect_down,blue,TRUE,FALSE,joint 3 -,TRUE,10:38.7,16.31,0.157,236.8,121.09729,259.6939697,2.842002869,45,65,51,32.88000107,-20
32,100,100,20,go_to_red_up,red,TRUE,FALSE,joint 1 +,TRUE,10:40.1,23.469,0.157,236.8,131.1022797,282.6940308,84.95825195,45.12000275,65.24000549,51,-4.66E-10,-20
32,100,100,20,go_to_red_up,red,TRUE,FALSE,joint 1 +,TRUE,10:40.8,22.538,0.205,236.8,-141.6123962,277.578186,84.95825195,97.02935791,117.8077469,51,-4.66E-10,-20
32,100,100,20,go_to_pick_up_from_red,red,TRUE,FALSE,joint 1 -,FALSE,10:42.2,19.177,0.205,236.8,-116.7329636,288.9241333,84.95825195,92,110.9599991,51,-4.66E-10,-20
32,100,100,20,go_to_pick_up_from_red,red,TRUE,FALSE,joint 1 -,FALSE,10:42.9,19.177,0.205,236.8,249.4545441,186.7516174,84.95825195,16.81999207,35.67999268,51,-4.66E-10,-20
32,100,100,20,moving_belt,red,FALSE,TRUE,joint 1 -,FALSE,10:43.6,16.31,0.158,236.8,292.822052,106.5785141,84.95825195,0,20,51,-4.66E-10,-20
32,100,100,20,moving_belt,red,FALSE,TRUE,joint 1 -,FALSE,10:44.9,17.089,0.158,236.8,292.822052,106.5785141,84.95825195,0,20,51,-4.66E-10,-20
32,100,100,20,moving_belt,red,FALSE,TRUE,joint 1 -,FALSE,10:45.6,17.089,0.163,236.8,292.822052,106.5785141,84.95825195,0,20,51,-4.66E-10,-20
32,100,100,20,moving_belt,red,FALSE,TRUE,joint 1 -,FALSE,10:47.0,17.108,0.163,236.8,292.822052,106.5785141,84.95825195,0,20,51,-4.66E-10,-20
32,100,100,20,moving_belt,red,FALSE,TRUE,joint 1 -,FALSE,10:47.7,17.108,0.161,236.8,292.822052,106.5785141,84.95825195,0,20,51,-4.66E-10,-20
32,100,100,20,moving_belt,red,FALSE,TRUE,joint 1 -,FALSE,10:49.1,16.956,0.161,236.8,292.822052,106.5785141,84.95825195,0,20,51,-4.66E-10,-20
32,100,100,20,moving_belt,red,FALSE,TRUE,joint 1 -,FALSE,10:49.8,17.051,0.162,236.8,292.822052,106.5785141,84.95825195,0,20,51,-4.66E-10,-20
32,100,100,20,moving_belt,red,FALSE,TRUE,joint 1 -,FALSE,10:51.1,17.013,0.162,236.8,292.822052,106.5785141,84.95825195,0,20,51,-4.66E-10,-20
32,100,100,20,moving_belt,red,FALSE,TRUE,joint 1 -,FALSE,10:51.8,16.823,0.163,236.8,292.822052,106.5785141,84.95825195,0,20,51,-4.66E-10,-20
32,100,100,20,moving_belt,red,FALSE,TRUE,joint 1 -,FALSE,10:52.5,16.823,0.163,236.8,292.822052,106.5785141,84.95825195,0,20,51,-4.66E-10,-20
32,100,100,20,moving_belt,red,FALSE,TRUE,joint 1 -,FALSE,10:53.9,16.804,0.163,236.8,292.822052,106.5785141,84.95825195,0,20,51,-4.66E-10,-20
32,100,100,20,moving_belt,red,FALSE,TRUE,joint 1 -,FALSE,10:54.6,16.937,0.162,236.8,292.822052,106.5785141,84.95825195,0,20,51,-4.66E-10,-20
32,100,100,20,moving_belt,red,FALSE,TRUE,joint 1 -,FALSE,10:56.0,16.823,0.162,236.8,292.822052,106.5785141,84.95825195,0,20,51,-4.66E-10,-20
32,100,100,20,go_to_pick_down,red,TRUE,FALSE,joint 3 +,FALSE,10:56.7,16.975,0.163,236.8,292.8186951,106.5772934,83.93200684,0,20,51,0.600000024,-20
32,100,100,20,go_to_pick_up_from_pick_down,red,TRUE,FALSE,joint 3 -,TRUE,10:58.1,16.253,0.163,236.8,282.979248,102.9960251,30.46248245,0,20,51,21.59999847,-20
32,100,100,20,go_to_color_detect_up_from_pick_up,red,TRUE,FALSE,joint 1 +,TRUE,10:58.7,16.253,0.169,236.8,290.051239,113.903511,84.95825195,1.440002441,21.80000305,51,0,-20
32,100,100,20,go_to_color_detect_up_from_pick_up,red,TRUE,FALSE,joint 1 +,TRUE,11:00.1,22.291,0.169,236.8,142.6537781,277.0444336,84.95825195,42.75547791,63.15876007,51,0,-20
32,100,100,20,go_to_color_detect_down,red,TRUE,FALSE,joint 3 +,TRUE,11:00.8,22.31,0.204,236.8,126.9899673,272.3308411,28.84605026,45,65,51,23.79999542,-20
32,100,100,20,go_to_color_detect_up_from_color_detect_down,red,TRUE,FALSE,joint 3 -,FALSE,11:01.5,22.31,0.204,236.8,114.4084549,245.3497162,-16.78678894,45,65,51,43.19999695,-20
32,100,100,20,go_to_color_detect_up_from_color_detect_down,red,TRUE,FALSE,joint 3 -,FALSE,11:02.9,17.582,0.16,236.8,131.6860046,282.4015198,82.58737946,45,65,51,0.672846556,-20
32,100,100,20,detecting_color,red,FALSE,FALSE,detecting_color,FALSE,11:03.6,17.582,0.16,236.8,131.6940765,282.4188232,84.95825195,45,65,51,-4.66E-10,-20
32,100,100,20,go_to_color_detect_down,red,TRUE,FALSE,joint 3 +,FALSE,11:05.0,16.481,0.157,236.8,131.0276184,280.989624,63.48404694,45,65,51,9.239998817,-20
32,100,100,20,go_to_color_detect_up_from_color_detect_down,red,TRUE,FALSE,joint 3 -,TRUE,11:05.7,16.215,0.157,236.8,111.1520844,238.3664093,-24.2558136,45,65,51,47.99484253,-20
32,100,100,20,go_to_color_detect_up_from_color_detect_down,red,TRUE,FALSE,joint 3 -,TRUE,11:07.1,16.329,0.213,236.8,131.223114,281.4088745,66.89193726,45,65,51,6.328224182,-20
32,100,100,20,go_to_green_up,green,TRUE,FALSE,joint 1 +,TRUE,11:07.7,23.488,0.213,236.8,59.24532318,305.9309387,84.95825195,59.04000092,80.12000275,51,-4.66E-10,-20
32,100,100,20,go_to_pick_up_from_green,green,TRUE,FALSE,joint 1 -,FALSE,11:09.1,22.291,0.205,236.8,-74.75302887,302.5156555,84.95825195,83.87999725,103.5599976,51,-4.66E-10,-20
32,100,100,20,go_to_pick_up_from_green,green,TRUE,FALSE,joint 1 -,FALSE,11:09.8,22.291,0.205,236.8,246.7732086,190.2806244,84.95825195,17.63491058,36.46709442,51,-4.66E-10,-20
32,100,100,20,moving_belt,green,FALSE,TRUE,joint 1 -,FALSE,11:11.2,16.272,0.205,236.8,292.822052,106.5785141,84.95825195,0,20,51,-4.66E-10,-20
32,100,100,20,moving_belt,green,FALSE,TRUE,joint 1 -,FALSE,11:11.9,16.5,0.158,236.8,292.822052,106.5785141,84.95825195,0,20,51,-4.66E-10,-20
32,100,100,20,moving_belt,green,FALSE,TRUE,joint 1 -,FALSE,11:12.6,16.5,0.158,236.8,292.822052,106.5785141,84.95825195,0,20,51,-4.66E-10,-20
32,100,100,20,moving_belt,green,FALSE,TRUE,joint 1 -,FALSE,11:14.0,16.747,0.162,236.8,292.822052,106.5785141,84.95825195,0,20,51,-4.66E-10,-20
32,100,100,20,moving_belt,green,FALSE,TRUE,joint 1 -,FALSE,11:14.7,16.747,0.162,236.8,292.822052,106.5785141,84.95825195,0,20,51,-4.66E-10,-20
32,100,100,20,moving_belt,green,FALSE,TRUE,joint 1 -,FALSE,11:16.0,17.07,0.162,236.8,292.822052,106.5785141,84.95825195,0,20,51,-4.66E-10,-20
32,100,100,20,moving_belt,green,FALSE,TRUE,joint 1 -,FALSE,11:16.7,16.937,0.162,236.8,292.822052,106.5785141,84.95825195,0,20,51,-4.66E-10,-20
32,100,100,20,moving_belt,green,FALSE,TRUE,joint 1 -,FALSE,11:18.1,16.918,0.161,236.8,292.822052,106.5785141,84.95825195,0,20,51,-4.66E-10,-20
32,100,100,20,moving_belt,green,FALSE,TRUE,joint 1 -,FALSE,11:18.8,16.975,0.161,236.8,292.822052,106.5785141,84.95825195,0,20,51,-4.66E-10,-20
32,100,100,20,moving_belt,green,FALSE,TRUE,joint 1 -,FALSE,11:20.2,16.899,0.162,236.8,292.822052,106.5785141,84.95825195,0,20,51,-4.66E-10,-20
32,100,100,20,moving_belt,green,FALSE,TRUE,joint 1 -,FALSE,11:20.9,16.899,0.162,236.8,292.822052,106.5785141,84.95825195,0,20,51,-4.66E-10,-20
32,100,100,20,moving_belt,green,FALSE,TRUE,joint 1 -,FALSE,11:21.6,16.994,0.162,236.8,292.822052,106.5785141,84.95825195,0,20,51,-4.66E-10,-20
32,100,100,20,moving_belt,green,FALSE,TRUE,joint 1 -,FALSE,11:22.9,17.032,0.162,236.8,292.822052,106.5785141,84.95825195,0,20,51,-4.66E-10,-20
32,100,100,20,go_to_pick_down,green,TRUE,FALSE,joint 3 +,FALSE,11:23.6,17.146,0.162,236.8,292.822052,106.5785141,84.95825195,0,20,51,-4.66E-10,-20
32,100,100,20,go_to_pick_up_from_pick_down,green,TRUE,FALSE,joint 3 -,TRUE,11:25.0,16.709,0.16,236.8,282.8717041,102.9568863,30.17666245,0,20,51,21.75999832,-20
32,100,100,20,go_to_color_detect_up_from_pick_up,green,TRUE,FALSE,joint 1 +,TRUE,11:25.7,21.551,0.16,236.8,292.5982056,107.1915665,84.95825195,0.120000839,20.24000168,51,0,-20
32,100,100,20,go_to_color_detect_up_from_pick_up,green,TRUE,FALSE,joint 1 +,TRUE,11:27.1,22.31,0.204,236.8,158.1761475,268.4846802,84.95825195,39.49578857,60.1390686,51,0,-20
32,100,100,20,go_to_color_detect_down,green,TRUE,FALSE,joint 3 +,TRUE,11:27.8,22.386,0.204,236.8,126.9899673,272.3308411,28.84605026,45,65,51,23.79999542,-20
32,100,100,20,go_to_color_detect_up_from_color_detect_down,green,TRUE,FALSE,joint 3 -,FALSE,11:29.1,22.102,0.204,236.8,112.5685043,241.4039307,-21.14051056,45,65,51,45.79999542,-20
32,100,100,20,go_to_color_detect_up_from_color_detect_down,green,TRUE,FALSE,joint 3 -,FALSE,11:29.8,20.013,0.204,236.8,131.6897888,282.4096375,83.23200989,45,65,51,0.461565048,-20
32,100,100,20,detecting_color,green,FALSE,FALSE,detecting_color,FALSE,11:31.2,16.766,0.157,236.8,131.6940765,282.4188232,84.95825195,45,65,51,-4.66E-10,-20
32,100,100,20,go_to_color_detect_down,green,TRUE,FALSE,joint 3 +,FALSE,11:31.9,16.139,0.157,236.8,131.4142609,281.8187866,71.02216339,45,65,51,6.119998932,-20
32,100,100,20,go_to_color_detect_down,green,TRUE,FALSE,joint 3 +,TRUE,11:32.6,16.139,0.157,236.8,111.1388397,238.3379974,-24.28404236,45,65,51,48,-20
32,100,100,20,go_to_color_detect_up_from_color_detect_down,green,TRUE,FALSE,joint 3 -,TRUE,11:34.1,23.45,0.156,236.8,130.4863892,279.828949,56.11413574,45,65,51,10.3846302,-20
32,100,100,20,go_to_blue_up,blue,TRUE,FALSE,joint 1 +,TRUE,11:34.1,23.45,0.156,236.8,89.02467346,298.6274414,84.95825195,53.40000916,74.24000549,51,-4.66E-10,-20
32,100,100,20,go_to_pick_up_from_blue,blue,TRUE,FALSE,joint 1 -,FALSE,11:36.0,22.272,0.205,236.8,107.1915665,292.5982056,84.95825195,49.87999725,68.75999451,51,-4.66E-10,-20
32,100,100,20,go_to_pick_up_from_blue,blue,TRUE,FALSE,joint 1 -,FALSE,11:36.7,22.272,0.205,236.8,291.8267517,109.2743912,84.95825195,0.528388977,20.34348679,51,-4.66E-10,-20
32,100,100,20,moving_belt,blue,FALSE,TRUE,joint 1 -,FALSE,11:38.1,16.348,0.156,236.8,292.822052,106.5785141,84.95825195,0,20,51,-4.66E-10,-20
32,100,100,20,moving_belt,blue,FALSE,TRUE,joint 1 -,FALSE,11:38.7,16.88,0.156,236.8,292.822052,106.5785141,84.95825195,0,20,51,-4.66E-10,-20
32,100,100,20,moving_belt,blue,FALSE,TRUE,joint 1 -,FALSE,11:40.1,16.918,0.161,236.8,292.822052,106.5785141,84.95825195,0,20,51,-4.66E-10,-20
32,100,100,20,moving_belt,blue,FALSE,TRUE,joint 1 -,FALSE,11:40.8,16.937,0.161,236.8,292.822052,106.5785141,84.95825195,0,20,51,-4.66E-10,-20
32,100,100,20,moving_belt,blue,FALSE,TRUE,joint 1 -,FALSE,11:42.2,16.842,0.162,236.8,292.822052,106.5785141,84.95825195,0,20,51,-4.66E-10,-20
32,100,100,20,moving_belt,blue,FALSE,TRUE,joint 1 -,FALSE,11:42.9,16.842,0.162,236.8,292.822052,106.5785141,84.95825195,0,20,51,-4.66E-10,-20
32,100,100,20,moving_belt,blue,FALSE,TRUE,joint 1 -,FALSE,11:43.6,16.994,0.162,236.8,292.822052,106.5785141,84.95825195,0,20,51,-4.66E-10,-20
32,100,100,20,moving_belt,blue,FALSE,TRUE,joint 1 -,FALSE,11:44.9,16.899,0.162,236.8,292.822052,106.5785141,84.95825195,0,20,51,-4.66E-10,-20
32,100,100,20,moving_belt,blue,FALSE,TRUE,joint 1 -,FALSE,11:45.6,16.899,0.162,236.8,292.822052,106.5785141,84.95825195,0,20,51,-4.66E-10,-20
32,100,100,20,moving_belt,blue,FALSE,TRUE,joint 1 -,FALSE,11:47.0,16.937,0.162,236.8,292.822052,106.5785141,84.95825195,0,20,51,-4.66E-10,-20
32,100,100,20,moving_belt,blue,FALSE,TRUE,joint 1 -,FALSE,11:47.7,16.937,0.162,236.8,292.822052,106.5785141,84.95825195,0,20,51,-4.66E-10,-20
32,100,100,20,moving_belt,blue,FALSE,TRUE,joint 1 -,FALSE,11:49.1,17.032,0.16,236.8,292.822052,106.5785141,84.95825195,0,20,51,-4.66E-10,-20
32,100,100,20,moving_belt,blue,FALSE,TRUE,joint 1 -,FALSE,11:49.8,17.032,0.16,236.8,292.822052,106.5785141,84.95825195,0,20,51,-4.66E-10,-20
32,100,100,20,go_to_pick_down,blue,TRUE,FALSE,joint 3 +,FALSE,11:51.1,16.88,0.159,236.8,287.9764404,104.8148575,46.36486435,0,20,51,15.93699837,-20
32,100,100,20,go_to_pick_up_from_pick_down,blue,TRUE,FALSE,joint 3 -,TRUE,11:51.8,16.234,0.159,236.8,291.3642273,106.047905,63.65792847,0,20,51,7.535330772,-20
32,100,100,20,go_to_color_detect_up_from_pick_up,blue,TRUE,FALSE,joint 1 +,TRUE,11:53.2,23.298,0.211,236.8,243.5332794,194.4100494,84.95825195,18.59999847,39.84000015,51,0,-20
32,100,100,20,go_to_color_detect_down,blue,TRUE,FALSE,joint 3 +,TRUE,11:53.9,22.937,0.211,236.8,131.6744537,282.37677,81.26412964,45,65,51,1.799999595,-20
32,100,100,20,go_to_color_detect_down,blue,TRUE,FALSE,joint 3 +,TRUE,11:54.6,22.196,0.211,236.8,111.8780518,239.923233,-22.6834259,45,65,51,47.32715607,-20
32,100,100,20,go_to_color_detect_up_from_color_detect_down,blue,TRUE,FALSE,joint 3 -,FALSE,11:56.0,22.234,0.202,236.8,128.3253326,275.1945496,37.209198,45,65,51,17.74359894,-20
32,100,100,20,detecting_color,blue,FALSE,FALSE,detecting_color,FALSE,11:56.7,16.899,0.202,236.8,131.6940765,282.4188232,84.95825195,45,65,51,-4.66E-10,-20
32,100,100,20,detecting_color,blue,FALSE,FALSE,detecting_color,FALSE,11:58.0,16.253,0.158,236.8,131.6940765,282.4188232,84.95825195,45,65,51,-4.66E-10,-20
32,100,100,20,go_to_color_detect_down,blue,TRUE,FALSE,joint 3 +,FALSE,11:58.7,16.234,0.158,236.8,120.6438446,258.7215576,1.270942688,45,65,51,35.7128067,-20
32,100,100,20,go_to_color_detect_up_from_color_detect_down,blue,TRUE,FALSE,joint 3 -,TRUE,12:00.1,16.462,0.157,236.8,119.829277,256.9747009,-1.446182251,45,65,51,35,-20
32,100,100,20,go_to_red_up,red,TRUE,FALSE,joint 1 +,TRUE,12:00.8,23.336,0.157,236.8,131.6940765,282.4188232,84.95825195,45,65.04000092,51,-4.66E-10,-20
32,100,100,20,go_to_red_up,red,TRUE,FALSE,joint 1 +,TRUE,12:02.2,22.045,0.203,236.8,-97.45150757,295.9847107,84.95825195,88.22387695,109.3622665,51,-4.66E-10,-20
32,100,100,20,go_to_pick_up_from_red,red,TRUE,FALSE,joint 1 -,FALSE,12:02.9,22.69,0.203,236.8,-135.4285126,280.6471863,84.95825195,95.75999451,114.8799973,51,-4.66E-10,-20
32,100,100,20,go_to_pick_up_from_red,red,TRUE,FALSE,joint 1 -,FALSE,12:03.6,22.69,0.203,236.8,232.3738098,207.6202087,84.95825195,21.77999115,40.47999191,51,-4.66E-10,-20
32,100,100,20,moving_belt,red,FALSE,TRUE,joint 1 -,FALSE,12:05.0,16.386,0.156,236.8,292.822052,106.5785141,84.95825195,0,20,51,-4.66E-10,-20
32,100,100,20,moving_belt,red,FALSE,TRUE,joint 1 -,FALSE,12:05.7,16.158,0.156,236.8,292.822052,106.5785141,84.95825195,0,20,51,-4.66E-10,-20
32,100,100,20,moving_belt,red,FALSE,TRUE,joint 1 -,FALSE,12:07.1,17.07,0.163,236.8,292.822052,106.5785141,84.95825195,0,20,51,-4.66E-10,-20
32,100,100,20,moving_belt,red,FALSE,TRUE,joint 1 -,FALSE,12:07.7,16.861,0.163,236.8,292.822052,106.5785141,84.95825195,0,20,51,-4.66E-10,-20
32,100,100,20,moving_belt,red,FALSE,TRUE,joint 1 -,FALSE,12:09.1,16.975,0.162,236.8,292.822052,106.5785141,84.95825195,0,20,51,-4.66E-10,-20
32,100,100,20,moving_belt,red,FALSE,TRUE,joint 1 -,FALSE,12:09.8,16.975,0.162,236.8,292.822052,106.5785141,84.95825195,0,20,51,-4.66E-10,-20
32,100,100,20,moving_belt,red,FALSE,TRUE,joint 1 -,FALSE,12:11.2,16.766,0.161,236.8,292.822052,106.5785141,84.95825195,0,20,51,-4.66E-10,-20
32,100,100,20,moving_belt,red,FALSE,TRUE,joint 1 -,FALSE,12:11.9,16.766,0.161,236.8,292.822052,106.5785141,84.95825195,0,20,51,-4.66E-10,-20
32,100,100,20,moving_belt,red,FALSE,TRUE,joint 1 -,FALSE,12:12.6,16.842,0.161,236.8,292.822052,106.5785141,84.95825195,0,20,51,-4.66E-10,-20
32,100,100,20,moving_belt,red,FALSE,TRUE,joint 1 -,FALSE,12:14.0,16.956,0.161,236.8,292.822052,106.5785141,84.95825195,0,20,51,-4.66E-10,-20
32,100,100,20,moving_belt,red,FALSE,TRUE,joint 1 -,FALSE,12:14.7,16.956,0.161,236.8,292.822052,106.5785141,84.95825195,0,20,51,-4.66E-10,-20
32,100,100,20,moving_belt,red,FALSE,TRUE,joint 1 -,FALSE,12:16.1,16.956,0.163,236.8,292.822052,106.5785141,84.95825195,0,20,51,-4.66E-10,-20
32,100,100,20,moving_belt,red,FALSE,TRUE,joint 1 -,FALSE,12:16.7,16.956,0.163,236.8,292.822052,106.5785141,84.95825195,0,20,51,-4.66E-10,-20
32,100,100,20,go_to_pick_down,red,TRUE,FALSE,joint 3 +,FALSE,12:18.1,16.804,0.162,236.8,292.8217468,106.5784073,84.65037537,0,20,51,0.24000001,-20
32,100,100,20,go_to_pick_up_from_pick_down,red,TRUE,FALSE,joint 3 -,TRUE,12:18.8,16.975,0.162,236.8,282.7636108,102.9175491,29.89107895,0,20,51,21.95999908,-20
32,100,100,20,go_to_color_detect_up_from_pick_up,red,TRUE,FALSE,joint 1 +,TRUE,12:20.2,16.557,0.155,236.8,292.822052,106.5785141,84.95825195,0,20.04000092,51,0,-20
32,100,100,20,go_to_color_detect_up_from_pick_up,red,TRUE,FALSE,joint 1 +,TRUE,12:20.9,22.785,0.155,236.8,149.6178284,273.346344,84.95825195,41.30563354,61.82891464,51,0,-20
32,100,100,20,go_to_color_detect_down,red,TRUE,FALSE,joint 3 +,TRUE,12:21.6,22.348,0.204,236.8,127.5210114,273.469696,31.99085999,45,65,51,22.43999481,-20
32,100,100,20,go_to_color_detect_up_from_color_detect_down,red,TRUE,FALSE,joint 3 -,FALSE,12:23.0,21.893,0.204,236.8,112.2859268,240.7979279,-21.77768707,45,65,51,46.19999695,-20
32,100,100,20,go_to_color_detect_up_from_color_detect_down,red,TRUE,FALSE,joint 3 -,FALSE,12:23.7,21.969,0.176,236.8,131.6897888,282.4096375,83.23200989,45,65,51,0.461565048,-20
32,100,100,20,detecting_color,red,FALSE,FALSE,detecting_color,FALSE,12:25.1,16.994,0.176,236.8,131.6940765,282.4188232,84.95825195,45,65,51,-4.66E-10,-20
32,100,100,20,go_to_color_detect_down,red,TRUE,FALSE,joint 3 +,FALSE,12:25.8,16.139,0.155,236.8,130.88797,280.6901245,61.35441971,45,65,51,10.11999893,-20
32,100,100,20,go_to_color_detect_up_from_color_detect_down,red,TRUE,FALSE,joint 3 -,TRUE,12:27.2,16.063,0.155,236.8,111.1430054,238.3469391,-24.27519226,45,65,51,48,-20
32,100,100,20,go_to_color_detect_up_from_color_detect_down,red,TRUE,FALSE,joint 3 -,TRUE,12:27.9,21.38,0.208,236.8,130.2709961,279.3670349,53.67488861,45,65,51,11.31591129,-20
32,100,100,20,go_to_green_up,green,TRUE,FALSE,joint 1 +,TRUE,12:28.6,21.38,0.208,236.8,64.78833008,304.8052063,84.95825195,58,79.04000092,51,-4.66E-10,-20
32,100,100,20,go_to_pick_up_from_green,green,TRUE,FALSE,joint 1 -,FALSE,12:30.0,22.196,0.206,236.8,-77.49543762,301.8247681,84.95825195,84.3999939,104.159996,51,-4.66E-10,-20
32,100,100,20,go_to_pick_up_from_green,green,TRUE,FALSE,joint 1 -,FALSE,12:30.7,18.475,0.206,236.8,200.5299988,238.5192871,84.95825195,29.94526672,48.41744995,51,-4.66E-10,-20
32,100,100,20,moving_belt,green,FALSE,TRUE,joint 1 -,FALSE,12:32.0,16.234,0.206,236.8,292.822052,106.5785141,84.95825195,0,20,51,-4.66E-10,-20
32,100,100,20,moving_belt,green,FALSE,TRUE,joint 1 -,FALSE,12:32.7,16.234,0.156,236.8,292.822052,106.5785141,84.95825195,0,20,51,-4.66E-10,-20
32,100,100,20,moving_belt,green,FALSE,TRUE,joint 1 -,FALSE,12:34.1,17.032,0.156,236.8,292.822052,106.5785141,84.95825195,0,20,51,-4.66E-10,-20
32,100,100,20,moving_belt,green,FALSE,TRUE,joint 1 -,FALSE,12:34.8,17.051,0.162,236.8,292.822052,106.5785141,84.95825195,0,20,51,-4.66E-10,-20
32,100,100,20,moving_belt,green,FALSE,TRUE,joint 1 -,FALSE,12:36.2,17.013,0.162,236.8,292.822052,106.5785141,84.95825195,0,20,51,-4.66E-10,-20
32,100,100,20,moving_belt,green,FALSE,TRUE,joint 1 -,FALSE,12:36.9,16.994,0.163,236.8,292.822052,106.5785141,84.95825195,0,20,51,-4.66E-10,-20
32,100,100,20,moving_belt,green,FALSE,TRUE,joint 1 -,FALSE,12:37.6,16.994,0.163,236.8,292.822052,106.5785141,84.95825195,0,20,51,-4.66E-10,-20
32,100,100,20,moving_belt,green,FALSE,TRUE,joint 1 -,FALSE,12:39.1,16.994,0.163,236.8,292.822052,106.5785141,84.95825195,0,20,51,-4.66E-10,-20
32,100,100,20,moving_belt,green,FALSE,TRUE,joint 1 -,FALSE,12:39.8,16.937,0.163,236.8,292.822052,106.5785141,84.95825195,0,20,51,-4.66E-10,-20
32,100,100,20,moving_belt,green,FALSE,TRUE,joint 1 -,FALSE,12:41.2,16.861,0.16,236.8,292.822052,106.5785141,84.95825195,0,20,51,-4.66E-10,-20
32,100,100,20,moving_belt,green,FALSE,TRUE,joint 1 -,FALSE,12:41.9,16.975,0.16,236.8,292.822052,106.5785141,84.95825195,0,20,51,-4.66E-10,-20
32,100,100,20,moving_belt,green,FALSE,TRUE,joint 1 -,FALSE,12:42.6,16.975,0.16,236.8,292.822052,106.5785141,84.95825195,0,20,51,-4.66E-10,-20
32,100,100,20,moving_belt,green,FALSE,TRUE,joint 1 -,FALSE,12:44.0,16.918,0.161,236.8,292.822052,106.5785141,84.95825195,0,20,51,-4.66E-10,-20
32,100,100,20,go_to_pick_down,green,TRUE,FALSE,joint 3 +,FALSE,12:44.7,16.918,0.161,236.8,292.822052,106.5785141,84.95825195,0,20,51,-4.66E-10,-20
32,100,100,20,go_to_pick_up_from_pick_down,green,TRUE,FALSE,joint 3 -,TRUE,12:46.1,16.747,0.161,236.8,282.7636108,102.9175491,29.89107895,0,20,51,22,-20
32,100,100,20,go_to_color_detect_up_from_pick_up,green,TRUE,FALSE,joint 1 +,TRUE,12:46.8,16.196,0.161,236.8,292.822052,106.5785141,84.95825195,0,20,51,0,-20
32,100,100,20,go_to_color_detect_up_from_pick_up,green,TRUE,FALSE,joint 1 +,TRUE,12:48.2,22.595,0.209,236.8,171.8888855,259.9190979,84.95825195,36.52266312,57.32594299,51,0,-20
32,100,100,20,go_to_color_detect_down,green,TRUE,FALSE,joint 3 +,TRUE,12:48.8,22.595,0.209,236.8,128.0065918,274.5110168,35.06723785,45,65,51,21.11999512,-20
32,100,100,20,go_to_color_detect_up_from_color_detect_down,green,TRUE,FALSE,joint 3 -,FALSE,12:50.2,22.215,0.203,236.8,112.0333176,240.2562103,-22.34053802,45,65,51,46.55999756,-20
32,100,100,20,go_to_color_detect_up_from_color_detect_down,green,TRUE,FALSE,joint 3 -,FALSE,12:50.9,22.215,0.203,236.8,131.5572662,282.1254578,75.20805359,45,65,51,3.271817207,-20
32,100,100,20,detecting_color,green,FALSE,FALSE,detecting_color,FALSE,12:51.6,16.861,0.203,236.8,131.6940765,282.4188232,84.95825195,45,65,51,-4.66E-10,-20
32,100,100,20,go_to_color_detect_down,green,TRUE,FALSE,joint 3 +,FALSE,12:53.0,16.025,0.159,236.8,131.5272522,282.0610657,74.19223785,45,65,51,4.799999237,-20
32,100,100,20,go_to_color_detect_down,green,TRUE,FALSE,joint 3 +,FALSE,12:53.7,16.082,0.159,236.8,111.8780518,239.923233,-22.6834259,45,65,51,47.32715607,-20
32,100,100,20,go_to_color_detect_up_from_color_detect_down,green,TRUE,FALSE,joint 3 -,TRUE,12:55.1,18.19,0.157,236.8,130.2709961,279.3670349,53.67488861,45,65,51,11.31591129,-20
32,100,100,20,go_to_blue_up,blue,TRUE,FALSE,joint 1 +,TRUE,12:55.8,23.469,0.157,236.8,84.63713074,299.9004822,84.95825195,54.24000549,75.12000275,51,-4.66E-10,-20
32,100,100,20,go_to_pick_up_from_blue,blue,TRUE,FALSE,joint 1 -,FALSE,12:57.2,22.272,0.205,236.8,76.65227509,302.0400085,84.95825195,55.75999451,74.87999725,51,-4.66E-10,-20
32,100,100,20,go_to_pick_up_from_blue,blue,TRUE,FALSE,joint 1 -,FALSE,12:57.9,16.557,0.205,236.8,291.8267517,109.2743912,84.95825195,0.528388977,20.34348679,51,-4.66E-10,-20
32,100,100,20,moving_belt,blue,FALSE,TRUE,joint 1 -,FALSE,12:59.2,16.31,0.154,236.8,292.822052,106.5785141,84.95825195,0,20,51,-4.66E-10,-20
32,100,100,20,moving_belt,blue,FALSE,TRUE,joint 1 -,FALSE,12:59.9,16.31,0.154,236.8,292.822052,106.5785141,84.95825195,0,20,51,-4.66E-10,-20
32,100,100,20,moving_belt,blue,FALSE,TRUE,joint 1 -,FALSE,13:00.6,17.032,0.163,236.8,292.822052,106.5785141,84.95825195,0,20,51,-4.66E-10,-20
32,100,100,20,moving_belt,blue,FALSE,TRUE,joint 1 -,FALSE,13:02.0,16.804,0.163,236.8,292.822052,106.5785141,84.95825195,0,20,51,-4.66E-10,-20
32,100,100,20,moving_belt,blue,FALSE,TRUE,joint 1 -,FALSE,13:02.7,16.975,0.163,236.8,292.822052,106.5785141,84.95825195,0,20,51,-4.66E-10,-20
32,100,100,20,moving_belt,blue,FALSE,TRUE,joint 1 -,FALSE,13:04.1,16.975,0.163,236.8,292.822052,106.5785141,84.95825195,0,20,51,-4.66E-10,-20
32,100,100,20,moving_belt,blue,FALSE,TRUE,joint 1 -,FALSE,13:04.8,16.861,0.163,236.8,292.822052,106.5785141,84.95825195,0,20,51,-4.66E-10,-20
32,100,100,20,moving_belt,blue,FALSE,TRUE,joint 1 -,FALSE,13:06.2,17.07,0.163,236.8,292.822052,106.5785141,84.95825195,0,20,51,-4.66E-10,-20
32,100,100,20,moving_belt,blue,FALSE,TRUE,joint 1 -,FALSE,13:06.9,17.07,0.163,236.8,292.822052,106.5785141,84.95825195,0,20,51,-4.66E-10,-20
32,100,100,20,moving_belt,blue,FALSE,TRUE,joint 1 -,FALSE,13:08.3,16.975,0.162,236.8,292.822052,106.5785141,84.95825195,0,20,51,-4.66E-10,-20
32,100,100,20,moving_belt,blue,FALSE,TRUE,joint 1 -,FALSE,13:08.9,16.899,0.162,236.8,292.822052,106.5785141,84.95825195,0,20,51,-4.66E-10,-20
32,100,100,20,moving_belt,blue,FALSE,TRUE,joint 1 -,FALSE,13:09.6,16.918,0.163,236.8,292.822052,106.5785141,84.95825195,0,20,51,-4.66E-10,-20
32,100,100,20,moving_belt,blue,FALSE,TRUE,joint 1 -,FALSE,13:11.0,16.956,0.163,236.8,292.822052,106.5785141,84.95825195,0,20,51,-4.66E-10,-20
32,100,100,20,go_to_pick_down,blue,TRUE,FALSE,joint 3 +,FALSE,13:11.7,16.956,0.162,236.8,288.4434509,104.9848328,48.24016571,0,20,51,15.22083187,-20
32,100,100,20,go_to_pick_up_from_pick_down,blue,TRUE,FALSE,joint 3 -,TRUE,13:13.1,16.937,0.162,236.8,291.3642273,106.047905,63.65792847,0,20,51,7.535330772,-20
32,100,100,20,go_to_color_detect_up_from_pick_up,blue,TRUE,FALSE,joint 1 +,TRUE,13:13.8,18.912,0.212,236.8,261.3420715,169.7175446,84.95825195,13,34.04000092,51,0,-20
32,100,100,20,go_to_color_detect_down,blue,TRUE,FALSE,joint 3 +,TRUE,13:15.2,22.329,0.212,236.8,131.6634216,282.4176636,84.34249878,45,65,51,0.399999917,-20
32,100,100,20,go_to_color_detect_down,blue,TRUE,FALSE,joint 3 +,TRUE,13:15.9,21.988,0.203,236.8,113.3295212,243.0359344,-19.38383484,45,65,51,45.67074966,-20
32,100,100,20,go_to_color_detect_up_from_color_detect_down,blue,TRUE,FALSE,joint 3 -,FALSE,13:16.6,21.988,0.203,236.8,126.2345505,270.7108459,24.69955063,45,65,51,22.82872391,-20
32,100,100,20,detecting_color,blue,FALSE,FALSE,detecting_color,FALSE,13:18.0,17.013,0.164,236.8,131.6940765,282.4188232,84.95825195,45,65,51,-4.66E-10,-20
32,100,100,20,detecting_color,blue,FALSE,FALSE,detecting_color,FALSE,13:18.7,17.013,0.164,236.8,131.6940765,282.4188232,84.95825195,45,65,51,-4.66E-10,-20
32,100,100,20,go_to_color_detect_down,blue,TRUE,FALSE,joint 3 +,FALSE,13:20.1,16.139,0.164,236.8,121.930397,261.4805603,5.84765625,45,65,51,33.65024567,-20
32,100,100,20,go_to_color_detect_up_from_color_detect_down,blue,TRUE,FALSE,joint 3 -,TRUE,13:20.8,16.196,0.155,236.8,115.3284836,247.3227234,-14.46694946,45,65,51,41.87999725,-20
32,100,100,20,go_to_red_up,red,TRUE,FALSE,joint 1 +,TRUE,13:22.2,23.222,0.155,236.8,131.6940765,282.4188232,84.95825195,45,65,51,-4.66E-10,-20
32,100,100,20,go_to_red_up,red,TRUE,FALSE,joint 1 +,TRUE,13:22.9,22.747,0.208,236.8,-78.38388062,301.5952759,84.95825195,84.56871796,105.8271027,51,-4.66E-10,-20
32,100,100,20,go_to_pick_up_from_red,red,TRUE,FALSE,joint 1 -,FALSE,13:24.3,22.443,0.208,236.8,-164.5767365,264.6095581,84.95825195,101.8799896,121.359993,51,-4.66E-10,-20
32,100,100,20,go_to_pick_up_from_red,red,TRUE,FALSE,joint 1 -,FALSE,13:25.0,20.962,0.174,236.8,216.7785645,223.8543854,84.95825195,25.91999054,44.49999237,51,-4.66E-10,-20
32,100,100,20,moving_belt,red,FALSE,TRUE,joint 1 -,FALSE,13:25.6,16.367,0.174,236.8,292.822052,106.5785141,84.95825195,0,20,51,-4.66E-10,-20
32,100,100,20,moving_belt,red,FALSE,TRUE,joint 1 -,FALSE,13:27.0,16.823,0.161,236.8,292.822052,106.5785141,84.95825195,0,20,51,-4.66E-10,-20
32,100,100,20,moving_belt,red,FALSE,TRUE,joint 1 -,FALSE,13:27.7,16.823,0.161,236.8,292.822052,106.5785141,84.95825195,0,20,51,-4.66E-10,-20
32,100,100,20,moving_belt,red,FALSE,TRUE,joint 1 -,FALSE,13:29.1,16.956,0.162,236.8,292.822052,106.5785141,84.95825195,0,20,51,-4.66E-10,-20
32,100,100,20,moving_belt,red,FALSE,TRUE,joint 1 -,FALSE,13:29.8,16.956,0.162,236.8,292.822052,106.5785141,84.95825195,0,20,51,-4.66E-10,-20
32,100,100,20,moving_belt,red,FALSE,TRUE,joint 1 -,FALSE,13:31.2,16.975,0.161,236.8,292.822052,106.5785141,84.95825195,0,20,51,-4.66E-10,-20
32,100,100,20,moving_belt,red,FALSE,TRUE,joint 1 -,FALSE,13:31.9,17.032,0.161,236.8,292.822052,106.5785141,84.95825195,0,20,51,-4.66E-10,-20
32,100,100,20,moving_belt,red,FALSE,TRUE,joint 1 -,FALSE,13:32.6,17.032,0.161,236.8,292.822052,106.5785141,84.95825195,0,20,51,-4.66E-10,-20
32,100,100,20,moving_belt,red,FALSE,TRUE,joint 1 -,FALSE,13:34.0,16.88,0.161,236.8,292.822052,106.5785141,84.95825195,0,20,51,-4.66E-10,-20
32,100,100,20,moving_belt,red,FALSE,TRUE,joint 1 -,FALSE,13:34.7,16.88,0.161,236.8,292.822052,106.5785141,84.95825195,0,20,51,-4.66E-10,-20
32,100,100,20,moving_belt,red,FALSE,TRUE,joint 1 -,FALSE,13:36.1,16.861,0.162,236.8,292.822052,106.5785141,84.95825195,0,20,51,-4.66E-10,-20
32,100,100,20,moving_belt,red,FALSE,TRUE,joint 1 -,FALSE,13:36.8,16.88,0.162,236.8,292.822052,106.5785141,84.95825195,0,20,51,-4.66E-10,-20
32,100,100,20,moving_belt,red,FALSE,TRUE,joint 1 -,FALSE,13:38.2,16.861,0.162,236.8,292.822052,106.5785141,84.95825195,0,20,51,-4.66E-10,-20
32,100,100,20,go_to_pick_down,red,TRUE,FALSE,joint 3 +,FALSE,13:38.9,17.089,0.162,236.8,292.822052,106.5785141,84.95825195,0,20,51,-4.66E-10,-20
32,100,100,20,go_to_pick_up_from_pick_down,red,TRUE,FALSE,joint 3 -,TRUE,13:40.3,16.386,0.158,236.8,282.7636108,102.9175491,29.89107895,0,20,51,22,-20
32,100,100,20,go_to_color_detect_up_from_pick_up,red,TRUE,FALSE,joint 1 +,TRUE,13:40.9,23.222,0.158,236.8,292.8220215,106.5784988,84.84449768,0,20,51,0.008171108,-20
32,100,100,20,go_to_color_detect_up_from_pick_up,red,TRUE,FALSE,joint 1 +,TRUE,13:41.6,23.222,0.158,236.8,158.1761475,268.4846802,84.95825195,39.49578857,60.1390686,51,0,-20
32,100,100,20,go_to_color_detect_down,red,TRUE,FALSE,joint 3 +,TRUE,13:43.1,22.215,0.204,236.8,129.21521,277.1029053,43.84802246,45,65,51,17.39999771,-20
32,100,100,20,go_to_color_detect_up_from_color_detect_down,red,TRUE,FALSE,joint 3 -,FALSE,13:43.8,22.007,0.204,236.8,111.3318787,238.7519684,-23.87106323,45,65,51,47.59999847,-20
32,100,100,20,go_to_color_detect_up_from_color_detect_down,red,TRUE,FALSE,joint 3 -,FALSE,13:45.2,18.589,0.203,236.8,131.6209259,282.2619934,77.8272171,45,65,51,2.32925415,-20
32,100,100,20,detecting_color,red,FALSE,FALSE,detecting_color,FALSE,13:45.9,18.589,0.203,236.8,131.6940765,282.4188232,84.95825195,45,65,51,-4.66E-10,-20
32,100,100,20,go_to_color_detect_down,red,TRUE,FALSE,joint 3 +,FALSE,13:46.6,16.576,0.157,236.8,131.4761963,281.9515991,72.65760803,45,65,51,5.439999104,-20
32,100,100,20,go_to_color_detect_down,red,TRUE,FALSE,joint 3 +,FALSE,13:48.0,16.158,0.157,236.8,111.6781311,239.4945068,-23.12142944,45,65,51,47.53843689,-20
32,100,100,20,go_to_color_detect_up_from_color_detect_down,red,TRUE,FALSE,joint 3 -,TRUE,13:48.7,16.386,0.156,236.8,128.3253326,275.1945496,37.209198,45,65,51,17.74359894,-20
32,100,100,20,go_to_green_up,green,TRUE,FALSE,joint 1 +,TRUE,13:50.1,23.355,0.156,236.8,89.02467346,298.6274414,84.95825195,53.40000916,74.24000549,51,-4.66E-10,-20
32,100,100,20,go_to_pick_up_from_green,green,TRUE,FALSE,joint 1 -,FALSE,13:50.8,22.31,0.204,236.8,-80.44167328,301.052948,84.95825195,84.95999908,104.8799973,51,-4.66E-10,-20
32,100,100,20,go_to_pick_up_from_green,green,TRUE,FALSE,joint 1 -,FALSE,13:52.2,22.405,0.204,236.8,172.1887207,259.7205505,84.95825195,36.45653915,54.76872253,51,-4.66E-10,-20
32,100,100,20,moving_belt,green,FALSE,TRUE,joint 1 -,FALSE,13:52.9,16.31,0.204,236.8,292.822052,106.5785141,84.95825195,0,20,51,-4.66E-10,-20
32,100,100,20,moving_belt,green,FALSE,TRUE,joint 1 -,FALSE,13:54.3,16.348,0.156,236.8,292.822052,106.5785141,84.95825195,0,20,51,-4.66E-10,-20
32,100,100,20,moving_belt,green,FALSE,TRUE,joint 1 -,FALSE,13:54.9,16.956,0.156,236.8,292.822052,106.5785141,84.95825195,0,20,51,-4.66E-10,-20
32,100,100,20,moving_belt,green,FALSE,TRUE,joint 1 -,FALSE,13:55.6,16.956,0.163,236.8,292.822052,106.5785141,84.95825195,0,20,51,-4.66E-10,-20
32,100,100,20,moving_belt,green,FALSE,TRUE,joint 1 -,FALSE,13:57.0,16.956,0.163,236.8,292.822052,106.5785141,84.95825195,0,20,51,-4.66E-10,-20
32,100,100,20,moving_belt,green,FALSE,TRUE,joint 1 -,FALSE,13:57.7,16.766,0.162,236.8,292.822052,106.5785141,84.95825195,0,20,51,-4.66E-10,-20
32,100,100,20,moving_belt,green,FALSE,TRUE,joint 1 -,FALSE,13:59.1,16.88,0.162,236.8,292.822052,106.5785141,84.95825195,0,20,51,-4.66E-10,-20
32,100,100,20,moving_belt,green,FALSE,TRUE,joint 1 -,FALSE,13:59.9,16.994,0.162,236.8,292.822052,106.5785141,84.95825195,0,20,51,-4.66E-10,-20
32,100,100,20,moving_belt,green,FALSE,TRUE,joint 1 -,FALSE,14:01.2,17.051,0.162,236.8,292.822052,106.5785141,84.95825195,0,20,51,-4.66E-10,-20
32,100,100,20,moving_belt,green,FALSE,TRUE,joint 1 -,FALSE,14:02.0,16.937,0.161,236.8,292.822052,106.5785141,84.95825195,0,20,51,-4.66E-10,-20
32,100,100,20,moving_belt,green,FALSE,TRUE,joint 1 -,FALSE,14:02.7,16.937,0.161,236.8,292.822052,106.5785141,84.95825195,0,20,51,-4.66E-10,-20
32,100,100,20,moving_belt,green,FALSE,TRUE,joint 1 -,FALSE,14:04.0,16.956,0.162,236.8,292.822052,106.5785141,84.95825195,0,20,51,-4.66E-10,-20
32,100,100,20,moving_belt,green,FALSE,TRUE,joint 1 -,FALSE,14:04.7,16.899,0.162,236.8,292.822052,106.5785141,84.95825195,0,20,51,-4.66E-10,-20
32,100,100,20,moving_belt,green,FALSE,TRUE,joint 1 -,FALSE,14:06.1,16.88,0.162,236.8,292.822052,106.5785141,84.95825195,0,20,51,-4.66E-10,-20
32,100,100,20,go_to_pick_down,green,TRUE,FALSE,joint 3 +,FALSE,14:06.8,16.804,0.162,236.8,283.7345581,103.2709351,32.52097702,0,20,51,21.17482758,-20
32,100,100,20,go_to_pick_up_from_pick_down,green,TRUE,FALSE,joint 3 -,TRUE,14:08.2,19.595,0.162,236.8,292.8217468,106.5784073,84.649086,0,20,51,0.044337414,-20
32,100,100,20,go_to_color_detect_up_from_pick_up,green,TRUE,FALSE,joint 1 +,TRUE,14:08.9,22.538,0.214,236.8,183.7216797,251.6944122,84.95825195,33.87281799,54.79610062,51,0,-20
32,100,100,20,go_to_color_detect_down,green,TRUE,FALSE,joint 3 +,TRUE,14:10.3,22.367,0.214,236.8,130.88797,280.6901245,61.35441971,45,65,51,10.11999893,-20
32,100,100,20,go_to_color_detect_up_from_color_detect_down,green,TRUE,FALSE,joint 3 -,FALSE,14:10.9,22.064,0.203,236.8,111.3318787,238.7519684,-23.87106323,45,65,51,47.59999847,-20
32,100,100,20,go_to_color_detect_up_from_color_detect_down,green,TRUE,FALSE,joint 3 -,FALSE,14:11.6,21.19,0.203,236.8,131.3155365,281.6070557,68.75533295,45,65,51,5.636942863,-20
32,100,100,20,detecting_color,green,FALSE,FALSE,detecting_color,FALSE,14:13.0,17.032,0.163,236.8,131.6940765,282.4188232,84.95825195,45,65,51,-4.66E-10,-20
32,100,100,20,go_to_color_detect_down,green,TRUE,FALSE,joint 3 +,FALSE,14:13.7,17.032,0.163,236.8,131.6482849,282.3206482,79.31524658,45,65,51,2.63999939,-20
32,100,100,20,go_to_color_detect_down,green,TRUE,FALSE,joint 3 +,FALSE,14:15.1,16.044,0.156,236.8,112.6607361,241.6017151,-20.93079376,45,65,51,46.45331192,-20
32,100,100,20,go_to_color_detect_up_from_color_detect_down,green,TRUE,FALSE,joint 3 -,TRUE,14:15.8,16.272,0.156,236.8,125.614151,269.3804016,21.53419876,45,65,51,24.20000458,-20
32,100,100,20,go_to_blue_up,blue,TRUE,FALSE,joint 1 +,TRUE,14:17.2,22.918,0.212,236.8,107.5999832,292.4482422,84.95825195,49.80000305,70.44000244,51,-4.66E-10,-20
32,100,100,20,go_to_pick_up_from_blue,blue,TRUE,FALSE,joint 1 -,FALSE,14:17.9,22.918,0.212,236.8,53.03978729,307.067627,84.95825195,60.19999695,79.55999756,51,-4.66E-10,-20
32,100,100,20,go_to_pick_up_from_blue,blue,TRUE,FALSE,joint 1 -,FALSE,14:19.3,22.177,0.157,236.8,280.3932495,135.9535065,84.95825195,5.867225647,25.20232201,51,-4.66E-10,-20
32,100,100,20,moving_belt,blue,FALSE,TRUE,joint 1 -,FALSE,14:19.9,16.329,0.157,236.8,292.822052,106.5785141,84.95825195,0,20,51,-4.66E-10,-20
32,100,100,20,moving_belt,blue,FALSE,TRUE,joint 1 -,FALSE,14:20.6,16.994,0.157,236.8,292.822052,106.5785141,84.95825195,0,20,51,-4.66E-10,-20
32,100,100,20,moving_belt,blue,FALSE,TRUE,joint 1 -,FALSE,14:22.0,16.975,0.162,236.8,292.822052,106.5785141,84.95825195,0,20,51,-4.66E-10,-20
32,100,100,20,moving_belt,blue,FALSE,TRUE,joint 1 -,FALSE,14:22.7,16.975,0.162,236.8,292.822052,106.5785141,84.95825195,0,20,51,-4.66E-10,-20
32,100,100,20,moving_belt,blue,FALSE,TRUE,joint 1 -,FALSE,14:24.1,16.975,0.161,236.8,292.822052,106.5785141,84.95825195,0,20,51,-4.66E-10,-20
32,100,100,20,moving_belt,blue,FALSE,TRUE,joint 1 -,FALSE,14:24.8,16.975,0.161,236.8,292.822052,106.5785141,84.95825195,0,20,51,-4.66E-10,-20
32,100,100,20,moving_belt,blue,FALSE,TRUE,joint 1 -,FALSE,14:26.2,16.861,0.16,236.8,292.822052,106.5785141,84.95825195,0,20,51,-4.66E-10,-20
32,100,100,20,moving_belt,blue,FALSE,TRUE,joint 1 -,FALSE,14:26.8,16.823,0.16,236.8,292.822052,106.5785141,84.95825195,0,20,51,-4.66E-10,-20
32,100,100,20,moving_belt,blue,FALSE,TRUE,joint 1 -,FALSE,14:28.2,16.823,0.161,236.8,292.822052,106.5785141,84.95825195,0,20,51,-4.66E-10,-20
32,100,100,20,moving_belt,blue,FALSE,TRUE,joint 1 -,FALSE,14:28.9,16.861,0.161,236.8,292.822052,106.5785141,84.95825195,0,20,51,-4.66E-10,-20
32,100,100,20,moving_belt,blue,FALSE,TRUE,joint 1 -,FALSE,14:30.3,16.937,0.162,236.8,292.822052,106.5785141,84.95825195,0,20,51,-4.66E-10,-20
32,100,100,20,moving_belt,blue,FALSE,TRUE,joint 1 -,FALSE,14:31.0,16.937,0.162,236.8,292.822052,106.5785141,84.95825195,0,20,51,-4.66E-10,-20
32,100,100,20,moving_belt,blue,FALSE,TRUE,joint 1 -,FALSE,14:31.7,16.994,0.162,236.8,292.822052,106.5785141,84.95825195,0,20,51,-4.66E-10,-20
32,100,100,20,go_to_pick_down,blue,TRUE,FALSE,joint 3 +,FALSE,14:33.1,16.994,0.163,236.8,292.1998901,106.352066,71.02216339,0,20,51,6.119999886,-20
32,100,100,20,go_to_pick_up_from_pick_down,blue,TRUE,FALSE,joint 3 -,TRUE,14:33.8,16.443,0.163,236.8,286.2094727,104.17173,40.0210495,0,20,51,17.19999695,-20
32,100,100,20,go_to_color_detect_up_from_pick_up,blue,TRUE,FALSE,joint 1 +,TRUE,14:35.2,23.431,0.199,236.8,278.0447083,140.6942291,84.95825195,6.84000206,27.60000229,51,0,-20
32,100,100,20,go_to_color_detect_down,blue,TRUE,FALSE,joint 3 +,TRUE,14:35.8,22.177,0.199,236.8,131.7517395,282.3919373,84.95825195,44.98829651,64.99157715,51,0,-20
32,100,100,20,go_to_color_detect_down,blue,TRUE,FALSE,joint 3 +,TRUE,14:37.2,22.272,0.203,236.8,117.0414658,250.9962158,-9.863693237,45,65,51,40.94049835,-20
32,100,100,20,go_to_color_detect_up_from_color_detect_down,blue,TRUE,FALSE,joint 3 -,FALSE,14:37.9,22.121,0.203,236.8,119.829277,256.9747009,-1.446182251,45,65,51,35,-20
32,100,100,20,detecting_color,blue,FALSE,FALSE,detecting_color,FALSE,14:39.3,18.038,0.163,236.8,131.6940765,282.4188232,84.95825195,45,65,51,-4.66E-10,-20
32,100,100,20,detecting_color,blue,FALSE,FALSE,detecting_color,FALSE,14:40.0,16.519,0.163,236.8,131.6940765,282.4188232,84.95825195,45,65,51,-4.66E-10,-20
32,100,100,20,go_to_color_detect_down,blue,TRUE,FALSE,joint 3 +,FALSE,14:40.7,16.519,0.163,236.8,129.21521,277.1029053,43.84802246,45,65,51,17.39999771,-20
32,100,100,20,go_to_color_detect_up_from_color_detect_down,blue,TRUE,FALSE,joint 3 -,TRUE,14:42.1,16.234,0.158,236.8,112.5685043,241.4039307,-21.14051056,45,65,51,45.79999542,-20
32,100,100,20,go_to_color_detect_up_from_color_detect_down,blue,TRUE,FALSE,joint 3 -,TRUE,14:42.8,16.348,0.158,236.8,131.6209259,282.2619934,77.8272171,45,65,51,2.32925415,-20
32,100,100,20,go_to_red_up,red,TRUE,FALSE,joint 1 +,TRUE,14:44.2,22.348,0.214,236.8,21.08601952,310.9004822,84.95825195,66.12000275,87.44000244,51,-4.66E-10,-20
32,100,100,20,go_to_pick_up_from_red,red,TRUE,FALSE,joint 1 -,FALSE,14:44.8,22.348,0.214,236.8,-174.973465,257.8526917,84.95825195,104.159996,123.8799973,51,-4.66E-10,-20
32,100,100,20,go_to_pick_up_from_red,red,TRUE,FALSE,joint 1 -,FALSE,14:46.2,17.734,0.205,236.8,116.6320877,288.9648438,84.95825195,48.01999664,66.0799942,51,-4.66E-10,-20
32,100,100,20,moving_belt,red,FALSE,TRUE,joint 1 -,FALSE,14:46.9,17.734,0.205,236.8,292.7848511,106.6806946,84.95825195,0.019996643,19.99999619,51,-4.66E-10,-20
32,100,100,20,moving_belt,red,FALSE,TRUE,joint 1 -,FALSE,14:48.3,16.348,0.159,236.8,292.822052,106.5785141,84.95825195,0,20,51,-4.66E-10,-20
32,100,100,20,moving_belt,red,FALSE,TRUE,joint 1 -,FALSE,14:49.0,16.994,0.159,236.8,292.822052,106.5785141,84.95825195,0,20,51,-4.66E-10,-20
32,100,100,20,moving_belt,red,FALSE,TRUE,joint 1 -,FALSE,14:49.7,16.956,0.163,236.8,292.822052,106.5785141,84.95825195,0,20,51,-4.66E-10,-20
32,100,100,20,moving_belt,red,FALSE,TRUE,joint 1 -,FALSE,14:51.1,16.937,0.163,236.8,292.822052,106.5785141,84.95825195,0,20,51,-4.66E-10,-20
32,100,100,20,moving_belt,red,FALSE,TRUE,joint 1 -,FALSE,14:51.7,16.937,0.163,236.8,292.822052,106.5785141,84.95825195,0,20,51,-4.66E-10,-20
32,100,100,20,moving_belt,red,FALSE,TRUE,joint 1 -,FALSE,14:53.1,16.975,0.162,236.8,292.822052,106.5785141,84.95825195,0,20,51,-4.66E-10,-20
32,100,100,20,moving_belt,red,FALSE,TRUE,joint 1 -,FALSE,14:53.8,16.975,0.162,236.8,292.822052,106.5785141,84.95825195,0,20,51,-4.66E-10,-20
32,100,100,20,moving_belt,red,FALSE,TRUE,joint 1 -,FALSE,14:55.3,16.937,0.163,236.8,292.822052,106.5785141,84.95825195,0,20,51,-4.66E-10,-20
32,100,100,20,moving_belt,red,FALSE,TRUE,joint 1 -,FALSE,14:55.9,16.899,0.163,236.8,292.822052,106.5785141,84.95825195,0,20,51,-4.66E-10,-20
32,100,100,20,moving_belt,red,FALSE,TRUE,joint 1 -,FALSE,14:57.3,16.918,0.162,236.8,292.822052,106.5785141,84.95825195,0,20,51,-4.66E-10,-20
32,100,100,20,moving_belt,red,FALSE,TRUE,joint 1 -,FALSE,14:58.0,16.994,0.162,236.8,292.822052,106.5785141,84.95825195,0,20,51,-4.66E-10,-20
32,100,100,20,moving_belt,red,FALSE,TRUE,joint 1 -,FALSE,14:58.7,16.994,0.162,236.8,292.822052,106.5785141,84.95825195,0,20,51,-4.66E-10,-20
32,100,100,20,moving_belt,red,FALSE,TRUE,joint 1 -,FALSE,15:00.1,17.108,0.162,236.8,292.822052,106.5785141,84.95825195,0,20,51,-4.66E-10,-20
32,100,100,20,go_to_pick_down,red,TRUE,FALSE,joint 3 +,FALSE,15:00.8,16.975,0.161,236.8,285.7587891,104.0076904,38.55379105,0,20,51,18.91782951,-20
32,100,100,20,go_to_pick_up_from_pick_down,red,TRUE,FALSE,joint 3 -,TRUE,15:02.2,16.158,0.161,236.8,292.7558594,106.5544205,80.40839386,0,20,51,1.41750145,-20
32,100,100,20,go_to_color_detect_up_from_pick_up,red,TRUE,FALSE,joint 1 +,TRUE,15:02.9,23.488,0.209,236.8,220.1657104,220.5238647,84.95825195,25.04656219,46.28984451,51,0,-20
32,100,100,20,go_to_color_detect_down,red,TRUE,FALSE,joint 3 +,TRUE,15:04.3,22.215,0.209,236.8,131.5687561,282.1500854,75.62562561,45,65,51,4.199999332,-20
32,100,100,20,go_to_color_detect_down,red,TRUE,FALSE,joint 3 +,TRUE,15:05.0,22.215,0.204,236.8,111.1933823,238.4549713,-24.16770935,45,65,51,47.98356247,-20
32,100,100,20,go_to_color_detect_up_from_color_detect_down,red,TRUE,FALSE,joint 3 -,FALSE,15:05.7,22.026,0.204,236.8,130.0281982,278.846344,51.1447525,45,65,51,12.28719234,-20
32,100,100,20,detecting_color,red,FALSE,FALSE,detecting_color,FALSE,15:07.1,16.937,0.161,236.8,131.6940765,282.4188232,84.95825195,45,65,51,-4.66E-10,-20
32,100,100,20,go_to_color_detect_down,red,TRUE,FALSE,joint 3 +,FALSE,15:07.8,16.405,0.161,236.8,131.6940765,282.4188232,84.95825195,45,65,51,0.039999992,-20
32,100,100,20,go_to_color_detect_down,red,TRUE,FALSE,joint 3 +,FALSE,15:09.2,16.31,0.161,236.8,117.6041107,252.2028198,-8.263710022,45,65,51,40.16921616,-20
32,100,100,20,go_to_color_detect_up_from_color_detect_down,red,TRUE,FALSE,joint 3 -,TRUE,15:09.9,16.31,0.157,236.8,123.6932373,265.2609863,12.79538727,45,65,51,28.16000366,-20
32,100,100,20,go_to_green_up,green,TRUE,FALSE,joint 1 +,TRUE,15:11.3,23.583,0.157,236.8,126.1485901,284.9390564,84.95825195,46.12000275,66.44000244,51,-4.66E-10,-20
32,100,100,20,go_to_green_up,green,TRUE,FALSE,joint 1 +,TRUE,15:12.0,22.234,0.208,236.8,-74.30796814,302.6252747,84.95825195,83.79573059,104.085556,51,-4.66E-10,-20
32,100,100,20,go_to_pick_up_from_green,green,TRUE,FALSE,joint 1 -,FALSE,15:13.4,22.329,0.208,236.8,120.9560852,287.1817627,84.95825195,47.15999603,65.3999939,51,-4.66E-10,-20
32,100,100,20,moving_belt,green,FALSE,TRUE,joint 1 -,FALSE,15:14.1,16.196,0.159,236.8,292.8067932,106.6204147,84.95825195,0.008197784,20.00037956,51,-4.66E-10,-20
32,100,100,20,moving_belt,green,FALSE,TRUE,joint 1 -,FALSE,15:14.7,16.196,0.159,236.8,292.822052,106.5785141,84.95825195,0,20,51,-4.66E-10,-20
32,100,100,20,moving_belt,green,FALSE,TRUE,joint 1 -,FALSE,15:16.1,16.804,0.163,236.8,292.822052,106.5785141,84.95825195,0,20,51,-4.66E-10,-20
32,100,100,20,moving_belt,green,FALSE,TRUE,joint 1 -,FALSE,15:16.8,16.937,0.163,236.8,292.822052,106.5785141,84.95825195,0,20,51,-4.66E-10,-20
32,100,100,20,moving_belt,green,FALSE,TRUE,joint 1 -,FALSE,15:18.2,16.937,0.162,236.8,292.822052,106.5785141,84.95825195,0,20,51,-4.66E-10,-20
32,100,100,20,moving_belt,green,FALSE,TRUE,joint 1 -,FALSE,15:18.9,17.032,0.162,236.8,292.822052,106.5785141,84.95825195,0,20,51,-4.66E-10,-20
32,100,100,20,moving_belt,green,FALSE,TRUE,joint 1 -,FALSE,15:20.3,17.032,0.162,236.8,292.822052,106.5785141,84.95825195,0,20,51,-4.66E-10,-20
32,100,100,20,moving_belt,green,FALSE,TRUE,joint 1 -,FALSE,15:21.0,17.032,0.162,236.8,292.822052,106.5785141,84.95825195,0,20,51,-4.66E-10,-20
32,100,100,20,moving_belt,green,FALSE,TRUE,joint 1 -,FALSE,15:21.7,16.823,0.162,236.8,292.822052,106.5785141,84.95825195,0,20,51,-4.66E-10,-20
32,100,100,20,moving_belt,green,FALSE,TRUE,joint 1 -,FALSE,15:23.1,17.013,0.162,236.8,292.822052,106.5785141,84.95825195,0,20,51,-4.66E-10,-20
32,100,100,20,moving_belt,green,FALSE,TRUE,joint 1 -,FALSE,15:23.8,17.032,0.162,236.8,292.822052,106.5785141,84.95825195,0,20,51,-4.66E-10,-20
32,100,100,20,moving_belt,green,FALSE,TRUE,joint 1 -,FALSE,15:25.2,17.089,0.162,236.8,292.822052,106.5785141,84.95825195,0,20,51,-4.66E-10,-20
32,100,100,20,moving_belt,green,FALSE,TRUE,joint 1 -,FALSE,15:25.9,16.956,0.162,236.8,292.822052,106.5785141,84.95825195,0,20,51,-4.66E-10,-20
32,100,100,20,moving_belt,green,FALSE,TRUE,joint 1 -,FALSE,15:27.3,16.994,0.161,236.8,292.822052,106.5785141,84.95825195,0,20,51,-4.66E-10,-20
32,100,100,20,go_to_pick_down,green,TRUE,FALSE,joint 3 +,FALSE,15:27.9,16.994,0.161,236.8,285.3606262,103.8627777,37.29911804,0,20,51,19.39399529,-20
32,100,100,20,go_to_pick_up_from_pick_down,green,TRUE,FALSE,joint 3 -,TRUE,15:29.3,16.538,0.198,236.8,292.4590759,106.4464035,74.30866241,0,20,51,3.598332644,-20
32,100,100,20,go_to_color_detect_up_from_pick_up,green,TRUE,FALSE,joint 1 +,TRUE,15:30.0,23.127,0.198,236.8,239.2691345,199.6346893,84.95825195,19.84000015,41.11999893,51,0,-20
32,100,100,20,go_to_color_detect_down,green,TRUE,FALSE,joint 3 +,TRUE,15:30.7,22.177,0.198,236.8,131.4761963,281.9515991,72.65760803,45,65,51,5.439999104,-20
32,100,100,20,go_to_color_detect_down,green,TRUE,FALSE,joint 3 +,TRUE,15:32.1,21.969,0.204,236.8,111.6781311,239.4945068,-23.12142944,45,65,51,47.53843689,-20
32,100,100,20,go_to_color_detect_up_from_color_detect_down,green,TRUE,FALSE,joint 3 -,FALSE,15:32.8,21.969,0.204,236.8,128.7387848,276.0812073,40.15884018,45,65,51,16.57231712,-20
32,100,100,20,detecting_color,green,FALSE,FALSE,detecting_color,FALSE,15:34.2,18.817,0.161,236.8,131.6940765,282.4188232,84.95825195,45,65,51,-4.66E-10,-20
32,100,100,20,go_to_color_detect_down,green,TRUE,FALSE,joint 3 +,FALSE,15:34.9,16.766,0.161,236.8,131.6940765,282.4188232,84.95825195,45,65,51,-4.66E-10,-20
32,100,100,20,go_to_color_detect_down,green,TRUE,FALSE,joint 3 +,FALSE,15:36.3,16.082,0.157,236.8,114.9938431,246.605072,-15.32242584,45,65,51,43.62562561,-20
32,100,100,20,go_to_color_detect_up_from_color_detect_down,green,TRUE,FALSE,joint 3 -,TRUE,15:37.0,16.405,0.157,236.8,122.3915176,262.4694519,7.582984924,45,65,51,30.60000229,-20
32,100,100,20,go_to_blue_up,blue,TRUE,FALSE,joint 1 +,TRUE,15:38.3,23.165,0.213,236.8,129.719162,283.3313904,84.95825195,45.40000916,65.6000061,51,-4.66E-10,-20
32,100,100,20,go_to_pick_up_from_blue,blue,TRUE,FALSE,joint 1 -,FALSE,15:39.0,22.253,0.213,236.8,36.89640427,309.4226685,84.95825195,63.19999695,82.79999542,51,-4.66E-10,-20
32,100,100,20,go_to_pick_up_from_blue,blue,TRUE,FALSE,joint 1 -,FALSE,15:39.7,20.62,0.213,236.8,267.9519348,159.0769806,84.95825195,10.69664383,29.79174042,51,-4.66E-10,-20
32,100,100,20,moving_belt,blue,FALSE,TRUE,joint 1 -,FALSE,15:41.1,16.462,0.157,236.8,292.822052,106.5785141,84.95825195,0,20,51,-4.66E-10,-20
32,100,100,20,moving_belt,blue,FALSE,TRUE,joint 1 -,FALSE,15:41.8,16.462,0.157,236.8,292.822052,106.5785141,84.95825195,0,20,51,-4.66E-10,-20
32,100,100,20,moving_belt,blue,FALSE,TRUE,joint 1 -,FALSE,15:43.2,17.051,0.163,236.8,292.822052,106.5785141,84.95825195,0,20,51,-4.66E-10,-20
32,100,100,20,moving_belt,blue,FALSE,TRUE,joint 1 -,FALSE,15:43.9,17.051,0.163,236.8,292.822052,106.5785141,84.95825195,0,20,51,-4.66E-10,-20
32,100,100,20,moving_belt,blue,FALSE,TRUE,joint 1 -,FALSE,15:45.3,16.994,0.163,236.8,292.822052,106.5785141,84.95825195,0,20,51,-4.66E-10,-20
32,100,100,20,moving_belt,blue,FALSE,TRUE,joint 1 -,FALSE,15:45.9,16.918,0.163,236.8,292.822052,106.5785141,84.95825195,0,20,51,-4.66E-10,-20
32,100,100,20,moving_belt,blue,FALSE,TRUE,joint 1 -,FALSE,15:47.3,16.918,0.162,236.8,292.822052,106.5785141,84.95825195,0,20,51,-4.66E-10,-20
32,100,100,20,moving_belt,blue,FALSE,TRUE,joint 1 -,FALSE,15:48.0,17.013,0.162,236.8,292.822052,106.5785141,84.95825195,0,20,51,-4.66E-10,-20
32,100,100,20,moving_belt,blue,FALSE,TRUE,joint 1 -,FALSE,15:48.7,17.013,0.162,236.8,292.822052,106.5785141,84.95825195,0,20,51,-4.66E-10,-20
32,100,100,20,moving_belt,blue,FALSE,TRUE,joint 1 -,FALSE,15:50.1,16.975,0.163,236.8,292.822052,106.5785141,84.95825195,0,20,51,-4.66E-10,-20
32,100,100,20,moving_belt,blue,FALSE,TRUE,joint 1 -,FALSE,15:50.8,16.956,0.163,236.8,292.822052,106.5785141,84.95825195,0,20,51,-4.66E-10,-20
32,100,100,20,moving_belt,blue,FALSE,TRUE,joint 1 -,FALSE,15:52.2,16.918,0.162,236.8,292.822052,106.5785141,84.95825195,0,20,51,-4.66E-10,-20
32,100,100,20,moving_belt,blue,FALSE,TRUE,joint 1 -,FALSE,15:52.8,16.899,0.162,236.8,292.822052,106.5785141,84.95825195,0,20,51,-4.66E-10,-20
32,100,100,20,go_to_pick_down,blue,TRUE,FALSE,joint 3 +,FALSE,15:54.2,17.127,0.162,236.8,292.7202454,106.5414581,79.31524658,0,20,51,2.640000105,-20
32,100,100,20,go_to_pick_up_from_pick_down,blue,TRUE,FALSE,joint 3 -,TRUE,15:54.9,17.127,0.162,236.8,284.3258057,103.4861374,34.19942093,0,20,51,19.79999733,-20
32,100,100,20,go_to_color_detect_up_from_pick_up,blue,TRUE,FALSE,joint 1 +,TRUE,15:56.3,23.241,0.189,236.8,284.2300415,127.7380753,84.95825195,4.20000267,24.80000305,51,0,-20
32,100,100,20,go_to_color_detect_up_from_pick_up,blue,TRUE,FALSE,joint 1 +,TRUE,15:57.0,23.241,0.189,236.8,133.7845154,281.4346008,84.95825195,44.57516479,64.7384491,51,0,-20
32,100,100,20,go_to_color_detect_down,blue,TRUE,FALSE,joint 3 +,TRUE,15:58.4,22.102,0.204,236.8,123.2313766,264.2705383,10.88928986,45,65,51,31.42768288,-20
32,100,100,20,go_to_color_detect_up_from_color_detect_down,blue,TRUE,FALSE,joint 3 -,FALSE,15:59.1,22.234,0.204,236.8,118.0126343,253.0788879,-7.072502136,45,65,51,37.87999725,-20
32,100,100,20,detecting_color,blue,FALSE,FALSE,detecting_color,FALSE,15:59.8,22.234,0.204,236.8,131.6940765,282.4188232,84.94502258,45,65,51,-4.66E-10,-20
32,100,100,20,detecting_color,blue,FALSE,FALSE,detecting_color,FALSE,16:01.2,16.253,0.162,236.8,131.6940765,282.4188232,84.95825195,45,65,51,-4.66E-10,-20
32,100,100,20,go_to_color_detect_down,blue,TRUE,FALSE,joint 3 +,FALSE,16:01.8,16.253,0.162,236.8,129.5434113,277.8067322,46.61455154,45,65,51,16.23999786,-20
32,100,100,20,go_to_color_detect_up_from_color_detect_down,blue,TRUE,FALSE,joint 3 -,TRUE,16:03.2,16.196,0.157,236.8,111.3318787,238.7519684,-23.87106323,45,65,51,47.59999847,-20
32,100,100,20,go_to_color_detect_up_from_color_detect_down,blue,TRUE,FALSE,joint 3 -,TRUE,16:03.9,17.753,0.157,236.8,131.3155365,281.6070557,68.75533295,45,65,51,5.636942863,-20
32,100,100,20,go_to_red_up,red,TRUE,FALSE,joint 1 +,TRUE,16:05.3,23.317,0.213,236.8,6.525930882,311.5463867,84.95825195,68.80000305,90.20000458,51,-4.66E-10,-20
32,100,100,20,go_to_pick_up_from_red,red,TRUE,FALSE,joint 1 -,FALSE,16:06.0,22.291,0.213,236.8,-178.5566254,255.3845215,84.95825195,104.9599991,124.8799973,51,-4.66E-10,-20
32,100,100,20,go_to_pick_up_from_red,red,TRUE,FALSE,joint 1 -,FALSE,16:07.4,22.424,0.207,236.8,85.89263916,299.5433044,84.95825195,54,72,51,-4.66E-10,-20
32,100,100,20,moving_belt,red,FALSE,TRUE,joint 1 -,FALSE,16:08.1,16.253,0.207,236.8,292.822052,106.5785141,84.95825195,0,20,51,-4.66E-10,-20
32,100,100,20,moving_belt,red,FALSE,TRUE,joint 1 -,FALSE,16:08.8,16.367,0.157,236.8,292.822052,106.5785141,84.95825195,0,20,51,-4.66E-10,-20
32,100,100,20,moving_belt,red,FALSE,TRUE,joint 1 -,FALSE,16:10.2,17.108,0.157,236.8,292.822052,106.5785141,84.95825195,0,20,51,-4.66E-10,-20
32,100,100,20,moving_belt,red,FALSE,TRUE,joint 1 -,FALSE,16:10.9,17.108,0.163,236.8,292.822052,106.5785141,84.95825195,0,20,51,-4.66E-10,-20
32,100,100,20,moving_belt,red,FALSE,TRUE,joint 1 -,FALSE,16:12.3,16.899,0.163,236.8,292.822052,106.5785141,84.95825195,0,20,51,-4.66E-10,-20
32,100,100,20,moving_belt,red,FALSE,TRUE,joint 1 -,FALSE,16:12.9,16.899,0.163,236.8,292.822052,106.5785141,84.95825195,0,20,51,-4.66E-10,-20
32,100,100,20,moving_belt,red,FALSE,TRUE,joint 1 -,FALSE,16:14.3,16.899,0.162,236.8,292.822052,106.5785141,84.95825195,0,20,51,-4.66E-10,-20
32,100,100,20,moving_belt,red,FALSE,TRUE,joint 1 -,FALSE,16:15.0,16.937,0.162,236.8,292.822052,106.5785141,84.95825195,0,20,51,-4.66E-10,-20
32,100,100,20,moving_belt,red,FALSE,TRUE,joint 1 -,FALSE,16:15.7,16.937,0.163,236.8,292.822052,106.5785141,84.95825195,0,20,51,-4.66E-10,-20
32,100,100,20,moving_belt,red,FALSE,TRUE,joint 1 -,FALSE,16:17.1,16.994,0.163,236.8,292.822052,106.5785141,84.95825195,0,20,51,-4.66E-10,-20
32,100,100,20,moving_belt,red,FALSE,TRUE,joint 1 -,FALSE,16:17.8,16.994,0.162,236.8,292.822052,106.5785141,84.95825195,0,20,51,-4.66E-10,-20
32,100,100,20,moving_belt,red,FALSE,TRUE,joint 1 -,FALSE,16:19.2,17.032,0.162,236.8,292.822052,106.5785141,84.95825195,0,20,51,-4.66E-10,-20
32,100,100,20,moving_belt,red,FALSE,TRUE,joint 1 -,FALSE,16:19.9,16.671,0.161,236.8,292.822052,106.5785141,84.95825195,0,20,51,-4.66E-10,-20
32,100,100,20,moving_belt,red,FALSE,TRUE,joint 1 -,FALSE,16:21.3,17.051,0.161,236.8,292.822052,106.5785141,84.95825195,0,20,51,-4.66E-10,-20
32,100,100,20,go_to_pick_down,red,TRUE,FALSE,joint 3 +,FALSE,16:22.0,16.956,0.162,236.8,287.9764404,104.8148575,46.36486435,0,20,51,15.93699837,-20
32,100,100,20,go_to_pick_up_from_pick_down,red,TRUE,FALSE,joint 3 -,TRUE,16:23.4,17.298,0.162,236.8,292.5497437,106.4794006,75.73231506,0,20,51,3.082166433,-20
32,100,100,20,go_to_color_detect_up_from_pick_up,red,TRUE,FALSE,joint 1 +,TRUE,16:24.1,22.842,0.211,236.8,234.749939,204.9297638,84.95825195,21.11999893,42.43999863,51,0,-20
32,100,100,20,go_to_color_detect_down,red,TRUE,FALSE,joint 3 +,TRUE,16:24.8,22.842,0.211,236.8,131.6634216,282.3530884,80.34087372,45,65,51,2.199999571,-20
32,100,100,20,go_to_color_detect_down,red,TRUE,FALSE,joint 3 +,TRUE,16:26.1,22.196,0.203,236.8,111.6781311,239.4945068,-23.12142944,45,65,51,47.53843689,-20
32,100,100,20,go_to_color_detect_up_from_color_detect_down,red,TRUE,FALSE,joint 3 -,FALSE,16:26.8,22.177,0.203,236.8,128.7387848,276.0812073,40.15884018,45,65,51,16.57231712,-20
32,100,100,20,detecting_color,red,FALSE,FALSE,detecting_color,FALSE,16:28.2,17.146,0.163,236.8,131.6940765,282.4188232,84.95825195,45,65,51,-4.66E-10,-20
32,100,100,20,go_to_color_detect_down,red,TRUE,FALSE,joint 3 +,FALSE,16:28.9,17.146,0.163,236.8,131.6940765,282.4188232,84.95825195,45,65,51,-4.66E-10,-20
32,100,100,20,go_to_color_detect_down,red,TRUE,FALSE,joint 3 +,FALSE,16:30.3,16.329,0.157,236.8,120.6438446,258.7215576,1.270942688,45,65,51,35.7128067,-20
32,100,100,20,go_to_color_detect_up_from_color_detect_down,red,TRUE,FALSE,joint 3 -,TRUE,16:31.0,16.329,0.157,236.8,119.829277,256.9747009,-1.446182251,45,65,51,35,-20
32,100,100,20,go_to_green_up,green,TRUE,FALSE,joint 1 +,TRUE,16:32.4,23.108,0.21,236.8,131.6940765,282.4188232,84.95825195,45,65.04000092,51,-4.66E-10,-20
32,100,100,20,go_to_green_up,green,TRUE,FALSE,joint 1 +,TRUE,16:33.1,23.108,0.21,236.8,-57.57305908,306.2500305,84.95825195,80.64698029,101.2168045,51,-4.66E-10,-20
32,100,100,20,go_to_pick_up_from_green,green,TRUE,FALSE,joint 1 -,FALSE,16:33.9,22.405,0.21,236.8,62.87195969,305.2062378,84.95825195,58.35999298,76.87998962,51,-4.66E-10,-20
32,100,100,20,go_to_pick_up_from_green,green,TRUE,FALSE,joint 1 -,FALSE,16:35.2,19.424,0.158,236.8,290.5593872,112.6009293,84.95825195,1.182920456,20.89510345,51,-4.66E-10,-20
32,100,100,20,moving_belt,green,FALSE,TRUE,joint 1 -,FALSE,16:35.9,16.386,0.158,236.8,292.822052,106.5785141,84.95825195,0,20,51,-4.66E-10,-20
32,100,100,20,moving_belt,green,FALSE,TRUE,joint 1 -,FALSE,16:37.3,17.032,0.163,236.8,292.822052,106.5785141,84.95825195,0,20,51,-4.66E-10,-20
32,100,100,20,moving_belt,green,FALSE,TRUE,joint 1 -,FALSE,16:38.0,17.013,0.163,236.8,292.822052,106.5785141,84.95825195,0,20,51,-4.66E-10,-20
32,100,100,20,moving_belt,green,FALSE,TRUE,joint 1 -,FALSE,16:39.4,16.975,0.163,236.8,292.822052,106.5785141,84.95825195,0,20,51,-4.66E-10,-20
32,100,100,20,moving_belt,green,FALSE,TRUE,joint 1 -,FALSE,16:40.1,16.975,0.163,236.8,292.822052,106.5785141,84.95825195,0,20,51,-4.66E-10,-20
32,100,100,20,moving_belt,green,FALSE,TRUE,joint 1 -,FALSE,16:40.8,16.842,0.163,236.8,292.822052,106.5785141,84.95825195,0,20,51,-4.66E-10,-20
32,100,100,20,moving_belt,green,FALSE,TRUE,joint 1 -,FALSE,16:42.1,16.918,0.16,236.8,292.822052,106.5785141,84.95825195,0,20,51,-4.66E-10,-20
32,100,100,20,moving_belt,green,FALSE,TRUE,joint 1 -,FALSE,16:42.8,16.804,0.16,236.8,292.822052,106.5785141,84.95825195,0,20,51,-4.66E-10,-20
32,100,100,20,moving_belt,green,FALSE,TRUE,joint 1 -,FALSE,16:44.2,16.918,0.162,236.8,292.822052,106.5785141,84.95825195,0,20,51,-4.66E-10,-20
32,100,100,20,moving_belt,green,FALSE,TRUE,joint 1 -,FALSE,16:44.9,16.918,0.162,236.8,292.822052,106.5785141,84.95825195,0,20,51,-4.66E-10,-20
32,100,100,20,moving_belt,green,FALSE,TRUE,joint 1 -,FALSE,16:46.3,16.994,0.164,236.8,292.822052,106.5785141,84.95825195,0,20,51,-4.66E-10,-20
32,100,100,20,moving_belt,green,FALSE,TRUE,joint 1 -,FALSE,16:47.0,16.994,0.164,236.8,292.822052,106.5785141,84.95825195,0,20,51,-4.66E-10,-20
32,100,100,20,moving_belt,green,FALSE,TRUE,joint 1 -,FALSE,16:48.4,16.994,0.162,236.8,292.822052,106.5785141,84.95825195,0,20,51,-4.66E-10,-20
32,100,100,20,go_to_pick_down,green,TRUE,FALSE,joint 3 +,FALSE,16:49.0,17.051,0.162,236.8,288.9099731,105.1546326,50.22156525,0,20,51,14.46466541,-20
32,100,100,20,go_to_pick_up_from_pick_down,green,TRUE,FALSE,joint 3 -,TRUE,16:50.4,16.215,0.17,236.8,291.0575867,105.9362946,61.53761292,0,20,51,8.331497192,-20
32,100,100,20,go_to_color_detect_up_from_pick_up,green,TRUE,FALSE,joint 1 +,TRUE,16:51.1,23.488,0.17,236.8,261.3420715,169.7175446,84.95825195,13,34.04000092,51,0,-20
32,100,100,20,go_to_color_detect_down,green,TRUE,FALSE,joint 3 +,TRUE,16:51.9,22.367,0.17,236.8,131.6634216,282.3530884,80.34087372,45,65,51,2.199999571,-20
32,100,100,20,go_to_color_detect_down,green,TRUE,FALSE,joint 3 +,TRUE,16:53.3,21.988,0.203,236.8,113.3295212,243.0359344,-19.38383484,45,65,51,45.67074966,-20
32,100,100,20,go_to_color_detect_up_from_color_detect_down,green,TRUE,FALSE,joint 3 -,FALSE,16:54.0,22.158,0.203,236.8,124.9818192,268.024353,18.49610138,45,65,51,25.56000519,-20
32,100,100,20,detecting_color,green,FALSE,FALSE,detecting_color,FALSE,16:55.3,16.937,0.16,236.8,131.6940765,282.4188232,84.95825195,45,65,51,-4.66E-10,-20
32,100,100,20,detecting_color,green,FALSE,FALSE,detecting_color,FALSE,16:56.0,16.31,0.16,236.8,131.6940765,282.4188232,84.95825195,45,65,51,-4.66E-10,-20
32,100,100,20,go_to_color_detect_down,green,TRUE,FALSE,joint 3 +,FALSE,16:57.4,16.31,0.157,236.8,121.2841568,260.094696,3.502349854,45,65,51,34.70152664,-20
32,100,100,20,go_to_color_detect_up_from_color_detect_down,green,TRUE,FALSE,joint 3 -,TRUE,16:58.1,16.31,0.157,236.8,116.3414383,249.4950104,-11.79184723,45,65,51,40.39999771,-20
32,100,100,20,go_to_color_detect_up_from_color_detect_down,green,TRUE,FALSE,joint 3 -,TRUE,16:58.8,16.481,0.211,236.8,131.6940308,282.4187622,84.78450775,45,65,51,0.016438644,-20
32,100,100,20,go_to_pick_up_from_blue,blue,TRUE,FALSE,joint 1 -,FALSE,17:00.2,22.045,0.211,236.8,27.3434639,310.4127502,84.95825195,64.96595001,84.99480438,51,-4.66E-10,-20
32,100,100,20,go_to_pick_up_from_blue,blue,TRUE,FALSE,joint 1 -,FALSE,17:01.0,22.045,0.211,236.8,236.4557648,202.9591217,84.95825195,20.64076996,39.37586594,51,-4.66E-10,-20
32,100,100,20,moving_belt,blue,FALSE,TRUE,joint 1 -,FALSE,17:02.4,16.291,0.173,236.8,292.822052,106.5785141,84.95825195,0,20,51,-4.66E-10,-20
32,100,100,20,moving_belt,blue,FALSE,TRUE,joint 1 -,FALSE,17:03.1,16.291,0.173,236.8,292.822052,106.5785141,84.95825195,0,20,51,-4.66E-10,-20
32,100,100,20,moving_belt,blue,FALSE,TRUE,joint 1 -,FALSE,17:03.8,17.127,0.161,236.8,292.822052,106.5785141,84.95825195,0,20,51,-4.66E-10,-20
32,100,100,20,moving_belt,blue,FALSE,TRUE,joint 1 -,FALSE,17:05.2,16.88,0.161,236.8,292.822052,106.5785141,84.95825195,0,20,51,-4.66E-10,-20
32,100,100,20,moving_belt,blue,FALSE,TRUE,joint 1 -,FALSE,17:05.9,16.975,0.164,236.8,292.822052,106.5785141,84.95825195,0,20,51,-4.66E-10,-20
32,100,100,20,moving_belt,blue,FALSE,TRUE,joint 1 -,FALSE,17:07.3,16.937,0.164,236.8,292.822052,106.5785141,84.95825195,0,20,51,-4.66E-10,-20
32,100,100,20,moving_belt,blue,FALSE,TRUE,joint 1 -,FALSE,17:08.0,16.937,0.163,236.8,292.822052,106.5785141,84.95825195,0,20,51,-4.66E-10,-20
32,100,100,20,moving_belt,blue,FALSE,TRUE,joint 1 -,FALSE,17:09.3,16.899,0.163,236.8,292.822052,106.5785141,84.95825195,0,20,51,-4.66E-10,-20
32,100,100,20,moving_belt,blue,FALSE,TRUE,joint 1 -,FALSE,17:10.1,17.07,0.163,236.8,292.822052,106.5785141,84.95825195,0,20,51,-4.66E-10,-20
32,100,100,20,moving_belt,blue,FALSE,TRUE,joint 1 -,FALSE,17:10.8,16.937,0.163,236.8,292.822052,106.5785141,84.95825195,0,20,51,-4.66E-10,-20
32,100,100,20,moving_belt,blue,FALSE,TRUE,joint 1 -,FALSE,17:12.1,16.937,0.162,236.8,292.822052,106.5785141,84.95825195,0,20,51,-4.66E-10,-20
32,100,100,20,moving_belt,blue,FALSE,TRUE,joint 1 -,FALSE,17:12.8,16.937,0.162,236.8,292.822052,106.5785141,84.95825195,0,20,51,-4.66E-10,-20
32,100,100,20,moving_belt,blue,FALSE,TRUE,joint 1 -,FALSE,17:14.2,16.937,0.164,236.8,292.822052,106.5785141,84.95825195,0,20,51,-4.66E-10,-20
32,100,100,20,go_to_pick_down,blue,TRUE,FALSE,joint 3 +,FALSE,17:14.9,16.937,0.164,236.8,292.8217468,106.5784073,84.65037537,0,20,51,0.24000001,-20
32,100,100,20,go_to_pick_down,blue,TRUE,FALSE,joint 3 +,FALSE,17:16.3,17.089,0.164,236.8,284.0044861,103.3691864,33.27957153,0,20,51,20.89866066,-20
32,100,100,20,go_to_pick_up_from_pick_down,blue,TRUE,FALSE,joint 3 -,TRUE,17:17.0,16.139,0.157,236.8,292.5497437,106.4794006,75.73231506,0,20,51,3.082166433,-20
32,100,100,20,go_to_color_detect_up_from_pick_up,blue,TRUE,FALSE,joint 1 +,TRUE,17:18.4,23.431,0.157,236.8,274.1114197,148.2115173,84.95825195,8.400001526,29.24000168,51,0,-20
32,100,100,20,go_to_color_detect_down,blue,TRUE,FALSE,joint 3 +,TRUE,17:19.1,22.424,0.208,236.8,131.4761963,281.9515991,72.65760803,45,65,51,5.439999104,-20
32,100,100,20,go_to_color_detect_down,blue,TRUE,FALSE,joint 3 +,TRUE,17:19.8,21.95,0.208,236.8,111.6781311,239.4945068,-23.12142944,45,65,51,47.53843689,-20
32,100,100,20,go_to_color_detect_up_from_color_detect_down,blue,TRUE,FALSE,joint 3 -,FALSE,17:21.2,22.026,0.205,236.8,130.4863892,279.828949,56.11413574,45,65,51,10.3846302,-20
32,100,100,20,detecting_color,blue,FALSE,FALSE,detecting_color,FALSE,17:21.8,16.88,0.205,236.8,131.6940765,282.4188232,84.95825195,45,65,51,-4.66E-10,-20
32,100,100,20,go_to_color_detect_down,blue,TRUE,FALSE,joint 3 +,FALSE,17:22.8,16.88,0.205,236.8,131.6940765,282.4188232,84.95825195,45,65,51,-4.66E-10,-20
32,100,100,20,go_to_color_detect_down,blue,TRUE,FALSE,joint 3 +,FALSE,17:24.1,16.215,0.156,236.8,116.4977417,249.8302002,-11.36716461,45,65,51,41.67177963,-20
32,100,100,20,go_to_color_detect_up_from_color_detect_down,blue,TRUE,FALSE,joint 3 -,TRUE,17:24.8,16.215,0.156,236.8,121.09729,259.6939697,2.842002869,45,65,51,32.88000107,-20
32,100,100,20,go_to_red_up,red,TRUE,FALSE,joint 1 +,TRUE,17:26.2,23.336,0.159,235,124.5552597,285.6391296,84.95825195,46.44000244,66.80000305,51,-4.66E-10,-20
32,100,100,20,go_to_red_up,red,TRUE,FALSE,joint 1 +,TRUE,17:26.9,23.336,0.159,235,-137.633255,279.5725708,84.95825195,96.21096802,117.0293579,51,-4.66E-10,-20
32,100,100,20,go_to_pick_up_from_red,red,TRUE,FALSE,joint 1 -,FALSE,17:28.3,22.443,0.207,236.8,-121.757576,286.842865,84.95825195,93,112,51,-4.66E-10,-20
32,100,100,20,go_to_pick_up_from_red,red,TRUE,FALSE,joint 1 -,FALSE,17:29.0,16.196,0.207,236.8,265.6383972,162.9109497,84.95825195,11.51999283,30.57999229,51,-4.66E-10,-20
32,100,100,20,moving_belt,red,FALSE,TRUE,joint 1 -,FALSE,17:30.4,16.253,0.159,235,292.822052,106.5785141,84.95825195,0,20,51,-4.66E-10,-20
32,100,100,20,moving_belt,red,FALSE,TRUE,joint 1 -,FALSE,17:31.1,16.253,0.159,235,292.822052,106.5785141,84.95825195,0,20,51,-4.66E-10,-20
32,100,100,20,moving_belt,red,FALSE,TRUE,joint 1 -,FALSE,17:31.8,17.013,0.164,235,292.822052,106.5785141,84.95825195,0,20,51,-4.66E-10,-20
32,100,100,20,moving_belt,red,FALSE,TRUE,joint 1 -,FALSE,17:33.3,16.918,0.164,235,292.822052,106.5785141,84.95825195,0,20,51,-4.66E-10,-20
32,100,100,20,moving_belt,red,FALSE,TRUE,joint 1 -,FALSE,17:34.2,16.956,0.163,235,292.822052,106.5785141,84.95825195,0,20,51,-4.66E-10,-20
32,100,100,20,moving_belt,red,FALSE,TRUE,joint 1 -,FALSE,17:34.9,16.956,0.163,236.8,292.822052,106.5785141,84.95825195,0,20,51,-4.66E-10,-20
32,100,100,20,moving_belt,red,FALSE,TRUE,joint 1 -,FALSE,17:35.9,16.994,0.163,236.8,292.822052,106.5785141,84.95825195,0,20,51,-4.66E-10,-20
32,100,100,20,moving_belt,red,FALSE,TRUE,joint 1 -,FALSE,17:37.4,17.013,0.164,235,292.822052,106.5785141,84.95825195,0,20,51,-4.66E-10,-20
32,100,100,20,moving_belt,red,FALSE,TRUE,joint 1 -,FALSE,17:38.1,16.956,0.164,235,292.822052,106.5785141,84.95825195,0,20,51,-4.66E-10,-20
32,100,100,20,moving_belt,red,FALSE,TRUE,joint 1 -,FALSE,17:39.4,17.032,0.162,236.8,292.822052,106.5785141,84.95825195,0,20,51,-4.66E-10,-20
32,100,100,20,moving_belt,red,FALSE,TRUE,joint 1 -,FALSE,17:40.1,17.013,0.162,236.8,292.822052,106.5785141,84.95825195,0,20,51,-4.66E-10,-20
32,100,100,20,moving_belt,red,FALSE,TRUE,joint 1 -,FALSE,17:40.8,17.013,0.163,236.8,292.822052,106.5785141,84.95825195,0,20,51,-4.66E-10,-20
32,100,100,20,moving_belt,red,FALSE,TRUE,joint 1 -,FALSE,17:42.2,16.918,0.163,236.8,292.822052,106.5785141,84.95825195,0,20,51,-4.66E-10,-20
32,100,100,20,go_to_pick_down,red,TRUE,FALSE,joint 3 +,FALSE,17:42.9,16.918,0.162,236.8,292.8186951,106.5772934,83.93200684,0,20,51,0.600000024,-20
32,100,100,20,go_to_pick_up_from_pick_down,red,TRUE,FALSE,joint 3 -,TRUE,17:44.3,16.975,0.162,236.8,284.3258057,103.4861374,34.19942093,0,20,51,19.79999733,-20
32,100,100,20,go_to_color_detect_up_from_pick_up,red,TRUE,FALSE,joint 1 +,TRUE,17:45.0,17.203,0.183,236.8,290.051239,113.903511,84.95825195,1.440002441,21.80000305,51,0,-20
32,100,100,20,go_to_color_detect_up_from_pick_up,red,TRUE,FALSE,joint 1 +,TRUE,17:46.4,22.102,0.183,236.8,142.6537781,277.0444336,84.95825195,42.75547791,63.15876007,51,0,-20
32,100,100,20,go_to_color_detect_down,red,TRUE,FALSE,joint 3 +,TRUE,17:47.0,22.102,0.2,236.8,122.5802841,262.8742371,8.30921936,45,65,51,32.55896378,-20
32,100,100,20,go_to_color_detect_up_from_color_detect_down,red,TRUE,FALSE,joint 3 -,FALSE,17:48.4,21.874,0.2,236.8,114.8562775,246.3100739,-15.67016602,45,65,51,42.55999756,-20
32,100,100,20,go_to_color_detect_up_from_color_detect_down,red,TRUE,FALSE,joint 3 -,FALSE,17:49.1,21.874,0.2,236.8,131.6897888,282.4096375,83.23200989,45,65,51,0.461565048,-20
32,100,100,20,detecting_color,red,FALSE,FALSE,detecting_color,FALSE,17:49.8,17.108,0.161,236.8,131.6940765,282.4188232,84.95825195,45,65,51,-4.66E-10,-20
32,100,100,20,go_to_color_detect_down,red,TRUE,FALSE,joint 3 +,FALSE,17:51.2,16.253,0.161,236.8,131.0276184,280.989624,63.48404694,45,65,51,9.239998817,-20
32,100,100,20,go_to_color_detect_up_from_color_detect_down,red,TRUE,FALSE,joint 3 -,TRUE,17:51.9,16.177,0.156,236.8,111.1520844,238.3664093,-24.2558136,45,65,51,47.99484253,-20
32,100,100,20,go_to_color_detect_up_from_color_detect_down,red,TRUE,FALSE,joint 3 -,TRUE,17:53.3,21.076,0.156,236.8,131.223114,281.4088745,66.89193726,45,65,51,6.328224182,-20
32,100,100,20,go_to_green_up,green,TRUE,FALSE,joint 1 +,TRUE,17:54.0,22.937,0.212,236.8,59.24532318,305.9309387,84.95825195,59.04000092,80.12000275,51,-4.66E-10,-20
32,100,100,20,go_to_pick_up_from_green,green,TRUE,FALSE,joint 1 -,FALSE,17:55.4,22.291,0.212,236.8,-74.75302887,302.5156555,84.95825195,83.87999725,103.5599976,51,-4.66E-10,-20
32,100,100,20,go_to_pick_up_from_green,green,TRUE,FALSE,joint 1 -,FALSE,17:56.0,18.684,0.194,236.8,242.7075043,195.4400177,84.95825195,18.84272766,37.63491058,51,-4.66E-10,-20
32,100,100,20,moving_belt,green,FALSE,TRUE,joint 1 -,FALSE,17:57.4,16.215,0.194,236.8,292.822052,106.5785141,84.95825195,0,20,51,-4.66E-10,-20
32,100,100,20,moving_belt,green,FALSE,TRUE,joint 1 -,FALSE,17:58.1,16.215,0.161,236.8,292.822052,106.5785141,84.95825195,0,20,51,-4.66E-10,-20
32,100,100,20,moving_belt,green,FALSE,TRUE,joint 1 -,FALSE,17:58.8,17.07,0.161,236.8,292.822052,106.5785141,84.95825195,0,20,51,-4.66E-10,-20
32,100,100,20,moving_belt,green,FALSE,TRUE,joint 1 -,FALSE,18:00.2,16.823,0.162,236.8,292.822052,106.5785141,84.95825195,0,20,51,-4.66E-10,-20
32,100,100,20,moving_belt,green,FALSE,TRUE,joint 1 -,FALSE,18:00.9,17.013,0.162,235,292.822052,106.5785141,84.95825195,0,20,51,-4.66E-10,-20
32,100,100,20,moving_belt,green,FALSE,TRUE,joint 1 -,FALSE,18:02.3,16.937,0.165,235,292.822052,106.5785141,84.95825195,0,20,51,-4.66E-10,-20
32,100,100,20,moving_belt,green,FALSE,TRUE,joint 1 -,FALSE,18:02.9,16.937,0.165,235,292.822052,106.5785141,84.95825195,0,20,51,-4.66E-10,-20
32,100,100,20,moving_belt,green,FALSE,TRUE,joint 1 -,FALSE,18:04.3,17.032,0.165,236.8,292.822052,106.5785141,84.95825195,0,20,51,-4.66E-10,-20
32,100,100,20,moving_belt,green,FALSE,TRUE,joint 1 -,FALSE,18:05.0,17.032,0.163,236.8,292.822052,106.5785141,84.95825195,0,20,51,-4.66E-10,-20
32,100,100,20,moving_belt,green,FALSE,TRUE,joint 1 -,FALSE,18:05.7,16.937,0.163,236.8,292.822052,106.5785141,84.95825195,0,20,51,-4.66E-10,-20
32,100,100,20,moving_belt,green,FALSE,TRUE,joint 1 -,FALSE,18:07.4,16.937,0.162,236.8,292.822052,106.5785141,84.95825195,0,20,51,-4.66E-10,-20
32,100,100,20,moving_belt,green,FALSE,TRUE,joint 1 -,FALSE,18:08.1,17.089,0.162,236.8,292.822052,106.5785141,84.95825195,0,20,51,-4.66E-10,-20
32,100,100,20,moving_belt,green,FALSE,TRUE,joint 1 -,FALSE,18:09.4,16.994,0.163,236.8,292.822052,106.5785141,84.95825195,0,20,51,-4.66E-10,-20
32,100,100,20,go_to_pick_down,green,TRUE,FALSE,joint 3 +,FALSE,18:10.1,16.994,0.163,235,292.822052,106.5785141,84.95825195,0,20,51,-4.66E-10,-20
32,100,100,20,go_to_pick_up_from_pick_down,green,TRUE,FALSE,joint 3 -,TRUE,18:10.8,16.918,0.163,235,282.8717041,102.9568863,30.17666245,0,20,51,21.75999832,-20
32,100,100,20,go_to_color_detect_up_from_pick_up,green,TRUE,FALSE,joint 1 +,TRUE,18:12.2,16.101,0.158,235,292.7475586,106.7829285,84.95825195,0.040000916,20.12000084,51,0,-20
32,100,100,20,go_to_color_detect_up_from_pick_up,green,TRUE,FALSE,joint 1 +,TRUE,18:12.9,23.45,0.158,235,161.3666229,266.5793152,84.95825195,38.81250763,59.49578857,51,0,-20
32,100,100,20,go_to_color_detect_down,green,TRUE,FALSE,joint 3 +,TRUE,18:14.4,22.007,0.204,235,129.21521,277.1029053,43.84802246,45,65,51,17.39999771,-20
32,100,100,20,go_to_color_detect_up_from_color_detect_down,green,TRUE,FALSE,joint 3 -,FALSE,18:15.1,22.007,0.204,235,112.5685043,241.4039307,-21.14051056,45,65,51,45.79999542,-20
32,100,100,20,go_to_color_detect_up_from_color_detect_down,green,TRUE,FALSE,joint 3 -,FALSE,18:16.5,16.823,0.205,236.8,131.6209259,282.2619934,77.8272171,45,65,51,2.32925415,-20
32,100,100,20,detecting_color,green,FALSE,FALSE,detecting_color,FALSE,18:17.1,16.823,0.205,236.8,131.6940765,282.4188232,84.95825195,45,65,51,-4.66E-10,-20
32,100,100,20,go_to_color_detect_down,green,TRUE,FALSE,joint 3 +,FALSE,18:17.8,16.253,0.157,236.8,131.4142609,281.8187866,71.02216339,45,65,51,6.119998932,-20
32,100,100,20,go_to_color_detect_down,green,TRUE,FALSE,joint 3 +,FALSE,18:19.2,16.272,0.157,235,111.5094223,239.1327057,-23.48812103,45,65,51,47.7097168,-20
32,100,100,20,go_to_color_detect_up_from_color_detect_down,green,TRUE,FALSE,joint 3 -,TRUE,18:19.9,17.26,0.158,235,128.7387848,276.0812073,40.15884018,45,65,51,16.57231712,-20
32,100,100,20,go_to_blue_up,blue,TRUE,FALSE,joint 1 +,TRUE,18:21.3,23.203,0.158,236.8,84.63713074,299.9004822,84.95825195,54.24000549,75.12000275,51,-4.66E-10,-20
32,100,100,20,go_to_pick_up_from_blue,blue,TRUE,FALSE,joint 1 -,FALSE,18:22.0,22.158,0.205,236.8,76.65227509,302.0400085,84.95825195,55.75999451,74.87999725,51,-4.66E-10,-20
32,100,100,20,go_to_pick_up_from_blue,blue,TRUE,FALSE,joint 1 -,FALSE,18:23.4,17.374,0.205,236.8,287.9406128,119.1382675,84.95825195,2.477807999,22.05290413,51,-4.66E-10,-20
