demetriskallis/dobot_magician_pick_and_place_and_color_sorting/Sampling/WholeSystemExperiments_training_data/payload_32g/joint_measurements__armv_100_arma_100_belts_60_cube_32g.csv
cube/weight,arm/velocity_ratio,arm/acceleration_ratio,belt/speed,dobot/operation,dobot/color,dobot/moving_arm,dobot/moving_belt,dobot/operation2,dobot/suction,meross/sample_timestamp,meross/power,meross/current,meross/voltage,dobot/pose_x,dobot/pose_y,dobot/pose_z,dobot/pose_rHead,dobot/pose_joint1Angle,dobot/pose_joint2Angle,dobot/pose_joint3Angle,dobot/pose_joint4Angle
32,100,100,60,homing,,,,homing,,,,,,199.52456665039062,63.11277770996094,80.06034851074219,-2.4470138549804688,17.152986526489258,5.513548374176025,21.684188842773438,-20.0
32,100,100,60,homing,,,,homing,,,,,,209.18197631835938,-6.014735698699951,80.06034851074219,-21.64700698852539,-2.047006130218506,5.513548374176025,21.684188842773438,-20.0
32,100,100,60,homing,,,,homing,,,,,,195.5684814453125,-74.4731216430664,80.06034851074219,-40.84699630737305,-21.24699592590332,5.513548374176025,21.684188842773438,-20.0
32,100,100,60,homing,,,,homing,,,,,,154.41952514648438,-141.23699951171875,80.06034851074219,-62.447025299072266,-42.84702682495117,5.513548374176025,21.684188842773438,-20.0
32,100,100,60,homing,,,,homing,,2024-03-04 14:27:47.712403,16.386,0.156,235.0,98.09363555908203,-184.853759765625,80.06034851074219,-82.04710388183594,-62.44710159301758,5.513548374176025,21.684188842773438,-20.0
32,100,100,60,homing,,,,homing,,2024-03-04 14:27:48.431624,16.386,0.157,235.0,31.844839096069336,-206.831298828125,80.06034851074219,-101.2471694946289,-81.64717102050781,5.513548374176025,21.684188842773438,-20.0
32,100,100,60,homing,,,,homing,,2024-03-04 14:27:49.419227,16.367,0.157,235.0,-37.94668197631836,-205.7992401123047,80.06034851074219,-120.4472427368164,-100.84724426269531,5.513548374176025,21.684188842773438,-20.0
32,100,100,60,homing,,,,homing,,2024-03-04 14:27:51.070553,16.234,0.155,235.0,-111.04192352294922,-177.37802124023438,80.06034851074219,-142.04733276367188,-122.44732666015625,5.513548374176025,21.684188842773438,-20.0
32,100,100,60,homing,,,,homing,,2024-03-04 14:27:51.780168,16.348,0.155,235.0,-151.05975341796875,-144.8248291015625,80.06034851074219,-156.20716857910156,-136.18716430664062,5.513548374176025,21.684188842773438,-20.0
32,100,100,60,homing,,,,homing,,2024-03-04 14:27:52.509193,16.348,0.155,235.0,-148.5601348876953,-147.38778686523438,80.06034851074219,-155.22695922851562,-135.2069549560547,5.513548374176025,21.684188842773438,-20.0
32,100,100,60,homing,,,,homing,,2024-03-04 14:27:53.952873,16.386,0.155,235.0,-100.1185531616211,-188.6693878173828,75.16920471191406,-136.4401092529297,-117.35292053222656,8.198105812072754,23.510189056396484,-18.430097579956055
32,100,100,60,homing,,,,homing,,2024-03-04 14:27:54.771610,16.386,0.155,235.0,3.311511278152466,-223.990234375,61.452728271484375,-103.70748901367188,-88.55299377441406,15.009830474853516,28.143430709838867,-14.44666862487793
32,100,100,60,homing,,,,homing,,2024-03-04 14:27:55.591090,16.633,0.159,235.0,117.6162109375,-206.6476593017578,37.053123474121094,-68.69026947021484,-59.75306701660156,25.68324089050293,35.40334701538086,-8.204963684082031
32,100,100,60,homing,,,,homing,,2024-03-04 14:27:57.003164,16.709,0.16,235.0,218.07846069335938,-115.72566986083984,12.503303527832031,-30.662200927734375,-27.353134155273438,35.2098274230957,41.883201599121094,-2.633913278579712
32,100,100,60,homing,,,,homing,,2024-03-04 14:27:57.691468,16.709,0.16,235.0,249.27960205078125,-14.537586212158203,1.3767547607421875,-3.6318540573120117,-3.0605592727661133,39.252445220947266,44.6329345703125,-0.2698284089565277
32,100,100,60,homing,,,,homing,,2024-03-04 14:27:59.068433,16.5,0.16,235.0,249.99998474121094,0.00017966009909287095,-7.62939453125e-06,4.117506250622682e-05,4.117506250622682e-05,39.71385955810547,44.94676971435547,0.0
32,100,100,60,homing,,,,homing,,2024-03-04 14:27:59.763719,16.5,0.157,235.0,249.99998474121094,0.00017966009909287095,-7.62939453125e-06,4.117506250622682e-05,4.117506250622682e-05,39.71385955810547,44.94676971435547,0.0
32,100,100,60,homing,,,,homing,,2024-03-04 14:28:00.457398,16.082,0.157,236.8,249.99998474121094,0.00017966009909287095,-7.62939453125e-06,4.117506250622682e-05,4.117506250622682e-05,39.71385955810547,44.94676971435547,0.0
32,100,100,60,homing,,,,homing,,2024-03-04 14:28:01.836010,16.31,0.156,236.8,249.99998474121094,0.00017966009909287095,-7.62939453125e-06,4.117506250622682e-05,4.117506250622682e-05,39.71385955810547,44.94676971435547,0.0
32,100,100,60,homing,,,,homing,,2024-03-04 14:28:02.526727,16.234,0.156,236.8,249.99998474121094,0.00017966009909287095,-7.62939453125e-06,4.117506250622682e-05,4.117506250622682e-05,39.71385955810547,44.94676971435547,0.0
32,100,100,60,homing,,,,homing,,2024-03-04 14:28:03.239982,16.234,0.156,236.8,249.99998474121094,0.00017966009909287095,-7.62939453125e-06,4.117506250622682e-05,4.117506250622682e-05,39.71385955810547,44.94676971435547,0.0
32,100,100,60,homing,,,,homing,,2024-03-04 14:28:04.882125,16.291,0.156,236.8,249.99334716796875,0.00017965532606467605,-0.005126953125,4.117506250622682e-05,4.117506250622682e-05,39.71385955810547,44.94676971435547,0.0
32,100,100,60,homing,,,,homing,,2024-03-04 14:28:05.601063,16.063,0.156,236.8,249.99998474121094,0.00017966009909287095,-7.62939453125e-06,4.117506250622682e-05,4.117506250622682e-05,39.71385955810547,44.94676971435547,0.0
32,100,100,60,homing,,,,homing,,2024-03-04 14:28:07.012986,15.93,0.156,236.8,263.8213806152344,56.800289154052734,35.882293701171875,4.100799560546875e-05,12.628679275512695,37.36739730834961,28.379884719848633,-12.62863826751709
32,100,100,60,go_to_pick_up_from_homing,nothing,,,go_to_pick_up_from_homing,,2024-03-04 14:28:07.702067,17.222,0.156,236.8,277.9057312011719,103.69894409179688,67.68678283691406,3.814697265625e-05,20.44712257385254,43.81904220581055,11.427083015441895,-20.447086334228516
32,100,100,60,moving_belt,nothing,false,true,go_to_pick_up_from_homing,,2024-03-04 14:28:09.090144,16.747,0.159,236.8,292.8220520019531,106.5785140991211,84.958251953125,0.0,20.0,51.0,0.0,-20.0
32,100,100,60,moving_belt,nothing,false,true,go_to_pick_up_from_homing,,2024-03-04 14:28:09.778198,16.747,0.159,236.8,292.8220520019531,106.5785140991211,84.958251953125,0.0,20.0,51.0,0.0,-20.0
32,100,100,60,moving_belt,nothing,false,true,go_to_pick_up_from_homing,,2024-03-04 14:28:10.467891,16.633,0.159,236.8,292.8220520019531,106.5785140991211,84.958251953125,0.0,20.0,51.0,0.0,-20.0
32,100,100,60,moving_belt,nothing,false,true,go_to_pick_up_from_homing,,2024-03-04 14:28:11.857072,16.348,0.159,236.8,292.8220520019531,106.5785140991211,84.958251953125,0.0,20.0,51.0,0.0,-20.0
32,100,100,60,go_to_pick_down,nothing,true,false,joint 3 +,,2024-03-04 14:28:12.546767,16.576,0.159,236.8,292.8220520019531,106.5785140991211,84.958251953125,0.0,20.0,51.0,0.0,-20.0
32,100,100,60,go_to_pick_up_from_pick_down,nothing,true,false,joint 3 -,true,2024-03-04 14:28:13.925779,16.519,0.157,236.8,282.77099609375,102.92022705078125,29.9105224609375,0.0,20.0,51.0,22.0,-20.0
32,100,100,60,go_to_color_detect_up_from_pick_up,nothing,true,false,joint 1 +,true,2024-03-04 14:28:14.617072,16.519,0.157,236.8,292.74755859375,106.78292846679688,84.958251953125,0.04000091552734375,20.1200008392334,51.0,0.0,-20.0
32,100,100,60,go_to_color_detect_up_from_pick_up,nothing,true,false,joint 1 +,true,2024-03-04 14:28:16.000052,22.728,0.213,236.8,161.3666229248047,266.5793151855469,84.958251953125,38.81250762939453,59.49578857421875,51.0,0.0,-20.0
32,100,100,60,go_to_color_detect_down,nothing,true,false,joint 3 +,true,2024-03-04 14:28:16.693109,22.5,0.213,236.8,129.5434112548828,277.8067321777344,46.61455154418945,45.0,65.0,51.0,16.23999786376953,-20.0
32,100,100,60,go_to_color_detect_up_from_color_detect_down,nothing,true,false,joint 3 -,false,2024-03-04 14:28:18.070992,22.272,0.206,235.0,111.33187866210938,238.75196838378906,-23.871063232421875,45.0,65.0,51.0,47.599998474121094,-20.0
32,100,100,60,go_to_color_detect_up_from_color_detect_down,nothing,true,false,joint 3 -,false,2024-03-04 14:28:18.759173,21.399,0.206,235.0,131.6209259033203,282.2619934082031,77.82721710205078,45.0,65.0,51.0,2.329254150390625,-20.0
32,100,100,60,detecting_color,nothing,false,false,detecting_color,false,2024-03-04 14:28:20.138765,17.184,0.164,235.0,131.69407653808594,282.4188232421875,84.958251953125,45.0,65.0,51.0,-4.656612873077393e-10,-20.0
32,100,100,60,go_to_color_detect_down,nothing,true,false,joint 3 +,false,2024-03-04 14:28:20.831360,16.31,0.164,235.0,131.4142608642578,281.81878662109375,71.02216339111328,45.0,65.0,51.0,6.119998931884766,-20.0
32,100,100,60,go_to_color_detect_down,nothing,true,false,joint 3 +,false,2024-03-04 14:28:21.519113,16.31,0.157,235.0,111.5094223022461,239.13270568847656,-23.488121032714844,45.0,65.0,51.0,47.709716796875,-20.0
32,100,100,60,go_to_color_detect_up_from_color_detect_down,nothing,true,false,joint 3 -,true,2024-03-04 14:28:22.908633,16.462,0.157,235.0,129.11343383789062,276.8846435546875,43.03013229370117,45.0,65.0,51.0,15.441036224365234,-20.0
32,100,100,60,go_to_red_up,red,true,false,joint 1 +,true,2024-03-04 14:28:23.598656,23.412,0.215,235.0,104.32667541503906,293.6318664550781,84.958251953125,50.44000244140625,71.12000274658203,51.0,-4.656612873077393e-10,-20.0
32,100,100,60,go_to_red_up,red,true,false,joint 1 +,true,2024-03-04 14:28:24.977021,22.823,0.215,235.0,-174.38075256347656,258.25390625,84.958251953125,104.02838897705078,124.28677368164062,51.0,-4.656612873077393e-10,-20.0
32,100,100,60,go_to_pick_up_from_red,red,true,false,joint 1 -,false,2024-03-04 14:28:25.669322,21.494,0.208,235.0,-29.10894775390625,310.25213623046875,84.958251953125,75.35999298095703,93.79999542236328,51.0,-4.656612873077393e-10,-20.0
32,100,100,60,go_to_pick_up_from_red,red,true,false,joint 1 -,false,2024-03-04 14:28:27.072864,16.481,0.208,235.0,282.1424255371094,132.28524780273438,84.958251953125,5.119991302490234,24.49999237060547,51.0,-4.656612873077393e-10,-20.0
32,100,100,60,moving_belt,red,false,true,joint 1 -,false,2024-03-04 14:28:27.760555,16.481,0.157,235.0,292.8220520019531,106.5785140991211,84.958251953125,0.0,20.0,51.0,-4.656612873077393e-10,-20.0
32,100,100,60,moving_belt,red,false,true,joint 1 -,false,2024-03-04 14:28:29.137746,16.614,0.157,235.0,292.8220520019531,106.5785140991211,84.958251953125,0.0,20.0,51.0,-4.656612873077393e-10,-20.0
32,100,100,60,moving_belt,red,false,true,joint 1 -,false,2024-03-04 14:28:29.824057,16.291,0.157,235.0,292.8220520019531,106.5785140991211,84.958251953125,0.0,20.0,51.0,-4.656612873077393e-10,-20.0
32,100,100,60,moving_belt,red,false,true,joint 1 -,false,2024-03-04 14:28:30.514390,16.291,0.156,235.0,292.8220520019531,106.5785140991211,84.958251953125,0.0,20.0,51.0,-4.656612873077393e-10,-20.0
32,100,100,60,go_to_pick_down,red,true,false,joint 3 +,false,2024-03-04 14:28:31.896775,16.424,0.156,235.0,292.7202453613281,106.54145812988281,79.31524658203125,0.0,20.0,51.0,2.640000104904175,-20.0
32,100,100,60,go_to_pick_up_from_pick_down,red,true,false,joint 3 -,true,2024-03-04 14:28:32.603411,16.424,0.156,235.0,284.0235595703125,103.3761215209961,33.33361053466797,0.0,20.0,51.0,20.199996948242188,-20.0
32,100,100,60,go_to_color_detect_up_from_pick_up,red,true,false,joint 1 +,true,2024-03-04 14:28:34.044475,23.431,0.156,235.0,286.58721923828125,122.35808563232422,84.958251953125,3.1200027465820312,23.640003204345703,51.0,0.0,-20.0
32,100,100,60,go_to_color_detect_up_from_pick_up,red,true,false,joint 1 +,true,2024-03-04 14:28:34.732643,23.431,0.206,235.0,135.97390747070312,280.38336181640625,84.958251953125,44.12860107421875,64.37187957763672,51.0,0.0,-20.0
32,100,100,60,go_to_color_detect_down,red,true,false,joint 3 +,true,2024-03-04 14:28:36.115268,22.31,0.206,236.8,120.01168823242188,257.3658752441406,-0.8489837646484375,45.0,65.0,51.0,36.68408966064453,-20.0
32,100,100,60,go_to_color_detect_up_from_color_detect_down,red,true,false,joint 3 -,false,2024-03-04 14:28:36.809703,22.177,0.204,236.8,116.87966918945312,250.6492462158203,-10.31536865234375,45.0,65.0,51.0,39.599998474121094,-20.0
32,100,100,60,detecting_color,red,false,false,detecting_color,false,2024-03-04 14:28:37.499003,22.177,0.204,235.0,131.69403076171875,282.41876220703125,84.78450775146484,45.0,65.0,51.0,0.016438644379377365,-20.0
32,100,100,60,detecting_color,red,false,false,detecting_color,false,2024-03-04 14:28:38.886431,17.032,0.157,235.0,131.69407653808594,282.4188232421875,84.958251953125,45.0,65.0,51.0,-4.656612873077393e-10,-20.0
32,100,100,60,go_to_color_detect_down,red,true,false,joint 3 +,false,2024-03-04 14:28:39.580116,16.443,0.157,235.0,130.7275390625,280.3460998535156,59.12882995605469,45.0,65.0,51.0,11.039999008178711,-20.0
32,100,100,60,go_to_color_detect_up_from_color_detect_down,red,true,false,joint 3 -,true,2024-03-04 14:28:40.958971,16.31,0.157,235.0,111.33187866210938,238.75196838378906,-23.871063232421875,45.0,65.0,51.0,47.599998474121094,-20.0
32,100,100,60,go_to_color_detect_up_from_color_detect_down,red,true,false,joint 3 -,true,2024-03-04 14:28:41.651270,17.696,0.157,235.0,131.39366149902344,281.77459716796875,70.51924133300781,45.0,65.0,51.0,4.985661506652832,-20.0
32,100,100,60,go_to_green_up,green,true,false,joint 1 +,true,2024-03-04 14:28:43.043773,23.602,0.205,235.0,47.45757293701172,307.979736328125,84.958251953125,61.24000549316406,82.40000915527344,51.0,-4.656612873077393e-10,-20.0
32,100,100,60,go_to_pick_up_from_green,green,true,false,joint 1 -,false,2024-03-04 14:28:43.729712,22.329,0.205,235.0,-55.182220458984375,306.6898498535156,84.958251953125,80.19999694824219,99.55999755859375,51.0,-4.656612873077393e-10,-20.0
32,100,100,60,go_to_pick_up_from_green,green,true,false,joint 1 -,false,2024-03-04 14:28:45.105733,22.367,0.205,235.0,254.1969757080078,180.24322509765625,84.958251953125,15.339275360107422,34.25145721435547,51.0,-4.656612873077393e-10,-20.0
32,100,100,60,moving_belt,green,false,true,joint 1 -,false,2024-03-04 14:28:45.793433,16.462,0.157,235.0,292.8220520019531,106.5785140991211,84.958251953125,0.0,20.0,51.0,-4.656612873077393e-10,-20.0
32,100,100,60,moving_belt,green,false,true,joint 1 -,false,2024-03-04 14:28:47.172069,16.766,0.157,235.0,292.8220520019531,106.5785140991211,84.958251953125,0.0,20.0,51.0,-4.656612873077393e-10,-20.0
32,100,100,60,moving_belt,green,false,true,joint 1 -,false,2024-03-04 14:28:47.861770,16.386,0.156,235.0,292.8220520019531,106.5785140991211,84.958251953125,0.0,20.0,51.0,-4.656612873077393e-10,-20.0
32,100,100,60,moving_belt,green,false,true,joint 1 -,false,2024-03-04 14:28:48.550453,16.386,0.156,235.0,292.8220520019531,106.5785140991211,84.958251953125,0.0,20.0,51.0,-4.656612873077393e-10,-20.0
32,100,100,60,go_to_pick_down,green,true,false,joint 3 +,false,2024-03-04 14:28:49.936012,16.747,0.154,235.0,292.8220520019531,106.5785140991211,84.958251953125,0.0,20.0,51.0,-4.656612873077393e-10,-20.0
32,100,100,60,go_to_pick_up_from_pick_down,green,true,false,joint 3 -,true,2024-03-04 14:28:50.645399,16.462,0.154,235.0,282.77099609375,102.92022705078125,29.9105224609375,0.0,20.0,51.0,22.0,-20.0
32,100,100,60,go_to_color_detect_up_from_pick_up,green,true,false,joint 1 +,true,2024-03-04 14:28:52.026134,16.823,0.208,235.0,292.822021484375,106.57849884033203,84.84449768066406,0.0,20.0,51.0,0.00817110762000084,-20.0
32,100,100,60,go_to_color_detect_up_from_pick_up,green,true,false,joint 1 +,true,2024-03-04 14:28:52.717457,23.108,0.208,235.0,158.1761474609375,268.48468017578125,84.958251953125,39.49578857421875,60.139068603515625,51.0,0.0,-20.0
32,100,100,60,go_to_color_detect_down,green,true,false,joint 3 +,true,2024-03-04 14:28:54.104064,22.557,0.204,235.0,129.2152099609375,277.1029052734375,43.8480224609375,45.0,65.0,51.0,17.39999771118164,-20.0
32,100,100,60,go_to_color_detect_up_from_color_detect_down,green,true,false,joint 3 -,false,2024-03-04 14:28:54.789771,22.291,0.204,235.0,111.33187866210938,238.75196838378906,-23.871063232421875,45.0,65.0,51.0,47.599998474121094,-20.0
32,100,100,60,go_to_color_detect_up_from_color_detect_down,green,true,false,joint 3 -,false,2024-03-04 14:28:56.167892,17.127,0.163,235.0,131.6209259033203,282.2619934082031,77.82721710205078,45.0,65.0,51.0,2.329254150390625,-20.0
32,100,100,60,detecting_color,green,false,false,detecting_color,false,2024-03-04 14:28:56.859577,17.127,0.163,235.0,131.69407653808594,282.4188232421875,84.958251953125,45.0,65.0,51.0,-4.656612873077393e-10,-20.0
32,100,100,60,go_to_color_detect_down,green,true,false,joint 3 +,false,2024-03-04 14:28:57.565493,16.405,0.163,235.0,131.4142608642578,281.81878662109375,71.02216339111328,45.0,65.0,51.0,6.119998931884766,-20.0
32,100,100,60,go_to_color_detect_down,green,true,false,joint 3 +,false,2024-03-04 14:28:58.945663,16.291,0.157,235.0,111.67813110351562,239.4945068359375,-23.121429443359375,45.0,65.0,51.0,47.53843688964844,-20.0
32,100,100,60,go_to_color_detect_up_from_color_detect_down,green,true,false,joint 3 -,true,2024-03-04 14:28:59.635969,16.291,0.157,236.8,128.73878479003906,276.0812072753906,40.15884017944336,45.0,65.0,51.0,16.572317123413086,-20.0
32,100,100,60,go_to_blue_up,blue,true,false,joint 1 +,true,2024-03-04 14:29:01.018446,23.526,0.212,236.8,80.0212173461914,301.16497802734375,84.958251953125,55.12000274658203,75.98885345458984,51.0,-4.656612873077393e-10,-20.0
32,100,100,60,go_to_pick_up_from_blue,blue,true,false,joint 1 -,false,2024-03-04 14:29:01.711610,22.443,0.212,236.8,81.28206634521484,300.8271484375,84.958251953125,54.87999725341797,73.95999908447266,51.0,-4.656612873077393e-10,-20.0
32,100,100,60,go_to_pick_up_from_blue,blue,true,false,joint 1 -,false,2024-03-04 14:29:03.088224,16.614,0.154,236.8,288.81622314453125,116.9996566772461,84.958251953125,2.0529041290283203,21.668001174926758,51.0,-4.656612873077393e-10,-20.0
32,100,100,60,moving_belt,blue,false,true,joint 1 -,false,2024-03-04 14:29:03.777408,16.614,0.154,236.8,292.8220520019531,106.5785140991211,84.958251953125,0.0,20.0,51.0,-4.656612873077393e-10,-20.0
32,100,100,60,moving_belt,blue,false,true,joint 1 -,false,2024-03-04 14:29:05.165416,16.348,0.156,236.8,292.8220520019531,106.5785140991211,84.958251953125,0.0,20.0,51.0,-4.656612873077393e-10,-20.0
32,100,100,60,moving_belt,blue,false,true,joint 1 -,false,2024-03-04 14:29:05.855242,16.348,0.156,236.8,292.8220520019531,106.5785140991211,84.958251953125,0.0,20.0,51.0,-4.656612873077393e-10,-20.0
32,100,100,60,moving_belt,blue,false,true,joint 1 -,false,2024-03-04 14:29:06.550514,16.443,0.156,236.8,292.8220520019531,106.5785140991211,84.958251953125,0.0,20.0,51.0,-4.656612873077393e-10,-20.0
32,100,100,60,go_to_pick_down,blue,true,false,joint 3 +,false,2024-03-04 14:29:07.950558,16.348,0.157,236.8,292.3376159667969,106.40219116210938,72.65760803222656,0.0,20.0,51.0,5.440000057220459,-20.0
32,100,100,60,go_to_pick_up_from_pick_down,blue,true,false,joint 3 -,true,2024-03-04 14:29:08.639065,16.348,0.157,236.8,285.79046630859375,104.01922607421875,38.655242919921875,0.0,20.0,51.0,17.799997329711914,-20.0
32,100,100,60,go_to_color_detect_up_from_pick_up,blue,true,false,joint 1 +,true,2024-03-04 14:29:10.029407,23.469,0.179,236.8,278.0447082519531,140.69422912597656,84.958251953125,6.840002059936523,27.60000228881836,51.0,0.0,-20.0
32,100,100,60,go_to_color_detect_up_from_pick_up,blue,true,false,joint 1 +,true,2024-03-04 14:29:10.717726,22.519,0.179,235.0,131.75173950195312,282.3919372558594,84.958251953125,44.98829650878906,64.9915771484375,51.0,0.0,-20.0
32,100,100,60,go_to_color_detect_down,blue,true,false,joint 3 +,true,2024-03-04 14:29:12.100310,22.367,0.202,235.0,120.01168823242188,257.3658752441406,-0.8489837646484375,45.0,65.0,51.0,36.68408966064453,-20.0
32,100,100,60,go_to_color_detect_up_from_color_detect_down,blue,true,false,joint 3 -,false,2024-03-04 14:29:12.788557,22.272,0.202,235.0,120.45890808105469,258.324951171875,0.64251708984375,45.0,65.0,51.0,33.959999084472656,-20.0
32,100,100,60,detecting_color,blue,false,false,detecting_color,false,2024-03-04 14:29:14.173662,17.146,0.158,235.0,131.69407653808594,282.4188232421875,84.958251953125,45.0,65.0,51.0,-4.656612873077393e-10,-20.0
32,100,100,60,detecting_color,blue,false,false,detecting_color,false,2024-03-04 14:29:14.863465,16.519,0.158,236.8,131.69407653808594,282.4188232421875,84.958251953125,45.0,65.0,51.0,-4.656612873077393e-10,-20.0
32,100,100,60,go_to_color_detect_down,blue,true,false,joint 3 +,false,2024-03-04 14:29:15.553537,16.519,0.158,236.8,128.44918823242188,275.4601745605469,38.07123947143555,45.0,65.0,51.0,19.839996337890625,-20.0
32,100,100,60,go_to_color_detect_up_from_color_detect_down,blue,true,false,joint 3 -,true,2024-03-04 14:29:16.933322,16.386,0.157,235.0,111.46013641357422,239.0270233154297,-23.594696044921875,45.0,65.0,51.0,47.39999771118164,-20.0
32,100,100,60,go_to_color_detect_up_from_color_detect_down,blue,true,false,joint 3 -,true,2024-03-04 14:29:17.627191,16.5,0.157,235.0,131.6427459716797,282.3087463378906,78.98388671875,45.0,65.0,51.0,1.9179725646972656,-20.0
32,100,100,60,go_to_red_up,red,true,false,joint 1 +,true,2024-03-04 14:29:19.027758,22.348,0.214,235.0,6.525930881500244,311.54638671875,84.958251953125,68.80000305175781,90.20000457763672,51.0,-4.656612873077393e-10,-20.0
32,100,100,60,go_to_pick_up_from_red,red,true,false,joint 1 -,false,2024-03-04 14:29:19.713084,22.348,0.214,235.0,-178.73486328125,255.2598114013672,84.958251953125,105.0,124.95999908447266,51.0,-4.656612873077393e-10,-20.0
32,100,100,60,go_to_pick_up_from_red,red,true,false,joint 1 -,false,2024-03-04 14:29:21.121115,16.804,0.206,235.0,126.3475341796875,284.85089111328125,84.958251953125,46.079994201660156,64.17999267578125,51.0,-4.656612873077393e-10,-20.0
32,100,100,60,moving_belt,red,false,true,joint 1 -,false,2024-03-04 14:29:21.811492,16.804,0.206,235.0,292.8220520019531,106.57848358154297,84.958251953125,-3.814697265625e-06,20.0,51.0,-4.656612873077393e-10,-20.0
32,100,100,60,moving_belt,red,false,true,joint 1 -,false,2024-03-04 14:29:22.502825,16.481,0.157,235.0,292.8220520019531,106.5785140991211,84.958251953125,0.0,20.0,51.0,-4.656612873077393e-10,-20.0
32,100,100,60,moving_belt,red,false,true,joint 1 -,false,2024-03-04 14:29:23.889819,16.215,0.157,235.0,292.8220520019531,106.5785140991211,84.958251953125,0.0,20.0,51.0,-4.656612873077393e-10,-20.0
32,100,100,60,moving_belt,red,false,true,joint 1 -,false,2024-03-04 14:29:24.589577,16.424,0.157,235.0,292.8220520019531,106.5785140991211,84.958251953125,0.0,20.0,51.0,-4.656612873077393e-10,-20.0
32,100,100,60,moving_belt,red,false,true,joint 1 -,false,2024-03-04 14:29:26.002850,16.424,0.157,235.0,292.8220520019531,106.5785140991211,84.958251953125,0.0,20.0,51.0,-4.656612873077393e-10,-20.0
32,100,100,60,go_to_pick_down,red,true,false,joint 3 +,false,2024-03-04 14:29:26.700140,16.424,0.157,235.0,288.90997314453125,105.15463256835938,50.22156524658203,0.0,20.0,51.0,14.464665412902832,-20.0
32,100,100,60,go_to_pick_up_from_pick_down,red,true,false,joint 3 -,true,2024-03-04 14:29:28.086370,16.367,0.158,235.0,290.7051086425781,105.8080062866211,59.321231842041016,0.0,20.0,51.0,9.16766357421875,-20.0
32,100,100,60,go_to_color_detect_up_from_pick_up,red,true,false,joint 1 +,true,2024-03-04 14:29:28.779549,21.19,0.158,235.0,247.55128479003906,189.26724243164062,84.958251953125,17.39999771118164,38.599998474121094,51.0,0.0,-20.0
32,100,100,60,go_to_color_detect_down,red,true,false,joint 3 +,true,2024-03-04 14:29:30.162995,22.728,0.208,235.0,131.67445373535156,282.37677001953125,81.26412963867188,45.0,65.0,51.0,1.7999995946884155,-20.0
32,100,100,60,go_to_color_detect_down,red,true,false,joint 3 +,true,2024-03-04 14:29:30.853920,22.272,0.208,235.0,113.70602416992188,243.8433380126953,-18.492164611816406,45.0,65.0,51.0,45.21946716308594,-20.0
32,100,100,60,go_to_color_detect_up_from_color_detect_down,red,true,false,joint 3 -,false,2024-03-04 14:29:31.543823,22.272,0.204,235.0,128.32533264160156,275.1945495605469,37.209197998046875,45.0,65.0,51.0,17.74359893798828,-20.0
32,100,100,60,detecting_color,red,false,false,detecting_color,false,2024-03-04 14:29:32.927971,20.981,0.204,235.0,131.69407653808594,282.4188232421875,84.958251953125,45.0,65.0,51.0,-4.656612873077393e-10,-20.0
32,100,100,60,detecting_color,red,false,false,detecting_color,false,2024-03-04 14:29:33.624900,17.146,0.16,235.0,131.69407653808594,282.4188232421875,84.958251953125,45.0,65.0,51.0,-4.656612873077393e-10,-20.0
32,100,100,60,go_to_color_detect_down,red,true,false,joint 3 +,false,2024-03-04 14:29:35.007815,16.481,0.16,235.0,120.64384460449219,258.7215576171875,1.2709426879882812,45.0,65.0,51.0,35.712806701660156,-20.0
32,100,100,60,go_to_color_detect_up_from_color_detect_down,red,true,false,joint 3 -,true,2024-03-04 14:29:35.702652,16.367,0.156,235.0,116.34143829345703,249.49501037597656,-11.791847229003906,45.0,65.0,51.0,40.39999771118164,-20.0
32,100,100,60,go_to_green_up,green,true,false,joint 1 +,true,2024-03-04 14:29:37.099285,23.431,0.156,235.0,131.69407653808594,282.4188232421875,84.958251953125,45.0,65.04000091552734,51.0,-4.656612873077393e-10,-20.0
32,100,100,60,go_to_green_up,green,true,false,joint 1 +,true,2024-03-04 14:29:37.792964,22.842,0.205,235.0,-57.57305908203125,306.2500305175781,84.958251953125,80.64698028564453,101.21680450439453,51.0,-4.656612873077393e-10,-20.0
32,100,100,60,go_to_pick_up_from_green,green,true,false,joint 1 -,false,2024-03-04 14:29:39.179629,22.766,0.205,235.0,13.04908561706543,311.3414001464844,84.958251953125,67.59999084472656,86.39999389648438,51.0,-4.656612873077393e-10,-20.0
32,100,100,60,go_to_pick_up_from_green,green,true,false,joint 1 -,false,2024-03-04 14:29:39.873299,17.336,0.155,235.0,289.910400390625,114.26150512695312,84.958251953125,1.5107383728027344,21.182920455932617,51.0,-4.656612873077393e-10,-20.0
32,100,100,60,moving_belt,green,false,true,joint 1 -,false,2024-03-04 14:29:40.581929,16.5,0.155,235.0,292.8220520019531,106.5785140991211,84.958251953125,0.0,20.0,51.0,-4.656612873077393e-10,-20.0
32,100,100,60,moving_belt,green,false,true,joint 1 -,false,2024-03-04 14:29:41.961235,16.519,0.154,236.8,292.8220520019531,106.5785140991211,84.958251953125,0.0,20.0,51.0,-4.656612873077393e-10,-20.0
32,100,100,60,moving_belt,green,false,true,joint 1 -,false,2024-03-04 14:29:42.694886,16.519,0.154,236.8,292.8220520019531,106.5785140991211,84.958251953125,0.0,20.0,51.0,-4.656612873077393e-10,-20.0
32,100,100,60,moving_belt,green,false,true,joint 1 -,false,2024-03-04 14:29:44.098346,16.538,0.154,236.8,292.8220520019531,106.5785140991211,84.958251953125,0.0,20.0,51.0,-4.656612873077393e-10,-20.0
32,100,100,60,go_to_pick_down,green,true,false,joint 3 +,false,2024-03-04 14:29:44.793264,16.462,0.157,236.8,292.6754455566406,106.52515411376953,78.1873779296875,0.0,20.0,51.0,3.120000123977661,-20.0
32,100,100,60,go_to_pick_up_from_pick_down,green,true,false,joint 3 -,true,2024-03-04 14:29:46.175250,16.367,0.157,236.8,286.6444396972656,104.33004760742188,41.48917770385742,0.0,20.0,51.0,16.55999755859375,-20.0
32,100,100,60,go_to_color_detect_up_from_pick_up,green,true,false,joint 1 +,true,2024-03-04 14:29:46.869198,22.595,0.186,236.8,284.23004150390625,127.73807525634766,84.958251953125,4.200002670288086,24.800003051757812,51.0,0.0,-20.0
32,100,100,60,go_to_color_detect_up_from_pick_up,green,true,false,joint 1 +,true,2024-03-04 14:29:47.560656,22.443,0.186,236.8,133.78451538085938,281.4346008300781,84.958251953125,44.575164794921875,64.73844909667969,51.0,0.0,-20.0
32,100,100,60,go_to_color_detect_down,green,true,false,joint 3 +,true,2024-03-04 14:29:48.942026,22.424,0.203,236.8,118.77991485595703,254.72433471679688,-4.7643280029296875,45.0,65.0,51.0,38.50665283203125,-20.0
32,100,100,60,go_to_color_detect_up_from_color_detect_down,green,true,false,joint 3 -,false,2024-03-04 14:29:49.636317,21.988,0.203,236.8,118.01263427734375,253.07888793945312,-7.072502136230469,45.0,65.0,51.0,37.87999725341797,-20.0
32,100,100,60,detecting_color,green,false,false,detecting_color,false,2024-03-04 14:29:51.008662,19.519,0.161,236.8,131.69407653808594,282.4188232421875,84.958251953125,45.0,65.0,51.0,-4.656612873077393e-10,-20.0
32,100,100,60,detecting_color,green,false,false,detecting_color,false,2024-03-04 14:29:51.700349,17.032,0.161,236.8,131.69407653808594,282.4188232421875,84.958251953125,45.0,65.0,51.0,-4.656612873077393e-10,-20.0
32,100,100,60,go_to_color_detect_down,green,true,false,joint 3 +,false,2024-03-04 14:29:53.085715,16.348,0.156,236.8,129.2152099609375,277.1029052734375,43.8480224609375,45.0,65.0,51.0,17.39999771118164,-20.0
32,100,100,60,go_to_color_detect_up_from_color_detect_down,green,true,false,joint 3 -,true,2024-03-04 14:29:53.800933,16.348,0.156,236.8,112.5685043334961,241.4039306640625,-21.14051055908203,45.0,65.0,51.0,45.79999542236328,-20.0
32,100,100,60,go_to_color_detect_up_from_color_detect_down,green,true,false,joint 3 -,true,2024-03-04 14:29:54.609454,16.481,0.156,236.8,131.6209259033203,282.2619934082031,77.82721710205078,45.0,65.0,51.0,2.329254150390625,-20.0
32,100,100,60,go_to_blue_up,blue,true,false,joint 1 +,true,2024-03-04 14:29:55.986788,22.557,0.213,236.8,43.322330474853516,308.5885925292969,84.958251953125,62.008544921875,82.47740173339844,51.0,-4.656612873077393e-10,-20.0
32,100,100,60,go_to_pick_up_from_blue,blue,true,false,joint 1 -,false,2024-03-04 14:29:56.682057,22.424,0.213,236.8,170.2645263671875,260.9860534667969,84.958251953125,36.87999725341797,55.3599967956543,51.0,-4.656612873077393e-10,-20.0
32,100,100,60,moving_belt,blue,false,true,joint 1 -,false,2024-03-04 14:29:58.063645,16.386,0.157,236.8,292.8220520019531,106.5785140991211,84.958251953125,0.0,20.0,51.0,-4.656612873077393e-10,-20.0
32,100,100,60,moving_belt,blue,false,true,joint 1 -,false,2024-03-04 14:29:58.757914,16.386,0.157,236.8,292.8220520019531,106.5785140991211,84.958251953125,0.0,20.0,51.0,-4.656612873077393e-10,-20.0
32,100,100,60,moving_belt,blue,false,true,joint 1 -,false,2024-03-04 14:30:00.138810,16.557,0.157,236.8,292.8220520019531,106.5785140991211,84.958251953125,0.0,20.0,51.0,-4.656612873077393e-10,-20.0
32,100,100,60,moving_belt,blue,false,true,joint 1 -,false,2024-03-04 14:30:00.832142,16.462,0.157,236.8,292.8220520019531,106.5785140991211,84.958251953125,0.0,20.0,51.0,-4.656612873077393e-10,-20.0
32,100,100,60,moving_belt,blue,false,true,joint 1 -,false,2024-03-04 14:30:02.212114,16.348,0.157,236.8,292.8220520019531,106.5785140991211,84.958251953125,0.0,20.0,51.0,-4.656612873077393e-10,-20.0
32,100,100,60,go_to_pick_down,blue,true,false,joint 3 +,false,2024-03-04 14:30:02.937790,16.386,0.157,236.8,286.6092224121094,104.31723022460938,41.36827850341797,0.0,20.0,51.0,17.845497131347656,-20.0
32,100,100,60,go_to_pick_up_from_pick_down,blue,true,false,joint 3 -,true,2024-03-04 14:30:03.658380,16.386,0.157,236.8,292.2120056152344,106.35647583007812,71.15796661376953,0.0,20.0,51.0,4.750665187835693,-20.0
32,100,100,60,go_to_color_detect_up_from_pick_up,blue,true,false,joint 1 +,true,2024-03-04 14:30:05.043100,22.728,0.17,236.8,215.3290557861328,225.24905395507812,84.958251953125,26.289844512939453,47.493125915527344,51.0,0.0,-20.0
32,100,100,60,go_to_color_detect_down,blue,true,false,joint 3 +,true,2024-03-04 14:30:05.733794,22.576,0.17,236.8,131.52725219726562,282.0610656738281,74.1922378540039,45.0,65.0,51.0,4.799999237060547,-20.0
32,100,100,60,go_to_color_detect_down,blue,true,false,joint 3 +,true,2024-03-04 14:30:07.137743,21.988,0.202,236.8,111.8780517578125,239.92323303222656,-22.683425903320312,45.0,65.0,51.0,47.32715606689453,-20.0
32,100,100,60,go_to_color_detect_up_from_color_detect_down,blue,true,false,joint 3 -,false,2024-03-04 14:30:07.823448,21.969,0.202,236.8,130.27099609375,279.3670349121094,53.674888610839844,45.0,65.0,51.0,11.315911293029785,-20.0
32,100,100,60,detecting_color,blue,false,false,detecting_color,false,2024-03-04 14:30:09.219254,17.317,0.16,236.8,131.69407653808594,282.4188232421875,84.958251953125,45.0,65.0,51.0,-4.656612873077393e-10,-20.0
32,100,100,60,go_to_color_detect_down,blue,true,false,joint 3 +,false,2024-03-04 14:30:09.935848,17.317,0.16,236.8,131.69393920898438,282.4185485839844,84.65037536621094,45.0,65.0,51.0,0.2399999499320984,-20.0
32,100,100,60,go_to_color_detect_down,blue,true,false,joint 3 +,false,2024-03-04 14:30:10.627163,16.595,0.157,236.8,116.49774169921875,249.8302001953125,-11.367164611816406,45.0,65.0,51.0,41.67177963256836,-20.0
32,100,100,60,go_to_color_detect_up_from_color_detect_down,blue,true,false,joint 3 -,true,2024-03-04 14:30:12.007142,16.5,0.157,236.8,120.45890808105469,258.324951171875,0.64251708984375,45.0,65.0,51.0,33.959999084472656,-20.0
32,100,100,60,go_to_red_up,red,true,false,joint 1 +,true,2024-03-04 14:30:12.697422,22.88,0.212,236.8,126.14859008789062,284.9390563964844,84.958251953125,46.12000274658203,66.44000244140625,51.0,-4.656612873077393e-10,-20.0
32,100,100,60,go_to_red_up,red,true,false,joint 1 +,true,2024-03-04 14:30:14.079782,22.69,0.212,236.8,-133.42953491210938,281.6030578613281,84.958251953125,95.35258483886719,116.21096801757812,51.0,-4.656612873077393e-10,-20.0
32,100,100,60,go_to_pick_up_from_red,red,true,false,joint 1 -,false,2024-03-04 14:30:14.770475,22.69,0.206,236.8,-126.54637908935547,284.7626037597656,84.958251953125,93.95999908447266,113.0,51.0,-4.656612873077393e-10,-20.0
32,100,100,60,go_to_pick_up_from_red,red,true,false,joint 1 -,false,2024-03-04 14:30:16.149776,16.652,0.206,236.8,265.6383972167969,162.91094970703125,84.958251953125,11.51999282836914,30.579992294311523,51.0,-4.656612873077393e-10,-20.0
32,100,100,60,moving_belt,red,false,true,joint 1 -,false,2024-03-04 14:30:16.842855,16.652,0.154,236.8,292.8220520019531,106.5785140991211,84.958251953125,0.0,20.0,51.0,-4.656612873077393e-10,-20.0
32,100,100,60,moving_belt,red,false,true,joint 1 -,false,2024-03-04 14:30:17.535554,16.576,0.154,236.8,292.8220520019531,106.5785140991211,84.958251953125,0.0,20.0,51.0,-4.656612873077393e-10,-20.0
32,100,100,60,moving_belt,red,false,true,joint 1 -,false,2024-03-04 14:30:18.932335,16.576,0.154,236.8,292.8220520019531,106.5785140991211,84.958251953125,0.0,20.0,51.0,-4.656612873077393e-10,-20.0
32,100,100,60,moving_belt,red,false,true,joint 1 -,false,2024-03-04 14:30:19.631488,16.576,0.156,236.8,292.8220520019531,106.5785140991211,84.958251953125,0.0,20.0,51.0,-4.656612873077393e-10,-20.0
32,100,100,60,go_to_pick_down,red,true,false,joint 3 +,false,2024-03-04 14:30:21.018291,16.405,0.156,236.8,292.8220520019531,106.5785140991211,84.958251953125,0.0,20.0,51.0,-4.656612873077393e-10,-20.0
32,100,100,60,go_to_pick_up_from_pick_down,red,true,false,joint 3 -,true,2024-03-04 14:30:21.709002,16.348,0.156,236.8,282.76361083984375,102.91754913330078,29.89107894897461,0.0,20.0,51.0,21.959999084472656,-20.0
32,100,100,60,go_to_color_detect_up_from_pick_up,red,true,false,joint 1 +,true,2024-03-04 14:30:23.098546,16.367,0.156,236.8,292.8220520019531,106.5785140991211,84.958251953125,0.0,20.0,51.0,0.0,-20.0
32,100,100,60,go_to_color_detect_up_from_pick_up,red,true,false,joint 1 +,true,2024-03-04 14:30:23.800782,23.374,0.207,236.8,168.22808837890625,262.3033142089844,84.958251953125,37.32594299316406,58.08922576904297,51.0,0.0,-20.0
32,100,100,60,go_to_color_detect_down,red,true,false,joint 3 +,true,2024-03-04 14:30:25.204605,22.196,0.207,236.8,128.006591796875,274.5110168457031,35.067237854003906,45.0,65.0,51.0,21.1199951171875,-20.0
32,100,100,60,go_to_color_detect_up_from_color_detect_down,red,true,false,joint 3 -,false,2024-03-04 14:30:25.912018,22.121,0.202,236.8,111.81121826171875,239.7799072265625,-22.83026885986328,45.0,65.0,51.0,46.87999725341797,-20.0
32,100,100,60,go_to_color_detect_up_from_color_detect_down,red,true,false,joint 3 -,false,2024-03-04 14:30:26.602680,22.121,0.202,236.8,131.51309204101562,282.0307312011719,73.74609375,45.0,65.0,51.0,3.803098678588867,-20.0
32,100,100,60,detecting_color,red,false,false,detecting_color,false,2024-03-04 14:30:27.985056,17.051,0.162,236.8,131.69407653808594,282.4188232421875,84.958251953125,45.0,65.0,51.0,-4.656612873077393e-10,-20.0
32,100,100,60,go_to_color_detect_down,red,true,false,joint 3 +,false,2024-03-04 14:30:28.673753,16.367,0.162,236.8,131.56875610351562,282.15008544921875,75.62562561035156,45.0,65.0,51.0,4.1999993324279785,-20.0
32,100,100,60,go_to_color_detect_down,red,true,false,joint 3 +,false,2024-03-04 14:30:30.057625,16.519,0.156,236.8,112.10877227783203,240.4180145263672,-22.173080444335938,45.0,65.0,51.0,47.07587432861328,-20.0
32,100,100,60,go_to_color_detect_up_from_color_detect_down,red,true,false,joint 3 -,true,2024-03-04 14:30:30.754880,17.468,0.156,236.8,130.0281982421875,278.8463439941406,51.144752502441406,45.0,65.0,51.0,12.287192344665527,-20.0
32,100,100,60,go_to_green_up,green,true,false,joint 1 +,true,2024-03-04 14:30:32.157263,23.659,0.206,236.8,89.02467346191406,298.62744140625,84.958251953125,53.40000915527344,74.24000549316406,51.0,-4.656612873077393e-10,-20.0
32,100,100,60,go_to_pick_up_from_green,green,true,false,joint 1 -,false,2024-03-04 14:30:32.852152,22.291,0.206,236.8,-80.4416732788086,301.0529479980469,84.958251953125,84.95999908447266,104.87999725341797,51.0,-4.656612873077393e-10,-20.0
32,100,100,60,go_to_pick_up_from_green,green,true,false,joint 1 -,false,2024-03-04 14:30:33.564778,22.329,0.206,236.8,212.80044555664062,227.639404296875,84.958251953125,26.92963409423828,45.481815338134766,51.0,-4.656612873077393e-10,-20.0
32,100,100,60,moving_belt,green,false,true,joint 1 -,false,2024-03-04 14:30:34.946369,16.614,0.157,236.8,292.8220520019531,106.5785140991211,84.958251953125,0.0,20.0,51.0,-4.656612873077393e-10,-20.0
32,100,100,60,moving_belt,green,false,true,joint 1 -,false,2024-03-04 14:30:35.637302,16.614,0.157,236.8,292.8220520019531,106.5785140991211,84.958251953125,0.0,20.0,51.0,-4.656612873077393e-10,-20.0
32,100,100,60,moving_belt,green,false,true,joint 1 -,false,2024-03-04 14:30:37.019228,16.481,0.157,236.8,292.8220520019531,106.5785140991211,84.958251953125,0.0,20.0,51.0,-4.656612873077393e-10,-20.0
32,100,100,60,moving_belt,green,false,true,joint 1 -,false,2024-03-04 14:30:37.715193,16.481,0.157,236.8,292.8220520019531,106.5785140991211,84.958251953125,0.0,20.0,51.0,-4.656612873077393e-10,-20.0
32,100,100,60,moving_belt,green,false,true,joint 1 -,false,2024-03-04 14:30:39.103964,16.538,0.154,236.8,292.8220520019531,106.5785140991211,84.958251953125,0.0,20.0,51.0,-4.656612873077393e-10,-20.0
32,100,100,60,go_to_pick_down,green,true,false,joint 3 +,false,2024-03-04 14:30:39.792572,16.272,0.154,236.8,286.6092224121094,104.31723022460938,41.36827850341797,0.0,20.0,51.0,17.845497131347656,-20.0
32,100,100,60,go_to_pick_up_from_pick_down,green,true,false,joint 3 -,true,2024-03-04 14:30:41.170854,16.557,0.191,236.8,292.67919921875,106.52651977539062,78.2745132446289,0.0,20.0,51.0,2.1698338985443115,-20.0
32,100,100,60,go_to_color_detect_up_from_pick_up,green,true,false,joint 1 +,true,2024-03-04 14:30:41.864161,23.26,0.191,236.8,225.04928588867188,215.5377960205078,84.958251953125,23.76327896118164,45.04656219482422,51.0,0.0,-20.0
32,100,100,60,go_to_color_detect_down,green,true,false,joint 3 +,true,2024-03-04 14:30:42.587741,22.557,0.191,236.8,131.60198974609375,282.2213439941406,76.95742797851562,45.0,65.0,51.0,3.6399993896484375,-20.0
32,100,100,60,go_to_color_detect_down,green,true,false,joint 3 +,true,2024-03-04 14:30:43.978671,22.215,0.203,236.8,111.26680755615234,238.6124267578125,-24.010658264160156,45.0,65.0,51.0,47.932281494140625,-20.0
32,100,100,60,go_to_color_detect_up_from_color_detect_down,green,true,false,joint 3 -,false,2024-03-04 14:30:44.670796,22.102,0.203,236.8,129.75582885742188,278.26226806640625,48.52571487426758,45.0,65.0,51.0,13.298473358154297,-20.0
32,100,100,60,detecting_color,green,false,false,detecting_color,false,2024-03-04 14:30:46.048544,17.279,0.162,236.8,131.69407653808594,282.4188232421875,84.958251953125,45.0,65.0,51.0,-4.656612873077393e-10,-20.0
32,100,100,60,go_to_color_detect_down,green,true,false,joint 3 +,false,2024-03-04 14:30:46.744446,16.443,0.162,236.8,131.69407653808594,282.4188232421875,84.958251953125,45.0,65.0,51.0,0.03999999165534973,-20.0
32,100,100,60,go_to_color_detect_down,green,true,false,joint 3 +,false,2024-03-04 14:30:48.131319,16.291,0.157,236.8,117.60411071777344,252.20281982421875,-8.263710021972656,45.0,65.0,51.0,40.16921615600586,-20.0
32,100,100,60,go_to_color_detect_up_from_color_detect_down,green,true,false,joint 3 -,true,2024-03-04 14:30:48.850769,16.291,0.157,236.8,123.6932373046875,265.260986328125,12.795387268066406,45.0,65.0,51.0,28.160003662109375,-20.0
32,100,100,60,go_to_blue_up,blue,true,false,joint 1 +,true,2024-03-04 14:30:50.239288,23.355,0.212,236.8,127.53956604003906,284.31915283203125,84.958251953125,45.840003967285156,66.12000274658203,51.0,-4.656612873077393e-10,-20.0
32,100,100,60,go_to_pick_up_from_blue,blue,true,false,joint 1 -,false,2024-03-04 14:30:50.929140,22.272,0.212,236.8,33.221588134765625,309.8387451171875,84.958251953125,63.87999725341797,83.55999755859375,51.0,-4.656612873077393e-10,-20.0
32,100,100,60,go_to_pick_up_from_blue,blue,true,false,joint 1 -,false,2024-03-04 14:30:51.624491,22.272,0.212,236.8,276.8636779785156,143.0042724609375,84.958251953125,7.3170318603515625,26.572128295898438,51.0,-4.656612873077393e-10,-20.0
32,100,100,60,moving_belt,blue,false,true,joint 1 -,false,2024-03-04 14:30:53.007619,16.671,0.158,236.8,292.8220520019531,106.5785140991211,84.958251953125,0.0,20.0,51.0,-4.656612873077393e-10,-20.0
32,100,100,60,moving_belt,blue,false,true,joint 1 -,false,2024-03-04 14:30:53.696699,16.519,0.158,236.8,292.8220520019531,106.5785140991211,84.958251953125,0.0,20.0,51.0,-4.656612873077393e-10,-20.0
32,100,100,60,moving_belt,blue,false,true,joint 1 -,false,2024-03-04 14:30:55.091188,16.291,0.156,236.8,292.8220520019531,106.5785140991211,84.958251953125,0.0,20.0,51.0,-4.656612873077393e-10,-20.0
32,100,100,60,moving_belt,blue,false,true,joint 1 -,false,2024-03-04 14:30:55.786584,16.367,0.156,236.8,292.8220520019531,106.5785140991211,84.958251953125,0.0,20.0,51.0,-4.656612873077393e-10,-20.0
32,100,100,60,go_to_pick_down,blue,true,false,joint 3 +,false,2024-03-04 14:30:57.167922,16.196,0.156,236.8,292.8220520019531,106.5785140991211,84.958251953125,0.0,20.0,51.0,-4.656612873077393e-10,-20.0
32,100,100,60,go_to_pick_up_from_pick_down,blue,true,false,joint 3 -,true,2024-03-04 14:30:57.856608,16.196,0.156,236.8,282.979248046875,102.99602508544922,30.462482452392578,0.0,20.0,51.0,21.599998474121094,-20.0
32,100,100,60,go_to_color_detect_up_from_pick_up,blue,true,false,joint 1 +,true,2024-03-04 14:30:58.551296,16.31,0.156,236.8,292.59820556640625,107.19156646728516,84.958251953125,0.12000083923339844,20.240001678466797,51.0,0.0,-20.0
32,100,100,60,go_to_color_detect_up_from_pick_up,blue,true,false,joint 1 +,true,2024-03-04 14:30:59.953117,23.412,0.18,236.8,155.15187072753906,270.2436218261719,84.958251953125,40.139068603515625,60.74235153198242,51.0,0.0,-20.0
32,100,100,60,go_to_color_detect_down,blue,true,false,joint 3 +,true,2024-03-04 14:31:00.646784,22.196,0.18,236.8,126.41095733642578,271.08917236328125,25.637104034423828,45.0,65.0,51.0,25.171276092529297,-20.0
32,100,100,60,go_to_color_detect_up_from_color_detect_down,blue,true,false,joint 3 -,false,2024-03-04 14:31:02.033260,22.158,0.202,236.8,112.8804931640625,242.07298278808594,-20.42760467529297,45.0,65.0,51.0,45.3599967956543,-20.0
32,100,100,60,go_to_color_detect_up_from_color_detect_down,blue,true,false,joint 3 -,false,2024-03-04 14:31:02.732548,22.158,0.202,236.8,131.6427459716797,282.3087463378906,78.98388671875,45.0,65.0,51.0,1.9179725646972656,-20.0
32,100,100,60,detecting_color,blue,false,false,detecting_color,false,2024-03-04 14:31:04.111497,16.614,0.161,236.8,131.69407653808594,282.4188232421875,84.958251953125,45.0,65.0,51.0,-4.656612873077393e-10,-20.0
32,100,100,60,go_to_color_detect_down,blue,true,false,joint 3 +,false,2024-03-04 14:31:04.812159,16.614,0.161,236.8,131.52725219726562,282.0610656738281,74.1922378540039,45.0,65.0,51.0,4.799999237060547,-20.0
32,100,100,60,go_to_color_detect_down,blue,true,false,joint 3 +,false,2024-03-04 14:31:06.192477,16.31,0.157,236.8,111.15208435058594,238.3664093017578,-24.255813598632812,45.0,65.0,51.0,47.994842529296875,-20.0
32,100,100,60,go_to_color_detect_up_from_color_detect_down,blue,true,false,joint 3 -,true,2024-03-04 14:31:06.891189,16.462,0.157,236.8,130.27099609375,279.3670349121094,53.674888610839844,45.0,65.0,51.0,11.315911293029785,-20.0
32,100,100,60,go_to_red_up,red,true,false,joint 1 +,true,2024-03-04 14:31:07.580332,23.393,0.211,236.8,89.02467346191406,298.62744140625,84.958251953125,53.40000915527344,74.24000549316406,51.0,-4.656612873077393e-10,-20.0
32,100,100,60,go_to_red_up,red,true,false,joint 1 +,true,2024-03-04 14:31:08.964373,22.329,0.211,236.8,-177.9407196044922,255.81405639648438,84.958251953125,104.82193756103516,124.92032623291016,51.0,-4.656612873077393e-10,-20.0
32,100,100,60,go_to_pick_up_from_red,red,true,false,joint 1 -,false,2024-03-04 14:31:09.654720,22.785,0.205,236.8,-3.045640707015991,311.5998229980469,84.958251953125,70.55999755859375,88.87999725341797,51.0,-4.656612873077393e-10,-20.0
32,100,100,60,go_to_pick_up_from_red,red,true,false,joint 1 -,false,2024-03-04 14:31:11.030205,16.766,0.205,236.8,286.029052734375,123.65725708007812,84.958251953125,3.379993438720703,22.879993438720703,51.0,-4.656612873077393e-10,-20.0
32,100,100,60,moving_belt,red,false,true,joint 1 -,false,2024-03-04 14:31:11.720714,16.462,0.157,236.8,292.8220520019531,106.5785140991211,84.958251953125,0.0,20.0,51.0,-4.656612873077393e-10,-20.0
32,100,100,60,moving_belt,red,false,true,joint 1 -,false,2024-03-04 14:31:13.119754,16.462,0.157,236.8,292.8220520019531,106.5785140991211,84.958251953125,0.0,20.0,51.0,-4.656612873077393e-10,-20.0
32,100,100,60,moving_belt,red,false,true,joint 1 -,false,2024-03-04 14:31:13.812996,16.462,0.156,236.8,292.8220520019531,106.5785140991211,84.958251953125,0.0,20.0,51.0,-4.656612873077393e-10,-20.0
32,100,100,60,moving_belt,red,false,true,joint 1 -,false,2024-03-04 14:31:15.247415,16.348,0.156,236.8,292.8220520019531,106.5785140991211,84.958251953125,0.0,20.0,51.0,-4.656612873077393e-10,-20.0
32,100,100,60,go_to_pick_down,red,true,false,joint 3 +,false,2024-03-04 14:31:15.948313,16.348,0.156,236.8,292.54339599609375,106.47708892822266,75.62562561035156,0.0,20.0,51.0,4.200000286102295,-20.0
32,100,100,60,go_to_pick_up_from_pick_down,red,true,false,joint 3 -,true,2024-03-04 14:31:16.636210,16.329,0.156,236.8,285.39019775390625,103.87354278564453,37.39094924926758,0.0,20.0,51.0,18.359996795654297,-20.0
32,100,100,60,go_to_color_detect_up_from_pick_up,red,true,false,joint 1 +,true,2024-03-04 14:31:18.015453,21.285,0.156,236.8,281.399169921875,133.8590087890625,84.958251953125,5.44000244140625,26.12000274658203,51.0,0.0,-20.0
32,100,100,60,go_to_color_detect_up_from_pick_up,red,true,false,joint 1 +,true,2024-03-04 14:31:18.706735,22.291,0.21,236.8,132.375244140625,282.1001892089844,84.958251953125,44.861732482910156,64.94501495361328,51.0,0.0,-20.0
32,100,100,60,go_to_color_detect_down,red,true,false,joint 3 +,true,2024-03-04 14:31:20.096373,22.5,0.21,236.8,121.2841567993164,260.0946960449219,3.502349853515625,45.0,65.0,51.0,34.7015266418457,-20.0
32,100,100,60,go_to_color_detect_up_from_color_detect_down,red,true,false,joint 3 -,false,2024-03-04 14:31:20.787060,22.045,0.2,236.8,119.21041107177734,255.64755249023438,-3.4265670776367188,45.0,65.0,51.0,36.0,-20.0
32,100,100,60,detecting_color,red,false,false,detecting_color,false,2024-03-04 14:31:22.180153,20.734,0.2,236.8,131.69407653808594,282.4188232421875,84.958251953125,45.0,65.0,51.0,-4.656612873077393e-10,-20.0
32,100,100,60,detecting_color,red,false,false,detecting_color,false,2024-03-04 14:31:22.870852,16.975,0.161,236.8,131.69407653808594,282.4188232421875,84.958251953125,45.0,65.0,51.0,-4.656612873077393e-10,-20.0
32,100,100,60,go_to_color_detect_down,red,true,false,joint 3 +,false,2024-03-04 14:31:23.575486,16.975,0.161,236.8,129.2152099609375,277.1029052734375,43.8480224609375,45.0,65.0,51.0,17.39999771118164,-20.0
32,100,100,60,go_to_color_detect_up_from_color_detect_down,red,true,false,joint 3 -,true,2024-03-04 14:31:25.007171,16.291,0.155,236.8,111.33187866210938,238.75196838378906,-23.871063232421875,45.0,65.0,51.0,47.599998474121094,-20.0
32,100,100,60,go_to_color_detect_up_from_color_detect_down,red,true,false,joint 3 -,true,2024-03-04 14:31:25.704222,16.291,0.155,236.8,131.39366149902344,281.77459716796875,70.51924133300781,45.0,65.0,51.0,4.985661506652832,-20.0
32,100,100,60,go_to_green_up,green,true,false,joint 1 +,true,2024-03-04 14:31:27.083238,22.652,0.206,236.8,8.323090553283691,311.5035400390625,84.958251953125,68.46947479248047,89.59929656982422,51.0,-4.656612873077393e-10,-20.0
32,100,100,60,go_to_pick_up_from_green,green,true,false,joint 1 -,false,2024-03-04 14:31:27.777307,22.538,0.206,236.8,-55.182220458984375,306.6898498535156,84.958251953125,80.19999694824219,99.55999755859375,51.0,-4.656612873077393e-10,-20.0
32,100,100,60,go_to_pick_up_from_green,green,true,false,joint 1 -,false,2024-03-04 14:31:29.195127,16.652,0.156,236.8,246.77320861816406,190.28062438964844,84.958251953125,17.634910583496094,36.46709442138672,51.0,-4.656612873077393e-10,-20.0
32,100,100,60,moving_belt,green,false,true,joint 1 -,false,2024-03-04 14:31:29.891162,16.652,0.156,236.8,292.8220520019531,106.5785140991211,84.958251953125,0.0,20.0,51.0,-4.656612873077393e-10,-20.0
32,100,100,60,moving_belt,green,false,true,joint 1 -,false,2024-03-04 14:31:30.606489,16.424,0.156,236.8,292.8220520019531,106.5785140991211,84.958251953125,0.0,20.0,51.0,-4.656612873077393e-10,-20.0
32,100,100,60,moving_belt,green,false,true,joint 1 -,false,2024-03-04 14:31:31.991496,16.291,0.156,236.8,292.8220520019531,106.5785140991211,84.958251953125,0.0,20.0,51.0,-4.656612873077393e-10,-20.0
32,100,100,60,moving_belt,green,false,true,joint 1 -,false,2024-03-04 14:31:32.684455,16.424,0.156,236.8,292.8220520019531,106.5785140991211,84.958251953125,0.0,20.0,51.0,-4.656612873077393e-10,-20.0
32,100,100,60,go_to_pick_down,green,true,false,joint 3 +,false,2024-03-04 14:31:34.067025,16.272,0.156,236.8,292.8220520019531,106.5785140991211,84.958251953125,0.0,20.0,51.0,-4.656612873077393e-10,-20.0
32,100,100,60,go_to_pick_up_from_pick_down,green,true,false,joint 3 -,true,2024-03-04 14:31:34.761693,16.272,0.156,236.8,282.77099609375,102.92022705078125,29.9105224609375,0.0,20.0,51.0,22.0,-20.0
32,100,100,60,go_to_color_detect_up_from_pick_up,green,true,false,joint 1 +,true,2024-03-04 14:31:36.143597,23.431,0.156,236.8,292.59820556640625,107.19156646728516,84.958251953125,0.12000083923339844,20.240001678466797,51.0,0.0,-20.0
32,100,100,60,go_to_color_detect_up_from_pick_up,green,true,false,joint 1 +,true,2024-03-04 14:31:36.835931,22.196,0.156,235.0,158.1761474609375,268.48468017578125,84.958251953125,39.49578857421875,60.139068603515625,51.0,0.0,-20.0
32,100,100,60,go_to_color_detect_down,green,true,false,joint 3 +,true,2024-03-04 14:31:38.215739,22.196,0.204,235.0,129.5434112548828,277.8067321777344,46.61455154418945,45.0,65.0,51.0,16.23999786376953,-20.0
32,100,100,60,go_to_color_detect_up_from_color_detect_down,green,true,false,joint 3 -,false,2024-03-04 14:31:38.903571,22.064,0.204,235.0,112.5685043334961,241.4039306640625,-21.14051055908203,45.0,65.0,51.0,45.79999542236328,-20.0
32,100,100,60,go_to_color_detect_up_from_color_detect_down,green,true,false,joint 3 -,false,2024-03-04 14:31:39.594926,22.064,0.204,235.0,131.6209259033203,282.2619934082031,77.82721710205078,45.0,65.0,51.0,2.329254150390625,-20.0
32,100,100,60,detecting_color,green,false,false,detecting_color,false,2024-03-04 14:31:40.974453,16.652,0.164,235.0,131.69407653808594,282.4188232421875,84.958251953125,45.0,65.0,51.0,-4.656612873077393e-10,-20.0
32,100,100,60,go_to_color_detect_down,green,true,false,joint 3 +,false,2024-03-04 14:31:41.664137,16.652,0.164,235.0,131.4761962890625,281.95159912109375,72.65760803222656,45.0,65.0,51.0,5.439999103546143,-20.0
32,100,100,60,go_to_color_detect_down,green,true,false,joint 3 +,false,2024-03-04 14:31:43.047680,16.348,0.154,235.0,111.14300537109375,238.34693908691406,-24.275192260742188,45.0,65.0,51.0,48.0,-20.0
32,100,100,60,go_to_color_detect_up_from_color_detect_down,green,true,false,joint 3 -,true,2024-03-04 14:31:43.734003,16.424,0.154,235.0,130.27099609375,279.3670349121094,53.674888610839844,45.0,65.0,51.0,11.315911293029785,-20.0
32,100,100,60,go_to_blue_up,blue,true,false,joint 1 +,true,2024-03-04 14:31:45.117242,23.412,0.212,235.0,89.02467346191406,298.62744140625,84.958251953125,53.40000915527344,74.24000549316406,51.0,-4.656612873077393e-10,-20.0
32,100,100,60,go_to_pick_up_from_blue,blue,true,false,joint 1 -,false,2024-03-04 14:31:45.803496,22.083,0.212,235.0,107.19156646728516,292.59820556640625,84.958251953125,49.87999725341797,68.75999450683594,51.0,-4.656612873077393e-10,-20.0
32,100,100,60,go_to_pick_up_from_blue,blue,true,false,joint 1 -,false,2024-03-04 14:31:47.188528,20.089,0.189,235.0,292.1778564453125,108.3320541381836,84.958251953125,0.3434867858886719,20.198583602905273,51.0,-4.656612873077393e-10,-20.0
32,100,100,60,moving_belt,blue,false,true,joint 1 -,false,2024-03-04 14:31:47.877554,16.386,0.189,235.0,292.8220520019531,106.5785140991211,84.958251953125,0.0,20.0,51.0,-4.656612873077393e-10,-20.0
32,100,100,60,moving_belt,blue,false,true,joint 1 -,false,2024-03-04 14:31:49.263442,16.576,0.154,236.8,292.8220520019531,106.5785140991211,84.958251953125,0.0,20.0,51.0,-4.656612873077393e-10,-20.0
32,100,100,60,moving_belt,blue,false,true,joint 1 -,false,2024-03-04 14:31:49.956080,16.348,0.154,236.8,292.8220520019531,106.5785140991211,84.958251953125,0.0,20.0,51.0,-4.656612873077393e-10,-20.0
32,100,100,60,moving_belt,blue,false,true,joint 1 -,false,2024-03-04 14:31:50.642406,16.348,0.153,236.8,292.8220520019531,106.5785140991211,84.958251953125,0.0,20.0,51.0,-4.656612873077393e-10,-20.0
32,100,100,60,go_to_pick_down,blue,true,false,joint 3 +,false,2024-03-04 14:31:52.022647,16.31,0.153,236.8,290.6729431152344,105.79631042480469,59.12882614135742,0.0,20.0,51.0,11.039999961853027,-20.0
32,100,100,60,go_to_pick_up_from_pick_down,blue,true,false,joint 3 -,true,2024-03-04 14:31:52.710909,16.462,0.153,236.8,288.4822998046875,104.99897766113281,48.40084457397461,0.0,20.0,51.0,13.599996566772461,-20.0
32,100,100,60,go_to_color_detect_up_from_pick_up,blue,true,false,joint 1 +,true,2024-03-04 14:31:54.092784,21.798,0.155,236.8,278.0447082519531,140.69422912597656,84.958251953125,6.840002059936523,27.60000228881836,51.0,0.0,-20.0
32,100,100,60,go_to_color_detect_down,blue,true,false,joint 3 +,true,2024-03-04 14:31:54.809113,22.14,0.155,236.8,131.6935272216797,282.41766357421875,84.34249877929688,45.0,65.0,51.0,0.3999999165534973,-20.0
32,100,100,60,go_to_color_detect_down,blue,true,false,joint 3 +,true,2024-03-04 14:31:56.202692,22.045,0.204,236.8,116.49774169921875,249.8302001953125,-11.367164611816406,45.0,65.0,51.0,41.67177963256836,-20.0
32,100,100,60,go_to_color_detect_up_from_color_detect_down,blue,true,false,joint 3 -,false,2024-03-04 14:31:56.893977,22.045,0.204,236.8,121.0972900390625,259.6939697265625,2.8420028686523438,45.0,65.0,51.0,32.880001068115234,-20.0
32,100,100,60,detecting_color,blue,false,false,detecting_color,false,2024-03-04 14:31:58.275659,20.051,0.187,236.8,131.69407653808594,282.4188232421875,84.958251953125,45.0,65.0,51.0,-4.656612873077393e-10,-20.0
32,100,100,60,detecting_color,blue,false,false,detecting_color,false,2024-03-04 14:31:58.968072,17.108,0.187,236.8,131.69407653808594,282.4188232421875,84.958251953125,45.0,65.0,51.0,-4.656612873077393e-10,-20.0
32,100,100,60,go_to_color_detect_down,blue,true,false,joint 3 +,false,2024-03-04 14:31:59.656069,16.538,0.156,236.8,127.52101135253906,273.4696960449219,31.990859985351562,45.0,65.0,51.0,22.43999481201172,-20.0
32,100,100,60,go_to_color_detect_up_from_color_detect_down,blue,true,false,joint 3 -,true,2024-03-04 14:32:01.033968,16.329,0.156,236.8,114.40845489501953,245.34971618652344,-16.786788940429688,45.0,65.0,51.0,43.19999694824219,-20.0
32,100,100,60,go_to_color_detect_up_from_color_detect_down,blue,true,false,joint 3 -,true,2024-03-04 14:32:01.724165,16.329,0.198,236.8,131.68600463867188,282.4015197753906,82.5873794555664,45.0,65.0,51.0,0.6728465557098389,-20.0
32,100,100,60,go_to_red_up,red,true,false,joint 1 +,true,2024-03-04 14:32:03.108497,22.69,0.198,236.8,-71.52986907958984,303.2939453125,84.958251953125,83.27033233642578,104.56871795654297,51.0,-4.656612873077393e-10,-20.0
32,100,100,60,go_to_pick_up_from_red,red,true,false,joint 1 -,false,2024-03-04 14:32:03.797194,22.538,0.204,236.8,-164.5767364501953,264.60955810546875,84.958251953125,101.87998962402344,121.35999298095703,51.0,-4.656612873077393e-10,-20.0
32,100,100,60,go_to_pick_up_from_red,red,true,false,joint 1 -,false,2024-03-04 14:32:05.183556,19.443,0.204,236.8,177.48532104492188,256.1302185058594,84.958251953125,35.279991149902344,53.619991302490234,51.0,-4.656612873077393e-10,-20.0
32,100,100,60,moving_belt,red,false,true,joint 1 -,false,2024-03-04 14:32:05.872838,16.481,0.157,236.8,292.8220520019531,106.5785140991211,84.958251953125,0.0,20.0,51.0,-4.656612873077393e-10,-20.0
32,100,100,60,moving_belt,red,false,true,joint 1 -,false,2024-03-04 14:32:07.255003,16.747,0.157,236.8,292.8220520019531,106.5785140991211,84.958251953125,0.0,20.0,51.0,-4.656612873077393e-10,-20.0
32,100,100,60,moving_belt,red,false,true,joint 1 -,false,2024-03-04 14:32:07.946274,16.747,0.157,236.8,292.8220520019531,106.5785140991211,84.958251953125,0.0,20.0,51.0,-4.656612873077393e-10,-20.0
32,100,100,60,moving_belt,red,false,true,joint 1 -,false,2024-03-04 14:32:08.675255,16.291,0.157,236.8,292.8220520019531,106.5785140991211,84.958251953125,0.0,20.0,51.0,-4.656612873077393e-10,-20.0
32,100,100,60,moving_belt,red,false,true,joint 1 -,false,2024-03-04 14:32:10.058248,16.481,0.157,236.8,292.8220520019531,106.5785140991211,84.958251953125,0.0,20.0,51.0,-4.656612873077393e-10,-20.0
32,100,100,60,go_to_pick_down,red,true,false,joint 3 +,false,2024-03-04 14:32:10.754769,16.671,0.156,236.8,285.7587890625,104.0076904296875,38.55379104614258,0.0,20.0,51.0,18.917829513549805,-20.0
32,100,100,60,go_to_pick_up_from_pick_down,red,true,false,joint 3 -,true,2024-03-04 14:32:12.136691,17.582,0.156,236.8,292.755859375,106.5544204711914,80.40839385986328,0.0,20.0,51.0,1.417501449584961,-20.0
32,100,100,60,go_to_color_detect_up_from_pick_up,red,true,false,joint 1 +,true,2024-03-04 14:32:12.826939,22.823,0.207,236.8,220.16571044921875,220.52386474609375,84.958251953125,25.04656219482422,46.28984451293945,51.0,0.0,-20.0
32,100,100,60,go_to_color_detect_down,red,true,false,joint 3 +,true,2024-03-04 14:32:14.205407,22.519,0.207,236.8,131.56875610351562,282.15008544921875,75.62562561035156,45.0,65.0,51.0,4.1999993324279785,-20.0
32,100,100,60,go_to_color_detect_down,red,true,false,joint 3 +,true,2024-03-04 14:32:14.895155,22.026,0.196,236.8,111.15208435058594,238.3664093017578,-24.255813598632812,45.0,65.0,51.0,47.994842529296875,-20.0
32,100,100,60,go_to_color_detect_up_from_color_detect_down,red,true,false,joint 3 -,false,2024-03-04 14:32:16.285524,22.083,0.196,236.8,130.27099609375,279.3670349121094,53.674888610839844,45.0,65.0,51.0,11.315911293029785,-20.0
32,100,100,60,detecting_color,red,false,false,detecting_color,false,2024-03-04 14:32:16.979427,17.222,0.159,236.8,131.69407653808594,282.4188232421875,84.958251953125,45.0,65.0,51.0,-4.656612873077393e-10,-20.0
32,100,100,60,go_to_color_detect_down,red,true,false,joint 3 +,false,2024-03-04 14:32:17.678081,17.222,0.159,236.8,131.69393920898438,282.4185485839844,84.65037536621094,45.0,65.0,51.0,0.2399999499320984,-20.0
32,100,100,60,go_to_color_detect_down,red,true,false,joint 3 +,false,2024-03-04 14:32:19.073694,16.291,0.153,236.8,116.49774169921875,249.8302001953125,-11.367164611816406,45.0,65.0,51.0,41.67177963256836,-20.0
32,100,100,60,go_to_color_detect_up_from_color_detect_down,red,true,false,joint 3 -,true,2024-03-04 14:32:19.778058,16.291,0.153,236.8,124.98181915283203,268.02435302734375,18.49610137939453,45.0,65.0,51.0,25.56000518798828,-20.0
32,100,100,60,go_to_green_up,green,true,false,joint 1 +,true,2024-03-04 14:32:21.171199,22.937,0.206,236.8,124.55525970458984,285.6391296386719,84.958251953125,46.44000244140625,66.80000305175781,51.0,-4.656612873077393e-10,-20.0
32,100,100,60,go_to_green_up,green,true,false,joint 1 +,true,2024-03-04 14:32:21.864471,22.937,0.206,236.8,-74.30796813964844,302.6252746582031,84.958251953125,83.79573059082031,104.08555603027344,51.0,-4.656612873077393e-10,-20.0
32,100,100,60,go_to_pick_up_from_green,green,true,false,joint 1 -,false,2024-03-04 14:32:23.248394,18.551,0.206,236.8,120.95608520507812,287.1817626953125,84.958251953125,47.159996032714844,65.39999389648438,51.0,-4.656612873077393e-10,-20.0
32,100,100,60,moving_belt,green,false,true,joint 1 -,false,2024-03-04 14:32:23.943085,18.551,0.155,236.8,292.8067932128906,106.62041473388672,84.958251953125,0.008197784423828125,20.00037956237793,51.0,-4.656612873077393e-10,-20.0
32,100,100,60,moving_belt,green,false,true,joint 1 -,false,2024-03-04 14:32:24.632765,16.386,0.155,236.8,292.8220520019531,106.5785140991211,84.958251953125,0.0,20.0,51.0,-4.656612873077393e-10,-20.0
32,100,100,60,moving_belt,green,false,true,joint 1 -,false,2024-03-04 14:32:26.022715,16.519,0.155,236.8,292.8220520019531,106.5785140991211,84.958251953125,0.0,20.0,51.0,-4.656612873077393e-10,-20.0
32,100,100,60,moving_belt,green,false,true,joint 1 -,false,2024-03-04 14:32:26.718246,16.462,0.155,236.8,292.8220520019531,106.5785140991211,84.958251953125,0.0,20.0,51.0,-4.656612873077393e-10,-20.0
32,100,100,60,moving_belt,green,false,true,joint 1 -,false,2024-03-04 14:32:28.111201,16.386,0.157,236.8,292.8220520019531,106.5785140991211,84.958251953125,0.0,20.0,51.0,-4.656612873077393e-10,-20.0
32,100,100,60,go_to_pick_down,green,true,false,joint 3 +,false,2024-03-04 14:32:28.805877,16.386,0.157,236.8,288.90997314453125,105.15463256835938,50.22156524658203,0.0,20.0,51.0,14.464665412902832,-20.0
32,100,100,60,go_to_pick_up_from_pick_down,green,true,false,joint 3 -,true,2024-03-04 14:32:30.236701,16.253,0.183,236.8,291.0575866699219,105.93629455566406,61.53761291503906,0.0,20.0,51.0,8.331497192382812,-20.0
32,100,100,60,go_to_color_detect_up_from_pick_up,green,true,false,joint 1 +,true,2024-03-04 14:32:30.927641,21.323,0.183,236.8,243.5332794189453,194.41004943847656,84.958251953125,18.599998474121094,39.84000015258789,51.0,0.0,-20.0
32,100,100,60,go_to_color_detect_down,green,true,false,joint 3 +,true,2024-03-04 14:32:31.627547,21.931,0.183,236.8,131.66342163085938,282.35308837890625,80.34087371826172,45.0,65.0,51.0,2.1999995708465576,-20.0
32,100,100,60,go_to_color_detect_down,green,true,false,joint 3 +,true,2024-03-04 14:32:33.011163,21.817,0.2,236.8,113.32952117919922,243.0359344482422,-19.383834838867188,45.0,65.0,51.0,45.67074966430664,-20.0
32,100,100,60,go_to_color_detect_up_from_color_detect_down,green,true,false,joint 3 -,false,2024-03-04 14:32:33.703486,21.817,0.2,236.8,128.73878479003906,276.0812072753906,40.15884017944336,45.0,65.0,51.0,16.572317123413086,-20.0
32,100,100,60,detecting_color,green,false,false,detecting_color,false,2024-03-04 14:32:35.096982,19.234,0.159,236.8,131.69407653808594,282.4188232421875,84.958251953125,45.0,65.0,51.0,-4.656612873077393e-10,-20.0
32,100,100,60,detecting_color,green,false,false,detecting_color,false,2024-03-04 14:32:35.786663,16.576,0.159,236.8,131.69407653808594,282.4188232421875,84.958251953125,45.0,65.0,51.0,-4.656612873077393e-10,-20.0
32,100,100,60,go_to_color_detect_down,green,true,false,joint 3 +,false,2024-03-04 14:32:37.164802,16.196,0.155,236.8,118.77991485595703,254.72433471679688,-4.7643280029296875,45.0,65.0,51.0,38.50665283203125,-20.0
32,100,100,60,go_to_color_detect_up_from_color_detect_down,green,true,false,joint 3 -,true,2024-03-04 14:32:37.855492,16.31,0.155,236.8,118.01263427734375,253.07888793945312,-7.072502136230469,45.0,65.0,51.0,37.87999725341797,-20.0
32,100,100,60,go_to_blue_up,blue,true,false,joint 1 +,true,2024-03-04 14:32:39.231707,23.45,0.212,236.8,131.69407653808594,282.4188232421875,84.94502258300781,45.0,65.0,51.0,-4.656612873077393e-10,-20.0
32,100,100,60,go_to_pick_up_from_blue,blue,true,false,joint 1 -,false,2024-03-04 14:32:39.918585,22.064,0.212,236.8,29.325571060180664,310.23175048828125,84.958251953125,64.59999084472656,84.39999389648438,51.0,-4.656612873077393e-10,-20.0
32,100,100,60,go_to_pick_up_from_blue,blue,true,false,joint 1 -,false,2024-03-04 14:32:41.302253,20.715,0.158,236.8,248.9776153564453,187.386962890625,84.958251953125,16.966060638427734,35.82115936279297,51.0,-4.656612873077393e-10,-20.0
32,100,100,60,moving_belt,blue,false,true,joint 1 -,false,2024-03-04 14:32:41.991975,16.253,0.158,236.8,292.8220520019531,106.5785140991211,84.958251953125,0.0,20.0,51.0,-4.656612873077393e-10,-20.0
32,100,100,60,moving_belt,blue,false,true,joint 1 -,false,2024-03-04 14:32:42.683134,16.253,0.158,236.8,292.8220520019531,106.5785140991211,84.958251953125,0.0,20.0,51.0,-4.656612873077393e-10,-20.0
32,100,100,60,moving_belt,blue,false,true,joint 1 -,false,2024-03-04 14:32:44.103230,16.538,0.157,236.8,292.8220520019531,106.5785140991211,84.958251953125,0.0,20.0,51.0,-4.656612873077393e-10,-20.0
32,100,100,60,moving_belt,blue,false,true,joint 1 -,false,2024-03-04 14:32:44.792574,16.196,0.157,236.8,292.8220520019531,106.5785140991211,84.958251953125,0.0,20.0,51.0,-4.656612873077393e-10,-20.0
32,100,100,60,go_to_pick_down,blue,true,false,joint 3 +,false,2024-03-04 14:32:46.177540,16.424,0.154,236.8,292.8220520019531,106.5785140991211,84.958251953125,0.0,20.0,51.0,-4.656612873077393e-10,-20.0
32,100,100,60,go_to_pick_up_from_pick_down,blue,true,false,joint 3 -,true,2024-03-04 14:32:46.885252,16.082,0.154,236.8,282.8036193847656,102.9321060180664,29.996570587158203,0.0,20.0,51.0,21.9918270111084,-20.0
32,100,100,60,go_to_color_detect_up_from_pick_up,blue,true,false,joint 1 +,true,2024-03-04 14:32:48.268217,21.0,0.158,236.8,292.8220520019531,106.5785140991211,84.958251953125,0.0,20.040000915527344,51.0,0.0,-20.0
32,100,100,60,go_to_color_detect_up_from_pick_up,blue,true,false,joint 1 +,true,2024-03-04 14:32:48.957498,22.348,0.158,236.8,164.71888732910156,264.5210876464844,84.958251953125,38.08922576904297,58.81250762939453,51.0,0.0,-20.0
32,100,100,60,go_to_color_detect_down,blue,true,false,joint 3 +,true,2024-03-04 14:32:49.648992,22.348,0.203,236.8,129.83819580078125,278.4388732910156,49.296165466308594,45.0,65.0,51.0,15.119998931884766,-20.0
32,100,100,60,go_to_color_detect_up_from_color_detect_down,blue,true,false,joint 3 -,false,2024-03-04 14:32:51.034808,22.064,0.203,236.8,112.28592681884766,240.7979278564453,-21.777687072753906,45.0,65.0,51.0,46.19999694824219,-20.0
32,100,100,60,go_to_color_detect_up_from_color_detect_down,blue,true,false,joint 3 -,false,2024-03-04 14:32:51.728410,20.374,0.203,236.8,131.5928192138672,282.2016906738281,76.56852722167969,45.0,65.0,51.0,2.7805356979370117,-20.0
32,100,100,60,detecting_color,blue,false,false,detecting_color,false,2024-03-04 14:32:53.124380,16.975,0.163,236.8,131.69407653808594,282.4188232421875,84.958251953125,45.0,65.0,51.0,-4.656612873077393e-10,-20.0
32,100,100,60,go_to_color_detect_down,blue,true,false,joint 3 +,false,2024-03-04 14:32:53.817293,16.975,0.163,236.8,131.4761962890625,281.95159912109375,72.65760803222656,45.0,65.0,51.0,5.439999103546143,-20.0
32,100,100,60,go_to_color_detect_down,blue,true,false,joint 3 +,false,2024-03-04 14:32:55.207633,16.424,0.158,236.8,111.67813110351562,239.4945068359375,-23.121429443359375,45.0,65.0,51.0,47.53843688964844,-20.0
32,100,100,60,go_to_color_detect_up_from_color_detect_down,blue,true,false,joint 3 -,true,2024-03-04 14:32:55.904564,16.367,0.158,236.8,128.32533264160156,275.1945495605469,37.209197998046875,45.0,65.0,51.0,17.74359893798828,-20.0
32,100,100,60,go_to_red_up,red,true,false,joint 1 +,true,2024-03-04 14:32:57.279128,22.481,0.21,236.8,84.63713073730469,299.9004821777344,84.958251953125,54.24000549316406,75.12000274658203,51.0,-4.656612873077393e-10,-20.0
32,100,100,60,go_to_red_up,red,true,false,joint 1 +,true,2024-03-04 14:32:57.967345,22.69,0.21,236.8,-171.4998321533203,260.17596435546875,84.958251953125,103.39161682128906,123.7300033569336,51.0,-4.656612873077393e-10,-20.0
32,100,100,60,go_to_pick_up_from_red,red,true,false,joint 1 -,false,2024-03-04 14:32:58.657305,22.69,0.205,236.8,6.090987205505371,311.55517578125,84.958251953125,68.87999725341797,87.15999603271484,51.0,-4.656612873077393e-10,-20.0
32,100,100,60,go_to_pick_up_from_red,red,true,false,joint 1 -,false,2024-03-04 14:33:00.038634,19.044,0.205,236.8,287.0972595214844,121.1565170288086,84.958251953125,2.879993438720703,22.419994354248047,51.0,-4.656612873077393e-10,-20.0
32,100,100,60,moving_belt,red,false,true,joint 1 -,false,2024-03-04 14:33:00.728336,16.481,0.156,236.8,292.8220520019531,106.5785140991211,84.958251953125,0.0,20.0,51.0,-4.656612873077393e-10,-20.0
32,100,100,60,moving_belt,red,false,true,joint 1 -,false,2024-03-04 14:33:02.106762,16.595,0.156,236.8,292.8220520019531,106.5785140991211,84.958251953125,0.0,20.0,51.0,-4.656612873077393e-10,-20.0
32,100,100,60,moving_belt,red,false,true,joint 1 -,false,2024-03-04 14:33:02.796446,16.329,0.155,236.8,292.8220520019531,106.5785140991211,84.958251953125,0.0,20.0,51.0,-4.656612873077393e-10,-20.0
32,100,100,60,moving_belt,red,false,true,joint 1 -,false,2024-03-04 14:33:04.178448,16.367,0.155,236.8,292.8220520019531,106.5785140991211,84.958251953125,0.0,20.0,51.0,-4.656612873077393e-10,-20.0
32,100,100,60,go_to_pick_down,red,true,false,joint 3 +,false,2024-03-04 14:33:04.866866,16.367,0.156,236.8,292.3376159667969,106.40219116210938,72.65760803222656,0.0,20.0,51.0,5.440000057220459,-20.0
32,100,100,60,go_to_pick_up_from_pick_down,red,true,false,joint 3 -,true,2024-03-04 14:33:06.249698,16.291,0.156,236.8,286.20947265625,104.1717300415039,40.02104949951172,0.0,20.0,51.0,17.199996948242188,-20.0
32,100,100,60,go_to_color_detect_up_from_pick_up,red,true,false,joint 1 +,true,2024-03-04 14:33:06.940946,18.247,0.212,236.8,284.23004150390625,127.73807525634766,84.958251953125,4.200002670288086,24.800003051757812,51.0,0.0,-20.0
32,100,100,60,go_to_color_detect_down,red,true,false,joint 3 +,true,2024-03-04 14:33:08.325334,22.519,0.212,236.8,131.69407653808594,282.4188232421875,84.958251953125,45.0,65.0,51.0,0.0,-20.0
32,100,100,60,go_to_color_detect_down,red,true,false,joint 3 +,true,2024-03-04 14:33:09.025217,22.519,0.2,236.8,118.77991485595703,254.72433471679688,-4.7643280029296875,45.0,65.0,51.0,38.50665283203125,-20.0
32,100,100,60,go_to_color_detect_up_from_color_detect_down,red,true,false,joint 3 -,false,2024-03-04 14:33:09.712004,21.931,0.2,236.8,118.01263427734375,253.07888793945312,-7.072502136230469,45.0,65.0,51.0,37.87999725341797,-20.0
32,100,100,60,detecting_color,red,false,false,detecting_color,false,2024-03-04 14:33:11.091542,21.855,0.2,236.8,131.69407653808594,282.4188232421875,84.958251953125,45.0,65.0,51.0,-4.656612873077393e-10,-20.0
32,100,100,60,detecting_color,red,false,false,detecting_color,false,2024-03-04 14:33:11.781235,17.279,0.163,236.8,131.69407653808594,282.4188232421875,84.958251953125,45.0,65.0,51.0,-4.656612873077393e-10,-20.0
32,100,100,60,go_to_color_detect_down,red,true,false,joint 3 +,false,2024-03-04 14:33:13.158701,16.462,0.163,236.8,128.006591796875,274.5110168457031,35.067237854003906,45.0,65.0,51.0,21.1199951171875,-20.0
32,100,100,60,go_to_color_detect_up_from_color_detect_down,red,true,false,joint 3 -,true,2024-03-04 14:33:13.847735,16.386,0.155,236.8,111.81121826171875,239.7799072265625,-22.83026885986328,45.0,65.0,51.0,46.87999725341797,-20.0
32,100,100,60,go_to_color_detect_up_from_color_detect_down,red,true,false,joint 3 -,true,2024-03-04 14:33:15.230065,22.007,0.155,236.8,131.6714324951172,282.37030029296875,80.99049377441406,45.0,65.0,51.0,1.215409517288208,-20.0
32,100,100,60,go_to_green_up,green,true,false,joint 1 +,true,2024-03-04 14:33:15.918761,22.785,0.208,236.8,-3.747795820236206,311.5921936035156,84.958251953125,70.68911743164062,91.73893737792969,51.0,-4.656612873077393e-10,-20.0
32,100,100,60,go_to_pick_up_from_green,green,true,false,joint 1 -,false,2024-03-04 14:33:17.298635,22.462,0.208,236.8,-44.229949951171875,308.45977783203125,84.958251953125,78.15999603271484,97.39999389648438,51.0,-4.656612873077393e-10,-20.0
32,100,100,60,go_to_pick_up_from_green,green,true,false,joint 1 -,false,2024-03-04 14:33:17.990534,18.494,0.159,236.8,260.73724365234375,170.6453094482422,84.958251953125,13.20363998413086,32.195823669433594,51.0,-4.656612873077393e-10,-20.0
32,100,100,60,moving_belt,green,false,true,joint 1 -,false,2024-03-04 14:33:18.681233,18.494,0.159,236.8,292.8220520019531,106.5785140991211,84.958251953125,0.0,20.0,51.0,-4.656612873077393e-10,-20.0
32,100,100,60,moving_belt,green,false,true,joint 1 -,false,2024-03-04 14:33:20.068418,16.576,0.158,236.8,292.8220520019531,106.5785140991211,84.958251953125,0.0,20.0,51.0,-4.656612873077393e-10,-20.0
32,100,100,60,moving_belt,green,false,true,joint 1 -,false,2024-03-04 14:33:20.757757,16.576,0.158,235.0,292.8220520019531,106.5785140991211,84.958251953125,0.0,20.0,51.0,-4.656612873077393e-10,-20.0
32,100,100,60,moving_belt,green,false,true,joint 1 -,false,2024-03-04 14:33:22.137780,16.234,0.157,235.0,292.8220520019531,106.5785140991211,84.958251953125,0.0,20.0,51.0,-4.656612873077393e-10,-20.0
32,100,100,60,go_to_pick_down,green,true,false,joint 3 +,false,2024-03-04 14:33:22.833652,16.348,0.157,235.0,292.8220520019531,106.5785140991211,84.958251953125,0.0,20.0,51.0,-4.656612873077393e-10,-20.0
32,100,100,60,go_to_pick_up_from_pick_down,green,true,false,joint 3 -,true,2024-03-04 14:33:24.214611,16.424,0.157,235.0,282.979248046875,102.99602508544922,30.462482452392578,0.0,20.0,51.0,21.599998474121094,-20.0
32,100,100,60,go_to_color_detect_up_from_pick_up,green,true,false,joint 1 +,true,2024-03-04 14:33:24.903603,20.753,0.155,235.0,292.59820556640625,107.19156646728516,84.958251953125,0.12000083923339844,20.240001678466797,51.0,0.0,-20.0
32,100,100,60,go_to_color_detect_up_from_pick_up,green,true,false,joint 1 +,true,2024-03-04 14:33:26.281540,22.253,0.155,235.0,158.1761474609375,268.48468017578125,84.958251953125,39.49578857421875,60.139068603515625,51.0,0.0,-20.0
32,100,100,60,go_to_color_detect_down,green,true,false,joint 3 +,true,2024-03-04 14:33:26.982556,22.196,0.204,235.0,126.9899673461914,272.3308410644531,28.846050262451172,45.0,65.0,51.0,23.79999542236328,-20.0
32,100,100,60,go_to_color_detect_up_from_color_detect_down,green,true,false,joint 3 -,false,2024-03-04 14:33:27.671252,21.817,0.204,235.0,112.5685043334961,241.4039306640625,-21.14051055908203,45.0,65.0,51.0,45.79999542236328,-20.0
32,100,100,60,go_to_color_detect_up_from_color_detect_down,green,true,false,joint 3 -,false,2024-03-04 14:33:29.051021,20.696,0.185,235.0,131.6427459716797,282.3087463378906,78.98388671875,45.0,65.0,51.0,1.9179725646972656,-20.0
32,100,100,60,detecting_color,green,false,false,detecting_color,false,2024-03-04 14:33:29.739653,17.051,0.185,235.0,131.69407653808594,282.4188232421875,84.958251953125,45.0,65.0,51.0,-4.656612873077393e-10,-20.0
32,100,100,60,go_to_color_detect_down,green,true,false,joint 3 +,false,2024-03-04 14:33:31.112887,16.443,0.154,235.0,131.4142608642578,281.81878662109375,71.02216339111328,45.0,65.0,51.0,6.119998931884766,-20.0
32,100,100,60,go_to_color_detect_down,green,true,false,joint 3 +,false,2024-03-04 14:33:31.801471,16.443,0.154,235.0,111.5094223022461,239.13270568847656,-23.488121032714844,45.0,65.0,51.0,47.709716796875,-20.0
32,100,100,60,go_to_color_detect_up_from_color_detect_down,green,true,false,joint 3 -,true,2024-03-04 14:33:33.192831,23.127,0.177,235.0,130.27099609375,279.3670349121094,53.674888610839844,45.0,65.0,51.0,11.315911293029785,-20.0
32,100,100,60,go_to_blue_up,blue,true,false,joint 1 +,true,2024-03-04 14:33:33.884200,23.127,0.177,235.0,93.18548583984375,297.3553466796875,84.958251953125,52.600006103515625,73.40000915527344,51.0,-4.656612873077393e-10,-20.0
32,100,100,60,go_to_pick_up_from_blue,blue,true,false,joint 1 -,false,2024-03-04 14:33:35.266511,22.291,0.202,235.0,67.97665405273438,304.11004638671875,84.958251953125,57.399993896484375,76.59999084472656,51.0,-4.656612873077393e-10,-20.0
32,100,100,60,go_to_pick_up_from_blue,blue,true,false,joint 1 -,false,2024-03-04 14:33:35.954845,22.291,0.202,235.0,290.8819274902344,111.7651138305664,84.958251953125,1.0181941986083984,20.753292083740234,51.0,-4.656612873077393e-10,-20.0
32,100,100,60,moving_belt,blue,false,true,joint 1 -,false,2024-03-04 14:33:37.333108,16.519,0.158,235.0,292.8220520019531,106.5785140991211,84.958251953125,0.0,20.0,51.0,-4.656612873077393e-10,-20.0
32,100,100,60,moving_belt,blue,false,true,joint 1 -,false,2024-03-04 14:33:38.024935,16.69,0.158,235.0,292.8220520019531,106.5785140991211,84.958251953125,0.0,20.0,51.0,-4.656612873077393e-10,-20.0
32,100,100,60,moving_belt,blue,false,true,joint 1 -,false,2024-03-04 14:33:38.731595,16.329,0.158,235.0,292.8220520019531,106.5785140991211,84.958251953125,0.0,20.0,51.0,-4.656612873077393e-10,-20.0
32,100,100,60,moving_belt,blue,false,true,joint 1 -,false,2024-03-04 14:33:40.111340,16.462,0.158,235.0,292.8220520019531,106.5785140991211,84.958251953125,0.0,20.0,51.0,-4.656612873077393e-10,-20.0
32,100,100,60,go_to_pick_down,blue,true,false,joint 3 +,false,2024-03-04 14:33:40.804908,16.462,0.158,235.0,292.54339599609375,106.47708892822266,75.62562561035156,0.0,20.0,51.0,4.200000286102295,-20.0
32,100,100,60,go_to_pick_up_from_pick_down,blue,true,false,joint 3 -,true,2024-03-04 14:33:42.186911,16.443,0.156,235.0,287.5504150390625,104.65979766845703,44.7356071472168,0.0,20.0,51.0,15.15999698638916,-20.0
32,100,100,60,go_to_color_detect_up_from_pick_up,blue,true,false,joint 1 +,true,2024-03-04 14:33:42.891545,17.449,0.156,235.0,281.399169921875,133.8590087890625,84.958251953125,5.44000244140625,26.12000274658203,51.0,0.0,-20.0
32,100,100,60,go_to_color_detect_down,blue,true,false,joint 3 +,true,2024-03-04 14:33:44.263025,22.272,0.203,235.0,132.375244140625,282.1001892089844,84.958251953125,44.861732482910156,64.94501495361328,51.0,0.0,-20.0
32,100,100,60,go_to_color_detect_down,blue,true,false,joint 3 +,true,2024-03-04 14:33:44.988986,22.272,0.203,235.0,117.60411071777344,252.20281982421875,-8.263710021972656,45.0,65.0,51.0,40.16921615600586,-20.0
32,100,100,60,go_to_color_detect_up_from_color_detect_down,blue,true,false,joint 3 -,false,2024-03-04 14:33:45.678512,21.912,0.203,235.0,119.21041107177734,255.64755249023438,-3.4265670776367188,45.0,65.0,51.0,36.0,-20.0
32,100,100,60,detecting_color,blue,false,false,detecting_color,false,2024-03-04 14:33:47.051996,17.355,0.2,235.0,131.69407653808594,282.4188232421875,84.958251953125,45.0,65.0,51.0,-4.656612873077393e-10,-20.0
32,100,100,60,detecting_color,blue,false,false,detecting_color,false,2024-03-04 14:33:47.741687,17.355,0.2,235.0,131.69407653808594,282.4188232421875,84.958251953125,45.0,65.0,51.0,-4.656612873077393e-10,-20.0
32,100,100,60,go_to_color_detect_down,blue,true,false,joint 3 +,false,2024-03-04 14:33:49.121472,16.367,0.157,235.0,128.44918823242188,275.4601745605469,38.07123947143555,45.0,65.0,51.0,19.839996337890625,-20.0
32,100,100,60,go_to_color_detect_up_from_color_detect_down,blue,true,false,joint 3 -,true,2024-03-04 14:33:49.808165,16.215,0.157,235.0,111.81121826171875,239.7799072265625,-22.83026885986328,45.0,65.0,51.0,46.87999725341797,-20.0
32,100,100,60,go_to_color_detect_up_from_color_detect_down,blue,true,false,joint 3 -,true,2024-03-04 14:33:51.189549,20.639,0.156,235.0,131.6714324951172,282.37030029296875,80.99049377441406,45.0,65.0,51.0,1.215409517288208,-20.0
32,100,100,60,go_to_red_up,red,true,false,joint 1 +,true,2024-03-04 14:33:51.877131,23.051,0.156,235.0,-16.96043586730957,311.15283203125,84.958251953125,73.12001037597656,94.64000701904297,51.0,-4.656612873077393e-10,-20.0
32,100,100,60,go_to_pick_up_from_red,red,true,false,joint 1 -,false,2024-03-04 14:33:53.258547,22.253,0.203,235.0,-176.94847106933594,256.50140380859375,84.958251953125,104.59999084472656,124.39999389648438,51.0,-4.656612873077393e-10,-20.0
32,100,100,60,go_to_pick_up_from_red,red,true,false,joint 1 -,false,2024-03-04 14:33:53.950468,22.329,0.203,235.0,106.57848358154297,292.8220520019531,84.958251953125,50.0,68.0199966430664,51.0,-4.656612873077393e-10,-20.0
32,100,100,60,moving_belt,red,false,true,joint 1 -,false,2024-03-04 14:33:55.351414,16.462,0.157,235.0,292.8220520019531,106.5785140991211,84.958251953125,0.0,20.0,51.0,-4.656612873077393e-10,-20.0
32,100,100,60,moving_belt,red,false,true,joint 1 -,false,2024-03-04 14:33:56.045321,16.481,0.157,235.0,292.8220520019531,106.5785140991211,84.958251953125,0.0,20.0,51.0,-4.656612873077393e-10,-20.0
32,100,100,60,moving_belt,red,false,true,joint 1 -,false,2024-03-04 14:33:56.736689,16.481,0.157,235.0,292.8220520019531,106.5785140991211,84.958251953125,0.0,20.0,51.0,-4.656612873077393e-10,-20.0
32,100,100,60,moving_belt,red,false,true,joint 1 -,false,2024-03-04 14:33:58.119183,16.576,0.158,235.0,292.8220520019531,106.5785140991211,84.958251953125,0.0,20.0,51.0,-4.656612873077393e-10,-20.0
32,100,100,60,moving_belt,red,false,true,joint 1 -,false,2024-03-04 14:33:59.018548,16.5,0.158,235.0,292.8220520019531,106.5785140991211,84.958251953125,0.0,20.0,51.0,-4.656612873077393e-10,-20.0
32,100,100,60,go_to_pick_down,red,true,false,joint 3 +,false,2024-03-04 14:33:59.728760,16.5,0.156,235.0,289.3720397949219,105.32281494140625,52.30973434448242,0.0,20.0,51.0,13.668498992919922,-20.0
32,100,100,60,go_to_pick_up_from_pick_down,red,true,false,joint 3 -,true,2024-03-04 14:34:01.273754,16.139,0.175,235.0,291.8562927246094,106.22700500488281,67.60594940185547,0.0,20.0,51.0,6.062997817993164,-20.0
32,100,100,60,go_to_color_detect_up_from_pick_up,red,true,false,joint 1 +,true,2024-03-04 14:34:02.297933,23.317,0.175,236.8,254.88491821289062,179.26907348632812,84.958251953125,15.119998931884766,36.23999786376953,51.0,0.0,-20.0
32,100,100,60,go_to_color_detect_down,red,true,false,joint 3 +,true,2024-03-04 14:34:03.046432,22.253,0.175,236.8,131.69256591796875,282.41558837890625,83.9320068359375,45.0,65.0,51.0,0.5999999046325684,-20.0
32,100,100,60,go_to_color_detect_down,red,true,false,joint 3 +,true,2024-03-04 14:34:03.739451,22.083,0.2,236.8,112.66073608398438,241.60171508789062,-20.93079376220703,45.0,65.0,51.0,46.453311920166016,-20.0
32,100,100,60,go_to_color_detect_up_from_color_detect_down,red,true,false,joint 3 -,false,2024-03-04 14:34:05.117967,22.026,0.2,236.8,124.98181915283203,268.02435302734375,18.49610137939453,45.0,65.0,51.0,25.56000518798828,-20.0
32,100,100,60,detecting_color,red,false,false,detecting_color,false,2024-03-04 14:34:05.812014,16.88,0.16,236.8,131.69407653808594,282.4188232421875,84.958251953125,45.0,65.0,51.0,-4.656612873077393e-10,-20.0
32,100,100,60,detecting_color,red,false,false,detecting_color,false,2024-03-04 14:34:07.194654,16.443,0.16,236.8,131.69407653808594,282.4188232421875,84.958251953125,45.0,65.0,51.0,-4.656612873077393e-10,-20.0
32,100,100,60,go_to_color_detect_down,red,true,false,joint 3 +,false,2024-03-04 14:34:07.883354,16.443,0.157,236.8,123.23137664794922,264.2705383300781,10.889289855957031,45.0,65.0,51.0,31.427682876586914,-20.0
32,100,100,60,go_to_color_detect_up_from_color_detect_down,red,true,false,joint 3 -,true,2024-03-04 14:34:09.266759,16.614,0.157,236.8,118.01263427734375,253.07888793945312,-7.072502136230469,45.0,65.0,51.0,37.87999725341797,-20.0
32,100,100,60,go_to_green_up,green,true,false,joint 1 +,true,2024-03-04 14:34:09.958446,16.614,0.212,236.8,131.69407653808594,282.4188232421875,84.94502258300781,45.0,65.0,51.0,-4.656612873077393e-10,-20.0
32,100,100,60,go_to_green_up,green,true,false,joint 1 +,true,2024-03-04 14:34:11.340567,22.083,0.212,236.8,-47.12175369262695,308.0312805175781,84.958251953125,78.69751739501953,99.38733673095703,51.0,-4.656612873077393e-10,-20.0
32,100,100,60,go_to_pick_up_from_green,green,true,false,joint 1 -,false,2024-03-04 14:34:12.037545,22.272,0.203,236.8,40.35032653808594,308.9912414550781,84.958251953125,62.55999755859375,81.19999694824219,51.0,-4.656612873077393e-10,-20.0
32,100,100,60,go_to_pick_up_from_green,green,true,false,joint 1 -,false,2024-03-04 14:34:12.724818,22.272,0.203,236.8,289.1708984375,116.1202621459961,84.958251953125,1.8785552978515625,21.510738372802734,51.0,-4.656612873077393e-10,-20.0
32,100,100,60,moving_belt,green,false,true,joint 1 -,false,2024-03-04 14:34:14.106217,16.5,0.157,236.8,292.8220520019531,106.5785140991211,84.958251953125,0.0,20.0,51.0,-4.656612873077393e-10,-20.0
32,100,100,60,moving_belt,green,false,true,joint 1 -,false,2024-03-04 14:34:14.794200,16.652,0.157,236.8,292.8220520019531,106.5785140991211,84.958251953125,0.0,20.0,51.0,-4.656612873077393e-10,-20.0
32,100,100,60,moving_belt,green,false,true,joint 1 -,false,2024-03-04 14:34:16.171907,16.424,0.157,236.8,292.8220520019531,106.5785140991211,84.958251953125,0.0,20.0,51.0,-4.656612873077393e-10,-20.0
32,100,100,60,moving_belt,green,false,true,joint 1 -,false,2024-03-04 14:34:16.862190,16.253,0.157,236.8,292.8220520019531,106.5785140991211,84.958251953125,0.0,20.0,51.0,-4.656612873077393e-10,-20.0
32,100,100,60,go_to_pick_down,green,true,false,joint 3 +,false,2024-03-04 14:34:18.244164,16.595,0.157,236.8,292.4510803222656,106.44348907470703,74.1922378540039,0.0,20.0,51.0,4.800000190734863,-20.0
32,100,100,60,go_to_pick_up_from_pick_down,green,true,false,joint 3 -,true,2024-03-04 14:34:18.935476,16.595,0.156,236.8,285.79046630859375,104.01922607421875,38.655242919921875,0.0,20.0,51.0,17.799997329711914,-20.0
32,100,100,60,go_to_color_detect_up_from_pick_up,green,true,false,joint 1 +,true,2024-03-04 14:34:20.312077,23.241,0.156,236.8,285.4649353027344,124.95398712158203,84.958251953125,3.640003204345703,24.200002670288086,51.0,0.0,-20.0
32,100,100,60,go_to_color_detect_up_from_pick_up,green,true,false,joint 1 +,true,2024-03-04 14:34:21.007393,23.241,0.202,236.8,134.7821807861328,280.95819091796875,84.958251953125,44.37187957763672,64.57516479492188,51.0,0.0,-20.0
32,100,100,60,go_to_color_detect_down,green,true,false,joint 3 +,true,2024-03-04 14:34:21.698333,22.462,0.202,236.8,119.38970947265625,256.03204345703125,-2.8599166870117188,45.0,65.0,51.0,37.61537170410156,-20.0
32,100,100,60,go_to_color_detect_up_from_color_detect_down,green,true,false,joint 3 -,false,2024-03-04 14:34:23.082066,22.158,0.202,236.8,117.4372329711914,251.84494018554688,-8.743080139160156,45.0,65.0,51.0,38.7599983215332,-20.0
32,100,100,60,detecting_color,green,false,false,detecting_color,false,2024-03-04 14:34:23.772480,22.158,0.202,235.0,131.69407653808594,282.4188232421875,84.91607666015625,45.0,65.0,51.0,0.00515705905854702,-20.0
32,100,100,60,detecting_color,green,false,false,detecting_color,false,2024-03-04 14:34:25.153647,17.032,0.158,235.0,131.69407653808594,282.4188232421875,84.958251953125,45.0,65.0,51.0,-4.656612873077393e-10,-20.0
32,100,100,60,go_to_color_detect_down,green,true,false,joint 3 +,false,2024-03-04 14:34:25.847546,16.329,0.158,235.0,129.5434112548828,277.8067321777344,46.61455154418945,45.0,65.0,51.0,16.23999786376953,-20.0
32,100,100,60,go_to_color_detect_up_from_color_detect_down,green,true,false,joint 3 -,true,2024-03-04 14:34:27.226216,16.253,0.157,235.0,112.28592681884766,240.7979278564453,-21.777687072753906,45.0,65.0,51.0,46.19999694824219,-20.0
32,100,100,60,go_to_color_detect_up_from_color_detect_down,green,true,false,joint 3 -,true,2024-03-04 14:34:27.916985,18.494,0.157,235.0,131.55726623535156,282.1254577636719,75.20805358886719,45.0,65.0,51.0,3.271817207336426,-20.0
32,100,100,60,go_to_blue_up,blue,true,false,joint 1 +,true,2024-03-04 14:34:29.297557,23.184,0.203,235.0,46.06126022338867,308.191650390625,84.958251953125,61.49968719482422,82.008544921875,51.0,-4.656612873077393e-10,-20.0
32,100,100,60,go_to_pick_up_from_blue,blue,true,false,joint 1 -,false,2024-03-04 14:34:29.988080,22.083,0.203,235.0,170.2645263671875,260.9860534667969,84.958251953125,36.87999725341797,55.3599967956543,51.0,-4.656612873077393e-10,-20.0
32,100,100,60,moving_belt,blue,false,true,joint 1 -,false,2024-03-04 14:34:31.368046,16.899,0.203,235.0,292.8220520019531,106.5785140991211,84.958251953125,0.0,20.0,51.0,-4.656612873077393e-10,-20.0
32,100,100,60,moving_belt,blue,false,true,joint 1 -,false,2024-03-04 14:34:32.056743,16.405,0.157,235.0,292.8220520019531,106.5785140991211,84.958251953125,0.0,20.0,51.0,-4.656612873077393e-10,-20.0
32,100,100,60,moving_belt,blue,false,true,joint 1 -,false,2024-03-04 14:34:32.746052,16.405,0.157,235.0,292.8220520019531,106.5785140991211,84.958251953125,0.0,20.0,51.0,-4.656612873077393e-10,-20.0
32,100,100,60,moving_belt,blue,false,true,joint 1 -,false,2024-03-04 14:34:34.126949,16.443,0.158,235.0,292.8220520019531,106.5785140991211,84.958251953125,0.0,20.0,51.0,-4.656612873077393e-10,-20.0
32,100,100,60,moving_belt,blue,false,true,joint 1 -,false,2024-03-04 14:34:34.819365,16.443,0.158,235.0,292.8220520019531,106.5785140991211,84.958251953125,0.0,20.0,51.0,-4.656612873077393e-10,-20.0
32,100,100,60,go_to_pick_down,blue,true,false,joint 3 +,false,2024-03-04 14:34:36.200059,16.5,0.156,235.0,286.6092224121094,104.31723022460938,41.36827850341797,0.0,20.0,51.0,17.845497131347656,-20.0
32,100,100,60,go_to_pick_up_from_pick_down,blue,true,false,joint 3 -,true,2024-03-04 14:34:36.895959,16.367,0.156,235.0,292.2120056152344,106.35647583007812,71.15796661376953,0.0,20.0,51.0,4.750665187835693,-20.0
32,100,100,60,go_to_color_detect_up_from_pick_up,blue,true,false,joint 1 +,true,2024-03-04 14:34:38.289479,23.488,0.204,235.0,251.33216857910156,184.21690368652344,84.958251953125,16.23999786376953,37.39999771118164,51.0,0.0,-20.0
32,100,100,60,go_to_color_detect_down,blue,true,false,joint 3 +,true,2024-03-04 14:34:38.980682,22.443,0.204,235.0,131.68740844726562,282.404541015625,82.8031997680664,45.0,65.0,51.0,1.1199997663497925,-20.0
32,100,100,60,go_to_color_detect_down,blue,true,false,joint 3 +,true,2024-03-04 14:34:40.359108,21.969,0.199,235.0,112.3698501586914,240.9779052734375,-21.58929443359375,45.0,65.0,51.0,46.78459167480469,-20.0
32,100,100,60,go_to_color_detect_up_from_color_detect_down,blue,true,false,joint 3 -,false,2024-03-04 14:34:41.047426,21.969,0.199,235.0,127.87065887451172,274.2195129394531,34.18457794189453,45.0,65.0,51.0,18.954879760742188,-20.0
32,100,100,60,detecting_color,blue,false,false,detecting_color,false,2024-03-04 14:34:41.736749,17.355,0.199,235.0,131.69407653808594,282.4188232421875,84.958251953125,45.0,65.0,51.0,-4.656612873077393e-10,-20.0
32,100,100,60,detecting_color,blue,false,false,detecting_color,false,2024-03-04 14:34:43.122116,16.633,0.156,235.0,131.69407653808594,282.4188232421875,84.958251953125,45.0,65.0,51.0,-4.656612873077393e-10,-20.0
32,100,100,60,go_to_color_detect_down,blue,true,false,joint 3 +,false,2024-03-04 14:34:43.820400,16.5,0.156,235.0,120.64384460449219,258.7215576171875,1.2709426879882812,45.0,65.0,51.0,35.712806701660156,-20.0
32,100,100,60,go_to_color_detect_up_from_color_detect_down,blue,true,false,joint 3 -,true,2024-03-04 14:34:45.196429,16.5,0.158,235.0,116.87966918945312,250.6492462158203,-10.31536865234375,45.0,65.0,51.0,39.599998474121094,-20.0
32,100,100,60,go_to_red_up,red,true,false,joint 1 +,true,2024-03-04 14:34:45.899746,23.393,0.158,235.0,131.69407653808594,282.4188232421875,84.958251953125,45.0,65.0,51.0,-4.656612873077393e-10,-20.0
32,100,100,60,go_to_red_up,red,true,false,joint 1 +,true,2024-03-04 14:34:47.283355,22.102,0.203,235.0,-91.34385681152344,297.9262390136719,84.958251953125,87.04548645019531,108.223876953125,51.0,-4.656612873077393e-10,-20.0
32,100,100,60,go_to_pick_up_from_red,red,true,false,joint 1 -,false,2024-03-04 14:34:47.974358,22.766,0.203,236.8,-131.10226440429688,282.69403076171875,84.958251953125,94.87999725341797,113.95999908447266,51.0,-4.656612873077393e-10,-20.0
32,100,100,60,go_to_pick_up_from_red,red,true,false,joint 1 -,false,2024-03-04 14:34:49.359594,16.975,0.154,236.8,237.0243377685547,202.29481506347656,84.958251953125,20.479991912841797,39.219993591308594,51.0,-4.656612873077393e-10,-20.0
32,100,100,60,moving_belt,red,false,true,joint 1 -,false,2024-03-04 14:34:50.049206,16.424,0.154,236.8,292.8220520019531,106.5785140991211,84.958251953125,0.0,20.0,51.0,-4.656612873077393e-10,-20.0
32,100,100,60,moving_belt,red,false,true,joint 1 -,false,2024-03-04 14:34:50.744234,16.424,0.154,236.8,292.8220520019531,106.5785140991211,84.958251953125,0.0,20.0,51.0,-4.656612873077393e-10,-20.0
32,100,100,60,moving_belt,red,false,true,joint 1 -,false,2024-03-04 14:34:52.126159,16.538,0.154,236.8,292.8220520019531,106.5785140991211,84.958251953125,0.0,20.0,51.0,-4.656612873077393e-10,-20.0
32,100,100,60,moving_belt,red,false,true,joint 1 -,false,2024-03-04 14:34:52.818506,16.424,0.154,236.8,292.8220520019531,106.5785140991211,84.958251953125,0.0,20.0,51.0,-4.656612873077393e-10,-20.0
32,100,100,60,moving_belt,red,false,true,joint 1 -,false,2024-03-04 14:34:54.212049,16.367,0.157,236.8,292.8220520019531,106.5785140991211,84.958251953125,0.0,20.0,51.0,-4.656612873077393e-10,-20.0
32,100,100,60,go_to_pick_down,red,true,false,joint 3 +,false,2024-03-04 14:34:54.902332,16.367,0.157,236.8,283.1153869628906,103.04557800292969,30.826858520507812,0.0,20.0,51.0,21.76332664489746,-20.0
32,100,100,60,go_to_pick_up_from_pick_down,red,true,false,joint 3 -,true,2024-03-04 14:34:56.278960,20.639,0.156,236.8,292.7965393066406,106.56922149658203,82.13280487060547,0.0,20.0,51.0,0.825168788433075,-20.0
32,100,100,60,go_to_color_detect_up_from_pick_up,red,true,false,joint 1 +,true,2024-03-04 14:34:56.967657,20.639,0.156,236.8,205.84426879882812,233.94842529296875,84.958251953125,28.65640640258789,49.77968978881836,51.0,0.0,-20.0
32,100,100,60,go_to_color_detect_down,red,true,false,joint 3 +,true,2024-03-04 14:34:58.345447,22.538,0.204,236.8,130.88796997070312,280.69012451171875,61.35441970825195,45.0,65.0,51.0,10.119998931884766,-20.0
32,100,100,60,go_to_color_detect_up_from_color_detect_down,red,true,false,joint 3 -,false,2024-03-04 14:34:59.039127,22.083,0.204,236.8,111.14300537109375,238.34693908691406,-24.275192260742188,45.0,65.0,51.0,48.0,-20.0
32,100,100,60,go_to_color_detect_up_from_color_detect_down,red,true,false,joint 3 -,false,2024-03-04 14:34:59.728819,21.114,0.204,236.8,130.48638916015625,279.8289489746094,56.1141357421875,45.0,65.0,51.0,10.38463020324707,-20.0
32,100,100,60,detecting_color,red,false,false,detecting_color,false,2024-03-04 14:35:01.117783,17.241,0.172,236.8,131.69407653808594,282.4188232421875,84.958251953125,45.0,65.0,51.0,-4.656612873077393e-10,-20.0
32,100,100,60,go_to_color_detect_down,red,true,false,joint 3 +,false,2024-03-04 14:35:01.806640,17.241,0.172,236.8,131.69256591796875,282.41558837890625,83.9320068359375,45.0,65.0,51.0,0.5999999046325684,-20.0
32,100,100,60,go_to_color_detect_down,red,true,false,joint 3 +,false,2024-03-04 14:35:03.189023,16.481,0.157,236.8,112.98084259033203,242.28819274902344,-20.196151733398438,45.0,65.0,51.0,46.08203125,-20.0
32,100,100,60,go_to_color_detect_up_from_color_detect_down,red,true,false,joint 3 -,true,2024-03-04 14:35:03.877759,16.5,0.157,236.8,125.61415100097656,269.3804016113281,21.534198760986328,45.0,65.0,51.0,24.20000457763672,-20.0
32,100,100,60,go_to_green_up,green,true,false,joint 1 +,true,2024-03-04 14:35:05.255445,23.222,0.21,236.8,122.75809478759766,286.4161071777344,84.958251953125,46.80000305175781,67.20000457763672,51.0,-4.656612873077393e-10,-20.0
32,100,100,60,go_to_green_up,green,true,false,joint 1 +,false,2024-03-04 14:35:05.945776,22.804,0.21,236.8,-80.6219253540039,301.0047302246094,84.958251953125,84.99430847167969,105.0,51.0,-4.656612873077393e-10,-20.0
32,100,100,60,go_to_pick_up_from_green,green,true,false,joint 1 -,false,2024-03-04 14:35:07.324165,17.07,0.204,236.8,138.5548858642578,279.116943359375,84.958251953125,43.59999465942383,61.75999450683594,51.0,-4.656612873077393e-10,-20.0
32,100,100,60,moving_belt,green,false,true,joint 1 -,false,2024-03-04 14:35:08.012853,17.07,0.204,236.8,292.8220520019531,106.5785140991211,84.958251953125,0.0,20.0,51.0,-4.656612873077393e-10,-20.0
32,100,100,60,moving_belt,green,false,true,joint 1 -,false,2024-03-04 14:35:09.393546,16.348,0.157,236.8,292.8220520019531,106.5785140991211,84.958251953125,0.0,20.0,51.0,-4.656612873077393e-10,-20.0
32,100,100,60,moving_belt,green,false,true,joint 1 -,false,2024-03-04 14:35:10.085232,16.538,0.157,236.8,292.8220520019531,106.5785140991211,84.958251953125,0.0,20.0,51.0,-4.656612873077393e-10,-20.0
32,100,100,60,moving_belt,green,false,true,joint 1 -,false,2024-03-04 14:35:10.776067,16.538,0.157,236.8,292.8220520019531,106.5785140991211,84.958251953125,0.0,20.0,51.0,-4.656612873077393e-10,-20.0
32,100,100,60,moving_belt,green,false,true,joint 1 -,false,2024-03-04 14:35:12.159326,16.5,0.158,236.8,292.8220520019531,106.5785140991211,84.958251953125,0.0,20.0,51.0,-4.656612873077393e-10,-20.0
32,100,100,60,go_to_pick_down,green,true,false,joint 3 +,false,2024-03-04 14:35:12.850786,16.538,0.158,236.8,288.4434509277344,104.98483276367188,48.24016571044922,0.0,20.0,51.0,15.220831871032715,-20.0
32,100,100,60,go_to_pick_up_from_pick_down,green,true,false,joint 3 -,true,2024-03-04 14:35:14.229080,16.177,0.156,236.8,291.0575866699219,105.93629455566406,61.53761291503906,0.0,20.0,51.0,8.331497192382812,-20.0
32,100,100,60,go_to_color_detect_up_from_pick_up,green,true,false,joint 1 +,true,2024-03-04 14:35:14.918766,23.032,0.156,236.8,243.5332794189453,194.41004943847656,84.958251953125,18.599998474121094,39.84000015258789,51.0,0.0,-20.0
32,100,100,60,go_to_color_detect_down,green,true,false,joint 3 +,true,2024-03-04 14:35:16.304562,22.234,0.205,235.0,131.66342163085938,282.35308837890625,80.34087371826172,45.0,65.0,51.0,2.1999995708465576,-20.0
32,100,100,60,go_to_color_detect_down,green,true,false,joint 3 +,true,2024-03-04 14:35:16.993739,22.234,0.205,235.0,113.32952117919922,243.0359344482422,-19.383834838867188,45.0,65.0,51.0,45.67074966430664,-20.0
32,100,100,60,go_to_color_detect_up_from_color_detect_down,green,true,false,joint 3 -,false,2024-03-04 14:35:18.373996,18.323,0.202,235.0,128.73878479003906,276.0812072753906,40.15884017944336,45.0,65.0,51.0,16.572317123413086,-20.0
32,100,100,60,detecting_color,green,false,false,detecting_color,false,2024-03-04 14:35:19.065078,18.323,0.202,235.0,131.69407653808594,282.4188232421875,84.958251953125,45.0,65.0,51.0,-4.656612873077393e-10,-20.0
32,100,100,60,detecting_color,green,false,false,detecting_color,false,2024-03-04 14:35:19.754780,16.671,0.158,235.0,131.69407653808594,282.4188232421875,84.958251953125,45.0,65.0,51.0,-4.656612873077393e-10,-20.0
32,100,100,60,go_to_color_detect_down,green,true,false,joint 3 +,false,2024-03-04 14:35:21.131798,16.443,0.158,235.0,120.01168823242188,257.3658752441406,-0.8489837646484375,45.0,65.0,51.0,36.68408966064453,-20.0
32,100,100,60,go_to_color_detect_up_from_color_detect_down,green,true,false,joint 3 -,true,2024-03-04 14:35:21.823476,16.443,0.157,235.0,117.4372329711914,251.84494018554688,-8.743080139160156,45.0,65.0,51.0,38.7599983215332,-20.0
32,100,100,60,go_to_blue_up,blue,true,false,joint 1 +,true,2024-03-04 14:35:23.207440,23.412,0.157,235.0,131.10227966308594,282.69403076171875,84.958251953125,45.12000274658203,65.24000549316406,51.0,-4.656612873077393e-10,-20.0
32,100,100,60,go_to_pick_up_from_blue,blue,true,false,joint 1 -,false,2024-03-04 14:35:23.894134,22.158,0.204,235.0,27.809127807617188,310.3713684082031,84.958251953125,64.87999725341797,84.75999450683594,51.0,-4.656612873077393e-10,-20.0
32,100,100,60,go_to_pick_up_from_blue,blue,true,false,joint 1 -,false,2024-03-04 14:35:25.278414,20.374,0.204,235.0,245.04942321777344,192.49551391601562,84.958251953125,18.150962829589844,36.966060638427734,51.0,-4.656612873077393e-10,-20.0
