demetriskallis/dobot_magician_pick_and_place_and_color_sorting/Sampling/WholeSystemExperiments_training_data/payload_32g/joint_measurements__armv_100_arma_100_belts_60_cube_32g_v2_green_failed.csv
cube/weight,arm/velocity_ratio,arm/acceleration_ratio,belt/speed,dobot/operation,dobot/color,dobot/moving_arm,dobot/moving_belt,dobot/operation2,dobot/suction,meross/sample_timestamp,meross/power,meross/current,meross/voltage,dobot/pose_x,dobot/pose_y,dobot/pose_z,dobot/pose_rHead,dobot/pose_joint1Angle,dobot/pose_joint2Angle,dobot/pose_joint3Angle,dobot/pose_joint4Angle
32,100,100,60,homing,,,,homing,,,,,,196.1627502,64.75193787,52.81626892,-1.732309341,17.86769104,10.07441902,33.01871872,-20
32,100,100,60,homing,,,,homing,,,,,,206.5462189,-3.361159801,52.81626892,-20.93230057,-1.332301021,10.07441902,33.01871872,-20
32,100,100,60,homing,,,,homing,,,,,,193.9519958,-71.10033417,52.81626892,-40.1322937,-20.53229141,10.07441902,33.01871872,-20
32,100,100,60,homing,,,,homing,,36:51.9,16.443,0.156,233.1,154.1581726,-137.5059967,52.81626892,-61.73231888,-42.1323204,10.07441902,33.01871872,-20
32,100,100,60,homing,,,,homing,,36:53.3,16.443,0.156,233.1,100.3619766,-180.5549927,52.81626892,-80.93238831,-61.33239365,10.07441902,33.01871872,-20
32,100,100,60,homing,,,,homing,,36:54.0,16.443,0.161,233.1,35.40068054,-203.5176392,52.81626892,-100.1324615,-80.53246307,10.07441902,33.01871872,-20
32,100,100,60,homing,,,,homing,,36:54.7,16.481,0.161,233.1,-42.00539017,-202.2577209,52.81626892,-121.7325439,-102.1325455,10.07441902,33.01871872,-20
32,100,100,60,homing,,,,homing,,36:56.1,16.329,0.16,233.1,-106.1849518,-177.1930847,52.81626892,-140.9326172,-121.3326187,10.07441902,33.01871872,-20
32,100,100,60,homing,,,,homing,,36:56.7,16.329,0.16,233.1,-149.4765778,-142.5811768,52.81626892,-156.352478,-136.3324738,10.07441902,33.01871872,-20
32,100,100,60,homing,,,,homing,,36:58.1,16.367,0.159,233.1,-146.7619781,-145.3738403,52.81626892,-155.2722473,-135.252243,10.07441902,33.01871872,-20
32,100,100,60,homing,,,,homing,,36:58.8,16.424,0.159,233.1,-112.9226608,-176.3489227,50.69617462,-141.5387421,-122.0809097,11.76802254,33.70029068,-18.8571949
32,100,100,60,homing,,,,homing,,37:00.2,16.424,0.161,233.1,-15.04633427,-217.7406311,43.21843719,-109.332077,-93.35298157,17.06973839,35.83390808,-15.27972221
32,100,100,60,homing,,,,homing,,37:00.9,16.671,0.161,233.1,111.3796844,-205.5896759,26.20147705,-70.15792084,-60.95306396,27.16081238,39.89494705,-8.470500946
32,100,100,60,homing,,,,homing,,37:02.3,16.614,0.16,233.1,205.4162292,-132.1440582,10.76049042,-36.10147858,-32.15313721,34.87561798,42.99967957,-3.264734268
32,100,100,60,homing,,,,homing,,37:03.0,16.614,0.16,233.1,247.785141,-25.98240852,1.740226746,-6.513641357,-5.613023281,38.98073959,44.65173721,-0.494694769
32,100,100,60,homing,,,,homing,,37:03.7,16.652,0.16,233.1,248.7629547,0.000178771,0.413513184,4.12E-05,4.12E-05,39.25633621,45.1149559,0
32,100,100,60,homing,,,,homing,,37:05.1,16.348,0.156,233.1,249.9999847,0.00017966,-7.63E-06,4.12E-05,4.12E-05,39.71385956,44.94676971,0
32,100,100,60,homing,,,,homing,,37:05.8,16.196,0.156,235,250.2689056,0.000179853,0.029449463,4.12E-05,4.12E-05,39.74819183,44.9106102,0
32,100,100,60,homing,,,,homing,,37:07.2,16.215,0.153,235,249.9999847,0.00017966,-7.63E-06,4.12E-05,4.12E-05,39.71385956,44.94676971,0
32,100,100,60,homing,,,,homing,,37:07.9,16.215,0.153,235,249.9999847,0.00017966,-7.63E-06,4.12E-05,4.12E-05,39.71385956,44.94676971,0
32,100,100,60,homing,,,,homing,,37:09.2,16.272,0.154,235,249.9999847,0.00017966,-7.63E-06,4.12E-05,4.12E-05,39.71385956,44.94676971,0
32,100,100,60,homing,,,,homing,,37:09.9,16.253,0.154,235,249.9999847,0.00017966,-7.63E-06,4.12E-05,4.12E-05,39.71385956,44.94676971,0
32,100,100,60,homing,,,,homing,,37:11.3,16.291,0.156,235,249.9999847,0.00017966,-7.63E-06,4.12E-05,4.12E-05,39.71385956,44.94676971,0
32,100,100,60,homing,,,,homing,,37:12.0,16.31,0.156,235,256.5757446,26.90046883,16.9154892,4.10E-05,6.39783287,37.41653061,37.30608749,-6.397791862
32,100,100,60,go_to_pick_up_from_homing,nothing,,,go_to_pick_up_from_homing,,37:12.7,16.31,0.156,235,274.9833679,102.9311905,64.95651245,4.20E-05,20.53119659,42.43410873,13.63169575,-20.53115463
32,100,100,60,moving_belt,nothing,FALSE,TRUE,go_to_pick_up_from_homing,,37:14.1,17.165,0.161,235,292.822052,106.5785141,84.95825195,0,20,51,0,-20
32,100,100,60,moving_belt,nothing,FALSE,TRUE,go_to_pick_up_from_homing,,37:14.8,16.633,0.161,235,292.822052,106.5785141,84.95825195,0,20,51,0,-20
32,100,100,60,moving_belt,nothing,FALSE,TRUE,go_to_pick_up_from_homing,,37:16.1,16.291,0.157,235,292.822052,106.5785141,84.95825195,0,20,51,0,-20
32,100,100,60,moving_belt,nothing,FALSE,TRUE,go_to_pick_up_from_homing,,37:16.8,16.234,0.157,235,292.822052,106.5785141,84.95825195,0,20,51,0,-20
32,100,100,60,moving_belt,nothing,FALSE,TRUE,go_to_pick_up_from_homing,,37:18.2,16.139,0.156,235,292.822052,106.5785141,84.95825195,0,20,51,0,-20
32,100,100,60,go_to_pick_down,nothing,TRUE,FALSE,joint 3 +,,37:18.9,16.139,0.156,235,283.4955444,103.1839447,31.85965729,0,20,51,21.41099358,-20
32,100,100,60,go_to_pick_up_from_pick_down,nothing,TRUE,FALSE,joint 3 -,TRUE,37:20.0,16.348,0.156,235,292.7965393,106.5692215,82.13280487,0,20,51,0.825168788,-20
32,100,100,60,go_to_color_detect_up_from_pick_up,nothing,TRUE,FALSE,joint 1 +,TRUE,37:20.7,23.735,0.198,235,201.2184601,237.938797,84.95825195,29.77968979,50.86297226,51,0,-20
32,100,100,60,go_to_color_detect_down,nothing,TRUE,FALSE,joint 3 +,TRUE,37:22.0,22.367,0.198,235,130.5443878,279.9533081,56.80859756,45,65,51,11.99999905,-20
32,100,100,60,go_to_color_detect_up_from_color_detect_down,nothing,TRUE,FALSE,joint 3 -,FALSE,37:22.7,22.196,0.204,235,111.1388397,238.3379974,-24.28404236,45,65,51,48,-20
32,100,100,60,go_to_color_detect_up_from_color_detect_down,nothing,TRUE,FALSE,joint 3 -,FALSE,37:23.7,22.196,0.204,235,130.6764679,280.2365723,58.46072388,45,65,51,9.493349075,-20
32,100,100,60,detecting_color,nothing,FALSE,FALSE,detecting_color,FALSE,37:25.1,18.342,0.162,235,131.6940765,282.4188232,84.95825195,45,65,51,-4.66E-10,-20
32,100,100,60,go_to_color_detect_down,nothing,TRUE,FALSE,joint 3 +,FALSE,37:25.8,16.633,0.162,235,131.6925659,282.4155884,83.93200684,45,65,51,0.599999905,-20
32,100,100,60,go_to_color_detect_down,nothing,TRUE,FALSE,joint 3 +,FALSE,37:27.2,16.31,0.158,235,115.472641,247.6318665,-14.0941925,45,65,51,43.01434326,-20
32,100,100,60,go_to_color_detect_up_from_color_detect_down,nothing,TRUE,FALSE,joint 3 -,TRUE,37:27.9,16.462,0.158,235,125.614151,269.3804016,21.53419876,45,65,51,24.20000458,-20
32,100,100,60,go_to_red_up,red,TRUE,FALSE,joint 1 +,TRUE,37:29.3,23.697,0.214,235,120.7555389,287.2661438,84.95825195,47.20000458,67.64000702,51,-4.66E-10,-20
32,100,100,60,go_to_red_up,red,TRUE,FALSE,joint 1 +,TRUE,37:29.9,22.443,0.214,235,-145.3701935,275.6287842,84.95825195,97.80774689,118.5461349,51,-4.66E-10,-20
32,100,100,60,go_to_pick_up_from_red,red,TRUE,FALSE,joint 1 -,FALSE,37:31.3,22.557,0.205,235,-74.75302887,302.5156555,84.95825195,83.87999725,102.5599976,51,-4.66E-10,-20
32,100,100,60,go_to_pick_up_from_red,red,TRUE,FALSE,joint 1 -,FALSE,37:32.0,17.582,0.205,235,270.7322388,154.2976837,84.95825195,9.679992676,28.81999207,51,-4.66E-10,-20
32,100,100,60,moving_belt,red,FALSE,TRUE,joint 1 -,FALSE,37:32.7,16.348,0.205,235,292.822052,106.5785141,84.95825195,0,20,51,-4.66E-10,-20
32,100,100,60,moving_belt,red,FALSE,TRUE,joint 1 -,FALSE,37:34.1,16.348,0.156,235,292.822052,106.5785141,84.95825195,0,20,51,-4.66E-10,-20
32,100,100,60,moving_belt,red,FALSE,TRUE,joint 1 -,FALSE,37:34.8,16.348,0.156,235,292.822052,106.5785141,84.95825195,0,20,51,-4.66E-10,-20
32,100,100,60,moving_belt,red,FALSE,TRUE,joint 1 -,FALSE,37:36.2,16.139,0.155,235,292.822052,106.5785141,84.95825195,0,20,51,-4.66E-10,-20
32,100,100,60,go_to_pick_down,red,TRUE,FALSE,joint 3 +,FALSE,37:36.9,16.272,0.155,235,292.8208313,106.5780716,84.34249878,0,20,51,0.400000006,-20
32,100,100,60,go_to_pick_up_from_pick_down,red,TRUE,FALSE,joint 3 -,TRUE,37:38.2,16.215,0.156,235,282.8717041,102.9568863,30.17666245,0,20,51,21.75999832,-20
32,100,100,60,go_to_color_detect_up_from_pick_up,red,TRUE,FALSE,joint 1 +,TRUE,37:38.9,20.545,0.156,235,292.7475586,106.7829285,84.95825195,0.040000916,20.12000084,51,0,-20
32,100,100,60,go_to_color_detect_up_from_pick_up,red,TRUE,FALSE,joint 1 +,TRUE,37:40.3,22.633,0.211,235,144.7928772,275.9325256,84.95825195,42.31219482,62.75547791,51,0,-20
32,100,100,60,go_to_color_detect_down,red,TRUE,FALSE,joint 3 +,TRUE,37:41.0,22.405,0.211,235,126.4109573,271.0891724,25.63710403,45,65,51,25.17127609,-20
32,100,100,60,go_to_color_detect_up_from_color_detect_down,red,TRUE,FALSE,joint 3 -,FALSE,37:41.7,22.291,0.204,235,112.5685043,241.4039307,-21.14051056,45,65,51,45.79999542,-20
32,100,100,60,go_to_color_detect_up_from_color_detect_down,red,TRUE,FALSE,joint 3 -,FALSE,37:43.1,21.437,0.204,235,131.6860046,282.4015198,82.58737946,45,65,51,0.672846556,-20
32,100,100,60,detecting_color,red,FALSE,FALSE,detecting_color,FALSE,37:43.8,17.279,0.162,235,131.6940765,282.4188232,84.95825195,45,65,51,-4.66E-10,-20
32,100,100,60,go_to_color_detect_down,red,TRUE,FALSE,joint 3 +,FALSE,37:45.2,16.367,0.162,235,131.1483459,281.2485352,65.51657104,45,65,51,8.399998665,-20
32,100,100,60,go_to_color_detect_down,red,TRUE,FALSE,joint 3 +,FALSE,37:45.9,16.367,0.162,235,111.1933823,238.4549713,-24.16770935,45,65,51,47.98356247,-20
32,100,100,60,go_to_color_detect_up_from_color_detect_down,red,TRUE,FALSE,joint 3 -,TRUE,37:47.2,23.336,0.156,235,129.7558289,278.2622681,48.52571487,45,65,51,13.29847336,-20
32,100,100,60,go_to_green_up,green,TRUE,FALSE,joint 1 +,TRUE,37:47.9,23.336,0.156,235,70.09805298,303.6280823,84.95825195,57,78,51,-4.66E-10,-20
32,100,100,60,go_to_pick_up_from_green,green,TRUE,FALSE,joint 1 -,FALSE,37:49.3,22.652,0.21,235,-76.23045349,302.1467285,84.95825195,84.15999603,103.8799973,51,-4.66E-10,-20
32,100,100,60,go_to_pick_up_from_green,green,TRUE,FALSE,joint 1 -,FALSE,37:50.0,17.81,0.21,235,206.8181763,233.0879059,84.95825195,28.41744995,46.92963409,51,-4.66E-10,-20
32,100,100,60,moving_belt,green,FALSE,TRUE,joint 1 -,FALSE,37:50.7,17.81,0.157,235,292.822052,106.5785141,84.95825195,0,20,51,-4.66E-10,-20
32,100,100,60,moving_belt,green,FALSE,TRUE,joint 1 -,FALSE,37:52.1,16.348,0.157,235,292.822052,106.5785141,84.95825195,0,20,51,-4.66E-10,-20
32,100,100,60,moving_belt,green,FALSE,TRUE,joint 1 -,FALSE,37:52.8,16.253,0.156,235,292.822052,106.5785141,84.95825195,0,20,51,-4.66E-10,-20
32,100,100,60,moving_belt,green,FALSE,TRUE,joint 1 -,FALSE,37:54.2,16.025,0.156,235,292.822052,106.5785141,84.95825195,0,20,51,-4.66E-10,-20
32,100,100,60,moving_belt,green,FALSE,TRUE,joint 1 -,FALSE,37:54.9,16.348,0.157,235,292.822052,106.5785141,84.95825195,0,20,51,-4.66E-10,-20
32,100,100,60,go_to_pick_down,green,TRUE,FALSE,joint 3 +,FALSE,37:56.2,16.272,0.157,235,282.9762573,102.9949417,30.4545517,0,20,51,21.87949371,-20
32,100,100,60,go_to_pick_up_from_pick_down,green,TRUE,FALSE,joint 3 -,TRUE,37:56.9,16.272,0.169,235,292.8188171,106.5773315,83.95038605,0,20,51,0.236669943,-20
32,100,100,60,go_to_color_detect_up_from_pick_up,green,TRUE,FALSE,joint 1 +,TRUE,37:58.3,22.177,0.169,235,187.927124,248.5701752,84.95825195,32.90953445,53.87281799,51,0,-20
32,100,100,60,go_to_color_detect_down,green,TRUE,FALSE,joint 3 +,TRUE,37:59.0,22.367,0.208,235,130.1018219,279.0042419,51.89044571,45,65,51,14.03999901,-20
32,100,100,60,go_to_color_detect_up_from_color_detect_down,green,TRUE,FALSE,joint 3 -,FALSE,37:59.7,22.367,0.208,235,111.1710739,238.4071198,-24.21534729,45,65,51,47.87999725,-20
32,100,100,60,go_to_color_detect_up_from_color_detect_down,green,TRUE,FALSE,joint 3 -,FALSE,38:01.1,18.779,0.162,235,131.223114,281.4088745,66.89193726,45,65,51,6.328224182,-20
32,100,100,60,detecting_color,green,FALSE,FALSE,detecting_color,FALSE,38:01.8,18.779,0.162,235,131.6940765,282.4188232,84.95825195,45,65,51,-4.66E-10,-20
32,100,100,60,go_to_color_detect_down,green,TRUE,FALSE,joint 3 +,FALSE,38:03.2,16.88,0.162,235,131.6744537,282.37677,81.26412964,45,65,51,1.799999595,-20
32,100,100,60,go_to_color_detect_down,green,TRUE,FALSE,joint 3 +,FALSE,38:03.9,16.291,0.157,235,111.8780518,239.923233,-22.6834259,45,65,51,47.32715607,-20
32,100,100,60,go_to_color_detect_up_from_color_detect_down,green,TRUE,FALSE,joint 3 -,TRUE,38:05.2,16.614,0.157,235,128.3253326,275.1945496,37.209198,45,65,51,17.74359894,-20
32,100,100,60,go_to_blue_up,blue,TRUE,FALSE,joint 1 +,TRUE,38:05.9,23.583,0.214,235,110.6565247,291.3054504,84.95825195,49.20000458,69.80000305,51,-4.66E-10,-20
32,100,100,60,go_to_pick_up_from_blue,blue,TRUE,FALSE,joint 1 -,FALSE,38:07.3,21.133,0.214,235,72.2161026,303.1312866,84.95825195,56.59999084,75.75999451,51,-4.66E-10,-20
32,100,100,60,go_to_pick_up_from_blue,blue,TRUE,FALSE,joint 1 -,FALSE,38:08.0,21.133,0.168,235,285.8829041,123.9947433,84.95825195,3.447612762,22.94271088,51,-4.66E-10,-20
32,100,100,60,moving_belt,blue,FALSE,TRUE,joint 1 -,FALSE,38:08.7,16.348,0.168,235,292.822052,106.5785141,84.95825195,0,20,51,-4.66E-10,-20
32,100,100,60,moving_belt,blue,FALSE,TRUE,joint 1 -,FALSE,38:10.1,16.443,0.157,235,292.822052,106.5785141,84.95825195,0,20,51,-4.66E-10,-20
32,100,100,60,moving_belt,blue,FALSE,TRUE,joint 1 -,FALSE,38:10.8,16.443,0.157,235,292.822052,106.5785141,84.95825195,0,20,51,-4.66E-10,-20
32,100,100,60,moving_belt,blue,FALSE,TRUE,joint 1 -,FALSE,38:12.2,16.234,0.158,235,292.822052,106.5785141,84.95825195,0,20,51,-4.66E-10,-20
32,100,100,60,go_to_pick_down,blue,TRUE,FALSE,joint 3 +,FALSE,38:12.9,16.348,0.158,235,292.6172791,106.5039902,76.95742798,0,20,51,3.640000105,-20
32,100,100,60,go_to_pick_up_from_pick_down,blue,TRUE,FALSE,joint 3 -,TRUE,38:14.3,16.253,0.159,235,284.3258057,103.4861374,34.19942093,0,20,51,19.79999733,-20
32,100,100,60,go_to_color_detect_up_from_pick_up,blue,TRUE,FALSE,joint 1 +,TRUE,38:14.9,20.867,0.159,235,282.8768005,130.7074585,84.95825195,4.800003052,25.44000244,51,0,-20
32,100,100,60,go_to_color_detect_up_from_pick_up,blue,TRUE,FALSE,joint 1 +,TRUE,38:16.2,22.291,0.159,235,132.9819031,281.8147278,84.95825195,44.7384491,64.86173248,51,0,-20
32,100,100,60,go_to_color_detect_down,blue,TRUE,FALSE,joint 3 +,TRUE,38:16.9,22.462,0.207,235,122.5802841,262.8742371,8.30921936,45,65,51,32.55896378,-20
32,100,100,60,go_to_color_detect_up_from_color_detect_down,blue,TRUE,FALSE,joint 3 -,FALSE,38:18.3,22.177,0.207,235,118.0126343,253.0788879,-7.072502136,45,65,51,37.87999725,-20
32,100,100,60,detecting_color,blue,FALSE,FALSE,detecting_color,FALSE,38:19.0,21.361,0.181,235,131.6940765,282.4188232,84.94502258,45,65,51,-4.66E-10,-20
32,100,100,60,detecting_color,blue,FALSE,FALSE,detecting_color,FALSE,38:20.3,17.222,0.181,235,131.6940765,282.4188232,84.95825195,45,65,51,-4.66E-10,-20
32,100,100,60,go_to_color_detect_down,blue,TRUE,FALSE,joint 3 +,FALSE,38:21.0,16.234,0.158,235,129.8381958,278.4388733,49.29616547,45,65,51,15.11999893,-20
32,100,100,60,go_to_color_detect_up_from_color_detect_down,blue,TRUE,FALSE,joint 3 -,TRUE,38:21.7,16.234,0.158,235,111.2354584,238.5451965,-24.07778931,45,65,51,47.75999832,-20
32,100,100,60,go_to_color_detect_up_from_color_detect_down,blue,TRUE,FALSE,joint 3 -,TRUE,38:23.1,23.45,0.205,235,131.223114,281.4088745,66.89193726,45,65,51,6.328224182,-20
32,100,100,60,go_to_red_up,red,TRUE,FALSE,joint 1 +,TRUE,38:23.8,23.45,0.205,235,21.08601952,310.9004822,84.95825195,66.12000275,87.44000244,51,-4.66E-10,-20
32,100,100,60,go_to_pick_up_from_red,red,TRUE,FALSE,joint 1 -,FALSE,38:25.2,22.386,0.207,235,-178.7348633,255.2598114,84.95825195,105,124.9599991,51,-4.66E-10,-20
32,100,100,60,go_to_pick_up_from_red,red,TRUE,FALSE,joint 1 -,FALSE,38:25.9,20.715,0.207,235,65.00113678,304.7598877,84.95825195,57.95999908,76,51,-4.66E-10,-20
32,100,100,60,moving_belt,red,FALSE,TRUE,joint 1 -,FALSE,38:27.3,16.481,0.158,235,292.822052,106.5784836,84.95825195,-3.81E-06,20,51,-4.66E-10,-20
32,100,100,60,moving_belt,red,FALSE,TRUE,joint 1 -,FALSE,38:28.0,16.481,0.158,235,292.822052,106.5785141,84.95825195,0,20,51,-4.66E-10,-20
32,100,100,60,moving_belt,red,FALSE,TRUE,joint 1 -,FALSE,38:29.4,16.519,0.156,235,292.822052,106.5785141,84.95825195,0,20,51,-4.66E-10,-20
32,100,100,60,moving_belt,red,FALSE,TRUE,joint 1 -,FALSE,38:30.0,16.063,0.156,235,292.822052,106.5785141,84.95825195,0,20,51,-4.66E-10,-20
32,100,100,60,moving_belt,red,FALSE,TRUE,joint 1 -,FALSE,38:30.7,16.329,0.156,235,292.822052,106.5785141,84.95825195,0,20,51,-4.66E-10,-20
32,100,100,60,go_to_pick_down,red,TRUE,FALSE,joint 3 +,FALSE,38:32.1,16.348,0.158,235,288.9099731,105.1546326,50.22156525,0,20,51,14.46466541,-20
32,100,100,60,go_to_pick_up_from_pick_down,red,TRUE,FALSE,joint 3 -,TRUE,38:32.8,16.348,0.158,235,290.7051086,105.8080063,59.32123184,0,20,51,9.167663574,-20
32,100,100,60,go_to_color_detect_up_from_pick_up,red,TRUE,FALSE,joint 1 +,TRUE,38:34.2,23.564,0.221,235,269.5393372,156.3722229,84.95825195,10.12000084,31.04000092,51,0,-20
32,100,100,60,go_to_color_detect_down,red,TRUE,FALSE,joint 3 +,TRUE,38:34.9,23.165,0.221,233.1,131.6874084,282.404541,82.80319977,45,65,51,1.119999766,-20
32,100,100,60,go_to_color_detect_down,red,TRUE,FALSE,joint 3 +,TRUE,38:36.3,22.69,0.213,233.1,114.5391235,245.6299286,-16.46342468,45,65,51,44.19690704,-20
32,100,100,60,go_to_color_detect_up_from_color_detect_down,red,TRUE,FALSE,joint 3 -,FALSE,38:37.0,22.861,0.213,233.1,123.6932373,265.2609863,12.79538727,45,65,51,28.16000366,-20
32,100,100,60,detecting_color,red,FALSE,FALSE,detecting_color,FALSE,38:37.7,17.032,0.213,233.1,131.6940765,282.4188232,84.95825195,45,65,51,-4.66E-10,-20
32,100,100,60,detecting_color,red,FALSE,FALSE,detecting_color,FALSE,38:39.1,16.348,0.165,233.1,131.6940765,282.4188232,84.95825195,45,65,51,-4.66E-10,-20
32,100,100,60,go_to_color_detect_down,red,TRUE,FALSE,joint 3 +,FALSE,38:39.8,16.348,0.165,233.1,124.5267944,267.0485535,16.41339874,45,65,51,29.04512024,-20
32,100,100,60,go_to_color_detect_up_from_color_detect_down,red,TRUE,FALSE,joint 3 -,TRUE,38:41.2,16.386,0.156,233.1,113.5900192,243.594574,-18.76850891,45,65,51,44.3599968,-20
32,100,100,60,go_to_color_detect_up_from_color_detect_down,red,TRUE,FALSE,joint 3 -,TRUE,38:42.0,17.848,0.156,233.1,131.6938324,282.418335,84.55030823,45,65,51,0.067720078,-20
32,100,100,60,go_to_green_up,green,TRUE,FALSE,joint 1 +,TRUE,38:42.7,23.962,0.219,233.1,-34.67082596,309.6799622,84.95825195,76.38805389,97.19787598,51,-4.66E-10,-20
32,100,100,60,go_to_pick_up_from_green,green,TRUE,FALSE,joint 1 -,FALSE,38:44.2,22.747,0.219,233.1,-16.30865097,311.1876526,84.95825195,73,92,51,-4.66E-10,-20
32,100,100,60,go_to_pick_up_from_green,green,TRUE,FALSE,joint 1 -,FALSE,38:44.9,22.747,0.18,233.1,285.2249146,125.5009308,84.95825195,3.749826431,23.22200775,51,-4.66E-10,-20
32,100,100,60,moving_belt,green,FALSE,TRUE,joint 1 -,FALSE,38:45.7,16.424,0.18,233.1,292.822052,106.5785141,84.95825195,0,20,51,-4.66E-10,-20
32,100,100,60,moving_belt,green,FALSE,TRUE,joint 1 -,FALSE,38:47.3,16.557,0.159,233.1,292.822052,106.5785141,84.95825195,0,20,51,-4.66E-10,-20
32,100,100,60,moving_belt,green,FALSE,TRUE,joint 1 -,FALSE,38:48.1,16.158,0.159,233.1,292.822052,106.5785141,84.95825195,0,20,51,-4.66E-10,-20
32,100,100,60,moving_belt,green,FALSE,TRUE,joint 1 -,FALSE,38:48.8,16.158,0.158,233.1,292.822052,106.5785141,84.95825195,0,20,51,-4.66E-10,-20
32,100,100,60,go_to_pick_down,green,TRUE,FALSE,joint 3 +,FALSE,38:50.2,16.329,0.158,233.1,292.7202454,106.5414581,79.31524658,0,20,51,2.640000105,-20
32,100,100,60,go_to_pick_up_from_pick_down,green,TRUE,FALSE,joint 3 -,TRUE,38:50.9,16.329,0.157,233.1,284.3258057,103.4861374,34.19942093,0,20,51,19.79999733,-20
32,100,100,60,go_to_color_detect_up_from_pick_up,green,TRUE,FALSE,joint 1 +,TRUE,38:52.3,22.975,0.157,233.1,290.051239,113.903511,84.95825195,1.440002441,21.80000305,51,0,-20
32,100,100,60,go_to_color_detect_up_from_pick_up,green,TRUE,FALSE,joint 1 +,TRUE,38:53.0,22.975,0.157,233.1,133.7845154,281.4346008,84.95825195,44.57516479,64.7384491,51,0,-20
32,100,100,60,go_to_color_detect_down,green,TRUE,FALSE,joint 3 +,TRUE,38:54.4,22.14,0.206,235,123.2313766,264.2705383,10.88928986,45,65,51,31.42768288,-20
32,100,100,60,go_to_color_detect_up_from_color_detect_down,green,TRUE,FALSE,joint 3 -,FALSE,38:55.0,22.291,0.206,235,114.8562775,246.3100739,-15.67016602,45,65,51,42.55999756,-20
32,100,100,60,go_to_color_detect_up_from_color_detect_down,green,TRUE,FALSE,joint 3 -,FALSE,38:55.8,22.291,0.204,235,131.6920624,282.4145203,83.77405548,45,65,51,0.290283471,-20
32,100,100,60,detecting_color,green,FALSE,FALSE,detecting_color,FALSE,38:57.1,17.279,0.204,235,131.6940765,282.4188232,84.95825195,45,65,51,-4.66E-10,-20
32,100,100,60,go_to_color_detect_down,green,TRUE,FALSE,joint 3 +,FALSE,38:57.9,16.443,0.157,235,130.7275391,280.3460999,59.12882996,45,65,51,11.03999901,-20
32,100,100,60,go_to_color_detect_up_from_color_detect_down,green,TRUE,FALSE,joint 3 -,TRUE,38:59.2,16.443,0.157,235,111.3318787,238.7519684,-23.87106323,45,65,51,47.59999847,-20
32,100,100,60,go_to_color_detect_up_from_color_detect_down,green,TRUE,FALSE,joint 3 -,TRUE,38:59.9,19.196,0.158,235,131.3155365,281.6070557,68.75533295,45,65,51,5.636942863,-20
32,100,100,60,go_to_blue_up,blue,TRUE,FALSE,joint 1 +,TRUE,39:01.3,23.374,0.158,233.1,55.54008102,306.6252441,84.95825195,59.73313141,80.36198425,51,-4.66E-10,-20
32,100,100,60,go_to_pick_up_from_blue,blue,TRUE,FALSE,joint 1 -,FALSE,39:02.0,22.045,0.204,233.1,150.1215515,273.0700378,84.95825195,41.19999695,59.79999542,51,-4.66E-10,-20
32,100,100,60,moving_belt,blue,FALSE,TRUE,joint 1 -,FALSE,39:03.4,16.538,0.204,233.1,292.822052,106.5785141,84.95825195,0,20,51,-4.66E-10,-20
32,100,100,60,moving_belt,blue,FALSE,TRUE,joint 1 -,FALSE,39:04.1,16.462,0.158,233.1,292.822052,106.5785141,84.95825195,0,20,51,-4.66E-10,-20
32,100,100,60,moving_belt,blue,FALSE,TRUE,joint 1 -,FALSE,39:04.8,16.462,0.158,233.1,292.822052,106.5785141,84.95825195,0,20,51,-4.66E-10,-20
32,100,100,60,moving_belt,blue,FALSE,TRUE,joint 1 -,FALSE,39:06.2,16.329,0.158,233.1,292.822052,106.5785141,84.95825195,0,20,51,-4.66E-10,-20
32,100,100,60,moving_belt,blue,FALSE,TRUE,joint 1 -,FALSE,39:06.9,16.405,0.158,233.1,292.822052,106.5785141,84.95825195,0,20,51,-4.66E-10,-20
32,100,100,60,go_to_pick_down,blue,TRUE,FALSE,joint 3 +,FALSE,39:08.3,16.253,0.158,233.1,288.9099731,105.1546326,50.22156525,0,20,51,14.46466541,-20
32,100,100,60,go_to_pick_up_from_pick_down,blue,TRUE,FALSE,joint 3 -,TRUE,39:09.0,16.443,0.157,233.1,291.0575867,105.9362946,61.53761292,0,20,51,8.331497192,-20
32,100,100,60,go_to_color_detect_up_from_pick_up,blue,TRUE,FALSE,joint 1 +,TRUE,39:10.3,23.545,0.157,233.1,264.2642517,165.130661,84.95825195,12,33,51,0,-20
32,100,100,60,go_to_color_detect_down,blue,TRUE,FALSE,joint 3 +,TRUE,39:11.0,22.177,0.204,233.1,131.6935272,282.4176636,84.34249878,45,65,51,0.399999917,-20
32,100,100,60,go_to_color_detect_down,blue,TRUE,FALSE,joint 3 +,TRUE,39:11.7,22.14,0.204,235,113.3295212,243.0359344,-19.38383484,45,65,51,45.67074966,-20
32,100,100,60,go_to_color_detect_up_from_color_detect_down,blue,TRUE,FALSE,joint 3 -,FALSE,39:13.1,22.177,0.204,235,124.9818192,268.024353,18.49610138,45,65,51,25.56000519,-20
32,100,100,60,detecting_color,blue,FALSE,FALSE,detecting_color,FALSE,39:13.8,17.07,0.204,233.1,131.6940765,282.4188232,84.95825195,45,65,51,-4.66E-10,-20
32,100,100,60,detecting_color,blue,FALSE,FALSE,detecting_color,FALSE,39:15.2,16.462,0.158,233.1,131.6940765,282.4188232,84.95825195,45,65,51,-4.66E-10,-20
32,100,100,60,go_to_color_detect_down,blue,TRUE,FALSE,joint 3 +,FALSE,39:15.9,16.462,0.158,233.1,123.8811035,265.6638794,13.59000397,45,65,51,30.25640106,-20
32,100,100,60,go_to_color_detect_up_from_color_detect_down,blue,TRUE,FALSE,joint 3 -,TRUE,39:17.3,16.709,0.16,233.1,116.8796692,250.6492462,-10.31536865,45,65,51,39.59999847,-20
32,100,100,60,go_to_color_detect_up_from_color_detect_down,blue,TRUE,FALSE,joint 3 -,TRUE,39:18.0,16.709,0.16,233.1,131.6940308,282.4187622,84.78450775,45,65,51,0.016438644,-20
32,100,100,60,go_to_red_up,red,TRUE,FALSE,joint 1 +,TRUE,39:19.4,22.026,0.205,233.1,-64.4262619,304.8819275,84.95825195,81.9319458,103.2703323,51,-4.66E-10,-20
32,100,100,60,go_to_pick_up_from_red,red,TRUE,FALSE,joint 1 -,FALSE,39:20.1,22.367,0.205,233.1,-156.7484436,269.3207397,84.95825195,100.1999969,119.5599976,51,-4.66E-10,-20
32,100,100,60,go_to_pick_up_from_red,red,TRUE,FALSE,joint 1 -,FALSE,39:20.8,22.367,0.205,233.1,198.5469055,240.1725616,84.95825195,30.41999054,48.87998962,51,-4.66E-10,-20
32,100,100,60,moving_belt,red,FALSE,TRUE,joint 1 -,FALSE,39:22.2,16.367,0.159,233.1,292.822052,106.5785141,84.95825195,0,20,51,-4.66E-10,-20
32,100,100,60,moving_belt,red,FALSE,TRUE,joint 1 -,FALSE,39:22.9,16.386,0.159,233.1,292.822052,106.5785141,84.95825195,0,20,51,-4.66E-10,-20
32,100,100,60,moving_belt,red,FALSE,TRUE,joint 1 -,FALSE,39:24.2,16.215,0.156,233.1,292.822052,106.5785141,84.95825195,0,20,51,-4.66E-10,-20
32,100,100,60,moving_belt,red,FALSE,TRUE,joint 1 -,FALSE,39:24.9,16.443,0.156,233.1,292.822052,106.5785141,84.95825195,0,20,51,-4.66E-10,-20
32,100,100,60,moving_belt,red,FALSE,TRUE,joint 1 -,FALSE,39:26.3,16.234,0.159,233.1,292.822052,106.5785141,84.95825195,0,20,51,-4.66E-10,-20
32,100,100,60,go_to_pick_down,red,TRUE,FALSE,joint 3 +,FALSE,39:27.0,16.234,0.159,233.1,284.3038635,103.4781494,34.13602829,0,20,51,20.58249474,-20
32,100,100,60,go_to_pick_up_from_pick_down,red,TRUE,FALSE,joint 3 -,TRUE,39:28.4,22.823,0.164,233.1,292.7230225,106.5424728,79.39258575,0,20,51,1.773667693,-20
32,100,100,60,go_to_color_detect_up_from_pick_up,red,TRUE,FALSE,joint 1 +,TRUE,39:29.1,22.823,0.164,233.1,225.0492859,215.537796,84.95825195,23.76327896,45.04656219,51,0,-20
32,100,100,60,go_to_color_detect_down,red,TRUE,FALSE,joint 3 +,TRUE,39:29.8,22.234,0.164,233.1,131.2519073,281.4706116,67.45097351,45,65,51,7.599998474,-20
32,100,100,60,go_to_color_detect_down,red,TRUE,FALSE,joint 3 +,TRUE,39:31.1,22.045,0.209,233.1,111.1933823,238.4549713,-24.16770935,45,65,51,47.98356247,-20
32,100,100,60,go_to_color_detect_up_from_color_detect_down,red,TRUE,FALSE,joint 3 -,FALSE,39:31.8,22.045,0.209,233.1,129.7558289,278.2622681,48.52571487,45,65,51,13.29847336,-20
32,100,100,60,detecting_color,red,FALSE,FALSE,detecting_color,FALSE,39:33.3,17.032,0.165,233.1,131.6940765,282.4188232,84.95825195,45,65,51,-4.66E-10,-20
32,100,100,60,go_to_color_detect_down,red,TRUE,FALSE,joint 3 +,FALSE,39:34.0,17.032,0.165,233.1,131.6940765,282.4188232,84.95825195,45,65,51,-4.66E-10,-20
32,100,100,60,go_to_color_detect_down,red,TRUE,FALSE,joint 3 +,FALSE,39:35.3,16.367,0.159,233.1,115.472641,247.6318665,-14.0941925,45,65,51,43.01434326,-20
32,100,100,60,go_to_color_detect_up_from_color_detect_down,red,TRUE,FALSE,joint 3 -,TRUE,39:36.0,16.538,0.159,233.1,121.7422409,261.0770569,5.154693604,45,65,51,31.76000214,-20
32,100,100,60,go_to_green_up,green,TRUE,FALSE,joint 1 +,TRUE,39:37.4,23.241,0.218,233.1,130.509903,282.9680176,84.95825195,45.24000549,65.40000916,51,-4.66E-10,-20
32,100,100,60,go_to_green_up,green,TRUE,FALSE,joint 1 +,TRUE,39:38.1,22.5,0.218,233.1,-77.15497589,301.9119873,84.95825195,84.33538055,104.5452042,51,-4.66E-10,-20
32,100,100,60,go_to_pick_up_from_green,green,TRUE,FALSE,joint 1 -,FALSE,39:38.8,22.291,0.208,233.1,86.9377594,299.2416382,84.95825195,53.79999542,72.19999695,51,-4.66E-10,-20
32,100,100,60,go_to_pick_up_from_green,green,TRUE,FALSE,joint 1 -,FALSE,39:40.2,16.405,0.208,233.1,291.9959717,108.8213501,84.95825195,0.439468384,20.27165031,51,-4.66E-10,-20
32,100,100,60,moving_belt,green,FALSE,TRUE,joint 1 -,FALSE,39:40.9,16.329,0.208,233.1,292.822052,106.5785141,84.95825195,0,20,51,-4.66E-10,-20
32,100,100,60,moving_belt,green,FALSE,TRUE,joint 1 -,FALSE,39:42.4,16.196,0.156,233.1,292.822052,106.5785141,84.95825195,0,20,51,-4.66E-10,-20
32,100,100,60,moving_belt,green,FALSE,TRUE,joint 1 -,FALSE,39:43.2,16.196,0.156,233.1,292.822052,106.5785141,84.95825195,0,20,51,-4.66E-10,-20
32,100,100,60,moving_belt,green,FALSE,TRUE,joint 1 -,FALSE,39:44.0,16.12,0.155,233.1,292.822052,106.5785141,84.95825195,0,20,51,-4.66E-10,-20
32,100,100,60,go_to_pick_down,green,TRUE,FALSE,joint 3 +,FALSE,39:44.8,16.253,0.155,233.1,291.3401794,106.0391617,63.48404694,0,20,51,9.239999771,-20
32,100,100,60,go_to_pick_up_from_pick_down,green,TRUE,FALSE,joint 3 -,TRUE,39:46.0,16.253,0.156,233.1,288.0148621,104.8288422,46.51549149,0,20,51,14.39999676,-20
32,100,100,60,go_to_color_detect_up_from_pick_up,green,TRUE,FALSE,joint 1 +,TRUE,39:47.3,23.431,0.156,233.1,269.5393372,156.3722229,84.95825195,10.12000084,31.04000092,51,0,-20
32,100,100,60,go_to_color_detect_down,green,TRUE,FALSE,joint 3 +,TRUE,39:48.0,22.083,0.203,233.1,131.6940765,282.4188232,84.95825195,45,65,51,0.039999992,-20
32,100,100,60,go_to_color_detect_down,green,TRUE,FALSE,joint 3 +,TRUE,39:49.4,21.95,0.203,233.1,117.6041107,252.2028198,-8.263710022,45,65,51,40.16921616,-20
32,100,100,60,go_to_color_detect_up_from_color_detect_down,green,TRUE,FALSE,joint 3 -,FALSE,39:50.1,22.026,0.203,233.1,122.3915176,262.4694519,7.582984924,45,65,51,30.60000229,-20
32,100,100,60,detecting_color,green,FALSE,FALSE,detecting_color,FALSE,39:50.8,17.487,0.203,233.1,131.6940765,282.4188232,84.95825195,45,65,51,-4.66E-10,-20
32,100,100,60,detecting_color,green,FALSE,FALSE,detecting_color,FALSE,39:52.2,16.595,0.157,233.1,131.6940765,282.4188232,84.95825195,45,65,51,-4.66E-10,-20
32,100,100,60,go_to_color_detect_down,green,TRUE,FALSE,joint 3 +,FALSE,39:52.9,16.595,0.157,235,126.4109573,271.0891724,25.63710403,45,65,51,25.17127609,-20
32,100,100,60,go_to_color_detect_up_from_color_detect_down,green,TRUE,FALSE,joint 3 -,TRUE,39:54.3,16.424,0.159,235,112.5685043,241.4039307,-21.14051056,45,65,51,45.79999542,-20
32,100,100,60,go_to_color_detect_up_from_color_detect_down,green,TRUE,FALSE,joint 3 -,TRUE,39:55.0,16.424,0.159,235,131.6897888,282.4096375,83.23200989,45,65,51,0.461565048,-20
32,100,100,60,go_to_blue_up,blue,TRUE,FALSE,joint 1 +,TRUE,39:56.4,22.177,0.205,233.1,30.134758,310.1542053,84.95825195,64.45052338,84.63938141,51,-4.66E-10,-20
32,100,100,60,go_to_pick_up_from_blue,blue,TRUE,FALSE,joint 1 -,FALSE,39:57.1,22.177,0.205,233.1,184.0414124,251.4606934,84.95825195,33.79999542,52.19999695,51,-4.66E-10,-20
32,100,100,60,moving_belt,blue,FALSE,TRUE,joint 1 -,FALSE,39:57.7,19.557,0.205,233.1,292.822052,106.5785141,84.95825195,0,20,51,-4.66E-10,-20
32,100,100,60,moving_belt,blue,FALSE,TRUE,joint 1 -,FALSE,39:59.1,16.291,0.157,233.1,292.822052,106.5785141,84.95825195,0,20,51,-4.66E-10,-20
32,100,100,60,moving_belt,blue,FALSE,TRUE,joint 1 -,FALSE,39:59.8,16.291,0.157,233.1,292.822052,106.5785141,84.95825195,0,20,51,-4.66E-10,-20
32,100,100,60,moving_belt,blue,FALSE,TRUE,joint 1 -,FALSE,40:01.2,16.291,0.156,233.1,292.822052,106.5785141,84.95825195,0,20,51,-4.66E-10,-20
32,100,100,60,moving_belt,blue,FALSE,TRUE,joint 1 -,FALSE,40:01.9,16.291,0.156,235,292.822052,106.5785141,84.95825195,0,20,51,-4.66E-10,-20
32,100,100,60,go_to_pick_down,blue,TRUE,FALSE,joint 3 +,FALSE,40:03.3,16.234,0.157,235,285.7587891,104.0076904,38.55379105,0,20,51,18.91782951,-20
32,100,100,60,go_to_pick_up_from_pick_down,blue,TRUE,FALSE,joint 3 -,TRUE,40:04.0,16.234,0.157,235,292.4590759,106.4464035,74.30866241,0,20,51,3.598332644,-20
32,100,100,60,go_to_color_detect_up_from_pick_up,blue,TRUE,FALSE,joint 1 +,TRUE,40:05.4,22.177,0.208,235,210.5514221,229.7212219,84.95825195,27.49312592,48.6564064,51,0,-20
32,100,100,60,go_to_color_detect_down,blue,TRUE,FALSE,joint 3 +,TRUE,40:06.1,22.177,0.208,233.1,131.4761963,281.9515991,72.65760803,45,65,51,5.439999104,-20
32,100,100,60,go_to_color_detect_down,blue,TRUE,FALSE,joint 3 +,TRUE,40:06.8,22.026,0.208,233.1,111.8780518,239.923233,-22.6834259,45,65,51,47.32715607,-20
32,100,100,60,go_to_color_detect_up_from_color_detect_down,blue,TRUE,FALSE,joint 3 -,FALSE,40:08.2,19.139,0.205,233.1,130.2709961,279.3670349,53.67488861,45,65,51,11.31591129,-20
32,100,100,60,detecting_color,blue,FALSE,FALSE,detecting_color,FALSE,40:08.9,19.139,0.205,233.1,131.6940765,282.4188232,84.95825195,45,65,51,-4.66E-10,-20
32,100,100,60,go_to_color_detect_down,blue,TRUE,FALSE,joint 3 +,FALSE,40:10.2,16.899,0.161,233.1,131.6939392,282.4185486,84.65037537,45,65,51,0.23999995,-20
32,100,100,60,go_to_color_detect_down,blue,TRUE,FALSE,joint 3 +,FALSE,40:11.1,16.31,0.161,233.1,117.0414658,250.9962158,-9.863693237,45,65,51,40.94049835,-20
32,100,100,60,go_to_color_detect_up_from_color_detect_down,blue,TRUE,FALSE,joint 3 -,TRUE,40:12.4,16.557,0.159,233.1,120.4589081,258.3249512,0.64251709,45,65,51,33.95999908,-20
32,100,100,60,go_to_red_up,red,TRUE,FALSE,joint 1 +,TRUE,40:13.1,23.279,0.159,233.1,126.1485901,284.9390564,84.95825195,46.12000275,66.44000244,51,-4.66E-10,-20
32,100,100,60,go_to_red_up,red,TRUE,FALSE,joint 1 +,TRUE,40:13.9,22.253,0.205,233.1,-133.4295349,281.6030579,84.95825195,95.35258484,116.210968,51,-4.66E-10,-20
32,100,100,60,go_to_pick_up_from_red,red,TRUE,FALSE,joint 1 -,FALSE,40:15.2,22.405,0.205,233.1,-121.757576,286.842865,84.95825195,93,112,51,-4.66E-10,-20
32,100,100,60,go_to_pick_up_from_red,red,TRUE,FALSE,joint 1 -,FALSE,40:15.9,17.981,0.157,233.1,265.6383972,162.9109497,84.95825195,11.51999283,30.57999229,51,-4.66E-10,-20
32,100,100,60,moving_belt,red,FALSE,TRUE,joint 1 -,FALSE,40:17.3,16.348,0.157,233.1,292.822052,106.5785141,84.95825195,0,20,51,-4.66E-10,-20
32,100,100,60,moving_belt,red,FALSE,TRUE,joint 1 -,FALSE,40:18.0,16.538,0.157,233.1,292.822052,106.5785141,84.95825195,0,20,51,-4.66E-10,-20
32,100,100,60,moving_belt,red,FALSE,TRUE,joint 1 -,FALSE,40:19.4,16.177,0.158,233.1,292.822052,106.5785141,84.95825195,0,20,51,-4.66E-10,-20
32,100,100,60,moving_belt,red,FALSE,TRUE,joint 1 -,FALSE,40:20.1,16.177,0.158,233.1,292.822052,106.5785141,84.95825195,0,20,51,-4.66E-10,-20
32,100,100,60,go_to_pick_down,red,TRUE,FALSE,joint 3 +,FALSE,40:20.8,16.367,0.156,233.1,292.8220215,106.5784988,84.85562897,0,20,51,0.119999997,-20
32,100,100,60,go_to_pick_up_from_pick_down,red,TRUE,FALSE,joint 3 -,TRUE,40:22.2,16.006,0.156,233.1,282.7636108,102.9175491,29.89107895,0,20,51,22,-20
32,100,100,60,go_to_color_detect_up_from_pick_up,red,TRUE,FALSE,joint 1 +,TRUE,40:22.9,19.576,0.156,233.1,292.822052,106.5785141,84.95825195,0,20,51,0,-20
32,100,100,60,go_to_color_detect_up_from_pick_up,red,TRUE,FALSE,joint 1 +,TRUE,40:24.3,22.424,0.156,233.1,152.2978363,271.8622742,84.95825195,40.74235153,61.30563354,51,0,-20
32,100,100,60,go_to_color_detect_down,red,TRUE,FALSE,joint 3 +,TRUE,40:25.0,22.045,0.205,233.1,128.4491882,275.4601746,38.07123947,45,65,51,19.83999634,-20
32,100,100,60,go_to_color_detect_up_from_color_detect_down,red,TRUE,FALSE,joint 3 -,FALSE,40:26.4,21.836,0.205,233.1,111.8112183,239.7799072,-22.83026886,45,65,51,46.87999725,-20
32,100,100,60,go_to_color_detect_up_from_color_detect_down,red,TRUE,FALSE,joint 3 -,FALSE,40:27.1,20.791,0.183,233.1,131.6714325,282.3703003,80.99049377,45,65,51,1.215409517,-20
32,100,100,60,detecting_color,red,FALSE,FALSE,detecting_color,FALSE,40:27.8,20.791,0.183,231.2,131.6940765,282.4188232,84.95825195,45,65,51,-4.66E-10,-20
32,100,100,60,go_to_color_detect_down,red,TRUE,FALSE,joint 3 +,FALSE,40:29.2,16.291,0.159,231.2,131.2519073,281.4706116,67.45097351,45,65,51,7.599998474,-20
32,100,100,60,go_to_color_detect_down,red,TRUE,FALSE,joint 3 +,FALSE,40:29.9,16.291,0.159,231.2,111.2668076,238.6124268,-24.01065826,45,65,51,47.93228149,-20
32,100,100,60,go_to_color_detect_up_from_color_detect_down,red,TRUE,FALSE,joint 3 -,TRUE,40:31.3,16.367,0.187,231.2,129.7558289,278.2622681,48.52571487,45,65,51,13.29847336,-20
32,100,100,60,go_to_green_up,green,TRUE,FALSE,joint 1 +,TRUE,40:31.9,23.279,0.187,231.2,70.09805298,303.6280823,84.95825195,57,78,51,-4.66E-10,-20
32,100,100,60,go_to_pick_up_from_green,green,TRUE,FALSE,joint 1 -,FALSE,40:33.3,22.234,0.209,231.2,-76.23045349,302.1467285,84.95825195,84.15999603,103.8799973,51,-4.66E-10,-20
32,100,100,60,go_to_pick_up_from_green,green,TRUE,FALSE,joint 1 -,FALSE,40:34.0,22.234,0.209,231.2,206.8181763,233.0879059,84.95825195,28.41744995,46.92963409,51,-4.66E-10,-20
32,100,100,60,moving_belt,green,FALSE,TRUE,joint 1 -,FALSE,40:35.4,16.196,0.158,231.2,292.822052,106.5785141,84.95825195,0,20,51,-4.66E-10,-20
32,100,100,60,moving_belt,green,FALSE,TRUE,joint 1 -,FALSE,40:36.1,16.196,0.158,231.2,292.822052,106.5785141,84.95825195,0,20,51,-4.66E-10,-20
32,100,100,60,moving_belt,green,FALSE,TRUE,joint 1 -,FALSE,40:36.9,16.424,0.158,231.2,292.822052,106.5785141,84.95825195,0,20,51,-4.66E-10,-20
32,100,100,60,moving_belt,green,FALSE,TRUE,joint 1 -,FALSE,40:37.7,16.424,0.157,231.2,292.822052,106.5785141,84.95825195,0,20,51,-4.66E-10,-20
32,100,100,60,moving_belt,green,FALSE,TRUE,joint 1 -,FALSE,40:39.3,16.101,0.157,231.2,292.822052,106.5785141,84.95825195,0,20,51,-4.66E-10,-20
32,100,100,60,go_to_pick_down,green,TRUE,FALSE,joint 3 +,FALSE,40:40.1,16.101,0.158,231.2,283.4955444,103.1839447,31.85965729,0,20,51,21.41099358,-20
32,100,100,60,go_to_pick_up_from_pick_down,green,TRUE,FALSE,joint 3 -,TRUE,40:40.8,16.291,0.158,231.2,292.7558594,106.5544205,80.40839386,0,20,51,1.41750145,-20
32,100,100,60,go_to_color_detect_up_from_pick_up,green,TRUE,FALSE,joint 1 +,TRUE,40:42.2,23.298,0.211,231.2,210.5514221,229.7212219,84.95825195,27.49312592,48.6564064,51,0,-20
32,100,100,60,go_to_color_detect_down,green,TRUE,FALSE,joint 3 +,TRUE,40:42.9,21.969,0.211,231.2,130.88797,280.6901245,61.35441971,45,65,51,10.11999893,-20
32,100,100,60,go_to_color_detect_up_from_color_detect_down,green,TRUE,FALSE,joint 3 -,FALSE,40:44.3,22.007,0.204,231.2,111.1430054,238.3469391,-24.27519226,45,65,51,48,-20
32,100,100,60,go_to_color_detect_up_from_color_detect_down,green,TRUE,FALSE,joint 3 -,FALSE,40:45.0,22.007,0.204,231.2,130.4863892,279.828949,56.11413574,45,65,51,10.3846302,-20
32,100,100,60,detecting_color,green,FALSE,FALSE,detecting_color,FALSE,40:46.4,17.108,0.164,231.2,131.6940765,282.4188232,84.95825195,45,65,51,-4.66E-10,-20
32,100,100,60,go_to_color_detect_down,green,TRUE,FALSE,joint 3 +,FALSE,40:47.1,16.386,0.164,231.2,131.6935272,282.4176636,84.34249878,45,65,51,0.399999917,-20
32,100,100,60,go_to_color_detect_down,green,TRUE,FALSE,joint 3 +,FALSE,40:47.8,16.139,0.164,231.2,115.9743576,248.7077942,-12.77654266,45,65,51,42.36306,-20
32,100,100,60,go_to_color_detect_up_from_color_detect_down,green,TRUE,FALSE,joint 3 -,TRUE,40:49.2,16.272,0.158,231.2,124.9818192,268.024353,18.49610138,45,65,51,25.56000519,-20
32,100,100,60,go_to_blue_up,blue,TRUE,FALSE,joint 1 +,TRUE,40:49.9,23.317,0.158,231.2,122.7580948,286.4161072,84.95825195,46.80000305,67.20000458,51,-4.66E-10,-20
32,100,100,60,go_to_pick_up_from_blue,blue,TRUE,FALSE,joint 1 -,FALSE,40:51.3,21.988,0.212,231.2,36.89640427,309.4226685,84.95825195,63.19999695,82.79999542,51,-4.66E-10,-20
32,100,100,60,go_to_pick_up_from_blue,blue,TRUE,FALSE,joint 1 -,FALSE,40:52.0,18.342,0.212,231.2,280.3932495,135.9535065,84.95825195,5.867225647,25.20232201,51,-4.66E-10,-20
32,100,100,60,moving_belt,blue,FALSE,TRUE,joint 1 -,FALSE,40:53.4,16.272,0.157,231.2,292.822052,106.5785141,84.95825195,0,20,51,-4.66E-10,-20
32,100,100,60,moving_belt,blue,FALSE,TRUE,joint 1 -,FALSE,40:54.1,16.272,0.157,231.2,292.822052,106.5785141,84.95825195,0,20,51,-4.66E-10,-20
32,100,100,60,moving_belt,blue,FALSE,TRUE,joint 1 -,FALSE,40:54.8,16.31,0.157,231.2,292.822052,106.5785141,84.95825195,0,20,51,-4.66E-10,-20
32,100,100,60,moving_belt,blue,FALSE,TRUE,joint 1 -,FALSE,40:56.2,16.253,0.156,231.2,292.822052,106.5785141,84.95825195,0,20,51,-4.66E-10,-20
32,100,100,60,go_to_pick_down,blue,TRUE,FALSE,joint 3 +,FALSE,40:56.9,16.215,0.156,231.2,292.8208313,106.5780716,84.34249878,0,20,51,0.400000006,-20
32,100,100,60,go_to_pick_up_from_pick_down,blue,TRUE,FALSE,joint 3 -,TRUE,40:58.3,16.196,0.157,231.2,283.7506104,103.2767792,32.56571198,0,20,51,20.55999756,-20
32,100,100,60,go_to_color_detect_up_from_pick_up,blue,TRUE,FALSE,joint 1 +,TRUE,40:59.0,16.196,0.157,231.2,290.6828918,112.2817841,84.95825195,1.120002747,21.44000244,51,0,-20
32,100,100,60,go_to_color_detect_up_from_pick_up,blue,TRUE,FALSE,joint 1 +,TRUE,41:00.4,22.14,0.217,231.2,144.7928772,275.9325256,84.95825195,42.31219482,62.75547791,51,0,-20
32,100,100,60,go_to_color_detect_down,blue,TRUE,FALSE,joint 3 +,TRUE,41:01.1,22.196,0.217,231.2,123.2313766,264.2705383,10.88928986,45,65,51,31.42768288,-20
32,100,100,60,go_to_color_detect_up_from_color_detect_down,blue,TRUE,FALSE,joint 3 -,FALSE,41:02.5,22.026,0.205,231.2,114.4084549,245.3497162,-16.78678894,45,65,51,43.19999695,-20
32,100,100,60,go_to_color_detect_up_from_color_detect_down,blue,TRUE,FALSE,joint 3 -,FALSE,41:03.2,18.19,0.205,231.2,131.6860046,282.4015198,82.58737946,45,65,51,0.672846556,-20
32,100,100,60,detecting_color,blue,FALSE,FALSE,detecting_color,FALSE,41:03.8,18.19,0.167,231.2,131.6940765,282.4188232,84.95825195,45,65,51,-4.66E-10,-20
32,100,100,60,go_to_color_detect_down,blue,TRUE,FALSE,joint 3 +,FALSE,41:05.2,16.196,0.167,233.1,130.88797,280.6901245,61.35441971,45,65,51,10.11999893,-20
32,100,100,60,go_to_color_detect_up_from_color_detect_down,blue,TRUE,FALSE,joint 3 -,TRUE,41:05.9,16.196,0.158,233.1,111.2354584,238.5451965,-24.07778931,45,65,51,47.75999832,-20
32,100,100,60,go_to_color_detect_up_from_color_detect_down,blue,TRUE,FALSE,joint 3 -,TRUE,41:07.3,16.462,0.158,231.2,131.3155365,281.6070557,68.75533295,45,65,51,5.636942863,-20
32,100,100,60,go_to_red_up,red,TRUE,FALSE,joint 1 +,TRUE,41:08.0,23.393,0.213,231.2,53.46846008,306.9932556,84.95825195,60.12000275,81.24000549,51,-4.66E-10,-20
32,100,100,60,go_to_pick_up_from_red,red,TRUE,FALSE,joint 1 -,FALSE,41:09.4,22.5,0.213,233.1,-178.5566254,255.3845215,84.95825195,104.9599991,124.8799973,51,-4.66E-10,-20
32,100,100,60,go_to_pick_up_from_red,red,TRUE,FALSE,joint 1 -,FALSE,41:10.1,22.5,0.193,233.1,75.3864212,302.3584595,84.95825195,56,74,51,-4.66E-10,-20
32,100,100,60,go_to_pick_up_from_red,red,TRUE,FALSE,joint 1 -,FALSE,41:11.5,17.07,0.193,231.2,291.8808594,109.1297607,84.95825195,0.499996185,20.31999588,51,-4.66E-10,-20
32,100,100,60,moving_belt,red,FALSE,TRUE,joint 1 -,FALSE,41:12.2,16.424,0.159,231.2,292.822052,106.5785141,84.95825195,0,20,51,-4.66E-10,-20
32,100,100,60,moving_belt,red,FALSE,TRUE,joint 1 -,FALSE,41:12.9,16.348,0.159,231.2,292.822052,106.5785141,84.95825195,0,20,51,-4.66E-10,-20
32,100,100,60,moving_belt,red,FALSE,TRUE,joint 1 -,FALSE,41:14.3,16.158,0.158,231.2,292.822052,106.5785141,84.95825195,0,20,51,-4.66E-10,-20
32,100,100,60,moving_belt,red,FALSE,TRUE,joint 1 -,FALSE,41:15.0,16.158,0.158,231.2,292.822052,106.5785141,84.95825195,0,20,51,-4.66E-10,-20
32,100,100,60,go_to_pick_down,red,TRUE,FALSE,joint 3 +,FALSE,41:16.4,16.158,0.158,231.2,291.3401794,106.0391617,63.48404694,0,20,51,9.239999771,-20
32,100,100,60,go_to_pick_up_from_pick_down,red,TRUE,FALSE,joint 3 -,TRUE,41:17.0,16.31,0.159,231.2,288.0148621,104.8288422,46.51549149,0,20,51,14.39999676,-20
32,100,100,60,go_to_color_detect_up_from_pick_up,red,TRUE,FALSE,joint 1 +,TRUE,41:18.4,21.038,0.159,231.2,279.7907104,137.1892242,84.95825195,6.120002747,26.84000206,51,0,-20
32,100,100,60,go_to_color_detect_down,red,TRUE,FALSE,joint 3 +,TRUE,41:19.1,22.975,0.211,231.2,131.6940613,282.4187927,84.85562897,45,65,51,0.119999975,-20
32,100,100,60,go_to_color_detect_down,red,TRUE,FALSE,joint 3 +,TRUE,41:19.8,22.975,0.211,231.2,117.0414658,250.9962158,-9.863693237,45,65,51,40.94049835,-20
32,100,100,60,go_to_color_detect_up_from_color_detect_down,red,TRUE,FALSE,joint 3 -,FALSE,41:21.2,22.443,0.211,231.2,120.4589081,258.3249512,0.64251709,45,65,51,33.95999908,-20
32,100,100,60,detecting_color,red,FALSE,FALSE,detecting_color,FALSE,41:21.9,22.443,0.211,233.1,131.6940765,282.4188232,84.95825195,45,65,51,-4.66E-10,-20
32,100,100,60,detecting_color,red,FALSE,FALSE,detecting_color,FALSE,41:23.3,17.222,0.158,233.1,131.6940765,282.4188232,84.95825195,45,65,51,-4.66E-10,-20
32,100,100,60,go_to_color_detect_down,red,TRUE,FALSE,joint 3 +,FALSE,41:24.0,16.139,0.158,231.2,124.5267944,267.0485535,16.41339874,45,65,51,29.04512024,-20
32,100,100,60,go_to_color_detect_up_from_color_detect_down,red,TRUE,FALSE,joint 3 -,TRUE,41:25.4,16.386,0.159,231.2,113.5900192,243.594574,-18.76850891,45,65,51,44.3599968,-20
32,100,100,60,go_to_color_detect_up_from_color_detect_down,red,TRUE,FALSE,joint 3 -,TRUE,41:26.1,23.222,0.159,231.2,131.6714325,282.3703003,80.99049377,45,65,51,1.215409517,-20
32,100,100,60,go_to_green_up,green,TRUE,FALSE,joint 1 +,TRUE,41:27.5,23.412,0.212,231.2,-34.67082596,309.6799622,84.95825195,76.38805389,97.19787598,51,-4.66E-10,-20
32,100,100,60,go_to_pick_up_from_green,green,TRUE,FALSE,joint 1 -,FALSE,41:28.1,22.842,0.212,231.2,-21.52013397,310.8707581,84.95825195,73.95999908,93,51,-4.66E-10,-20
32,100,100,60,go_to_pick_up_from_green,green,TRUE,FALSE,joint 1 -,FALSE,41:28.8,18.114,0.212,231.2,273.6846313,148.9981384,84.95825195,8.564552307,27.75673485,51,-4.66E-10,-20
32,100,100,60,moving_belt,green,FALSE,TRUE,joint 1 -,FALSE,41:30.2,16.215,0.158,231.2,292.822052,106.5785141,84.95825195,0,20,51,-4.66E-10,-20
32,100,100,60,moving_belt,green,FALSE,TRUE,joint 1 -,FALSE,41:30.9,16.215,0.158,231.2,292.822052,106.5785141,84.95825195,0,20,51,-4.66E-10,-20
32,100,100,60,moving_belt,green,FALSE,TRUE,joint 1 -,FALSE,41:32.3,16.405,0.158,231.2,292.822052,106.5785141,84.95825195,0,20,51,-4.66E-10,-20
32,100,100,60,moving_belt,green,FALSE,TRUE,joint 1 -,FALSE,41:33.0,16.405,0.158,231.2,292.822052,106.5785141,84.95825195,0,20,51,-4.66E-10,-20
32,100,100,60,go_to_pick_down,green,TRUE,FALSE,joint 3 +,FALSE,41:34.5,16.272,0.157,231.2,292.8186951,106.5772934,83.93200684,0,20,51,0.600000024,-20
32,100,100,60,go_to_pick_up_from_pick_down,green,TRUE,FALSE,joint 3 -,TRUE,41:35.2,16.31,0.157,231.2,284.0235596,103.3761215,33.33361053,0,20,51,20.19999695,-20
32,100,100,60,go_to_color_detect_up_from_pick_up,green,TRUE,FALSE,joint 1 +,TRUE,41:35.9,16.31,0.157,231.2,291.2281189,110.8599167,84.95825195,0.84000206,21.12000275,51,0,-20
32,100,100,60,go_to_color_detect_up_from_pick_up,green,TRUE,FALSE,joint 1 +,TRUE,41:37.4,22.026,0.216,231.2,144.7928772,275.9325256,84.95825195,42.31219482,62.75547791,51,0,-20
32,100,100,60,go_to_color_detect_down,green,TRUE,FALSE,joint 3 +,TRUE,41:38.1,21.988,0.216,231.2,126.9899673,272.3308411,28.84605026,45,65,51,23.79999542,-20
32,100,100,60,go_to_color_detect_up_from_color_detect_down,green,TRUE,FALSE,joint 3 -,FALSE,41:39.5,21.817,0.205,231.2,113.9860611,244.4438782,-17.81891632,45,65,51,43.79999542,-20
32,100,100,60,go_to_color_detect_up_from_color_detect_down,green,TRUE,FALSE,joint 3 -,FALSE,41:40.2,20.089,0.205,231.2,131.6800842,282.388855,81.84018707,45,65,51,0.924128056,-20
32,100,100,60,detecting_color,green,FALSE,FALSE,detecting_color,FALSE,41:40.8,16.994,0.167,231.2,131.6940765,282.4188232,84.95825195,45,65,51,-4.66E-10,-20
32,100,100,60,go_to_color_detect_down,green,TRUE,FALSE,joint 3 +,FALSE,41:42.2,16.31,0.167,231.2,131.1483459,281.2485352,65.51657104,45,65,51,8.399998665,-20
32,100,100,60,go_to_color_detect_up_from_color_detect_down,green,TRUE,FALSE,joint 3 -,TRUE,41:42.9,16.31,0.159,231.2,111.1933823,238.4549713,-24.16770935,45,65,51,47.98356247,-20
32,100,100,60,go_to_color_detect_up_from_color_detect_down,green,TRUE,FALSE,joint 3 -,TRUE,41:44.3,16.538,0.159,231.2,131.1147461,281.1764832,64.92980957,45,65,51,7.059505463,-20
32,100,100,60,go_to_blue_up,blue,TRUE,FALSE,joint 1 +,TRUE,41:45.0,23.393,0.215,231.2,66.87979126,304.3531189,84.95825195,57.60656738,78.35542297,51,-4.66E-10,-20
32,100,100,60,go_to_pick_up_from_blue,blue,TRUE,FALSE,joint 1 -,FALSE,41:46.4,21.988,0.215,231.2,91.10731506,297.9986572,84.95825195,53,72,51,-4.66E-10,-20
32,100,100,60,go_to_pick_up_from_blue,blue,TRUE,FALSE,joint 1 -,FALSE,41:47.1,21.988,0.159,231.2,292.6473999,107.0571442,84.95825195,0.093681335,20.02877808,51,-4.66E-10,-20
32,100,100,60,moving_belt,blue,FALSE,TRUE,joint 1 -,FALSE,41:48.5,16.139,0.159,231.2,292.822052,106.5785141,84.95825195,0,20,51,-4.66E-10,-20
32,100,100,60,moving_belt,blue,FALSE,TRUE,joint 1 -,FALSE,41:49.2,16.367,0.157,231.2,292.822052,106.5785141,84.95825195,0,20,51,-4.66E-10,-20
32,100,100,60,moving_belt,blue,FALSE,TRUE,joint 1 -,FALSE,41:49.9,16.291,0.157,231.2,292.822052,106.5785141,84.95825195,0,20,51,-4.66E-10,-20
32,100,100,60,moving_belt,blue,FALSE,TRUE,joint 1 -,FALSE,41:51.2,16.196,0.157,231.2,292.822052,106.5785141,84.95825195,0,20,51,-4.66E-10,-20
32,100,100,60,go_to_pick_down,blue,TRUE,FALSE,joint 3 +,FALSE,41:51.9,16.196,0.157,231.2,291.6086121,106.1368561,65.51656342,0,20,51,8.399999619,-20
32,100,100,60,go_to_pick_up_from_pick_down,blue,TRUE,FALSE,joint 3 -,TRUE,41:53.3,16.234,0.157,231.2,288.0148621,104.8288422,46.51549149,0,20,51,14.39999676,-20
32,100,100,60,go_to_color_detect_up_from_pick_up,blue,TRUE,FALSE,joint 1 +,TRUE,41:54.0,18.988,0.177,231.2,269.5393372,156.3722229,84.95825195,10.12000084,31.04000092,51,0,-20
32,100,100,60,go_to_color_detect_down,blue,TRUE,FALSE,joint 3 +,TRUE,41:55.4,22.177,0.177,231.2,131.6940765,282.4188232,84.95825195,45,65,51,0,-20
32,100,100,60,go_to_color_detect_down,blue,TRUE,FALSE,joint 3 +,TRUE,41:56.1,22.177,0.205,231.2,117.6041107,252.2028198,-8.263710022,45,65,51,40.16921616,-20
32,100,100,60,go_to_color_detect_up_from_color_detect_down,blue,TRUE,FALSE,joint 3 -,FALSE,41:57.5,21.817,0.205,231.2,123.6932373,265.2609863,12.79538727,45,65,51,28.16000366,-20
32,100,100,60,detecting_color,blue,FALSE,FALSE,detecting_color,FALSE,41:58.2,21.817,0.165,231.2,131.6940765,282.4188232,84.95825195,45,65,51,-4.66E-10,-20
32,100,100,60,detecting_color,blue,FALSE,FALSE,detecting_color,FALSE,41:58.9,17.393,0.165,231.2,131.6940765,282.4188232,84.95825195,45,65,51,-4.66E-10,-20
32,100,100,60,go_to_color_detect_down,blue,TRUE,FALSE,joint 3 +,FALSE,42:00.2,16.291,0.158,231.2,125.7947235,269.7676392,22.43538284,45,65,51,26.50255775,-20
32,100,100,60,go_to_color_detect_up_from_color_detect_down,blue,TRUE,FALSE,joint 3 -,TRUE,42:00.9,16.443,0.158,231.2,113.5900192,243.594574,-18.76850891,45,65,51,44.3599968,-20
32,100,100,60,go_to_color_detect_up_from_color_detect_down,blue,TRUE,FALSE,joint 3 -,TRUE,42:02.3,22.823,0.215,231.2,131.6714325,282.3703003,80.99049377,45,65,51,1.215409517,-20
32,100,100,60,go_to_red_up,red,TRUE,FALSE,joint 1 +,TRUE,42:03.0,22.766,0.215,233.1,-57.07366943,306.3434753,84.95825195,80.55355835,101.9319458,51,-4.66E-10,-20
32,100,100,60,go_to_pick_up_from_red,red,TRUE,FALSE,joint 1 -,FALSE,42:04.4,22.272,0.207,233.1,-168.804245,261.9329224,84.95825195,102.7999954,122.359993,51,-4.66E-10,-20
32,100,100,60,go_to_pick_up_from_red,red,TRUE,FALSE,joint 1 -,FALSE,42:05.1,21.418,0.207,231.2,161.7968445,266.3184204,84.95825195,38.71999359,56.97999191,51,-4.66E-10,-20
32,100,100,60,moving_belt,red,FALSE,TRUE,joint 1 -,FALSE,42:06.5,16.348,0.158,231.2,292.822052,106.5785141,84.95825195,0,20,51,-4.66E-10,-20
32,100,100,60,moving_belt,red,FALSE,TRUE,joint 1 -,FALSE,42:07.2,16.329,0.158,231.2,292.822052,106.5785141,84.95825195,0,20,51,-4.66E-10,-20
32,100,100,60,moving_belt,red,FALSE,TRUE,joint 1 -,FALSE,42:07.9,16.329,0.158,231.2,292.822052,106.5785141,84.95825195,0,20,51,-4.66E-10,-20
32,100,100,60,moving_belt,red,FALSE,TRUE,joint 1 -,FALSE,42:09.2,16.348,0.158,231.2,292.822052,106.5785141,84.95825195,0,20,51,-4.66E-10,-20
32,100,100,60,moving_belt,red,FALSE,TRUE,joint 1 -,FALSE,42:09.9,16.063,0.158,231.2,292.822052,106.5785141,84.95825195,0,20,51,-4.66E-10,-20
32,100,100,60,go_to_pick_down,red,TRUE,FALSE,joint 3 +,FALSE,42:11.3,16.291,0.158,231.2,287.0558777,104.4797974,42.92969131,0,20,51,17.24933052,-20
32,100,100,60,go_to_pick_up_from_pick_down,red,TRUE,FALSE,joint 3 -,TRUE,42:12.0,16.671,0.158,231.2,292.2120056,106.3564758,71.15796661,0,20,51,4.750665188,-20
32,100,100,60,go_to_color_detect_up_from_pick_up,red,TRUE,FALSE,joint 1 +,TRUE,42:13.4,23.127,0.214,231.2,225.0492859,215.537796,84.95825195,23.76327896,45.04656219,51,0,-20
32,100,100,60,go_to_color_detect_down,red,TRUE,FALSE,joint 3 +,TRUE,42:14.1,22.291,0.214,231.2,131.6019897,282.221344,76.95742798,45,65,51,3.63999939,-20
32,100,100,60,go_to_color_detect_down,red,TRUE,FALSE,joint 3 +,TRUE,42:15.5,21.988,0.205,231.2,111.2668076,238.6124268,-24.01065826,45,65,51,47.93228149,-20
32,100,100,60,go_to_color_detect_up_from_color_detect_down,red,TRUE,FALSE,joint 3 -,FALSE,42:16.2,22.026,0.205,231.2,129.4516754,277.6099854,45.82000732,45,65,51,14.34975433,-20
32,100,100,60,detecting_color,red,FALSE,FALSE,detecting_color,FALSE,42:16.9,17.203,0.205,231.2,131.6940765,282.4188232,84.95825195,45,65,51,-4.66E-10,-20
32,100,100,60,go_to_color_detect_down,red,TRUE,FALSE,joint 3 +,FALSE,42:18.3,16.348,0.167,231.2,131.6940765,282.4188232,84.95825195,45,65,51,-4.66E-10,-20
32,100,100,60,go_to_color_detect_down,red,TRUE,FALSE,joint 3 +,FALSE,42:19.0,16.348,0.167,231.2,119.3897095,256.0320435,-2.859916687,45,65,51,37.6153717,-20
32,100,100,60,go_to_color_detect_up_from_color_detect_down,red,TRUE,FALSE,joint 3 -,TRUE,42:20.4,16.367,0.16,231.2,117.437233,251.8449402,-8.743080139,45,65,51,38.75999832,-20
32,100,100,60,go_to_green_up,green,TRUE,FALSE,joint 1 +,TRUE,42:21.1,18.76,0.16,231.2,131.1022797,282.6940308,84.95825195,45.12000275,65.24000549,51,-4.66E-10,-20
32,100,100,60,go_to_green_up,green,TRUE,FALSE,joint 1 +,TRUE,42:22.5,21.969,0.212,231.2,-63.43982315,305.0887146,84.95825195,81.74662781,102.2364502,51,-4.66E-10,-20
32,100,100,60,go_to_pick_up_from_green,green,TRUE,FALSE,joint 1 -,FALSE,42:23.2,20.715,0.212,231.2,70.73384857,303.4805603,84.95825195,56.87998962,75.35999298,51,-4.66E-10,-20
32,100,100,60,go_to_pick_up_from_green,green,TRUE,FALSE,joint 1 -,FALSE,42:23.9,20.715,0.159,231.2,291.1213684,111.1399307,84.95825195,0.895103455,20.64728546,51,-4.66E-10,-20
32,100,100,60,moving_belt,green,FALSE,TRUE,joint 1 -,FALSE,42:25.4,16.386,0.159,233.1,292.822052,106.5785141,84.95825195,0,20,51,-4.66E-10,-20
32,100,100,60,moving_belt,green,FALSE,TRUE,joint 1 -,FALSE,42:26.1,16.253,0.158,233.1,292.822052,106.5785141,84.95825195,0,20,51,-4.66E-10,-20
32,100,100,60,moving_belt,green,FALSE,TRUE,joint 1 -,FALSE,42:27.5,16.215,0.158,233.1,292.822052,106.5785141,84.95825195,0,20,51,-4.66E-10,-20
32,100,100,60,moving_belt,green,FALSE,TRUE,joint 1 -,FALSE,42:28.1,16.291,0.158,233.1,292.822052,106.5785141,84.95825195,0,20,51,-4.66E-10,-20
32,100,100,60,go_to_pick_down,green,TRUE,FALSE,joint 3 +,FALSE,42:29.5,16.044,0.157,233.1,291.8388977,106.2206802,67.45097351,0,20,51,7.599999905,-20
32,100,100,60,go_to_pick_up_from_pick_down,green,TRUE,FALSE,joint 3 -,TRUE,42:30.2,16.044,0.157,233.1,287.0924683,104.4931183,43.06042099,0,20,51,15.87999725,-20
32,100,100,60,go_to_color_detect_up_from_pick_up,green,TRUE,FALSE,joint 1 +,TRUE,42:30.9,18.209,0.167,233.1,282.8768005,130.7074585,84.95825195,4.800003052,25.44000244,51,0,-20
32,100,100,60,go_to_color_detect_down,green,TRUE,FALSE,joint 3 +,TRUE,42:32.3,22.614,0.167,233.1,131.6940765,282.4188232,84.95825195,45,65,51,0.039999992,-20
32,100,100,60,go_to_color_detect_down,green,TRUE,FALSE,joint 3 +,TRUE,42:33.0,22.083,0.205,233.1,117.6041107,252.2028198,-8.263710022,45,65,51,40.16921616,-20
32,100,100,60,go_to_color_detect_up_from_color_detect_down,green,TRUE,FALSE,joint 3 -,FALSE,42:34.4,21.684,0.205,233.1,119.829277,256.9747009,-1.446182251,45,65,51,35,-20
32,100,100,60,detecting_color,green,FALSE,FALSE,detecting_color,FALSE,42:35.1,21.684,0.163,233.1,131.6940765,282.4188232,84.95825195,45,65,51,-4.66E-10,-20
32,100,100,60,detecting_color,green,FALSE,FALSE,detecting_color,FALSE,42:36.5,17.298,0.163,233.1,131.6940765,282.4188232,84.95825195,45,65,51,-4.66E-10,-20
32,100,100,60,go_to_color_detect_down,green,TRUE,FALSE,joint 3 +,FALSE,42:37.2,16.196,0.158,233.1,128.4491882,275.4601746,38.07123947,45,65,51,19.83999634,-20
32,100,100,60,go_to_color_detect_up_from_color_detect_down,green,TRUE,FALSE,joint 3 -,TRUE,42:37.9,16.196,0.158,233.1,113.5900192,243.594574,-18.76850891,45,65,51,44.3599968,-20
32,100,100,60,go_to_color_detect_up_from_color_detect_down,green,TRUE,FALSE,joint 3 -,TRUE,42:39.3,23.07,0.216,233.1,131.6714325,282.3703003,80.99049377,45,65,51,1.215409517,-20
32,100,100,60,go_to_blue_up,blue,TRUE,FALSE,joint 1 +,TRUE,42:39.9,22.804,0.216,233.1,28.30613899,310.326416,84.95825195,64.78823853,84.89709473,51,-4.66E-10,-20
32,100,100,60,go_to_pick_up_from_blue,blue,TRUE,FALSE,joint 1 -,FALSE,42:41.3,22.026,0.171,233.1,204.1493835,235.428894,84.95825195,29.07019043,47.56528854,51,-4.66E-10,-20
32,100,100,60,moving_belt,blue,FALSE,TRUE,joint 1 -,FALSE,42:42.0,16.462,0.171,233.1,292.822052,106.5785141,84.95825195,0,20,51,-4.66E-10,-20
32,100,100,60,moving_belt,blue,FALSE,TRUE,joint 1 -,FALSE,42:43.4,16.519,0.171,233.1,292.822052,106.5785141,84.95825195,0,20,51,-4.66E-10,-20
32,100,100,60,moving_belt,blue,FALSE,TRUE,joint 1 -,FALSE,42:44.1,16.519,0.157,233.1,292.822052,106.5785141,84.95825195,0,20,51,-4.66E-10,-20
32,100,100,60,moving_belt,blue,FALSE,TRUE,joint 1 -,FALSE,42:45.5,16.253,0.157,233.1,292.822052,106.5785141,84.95825195,0,20,51,-4.66E-10,-20
32,100,100,60,moving_belt,blue,FALSE,TRUE,joint 1 -,FALSE,42:46.2,16.386,0.156,233.1,292.822052,106.5785141,84.95825195,0,20,51,-4.66E-10,-20
32,100,100,60,go_to_pick_down,blue,TRUE,FALSE,joint 3 +,FALSE,42:46.9,16.31,0.156,233.1,284.6309814,103.5972061,35.0909729,0,20,51,20.2263279,-20
32,100,100,60,go_to_pick_up_from_pick_down,blue,TRUE,FALSE,joint 3 -,TRUE,42:48.3,17.544,0.158,233.1,292.7965393,106.5692215,82.13280487,0,20,51,0.825168788,-20
32,100,100,60,go_to_color_detect_up_from_pick_up,blue,TRUE,FALSE,joint 1 +,TRUE,42:49.2,22.823,0.158,233.1,210.5514221,229.7212219,84.95825195,27.49312592,48.6564064,51,0,-20
32,100,100,60,go_to_color_detect_down,blue,TRUE,FALSE,joint 3 +,TRUE,42:50.5,22.196,0.206,233.1,131.4761963,281.9515991,72.65760803,45,65,51,5.439999104,-20
32,100,100,60,go_to_color_detect_up_from_color_detect_down,blue,TRUE,FALSE,joint 3 -,FALSE,42:51.2,21.874,0.206,231.2,111.1520844,238.3664093,-24.2558136,45,65,51,47.99484253,-20
32,100,100,60,go_to_color_detect_up_from_color_detect_down,blue,TRUE,FALSE,joint 3 -,FALSE,42:51.9,21.836,0.206,231.2,130.2709961,279.3670349,53.67488861,45,65,51,11.31591129,-20
32,100,100,60,detecting_color,blue,FALSE,FALSE,detecting_color,FALSE,42:53.3,17.355,0.17,231.2,131.6940765,282.4188232,84.95825195,45,65,51,-4.66E-10,-20
32,100,100,60,go_to_color_detect_down,blue,TRUE,FALSE,joint 3 +,FALSE,42:54.0,17.355,0.17,231.2,131.6940613,282.4187927,84.85562897,45,65,51,0.119999975,-20
32,100,100,60,go_to_color_detect_down,blue,TRUE,FALSE,joint 3 +,FALSE,42:55.4,16.272,0.158,231.2,114.1095123,244.7086334,-17.51932526,45,65,51,44.72818756,-20
32,100,100,60,go_to_color_detect_up_from_color_detect_down,blue,TRUE,FALSE,joint 3 -,TRUE,42:56.1,16.329,0.158,231.2,124.3405457,266.6491394,15.58374023,45,65,51,26.88000488,-20
32,100,100,60,go_to_red_up,red,TRUE,FALSE,joint 1 +,TRUE,42:57.5,22.937,0.215,231.2,126.1485901,284.9390564,84.95825195,46.12000275,66.44000244,51,-4.66E-10,-20
32,100,100,60,go_to_red_up,red,TRUE,FALSE,joint 1 +,TRUE,42:58.2,22.937,0.215,231.2,-155.3498077,270.1298828,84.95825195,99.90290833,120.5212936,51,-4.66E-10,-20
32,100,100,60,go_to_pick_up_from_red,red,TRUE,FALSE,joint 1 -,FALSE,42:59.6,22.026,0.209,231.2,-105.9649811,293.0446472,84.95825195,89.87999725,108.7599945,51,-4.66E-10,-20
32,100,100,60,go_to_pick_up_from_red,red,TRUE,FALSE,joint 1 -,FALSE,43:00.2,22.026,0.209,231.2,256.5631714,176.858902,84.95825195,14.5799942,33.51999283,51,-4.66E-10,-20
32,100,100,60,moving_belt,red,FALSE,TRUE,joint 1 -,FALSE,43:01.0,16.272,0.159,231.2,292.822052,106.5785141,84.95825195,0,20,51,-4.66E-10,-20
32,100,100,60,moving_belt,red,FALSE,TRUE,joint 1 -,FALSE,43:02.3,16.291,0.159,231.2,292.822052,106.5785141,84.95825195,0,20,51,-4.66E-10,-20
32,100,100,60,moving_belt,red,FALSE,TRUE,joint 1 -,FALSE,43:03.0,16.025,0.156,231.2,292.822052,106.5785141,84.95825195,0,20,51,-4.66E-10,-20
32,100,100,60,moving_belt,red,FALSE,TRUE,joint 1 -,FALSE,43:04.4,16.291,0.156,231.2,292.822052,106.5785141,84.95825195,0,20,51,-4.66E-10,-20
32,100,100,60,go_to_pick_down,red,TRUE,FALSE,joint 3 +,FALSE,43:05.1,16.291,0.156,231.2,292.822052,106.5785141,84.95825195,0,20,51,-4.66E-10,-20
32,100,100,60,go_to_pick_up_from_pick_down,red,TRUE,FALSE,joint 3 -,TRUE,43:06.5,16.234,0.157,231.2,282.7709961,102.9202271,29.91052246,0,20,51,22,-20
32,100,100,60,go_to_color_detect_up_from_pick_up,red,TRUE,FALSE,joint 1 +,TRUE,43:07.2,16.405,0.157,231.2,292.5982056,107.1915665,84.95825195,0.120000839,20.24000168,51,0,-20
32,100,100,60,go_to_color_detect_up_from_pick_up,red,TRUE,FALSE,joint 1 +,TRUE,43:07.9,23.165,0.217,231.2,158.1761475,268.4846802,84.95825195,39.49578857,60.1390686,51,0,-20
32,100,100,60,go_to_color_detect_down,red,TRUE,FALSE,joint 3 +,TRUE,43:09.3,22.424,0.217,231.2,129.21521,277.1029053,43.84802246,45,65,51,17.39999771,-20
32,100,100,60,go_to_color_detect_up_from_color_detect_down,red,TRUE,FALSE,joint 3 -,FALSE,43:10.0,22.026,0.206,231.2,112.5685043,241.4039307,-21.14051056,45,65,51,45.79999542,-20
32,100,100,60,go_to_color_detect_up_from_color_detect_down,red,TRUE,FALSE,joint 3 -,FALSE,43:11.4,22.215,0.206,231.2,131.6209259,282.2619934,77.8272171,45,65,51,2.32925415,-20
32,100,100,60,detecting_color,red,FALSE,FALSE,detecting_color,FALSE,43:12.1,17.222,0.167,231.2,131.6940765,282.4188232,84.95825195,45,65,51,-4.66E-10,-20
32,100,100,60,go_to_color_detect_down,red,TRUE,FALSE,joint 3 +,FALSE,43:13.4,16.519,0.167,231.2,131.6019897,282.221344,76.95742798,45,65,51,3.63999939,-20
32,100,100,60,go_to_color_detect_down,red,TRUE,FALSE,joint 3 +,FALSE,43:14.1,16.31,0.159,231.2,112.3698502,240.9779053,-21.58929443,45,65,51,46.78459167,-20
32,100,100,60,go_to_color_detect_up_from_color_detect_down,red,TRUE,FALSE,joint 3 -,TRUE,43:15.5,17.715,0.159,233.1,129.7558289,278.2622681,48.52571487,45,65,51,13.29847336,-20
32,100,100,60,go_to_green_up,green,TRUE,FALSE,joint 1 +,TRUE,43:16.2,23.374,0.215,233.1,97.12145233,296.0931702,84.95825195,51.84000397,72.6000061,51,-4.66E-10,-20
32,100,100,60,go_to_pick_up_from_green,green,TRUE,FALSE,joint 1 -,FALSE,43:17.6,22.158,0.215,231.2,-80.65180969,300.9967041,84.95825195,85,104.9599991,51,-4.66E-10,-20
32,100,100,60,go_to_pick_up_from_green,green,TRUE,FALSE,joint 1 -,FALSE,43:18.3,22.14,0.176,231.2,206.8181763,233.0879059,84.95825195,28.41744995,46.92963409,51,-4.66E-10,-20
32,100,100,60,moving_belt,green,FALSE,TRUE,joint 1 -,FALSE,43:19.0,16.386,0.176,233.1,292.822052,106.5785141,84.95825195,0,20,51,-4.66E-10,-20
32,100,100,60,moving_belt,green,FALSE,TRUE,joint 1 -,FALSE,43:20.3,16.595,0.176,233.1,292.822052,106.5785141,84.95825195,0,20,51,-4.66E-10,-20
32,100,100,60,moving_belt,green,FALSE,TRUE,joint 1 -,FALSE,43:21.0,16.595,0.159,233.1,292.822052,106.5785141,84.95825195,0,20,51,-4.66E-10,-20
32,100,100,60,moving_belt,green,FALSE,TRUE,joint 1 -,FALSE,43:22.4,16.234,0.159,233.1,292.822052,106.5785141,84.95825195,0,20,51,-4.66E-10,-20
32,100,100,60,moving_belt,green,FALSE,TRUE,joint 1 -,FALSE,43:23.1,16.348,0.159,233.1,292.822052,106.5785141,84.95825195,0,20,51,-4.66E-10,-20
32,100,100,60,go_to_pick_down,green,TRUE,FALSE,joint 3 +,FALSE,43:24.5,16.158,0.159,233.1,286.6092224,104.3172302,41.3682785,0,20,51,17.84549713,-20
32,100,100,60,go_to_pick_up_from_pick_down,green,TRUE,FALSE,joint 3 -,TRUE,43:25.2,17.317,0.159,233.1,292.7230225,106.5424728,79.39258575,0,20,51,1.773667693,-20
32,100,100,60,go_to_color_detect_up_from_pick_up,green,TRUE,FALSE,joint 1 +,TRUE,43:25.9,17.317,0.159,231.2,220.1657104,220.5238647,84.95825195,25.04656219,46.28984451,51,0,-20
32,100,100,60,go_to_color_detect_down,green,TRUE,FALSE,joint 3 +,TRUE,43:27.3,22.291,0.207,231.2,131.5272522,282.0610657,74.19223785,45,65,51,4.799999237,-20
32,100,100,60,go_to_color_detect_down,green,TRUE,FALSE,joint 3 +,TRUE,43:28.0,21.969,0.207,233.1,111.1520844,238.3664093,-24.2558136,45,65,51,47.99484253,-20
32,100,100,60,go_to_color_detect_up_from_color_detect_down,green,TRUE,FALSE,joint 3 -,FALSE,43:29.4,22.045,0.196,233.1,130.0281982,278.846344,51.1447525,45,65,51,12.28719234,-20
32,100,100,60,detecting_color,green,FALSE,FALSE,detecting_color,FALSE,43:30.0,17.468,0.196,231.2,131.6940765,282.4188232,84.95825195,45,65,51,-4.66E-10,-20
32,100,100,60,go_to_color_detect_down,green,TRUE,FALSE,joint 3 +,FALSE,43:31.4,16.177,0.158,231.2,131.6940613,282.4187927,84.85562897,45,65,51,0.119999975,-20
32,100,100,60,go_to_color_detect_down,green,TRUE,FALSE,joint 3 +,FALSE,43:32.1,16.177,0.158,233.1,117.0414658,250.9962158,-9.863693237,45,65,51,40.94049835,-20
32,100,100,60,go_to_color_detect_up_from_color_detect_down,green,TRUE,FALSE,joint 3 -,TRUE,43:33.5,20.734,0.183,233.1,119.829277,256.9747009,-1.446182251,45,65,51,35,-20
32,100,100,60,go_to_blue_up,blue,TRUE,FALSE,joint 1 +,TRUE,43:34.2,20.734,0.183,233.1,127.539566,284.3191528,84.95825195,45.84000397,66.12000275,51,-4.66E-10,-20
32,100,100,60,go_to_pick_up_from_blue,blue,TRUE,FALSE,joint 1 -,FALSE,43:35.6,22.177,0.206,233.1,31.70705795,309.997406,84.95825195,64.15999603,83.87999725,51,-4.66E-10,-20
32,100,100,60,go_to_pick_up_from_blue,blue,TRUE,FALSE,joint 1 -,FALSE,43:36.3,22.177,0.206,233.1,259.3958435,172.6775055,84.95825195,13.65135193,32.62644958,51,-4.66E-10,-20
32,100,100,60,moving_belt,blue,FALSE,TRUE,joint 1 -,FALSE,43:37.0,16.424,0.206,233.1,292.822052,106.5785141,84.95825195,0,20,51,-4.66E-10,-20
32,100,100,60,moving_belt,blue,FALSE,TRUE,joint 1 -,FALSE,43:38.4,16.386,0.159,233.1,292.822052,106.5785141,84.95825195,0,20,51,-4.66E-10,-20
32,100,100,60,moving_belt,blue,FALSE,TRUE,joint 1 -,FALSE,43:39.1,16.12,0.159,231.2,292.822052,106.5785141,84.95825195,0,20,51,-4.66E-10,-20
32,100,100,60,moving_belt,blue,FALSE,TRUE,joint 1 -,FALSE,43:40.4,16.12,0.157,231.2,292.822052,106.5785141,84.95825195,0,20,51,-4.66E-10,-20
32,100,100,60,go_to_pick_down,blue,TRUE,FALSE,joint 3 +,FALSE,43:41.1,16.12,0.157,231.2,292.8220215,106.5784988,84.85562897,0,20,51,0.119999997,-20
32,100,100,60,go_to_pick_up_from_pick_down,blue,TRUE,FALSE,joint 3 -,TRUE,43:42.5,16.158,0.159,231.2,282.7636108,102.9175491,29.89107895,0,20,51,22,-20
32,100,100,60,go_to_color_detect_up_from_pick_up,blue,TRUE,FALSE,joint 1 +,TRUE,43:43.2,16.405,0.159,231.2,292.3730469,107.8041534,84.95825195,0.240001678,20.40000153,51,0,-20
32,100,100,60,go_to_color_detect_up_from_pick_up,blue,TRUE,FALSE,joint 1 +,TRUE,43:44.6,22.367,0.207,231.2,158.1761475,268.4846802,84.95825195,39.49578857,60.1390686,51,0,-20
32,100,100,60,go_to_color_detect_down,blue,TRUE,FALSE,joint 3 +,TRUE,43:45.3,22.367,0.207,231.2,129.5434113,277.8067322,46.61455154,45,65,51,16.23999786,-20
32,100,100,60,go_to_color_detect_up_from_color_detect_down,blue,TRUE,FALSE,joint 3 -,FALSE,43:46.5,21.969,0.207,231.2,112.5685043,241.4039307,-21.14051056,45,65,51,45.79999542,-20
32,100,100,60,go_to_color_detect_up_from_color_detect_down,blue,TRUE,FALSE,joint 3 -,FALSE,43:47.2,22.14,0.207,231.2,131.6209259,282.2619934,77.8272171,45,65,51,2.32925415,-20
32,100,100,60,detecting_color,blue,FALSE,FALSE,detecting_color,FALSE,43:48.6,16.348,0.159,231.2,131.6940765,282.4188232,84.95825195,45,65,51,-4.66E-10,-20
32,100,100,60,go_to_color_detect_down,blue,TRUE,FALSE,joint 3 +,FALSE,43:49.3,16.348,0.159,231.2,131.4761963,281.9515991,72.65760803,45,65,51,5.439999104,-20
32,100,100,60,go_to_color_detect_down,blue,TRUE,FALSE,joint 3 +,FALSE,43:50.0,16.481,0.159,231.2,111.6781311,239.4945068,-23.12142944,45,65,51,47.53843689,-20
32,100,100,60,go_to_color_detect_up_from_color_detect_down,blue,TRUE,FALSE,joint 3 -,TRUE,43:51.4,17.943,0.16,231.2,130.2709961,279.3670349,53.67488861,45,65,51,11.31591129,-20
32,100,100,60,go_to_red_up,red,TRUE,FALSE,joint 1 +,TRUE,43:52.1,23.374,0.16,231.2,97.12145233,296.0931702,84.95825195,51.84000397,72.6000061,51,-4.66E-10,-20
32,100,100,60,go_to_red_up,red,TRUE,FALSE,joint 1 +,TRUE,43:53.4,22.121,0.206,231.2,-176.5236816,256.7939148,84.95825195,104.5051575,124.683548,51,-4.66E-10,-20
32,100,100,60,go_to_pick_up_from_red,red,TRUE,FALSE,joint 1 -,FALSE,43:54.1,22.291,0.206,231.2,-20.6519165,310.9296265,84.95825195,73.79999542,92.19999695,51,-4.66E-10,-20
32,100,100,60,go_to_pick_up_from_red,red,TRUE,FALSE,joint 1 -,FALSE,43:55.5,16.291,0.16,231.2,283.5573425,129.224472,84.95825195,4.499992371,23.91999245,51,-4.66E-10,-20
32,100,100,60,moving_belt,red,FALSE,TRUE,joint 1 -,FALSE,43:56.2,16.234,0.16,231.2,292.822052,106.5785141,84.95825195,0,20,51,-4.66E-10,-20
32,100,100,60,moving_belt,red,FALSE,TRUE,joint 1 -,FALSE,43:57.6,16.177,0.156,231.2,292.822052,106.5785141,84.95825195,0,20,51,-4.66E-10,-20
32,100,100,60,moving_belt,red,FALSE,TRUE,joint 1 -,FALSE,43:58.3,16.177,0.156,231.2,292.822052,106.5785141,84.95825195,0,20,51,-4.66E-10,-20
32,100,100,60,moving_belt,red,FALSE,TRUE,joint 1 -,FALSE,43:59.0,16.386,0.156,231.2,292.822052,106.5785141,84.95825195,0,20,51,-4.66E-10,-20
32,100,100,60,go_to_pick_down,red,TRUE,FALSE,joint 3 +,FALSE,44:00.4,16.291,0.157,233.1,292.7538757,106.5537033,80.34086609,0,20,51,2.200000048,-20
32,100,100,60,go_to_pick_up_from_pick_down,red,TRUE,FALSE,joint 3 -,TRUE,44:01.1,16.291,0.157,233.1,283.7506104,103.2767792,32.56571198,0,20,51,20.55999756,-20
32,100,100,60,go_to_color_detect_up_from_pick_up,red,TRUE,FALSE,joint 1 +,TRUE,44:02.5,23.317,0.173,233.1,285.4649353,124.9539871,84.95825195,3.640003204,24.20000267,51,0,-20
32,100,100,60,go_to_color_detect_up_from_pick_up,red,TRUE,FALSE,joint 1 +,TRUE,44:03.1,21.969,0.173,233.1,134.7821808,280.9581909,84.95825195,44.37187958,64.57516479,51,0,-20
32,100,100,60,go_to_color_detect_down,red,TRUE,FALSE,joint 3 +,TRUE,44:04.5,21.969,0.205,233.1,122.5802841,262.8742371,8.30921936,45,65,51,32.55896378,-20
32,100,100,60,go_to_color_detect_up_from_color_detect_down,red,TRUE,FALSE,joint 3 -,FALSE,44:05.2,21.931,0.205,233.1,118.0126343,253.0788879,-7.072502136,45,65,51,37.87999725,-20
32,100,100,60,detecting_color,red,FALSE,FALSE,detecting_color,FALSE,44:05.9,17.886,0.205,233.1,131.6940765,282.4188232,84.94502258,45,65,51,-4.66E-10,-20
32,100,100,60,detecting_color,red,FALSE,FALSE,detecting_color,FALSE,44:07.3,16.595,0.163,233.1,131.6940765,282.4188232,84.95825195,45,65,51,-4.66E-10,-20
32,100,100,60,go_to_color_detect_down,red,TRUE,FALSE,joint 3 +,FALSE,44:08.0,16.595,0.163,233.1,130.1018219,279.0042419,51.89044571,45,65,51,14.03999901,-20
32,100,100,60,go_to_color_detect_up_from_color_detect_down,red,TRUE,FALSE,joint 3 -,TRUE,44:09.4,16.31,0.158,231.2,111.1388397,238.3379974,-24.28404236,45,65,51,47.95999908,-20
32,100,100,60,go_to_color_detect_up_from_color_detect_down,red,TRUE,FALSE,joint 3 -,TRUE,44:10.1,16.462,0.158,231.2,130.988739,280.9062195,62.86984253,45,65,51,7.830786705,-20
32,100,100,60,go_to_green_up,green,TRUE,FALSE,joint 1 +,TRUE,44:11.5,22.158,0.216,231.2,34.73529053,309.6727295,84.95825195,63.6000061,84.84000397,51,-4.66E-10,-20
32,100,100,60,go_to_pick_up_from_green,green,TRUE,FALSE,joint 1 -,FALSE,44:12.2,22.158,0.216,231.2,-66.70217133,304.3921204,84.95825195,82.35999298,101.8799896,51,-4.66E-10,-20
32,100,100,60,go_to_pick_up_from_green,green,TRUE,FALSE,joint 1 -,FALSE,44:13.6,16.424,0.205,231.2,233.8234406,205.9862213,84.95825195,21.37836456,40.09054565,51,-4.66E-10,-20
32,100,100,60,moving_belt,green,FALSE,TRUE,joint 1 -,FALSE,44:14.3,16.424,0.205,231.2,292.822052,106.5785141,84.95825195,0,20,51,-4.66E-10,-20
32,100,100,60,moving_belt,green,FALSE,TRUE,joint 1 -,FALSE,44:15.0,16.405,0.159,231.2,292.822052,106.5785141,84.95825195,0,20,51,-4.66E-10,-20
32,100,100,60,moving_belt,green,FALSE,TRUE,joint 1 -,FALSE,44:16.3,16.196,0.159,231.2,292.822052,106.5785141,84.95825195,0,20,51,-4.66E-10,-20
32,100,100,60,moving_belt,green,FALSE,TRUE,joint 1 -,FALSE,44:17.0,16.196,0.159,231.2,292.822052,106.5785141,84.95825195,0,20,51,-4.66E-10,-20
32,100,100,60,moving_belt,green,FALSE,TRUE,joint 1 -,FALSE,44:18.4,16.329,0.159,231.2,292.822052,106.5785141,84.95825195,0,20,51,-4.66E-10,-20
32,100,100,60,go_to_pick_down,green,TRUE,FALSE,joint 3 +,FALSE,44:19.1,16.329,0.158,231.2,283.2887878,103.1086884,31.29510498,0,20,51,21.60716057,-20
32,100,100,60,go_to_pick_up_from_pick_down,green,TRUE,FALSE,joint 3 -,TRUE,44:20.5,16.253,0.158,231.2,292.8220215,106.5784988,84.84449768,0,20,51,0.008171108,-20
32,100,100,60,go_to_color_detect_up_from_pick_up,green,TRUE,FALSE,joint 1 +,TRUE,44:21.2,23.146,0.207,231.2,183.7216797,251.6944122,84.95825195,33.87281799,54.79610062,51,0,-20
32,100,100,60,go_to_color_detect_down,green,TRUE,FALSE,joint 3 +,TRUE,44:22.6,21.779,0.207,231.2,130.88797,280.6901245,61.35441971,45,65,51,10.11999893,-20
32,100,100,60,go_to_color_detect_up_from_color_detect_down,green,TRUE,FALSE,joint 3 -,FALSE,44:23.3,21.779,0.205,231.2,111.3318787,238.7519684,-23.87106323,45,65,51,47.59999847,-20
32,100,100,60,go_to_color_detect_up_from_color_detect_down,green,TRUE,FALSE,joint 3 -,FALSE,44:24.0,21.836,0.205,231.2,131.3155365,281.6070557,68.75533295,45,65,51,5.636942863,-20
32,100,100,60,detecting_color,green,FALSE,FALSE,detecting_color,FALSE,44:25.4,16.956,0.205,231.2,131.6940765,282.4188232,84.95825195,45,65,51,-4.66E-10,-20
32,100,100,60,go_to_color_detect_down,green,TRUE,FALSE,joint 3 +,FALSE,44:26.1,16.215,0.161,231.2,131.6482849,282.3206482,79.31524658,45,65,51,2.63999939,-20
32,100,100,60,go_to_color_detect_down,green,TRUE,FALSE,joint 3 +,FALSE,44:27.4,16.158,0.161,231.2,112.9808426,242.2881927,-20.19615173,45,65,51,46.08203125,-20
32,100,100,60,go_to_color_detect_up_from_color_detect_down,green,TRUE,FALSE,joint 3 -,TRUE,44:28.1,17.582,0.16,231.2,128.7387848,276.0812073,40.15884018,45,65,51,16.57231712,-20
32,100,100,60,go_to_blue_up,blue,TRUE,FALSE,joint 1 +,TRUE,44:29.5,23.07,0.16,231.2,107.5999832,292.4482422,84.95825195,49.80000305,70.44000244,51,-4.66E-10,-20
32,100,100,60,go_to_pick_up_from_blue,blue,TRUE,FALSE,joint 1 -,FALSE,44:30.2,21.741,0.206,231.2,53.03978729,307.067627,84.95825195,60.19999695,79.55999756,51,-4.66E-10,-20
32,100,100,60,go_to_pick_up_from_blue,blue,TRUE,FALSE,joint 1 -,FALSE,44:31.6,16.88,0.206,231.2,287.9406128,119.1382675,84.95825195,2.477807999,22.05290413,51,-4.66E-10,-20
32,100,100,60,moving_belt,blue,FALSE,TRUE,joint 1 -,FALSE,44:32.3,16.253,0.159,231.2,292.822052,106.5785141,84.95825195,0,20,51,-4.66E-10,-20
32,100,100,60,moving_belt,blue,FALSE,TRUE,joint 1 -,FALSE,44:33.0,16.253,0.159,231.2,292.822052,106.5785141,84.95825195,0,20,51,-4.66E-10,-20
32,100,100,60,moving_belt,blue,FALSE,TRUE,joint 1 -,FALSE,44:34.4,16.272,0.159,231.2,292.822052,106.5785141,84.95825195,0,20,51,-4.66E-10,-20
32,100,100,60,moving_belt,blue,FALSE,TRUE,joint 1 -,FALSE,44:35.0,16.272,0.159,231.2,292.822052,106.5785141,84.95825195,0,20,51,-4.66E-10,-20
32,100,100,60,go_to_pick_down,blue,TRUE,FALSE,joint 3 +,FALSE,44:36.5,16.367,0.159,231.2,292.7538757,106.5537033,80.34086609,0,20,51,2.200000048,-20
32,100,100,60,go_to_pick_up_from_pick_down,blue,TRUE,FALSE,joint 3 -,TRUE,44:37.1,16.367,0.159,231.2,283.7506104,103.2767792,32.56571198,0,20,51,20.55999756,-20
32,100,100,60,go_to_color_detect_up_from_pick_up,blue,TRUE,FALSE,joint 1 +,TRUE,44:38.5,23.393,0.216,231.2,286.5872192,122.3580856,84.95825195,3.120002747,23.6400032,51,0,-20
32,100,100,60,go_to_color_detect_up_from_pick_up,blue,TRUE,FALSE,joint 1 +,TRUE,44:39.2,21.893,0.216,231.2,134.7821808,280.9581909,84.95825195,44.37187958,64.57516479,51,0,-20
32,100,100,60,go_to_color_detect_down,blue,TRUE,FALSE,joint 3 +,TRUE,44:40.6,21.703,0.206,231.2,123.2313766,264.2705383,10.88928986,45,65,51,31.42768288,-20
32,100,100,60,go_to_color_detect_up_from_color_detect_down,blue,TRUE,FALSE,joint 3 -,FALSE,44:41.3,22.007,0.206,231.2,117.437233,251.8449402,-8.743080139,45,65,51,38.75999832,-20
32,100,100,60,detecting_color,blue,FALSE,FALSE,detecting_color,FALSE,44:42.0,22.007,0.206,231.2,131.6940765,282.4188232,84.91607666,45,65,51,0.005157059,-20
32,100,100,60,detecting_color,blue,FALSE,FALSE,detecting_color,FALSE,44:43.4,16.405,0.168,231.2,131.6940765,282.4188232,84.95825195,45,65,51,-4.66E-10,-20
32,100,100,60,go_to_color_detect_down,blue,TRUE,FALSE,joint 3 +,FALSE,44:44.1,16.405,0.168,231.2,130.1018219,279.0042419,51.89044571,45,65,51,14.03999901,-20
32,100,100,60,go_to_color_detect_up_from_color_detect_down,blue,TRUE,FALSE,joint 3 -,TRUE,44:45.5,16.348,0.159,231.2,111.1388397,238.3379974,-24.28404236,45,65,51,47.95999908,-20
32,100,100,60,go_to_color_detect_up_from_color_detect_down,blue,TRUE,FALSE,joint 3 -,TRUE,44:46.1,16.69,0.159,231.2,131.5572662,282.1254578,75.20805359,45,65,51,3.271817207,-20
32,100,100,60,go_to_red_up,red,TRUE,FALSE,joint 1 +,TRUE,44:47.5,22.045,0.214,231.2,28.02575111,310.3518677,84.95825195,64.84000397,86.12000275,51,-4.66E-10,-20
32,100,100,60,go_to_pick_up_from_red,red,TRUE,FALSE,joint 1 -,FALSE,44:48.2,22.045,0.214,231.2,-178.7348633,255.2598114,84.95825195,105,125,51,-4.66E-10,-20
32,100,100,60,go_to_pick_up_from_red,red,TRUE,FALSE,joint 1 -,FALSE,44:49.6,16.405,0.169,231.2,106.5784836,292.822052,84.95825195,50,68.01999664,51,-4.66E-10,-20
32,100,100,60,go_to_pick_up_from_red,red,TRUE,FALSE,joint 1 -,FALSE,44:50.3,16.405,0.169,231.2,292.6729431,106.9872437,84.95825195,0.079996109,20.01999664,51,-4.66E-10,-20
32,100,100,60,moving_belt,red,FALSE,TRUE,joint 1 -,FALSE,44:51.0,16.253,0.169,231.2,292.822052,106.5785141,84.95825195,0,20,51,-4.66E-10,-20
32,100,100,60,moving_belt,red,FALSE,TRUE,joint 1 -,FALSE,44:52.4,16.291,0.159,231.2,292.822052,106.5785141,84.95825195,0,20,51,-4.66E-10,-20
32,100,100,60,moving_belt,red,FALSE,TRUE,joint 1 -,FALSE,44:53.1,16.291,0.159,231.2,292.822052,106.5785141,84.95825195,0,20,51,-4.66E-10,-20
32,100,100,60,moving_belt,red,FALSE,TRUE,joint 1 -,FALSE,44:54.5,16.291,0.158,231.2,292.822052,106.5785141,84.95825195,0,20,51,-4.66E-10,-20
32,100,100,60,go_to_pick_down,red,TRUE,FALSE,joint 3 +,FALSE,44:55.2,16.31,0.158,231.2,290.6729431,105.7963104,59.12882614,0,20,51,11.03999996,-20
32,100,100,60,go_to_pick_up_from_pick_down,red,TRUE,FALSE,joint 3 -,TRUE,44:56.6,16.253,0.159,231.2,289.4106445,105.3368607,52.49071121,0,20,51,11.8799963,-20
32,100,100,60,go_to_color_detect_up_from_pick_up,red,TRUE,FALSE,joint 1 +,TRUE,44:57.3,23.165,0.159,231.2,274.1114197,148.2115173,84.95825195,8.400001526,29.24000168,51,0,-20
32,100,100,60,go_to_color_detect_down,red,TRUE,FALSE,joint 3 +,TRUE,44:58.6,22.14,0.208,231.2,131.6935272,282.4176636,84.34249878,45,65,51,0.399999917,-20
32,100,100,60,go_to_color_detect_down,red,TRUE,FALSE,joint 3 +,TRUE,44:59.3,22.121,0.208,231.2,115.9743576,248.7077942,-12.77654266,45,65,51,42.36306,-20
32,100,100,60,go_to_color_detect_up_from_color_detect_down,red,TRUE,FALSE,joint 3 -,FALSE,45:00.0,22.083,0.208,231.2,121.09729,259.6939697,2.842002869,45,65,51,32.88000107,-20
32,100,100,60,detecting_color,red,FALSE,FALSE,detecting_color,FALSE,45:01.4,19.253,0.205,231.2,131.6940765,282.4188232,84.95825195,45,65,51,-4.66E-10,-20
32,100,100,60,detecting_color,red,FALSE,FALSE,detecting_color,FALSE,45:02.1,16.937,0.205,231.2,131.6940765,282.4188232,84.95825195,45,65,51,-4.66E-10,-20
32,100,100,60,go_to_color_detect_down,red,TRUE,FALSE,joint 3 +,FALSE,45:03.5,16.101,0.159,231.2,126.9899673,272.3308411,28.84605026,45,65,51,23.79999542,-20
32,100,100,60,go_to_color_detect_up_from_color_detect_down,red,TRUE,FALSE,joint 3 -,TRUE,45:04.2,16.101,0.159,231.2,112.5685043,241.4039307,-21.14051056,45,65,51,45.79999542,-20
32,100,100,60,go_to_color_detect_up_from_color_detect_down,red,TRUE,FALSE,joint 3 -,TRUE,45:05.6,23.431,0.161,231.2,131.642746,282.3087463,78.98388672,45,65,51,1.917972565,-20
32,100,100,60,go_to_green_up,green,TRUE,FALSE,joint 1 +,TRUE,45:06.3,22.481,0.161,231.2,-25.25359917,310.5897522,84.95825195,74.64840698,95.5382309,51,-4.66E-10,-20
32,100,100,60,go_to_pick_up_from_green,green,TRUE,FALSE,joint 1 -,FALSE,45:07.0,22.481,0.207,231.2,-31.27413368,310.0413818,84.95825195,75.75999451,94.87999725,51,-4.66E-10,-20
32,100,100,60,go_to_pick_up_from_green,green,TRUE,FALSE,joint 1 -,FALSE,45:08.4,16.538,0.207,231.2,269.0462341,157.219101,84.95825195,10.30018806,29.41237068,51,-4.66E-10,-20
32,100,100,60,moving_belt,green,FALSE,TRUE,joint 1 -,FALSE,45:09.0,16.538,0.159,231.2,292.822052,106.5785141,84.95825195,0,20,51,-4.66E-10,-20
32,100,100,60,moving_belt,green,FALSE,TRUE,joint 1 -,FALSE,45:10.4,16.291,0.159,231.2,292.822052,106.5785141,84.95825195,0,20,51,-4.66E-10,-20
32,100,100,60,moving_belt,green,FALSE,TRUE,joint 1 -,FALSE,45:11.1,16.329,0.158,231.2,292.822052,106.5785141,84.95825195,0,20,51,-4.66E-10,-20
32,100,100,60,moving_belt,green,FALSE,TRUE,joint 1 -,FALSE,45:12.5,16.329,0.158,231.2,292.822052,106.5785141,84.95825195,0,20,51,-4.66E-10,-20
32,100,100,60,go_to_pick_down,green,TRUE,FALSE,joint 3 +,FALSE,45:13.2,16.177,0.158,231.2,292.8217468,106.5784073,84.65037537,0,20,51,0.24000001,-20
32,100,100,60,go_to_pick_up_from_pick_down,green,TRUE,FALSE,joint 3 -,TRUE,45:14.6,16.253,0.158,231.2,282.7636108,102.9175491,29.89107895,0,20,51,21.95999908,-20
32,100,100,60,go_to_color_detect_up_from_pick_up,green,TRUE,FALSE,joint 1 +,TRUE,45:15.3,16.253,0.158,231.2,292.0708618,108.6202011,84.95825195,0.400001526,20.60000229,51,0,-20
32,100,100,60,go_to_color_detect_up_from_pick_up,green,TRUE,FALSE,joint 1 +,TRUE,45:16.7,21.817,0.217,231.2,152.2978363,271.8622742,84.95825195,40.74235153,61.30563354,51,0,-20
32,100,100,60,go_to_color_detect_down,green,TRUE,FALSE,joint 3 +,TRUE,45:17.4,21.779,0.217,231.2,128.4491882,275.4601746,38.07123947,45,65,51,19.83999634,-20
32,100,100,60,go_to_color_detect_up_from_color_detect_down,green,TRUE,FALSE,joint 3 -,FALSE,45:18.3,22.007,0.205,231.2,113.2212372,242.8037109,-19.63748932,45,65,51,44.87999725,-20
32,100,100,60,go_to_color_detect_up_from_color_detect_down,green,TRUE,FALSE,joint 3 -,FALSE,45:19.2,22.007,0.205,231.2,131.6592712,282.3442078,80.03835297,45,65,51,1.546690941,-20
32,100,100,60,detecting_color,green,FALSE,FALSE,detecting_color,FALSE,45:20.0,17.525,0.167,231.2,131.6940765,282.4188232,84.95825195,45,65,51,-4.66E-10,-20
32,100,100,60,go_to_color_detect_down,green,TRUE,FALSE,joint 3 +,FALSE,45:21.6,16.538,0.167,231.2,131.4142609,281.8187866,71.02216339,45,65,51,6.119998932,-20
32,100,100,60,go_to_color_detect_down,green,TRUE,FALSE,joint 3 +,FALSE,45:22.4,16.139,0.158,231.2,111.5094223,239.1327057,-23.48812103,45,65,51,47.7097168,-20
32,100,100,60,go_to_color_detect_up_from_color_detect_down,green,TRUE,FALSE,joint 3 -,TRUE,45:23.1,16.31,0.158,231.2,130.4863892,279.828949,56.11413574,45,65,51,10.3846302,-20
32,100,100,60,go_to_blue_up,blue,TRUE,FALSE,joint 1 +,TRUE,45:24.5,23.374,0.213,231.2,84.63713074,299.9004822,84.95825195,54.24000549,75.12000275,51,-4.66E-10,-20
32,100,100,60,go_to_pick_up_from_blue,blue,TRUE,FALSE,joint 1 -,FALSE,45:25.2,21.931,0.213,231.2,76.65227509,302.0400085,84.95825195,55.75999451,74.87999725,51,-4.66E-10,-20
32,100,100,60,go_to_pick_up_from_blue,blue,TRUE,FALSE,joint 1 -,FALSE,45:26.6,18.646,0.159,231.2,291.8267517,109.2743912,84.95825195,0.528388977,20.34348679,51,-4.66E-10,-20
32,100,100,60,moving_belt,blue,FALSE,TRUE,joint 1 -,FALSE,45:27.3,16.215,0.159,231.2,292.822052,106.5785141,84.95825195,0,20,51,-4.66E-10,-20
32,100,100,60,moving_belt,blue,FALSE,TRUE,joint 1 -,FALSE,45:28.0,16.215,0.159,231.2,292.822052,106.5785141,84.95825195,0,20,51,-4.66E-10,-20
32,100,100,60,moving_belt,blue,FALSE,TRUE,joint 1 -,FALSE,45:29.4,16.253,0.157,231.2,292.822052,106.5785141,84.95825195,0,20,51,-4.66E-10,-20
32,100,100,60,moving_belt,blue,FALSE,TRUE,joint 1 -,FALSE,45:30.1,16.253,0.157,231.2,292.822052,106.5785141,84.95825195,0,20,51,-4.66E-10,-20
32,100,100,60,go_to_pick_down,blue,TRUE,FALSE,joint 3 +,FALSE,45:31.5,16.063,0.157,231.2,291.0296631,105.9261398,61.35441971,0,20,51,10.11999989,-20
32,100,100,60,go_to_pick_up_from_pick_down,blue,TRUE,FALSE,joint 3 -,TRUE,45:32.2,16.196,0.157,231.2,288.9488831,105.1688004,50.39237213,0,20,51,12.75999641,-20
32,100,100,60,go_to_color_detect_up_from_pick_up,blue,TRUE,FALSE,joint 1 +,TRUE,45:33.6,23.108,0.214,231.2,276.1540527,144.369873,84.95825195,7.600002289,28.40000153,51,0,-20
32,100,100,60,go_to_color_detect_down,blue,TRUE,FALSE,joint 3 +,TRUE,45:34.3,21.76,0.214,231.2,131.6935272,282.4176636,84.34249878,45,65,51,0.399999917,-20
32,100,100,60,go_to_color_detect_down,blue,TRUE,FALSE,joint 3 +,TRUE,45:35.7,21.893,0.204,231.2,115.9743576,248.7077942,-12.77654266,45,65,51,42.36306,-20
32,100,100,60,go_to_color_detect_up_from_color_detect_down,blue,TRUE,FALSE,joint 3 -,FALSE,45:36.4,21.893,0.204,231.2,121.7422409,261.0770569,5.154693604,45,65,51,31.76000214,-20
32,100,100,60,detecting_color,blue,FALSE,FALSE,detecting_color,FALSE,45:37.1,17.639,0.166,231.2,131.6940765,282.4188232,84.95825195,45,65,51,-4.66E-10,-20
32,100,100,60,detecting_color,blue,FALSE,FALSE,detecting_color,FALSE,45:37.8,17.639,0.166,231.2,131.6940765,282.4188232,84.95825195,45,65,51,-4.66E-10,-20
32,100,100,60,go_to_color_detect_down,blue,TRUE,FALSE,joint 3 +,FALSE,45:39.4,16.063,0.155,231.2,123.2313766,264.2705383,10.88928986,45,65,51,31.42768288,-20
32,100,100,60,go_to_color_detect_up_from_color_detect_down,blue,TRUE,FALSE,joint 3 -,TRUE,45:40.1,16.063,0.155,231.2,114.8562775,246.3100739,-15.67016602,45,65,51,42.55999756,-20
32,100,100,60,go_to_color_detect_up_from_color_detect_down,blue,TRUE,FALSE,joint 3 -,TRUE,45:41.1,16.234,0.155,231.2,131.6897888,282.4096375,83.23200989,45,65,51,0.461565048,-20
32,100,100,60,go_to_red_up,red,TRUE,FALSE,joint 1 +,TRUE,45:42.5,21.893,0.214,231.2,-84.98838043,299.8011169,84.95825195,85.82710266,107.0454865,51,-4.66E-10,-20
32,100,100,60,go_to_pick_up_from_red,red,TRUE,FALSE,joint 1 -,FALSE,45:43.2,22.253,0.214,231.2,-159.5600739,267.6645508,84.95825195,100.7999954,120.1999969,51,-4.66E-10,-20
32,100,100,60,go_to_pick_up_from_red,red,TRUE,FALSE,joint 1 -,FALSE,45:44.6,16.253,0.205,231.2,184.8305206,250.8812561,84.95825195,33.6199913,51.99999237,51,-4.66E-10,-20
32,100,100,60,moving_belt,red,FALSE,TRUE,joint 1 -,FALSE,45:45.3,16.253,0.205,231.2,292.822052,106.5785141,84.95825195,0,20,51,-4.66E-10,-20
32,100,100,60,moving_belt,red,FALSE,TRUE,joint 1 -,FALSE,45:46.7,16.158,0.157,231.2,292.822052,106.5785141,84.95825195,0,20,51,-4.66E-10,-20
32,100,100,60,moving_belt,red,FALSE,TRUE,joint 1 -,FALSE,45:47.4,16.329,0.157,231.2,292.822052,106.5785141,84.95825195,0,20,51,-4.66E-10,-20
32,100,100,60,moving_belt,red,FALSE,TRUE,joint 1 -,FALSE,45:48.1,16.386,0.159,231.2,292.822052,106.5785141,84.95825195,0,20,51,-4.66E-10,-20
32,100,100,60,moving_belt,red,FALSE,TRUE,joint 1 -,FALSE,45:49.4,16.177,0.159,231.2,292.822052,106.5785141,84.95825195,0,20,51,-4.66E-10,-20
32,100,100,60,go_to_pick_down,red,TRUE,FALSE,joint 3 +,FALSE,45:50.1,16.177,0.158,231.2,285.3606262,103.8627777,37.29911804,0,20,51,19.39399529,-20
32,100,100,60,go_to_pick_up_from_pick_down,red,TRUE,FALSE,joint 3 -,TRUE,45:51.5,16.31,0.158,231.2,292.7797852,106.5631256,81.32183075,0,20,51,1.101335168,-20
32,100,100,60,go_to_color_detect_up_from_pick_up,red,TRUE,FALSE,joint 1 +,TRUE,45:52.2,23.184,0.158,231.2,210.5514221,229.7212219,84.95825195,27.49312592,48.6564064,51,0,-20
32,100,100,60,go_to_color_detect_down,red,TRUE,FALSE,joint 3 +,TRUE,45:53.6,21.874,0.206,231.2,131.4761963,281.9515991,72.65760803,45,65,51,5.439999104,-20
32,100,100,60,go_to_color_detect_down,red,TRUE,FALSE,joint 3 +,TRUE,45:54.3,21.874,0.206,231.2,111.1430054,238.3469391,-24.27519226,45,65,51,48,-20
32,100,100,60,go_to_color_detect_up_from_color_detect_down,red,TRUE,FALSE,joint 3 -,FALSE,45:55.7,18.114,0.204,231.2,130.4863892,279.828949,56.11413574,45,65,51,10.3846302,-20
32,100,100,60,detecting_color,red,FALSE,FALSE,detecting_color,FALSE,45:56.4,18.114,0.204,231.2,131.6940765,282.4188232,84.95825195,45,65,51,-4.66E-10,-20
32,100,100,60,detecting_color,red,FALSE,FALSE,detecting_color,FALSE,45:57.1,16.462,0.159,231.2,131.6940765,282.4188232,84.95825195,45,65,51,-4.66E-10,-20
32,100,100,60,detecting_color,red,FALSE,FALSE,detecting_color,FALSE,45:58.5,16.234,0.159,231.2,131.6940765,282.4188232,84.95825195,45,65,51,-4.66E-10,-20
32,100,100,60,detecting_color,red,FALSE,FALSE,detecting_color,FALSE,45:59.1,16.158,0.158,231.2,131.6940765,282.4188232,84.95825195,45,65,51,-4.66E-10,-20
32,100,100,60,detecting_color,red,FALSE,FALSE,detecting_color,FALSE,46:00.1,16.158,0.158,231.2,131.6940765,282.4188232,84.95825195,45,65,51,-4.66E-10,-20
32,100,100,60,detecting_color,red,FALSE,FALSE,detecting_color,FALSE,46:01.6,16.291,0.159,231.2,131.6940765,282.4188232,84.95825195,45,65,51,-4.66E-10,-20
32,100,100,60,go_to_color_detect_down,red,TRUE,FALSE,joint 3 +,FALSE,46:02.3,16.158,0.159,231.2,129.8381958,278.4388733,49.29616547,45,65,51,15.11999893,-20
32,100,100,60,go_to_color_detect_up_from_color_detect_down,red,TRUE,FALSE,joint 3 -,TRUE,46:03.7,16.291,0.16,231.2,111.2354584,238.5451965,-24.07778931,45,65,51,47.75999832,-20
32,100,100,60,go_to_color_detect_up_from_color_detect_down,red,TRUE,FALSE,joint 3 -,TRUE,46:04.3,18.589,0.16,229.3,131.223114,281.4088745,66.89193726,45,65,51,6.328224182,-20
,,,,,,,,,,,,,,,,,,,,,
,,,,,,,,,,,,,,,,,,,,,
,,,,,,,,,,,,,,,,,,,,,
,,,,,,,,,,,,,,,,,,,,,
