demetriskallis/dobot_magician_pick_and_place_and_color_sorting/Sampling/WholeSystemExperiments_training_data/payload_32g/joint_measurements__armv_100_arma_100_belts_40_cube_32g.csv
cube/weight,arm/velocity_ratio,arm/acceleration_ratio,belt/speed,dobot/operation,dobot/color,dobot/moving_arm,dobot/moving_belt,dobot/operation2,dobot/suction,meross/sample_timestamp,meross/power,meross/current,meross/voltage,dobot/pose_x,dobot/pose_y,dobot/pose_z,dobot/pose_rHead,dobot/pose_joint1Angle,dobot/pose_joint2Angle,dobot/pose_joint3Angle,dobot/pose_joint4Angle
32,100,100,40,homing,,,,homing,,,,,,156.8345947265625,61.49079895019531,73.18756103515625,1.408864974975586,21.008865356445312,-10.988972663879395,23.80677604675293,-20.0
32,100,100,40,homing,,,,homing,,,,,,168.4573974609375,-0.561931848526001,73.18756103515625,-20.191123962402344,-0.5911237001419067,-10.988972663879395,23.80677604675293,-20.0
32,100,100,40,homing,,,,homing,,,,,,158.9023895263672,-55.930667877197266,73.18756103515625,-39.39111328125,-19.791114807128906,-10.988972663879395,23.80677604675293,-20.0
32,100,100,40,homing,,,,homing,,2024-03-04 15:40:11.748662,16.386,0.158,235.0,131.66990661621094,-105.07733154296875,73.18756103515625,-58.591129302978516,-38.99113082885742,-10.988972663879395,23.80677604675293,-20.0
32,100,100,40,homing,,,,homing,,2024-03-04 15:40:12.502167,16.386,0.158,235.0,83.7418212890625,-146.16946411132812,73.18756103515625,-80.19120788574219,-60.59121322631836,-10.988972663879395,23.80677604675293,-20.0
32,100,100,40,homing,,,,homing,,2024-03-04 15:40:13.192856,16.424,0.162,235.0,31.013343811035156,-165.5789337158203,73.18756103515625,-99.39128112792969,-79.7912826538086,-10.988972663879395,23.80677604675293,-20.0
32,100,100,40,homing,,,,homing,,2024-03-04 15:40:14.589593,16.462,0.162,235.0,-25.16534423828125,-166.56805419921875,73.18756103515625,-118.59135437011719,-98.9913558959961,-10.988972663879395,23.80677604675293,-20.0
32,100,100,40,homing,,,,homing,,2024-03-04 15:40:15.282093,16.462,0.162,235.0,-84.71614837646484,-145.60693359375,73.18756103515625,-140.19143676757812,-120.59143829345703,-10.988972663879395,23.80677604675293,-20.0
32,100,100,40,homing,,,,homing,,2024-03-04 15:40:16.660364,16.481,0.162,235.0,-122.09678649902344,-116.0628433227539,73.18756103515625,-156.45130920410156,-136.43130493164062,-10.988972663879395,23.80677604675293,-20.0
32,100,100,40,homing,,,,homing,,2024-03-04 15:40:17.352317,16.481,0.162,235.0,-120.13463592529297,-118.09265899658203,73.18756103515625,-155.49110412597656,-135.47109985351562,-10.988972663879395,23.80677604675293,-20.0
32,100,100,40,homing,,,,homing,,2024-03-04 15:40:18.734548,16.348,0.159,235.0,-99.52002716064453,-141.0111541748047,71.9337158203125,-144.3460235595703,-124.72090911865234,-8.68142032623291,24.76888656616211,-19.089773178100586
32,100,100,40,homing,,,,homing,,2024-03-04 15:40:19.429583,16.5,0.159,235.0,-22.771512985229492,-186.72586059570312,65.56927490234375,-112.81307983398438,-96.35297393798828,-0.25523772835731506,28.282093048095703,-15.766020774841309
32,100,100,40,homing,,,,homing,,2024-03-04 15:40:20.821774,16.804,0.16,235.0,81.89630889892578,-198.23411560058594,47.80406188964844,-77.55958557128906,-66.95304870605469,14.713266372680664,34.523048400878906,-9.861616134643555
32,100,100,40,homing,,,,homing,,2024-03-04 15:40:21.512627,16.804,0.16,235.0,196.90650939941406,-135.59910583496094,19.52886962890625,-38.15864944458008,-33.95313262939453,30.793365478515625,41.22746658325195,-3.518735408782959
32,100,100,40,homing,,,,homing,,2024-03-04 15:40:22.248303,16.728,0.161,235.0,246.31964111328125,-31.01807403564453,3.594085693359375,-7.809755802154541,-6.768197536468506,38.201744079589844,44.316307067871094,-0.5964630842208862
32,100,100,40,homing,,,,homing,,2024-03-04 15:40:23.643030,16.747,0.161,235.0,250.29991149902344,-0.12098775804042816,-0.21686553955078125,-0.027695126831531525,-0.01547916978597641,39.80091094970703,44.941226959228516,0.0
32,100,100,40,homing,,,,homing,,2024-03-04 15:40:24.334369,16.424,0.161,235.0,249.99998474121094,0.0,-7.62939453125e-06,0.0,0.0,39.71385955810547,44.94676971435547,0.0
32,100,100,40,homing,,,,homing,,2024-03-04 15:40:25.750951,16.31,0.158,235.0,249.99998474121094,0.00017966009909287095,-7.62939453125e-06,4.117506250622682e-05,4.117506250622682e-05,39.71385955810547,44.94676971435547,0.0
32,100,100,40,homing,,,,homing,,2024-03-04 15:40:26.483303,16.139,0.158,235.0,249.99998474121094,0.00017966009909287095,-7.62939453125e-06,4.117506250622682e-05,4.117506250622682e-05,39.71385955810547,44.94676971435547,0.0
32,100,100,40,homing,,,,homing,,2024-03-04 15:40:27.178188,16.139,0.157,235.0,249.99998474121094,0.00017966009909287095,-7.62939453125e-06,4.117506250622682e-05,4.117506250622682e-05,39.71385955810547,44.94676971435547,0.0
32,100,100,40,homing,,,,homing,,2024-03-04 15:40:28.262146,16.272,0.157,235.0,249.99998474121094,0.00017966009909287095,-7.62939453125e-06,4.117506250622682e-05,4.117506250622682e-05,39.71385955810547,44.94676971435547,0.0
32,100,100,40,homing,,,,homing,,2024-03-04 15:40:29.779572,16.31,0.158,235.0,249.99998474121094,0.00017966009909287095,-7.62939453125e-06,4.117506250622682e-05,4.117506250622682e-05,39.71385955810547,44.94676971435547,0.0
32,100,100,40,homing,,,,homing,,2024-03-04 15:40:29.779572,16.31,0.158,235.0,249.99998474121094,0.00017966009909287095,-7.62939453125e-06,4.117506250622682e-05,4.117506250622682e-05,39.71385955810547,44.94676971435547,0.0
32,100,100,40,homing,,,,homing,,2024-03-04 15:40:31.109733,16.291,0.158,235.0,249.99998474121094,0.00017966009909287095,-7.62939453125e-06,4.117506250622682e-05,4.117506250622682e-05,39.71385955810547,44.94676971435547,0.0
32,100,100,40,homing,,,,homing,,2024-03-04 15:40:32.338681,16.31,0.158,235.0,249.99998474121094,0.00017966009909287095,-7.62939453125e-06,4.117506250622682e-05,4.117506250622682e-05,39.71385955810547,44.94676971435547,0.0
32,100,100,40,homing,,,,homing,,2024-03-04 15:40:33.718024,16.196,0.157,235.0,249.99998474121094,0.00017966009909287095,-7.62939453125e-06,4.117506250622682e-05,4.117506250622682e-05,39.71385955810547,44.94676971435547,0.0
32,100,100,40,homing,,,,homing,,2024-03-04 15:40:34.409880,16.348,0.157,235.0,249.99998474121094,0.00017966009909287095,-7.62939453125e-06,4.117506250622682e-05,4.117506250622682e-05,39.71385955810547,44.94676971435547,0.0
32,100,100,40,homing,,,,homing,,2024-03-04 15:40:35.810812,16.367,0.157,235.0,249.99998474121094,0.00017966009909287095,-7.62939453125e-06,4.117506250622682e-05,4.117506250622682e-05,39.71385955810547,44.94676971435547,0.0
32,100,100,40,homing,,,,homing,,2024-03-04 15:40:36.501684,16.272,0.157,235.0,249.99998474121094,0.00017966009909287095,-7.62939453125e-06,4.117506250622682e-05,4.117506250622682e-05,39.71385955810547,44.94676971435547,0.0
32,100,100,40,homing,,,,homing,,2024-03-04 15:40:37.220096,16.272,0.157,235.0,249.99998474121094,0.00017966009909287095,-7.62939453125e-06,4.117506250622682e-05,4.117506250622682e-05,39.71385955810547,44.94676971435547,0.0
32,100,100,40,homing,,,,homing,,2024-03-04 15:40:38.596352,16.063,0.157,235.0,249.99998474121094,0.00017966009909287095,-7.62939453125e-06,4.117506250622682e-05,4.117506250622682e-05,39.71385955810547,44.94676971435547,0.0
32,100,100,40,homing,,,,homing,,2024-03-04 15:40:39.282901,16.329,0.157,235.0,252.45513916015625,10.13845443725586,6.3687286376953125,4.124641418457031e-05,2.566997766494751,38.55316925048828,42.04725646972656,-2.5669565200805664
32,100,100,40,homing,,,,homing,,2024-03-04 15:40:40.662671,16.5,0.159,235.0,273.5641784667969,97.0856704711914,61.26577377319336,4.1961669921875e-05,19.683874130249023,41.48180389404297,15.520195960998535,-19.6838321685791
32,100,100,40,moving_belt,nothing,false,true,go_to_pick_up_from_homing,,2024-03-04 15:40:41.351492,16.5,0.159,235.0,292.8220520019531,106.5785140991211,84.958251953125,0.0,20.0,51.0,0.0,-20.0
32,100,100,40,moving_belt,nothing,false,true,go_to_pick_up_from_homing,,2024-03-04 15:40:42.729907,17.487,0.161,235.0,292.8220520019531,106.5785140991211,84.958251953125,0.0,20.0,51.0,0.0,-20.0
32,100,100,40,moving_belt,nothing,false,true,go_to_pick_up_from_homing,,2024-03-04 15:40:43.482389,17.487,0.161,235.0,292.8220520019531,106.5785140991211,84.958251953125,0.0,20.0,51.0,0.0,-20.0
32,100,100,40,moving_belt,nothing,false,true,go_to_pick_up_from_homing,,2024-03-04 15:40:44.868187,17.544,0.168,235.0,292.8220520019531,106.5785140991211,84.958251953125,0.0,20.0,51.0,0.0,-20.0
32,100,100,40,moving_belt,nothing,false,true,go_to_pick_up_from_homing,,2024-03-04 15:40:45.573492,17.506,0.168,235.0,292.8220520019531,106.5785140991211,84.958251953125,0.0,20.0,51.0,0.0,-20.0
32,100,100,40,moving_belt,nothing,false,true,go_to_pick_up_from_homing,,2024-03-04 15:40:46.269174,17.525,0.168,235.0,292.8220520019531,106.5785140991211,84.958251953125,0.0,20.0,51.0,0.0,-20.0
32,100,100,40,moving_belt,nothing,false,true,go_to_pick_up_from_homing,,2024-03-04 15:40:47.654222,17.393,0.168,235.0,292.8220520019531,106.5785140991211,84.958251953125,0.0,20.0,51.0,0.0,-20.0
32,100,100,40,go_to_pick_down,nothing,true,false,joint 3 +,,2024-03-04 15:40:48.351230,17.393,0.168,235.0,292.54339599609375,106.47708892822266,75.62562561035156,0.0,20.0,51.0,4.200000286102295,-20.0
32,100,100,40,go_to_pick_up_from_pick_down,nothing,true,false,joint 3 -,true,2024-03-04 15:40:49.733394,16.196,0.168,235.0,285.0111389160156,103.7355728149414,36.227386474609375,0.0,20.0,51.0,18.87999725341797,-20.0
32,100,100,40,go_to_color_detect_up_from_pick_up,nothing,true,false,joint 1 +,true,2024-03-04 15:40:50.428145,16.196,0.168,235.0,282.8768005371094,130.70745849609375,84.958251953125,4.8000030517578125,25.44000244140625,51.0,0.0,-20.0
32,100,100,40,go_to_color_detect_up_from_pick_up,nothing,true,false,joint 1 +,true,2024-03-04 15:40:51.805570,22.595,0.209,235.0,132.98190307617188,281.8147277832031,84.958251953125,44.73844909667969,64.86173248291016,51.0,0.0,-20.0
32,100,100,40,go_to_color_detect_down,nothing,true,false,joint 3 +,true,2024-03-04 15:40:52.504829,22.329,0.209,235.0,122.58028411865234,262.8742370605469,8.309219360351562,45.0,65.0,51.0,32.558963775634766,-20.0
32,100,100,40,go_to_color_detect_up_from_color_detect_down,nothing,true,false,joint 3 -,false,2024-03-04 15:40:53.199463,22.329,0.205,235.0,118.6042709350586,254.34765625,-5.301177978515625,45.0,65.0,51.0,36.959999084472656,-20.0
32,100,100,40,detecting_color,nothing,false,false,detecting_color,false,2024-03-04 15:40:54.585416,16.937,0.205,235.0,131.69407653808594,282.4188232421875,84.958251953125,45.0,65.0,51.0,-4.656612873077393e-10,-20.0
32,100,100,40,detecting_color,nothing,false,false,detecting_color,false,2024-03-04 15:40:55.279541,16.937,0.164,235.0,131.69407653808594,282.4188232421875,84.958251953125,45.0,65.0,51.0,-4.656612873077393e-10,-20.0
32,100,100,40,go_to_color_detect_down,nothing,true,false,joint 3 +,false,2024-03-04 15:40:56.662667,16.519,0.164,235.0,129.2152099609375,277.1029052734375,43.8480224609375,45.0,65.0,51.0,17.39999771118164,-20.0
32,100,100,40,go_to_color_detect_up_from_color_detect_down,nothing,true,false,joint 3 -,true,2024-03-04 15:40:57.352242,16.348,0.164,235.0,111.33187866210938,238.75196838378906,-23.871063232421875,45.0,65.0,51.0,47.599998474121094,-20.0
32,100,100,40,go_to_color_detect_up_from_color_detect_down,nothing,true,false,joint 3 -,true,2024-03-04 15:40:58.732808,16.614,0.158,235.0,131.5928192138672,282.2016906738281,76.56852722167969,45.0,65.0,51.0,2.7805356979370117,-20.0
32,100,100,40,go_to_red_up,red,true,false,joint 1 +,true,2024-03-04 15:40:59.423092,23.753,0.209,235.0,21.08601951599121,310.9004821777344,84.958251953125,66.12000274658203,87.44000244140625,51.0,-4.656612873077393e-10,-20.0
32,100,100,40,go_to_pick_up_from_red,red,true,false,joint 1 -,false,2024-03-04 15:41:00.807740,22.728,0.209,235.0,-178.73486328125,255.2598114013672,84.958251953125,105.0,124.95999908447266,51.0,-4.656612873077393e-10,-20.0
32,100,100,40,go_to_pick_up_from_red,red,true,false,joint 1 -,false,2024-03-04 15:41:01.500078,22.728,0.209,235.0,126.3475341796875,284.85089111328125,84.958251953125,46.079994201660156,64.17999267578125,51.0,-4.656612873077393e-10,-20.0
32,100,100,40,moving_belt,red,false,true,joint 1 -,false,2024-03-04 15:41:02.190016,16.595,0.16,235.0,292.8220520019531,106.57848358154297,84.958251953125,-3.814697265625e-06,20.0,51.0,-4.656612873077393e-10,-20.0
32,100,100,40,moving_belt,red,false,true,joint 1 -,false,2024-03-04 15:41:03.575473,16.405,0.16,235.0,292.8220520019531,106.5785140991211,84.958251953125,0.0,20.0,51.0,-4.656612873077393e-10,-20.0
32,100,100,40,moving_belt,red,false,true,joint 1 -,false,2024-03-04 15:41:04.265385,17.639,0.169,235.0,292.8220520019531,106.5785140991211,84.958251953125,0.0,20.0,51.0,-4.656612873077393e-10,-20.0
32,100,100,40,moving_belt,red,false,true,joint 1 -,false,2024-03-04 15:41:05.649927,17.544,0.169,235.0,292.8220520019531,106.5785140991211,84.958251953125,0.0,20.0,51.0,-4.656612873077393e-10,-20.0
32,100,100,40,moving_belt,red,false,true,joint 1 -,false,2024-03-04 15:41:06.347321,17.544,0.167,235.0,292.8220520019531,106.5785140991211,84.958251953125,0.0,20.0,51.0,-4.656612873077393e-10,-20.0
32,100,100,40,moving_belt,red,false,true,joint 1 -,false,2024-03-04 15:41:07.734189,17.411,0.167,235.0,292.8220520019531,106.5785140991211,84.958251953125,0.0,20.0,51.0,-4.656612873077393e-10,-20.0
32,100,100,40,moving_belt,red,false,true,joint 1 -,false,2024-03-04 15:41:08.422384,17.411,0.169,235.0,292.8220520019531,106.5785140991211,84.958251953125,0.0,20.0,51.0,-4.656612873077393e-10,-20.0
32,100,100,40,go_to_pick_down,red,true,false,joint 3 +,false,2024-03-04 15:41:09.807272,17.601,0.169,235.0,292.6172790527344,106.50399017333984,76.95742797851562,0.0,20.0,51.0,3.640000104904175,-20.0
32,100,100,40,go_to_pick_up_from_pick_down,red,true,false,joint 3 -,true,2024-03-04 15:41:10.499245,17.393,0.159,235.0,286.6444396972656,104.33004760742188,41.48917770385742,0.0,20.0,51.0,16.55999755859375,-20.0
32,100,100,40,go_to_color_detect_up_from_pick_up,red,true,false,joint 1 +,true,2024-03-04 15:41:11.886459,22.918,0.159,235.0,282.8768005371094,130.70745849609375,84.958251953125,4.8000030517578125,25.44000244140625,51.0,0.0,-20.0
32,100,100,40,go_to_color_detect_up_from_pick_up,red,true,false,joint 1 +,true,2024-03-04 15:41:12.572797,22.918,0.21,235.0,133.78451538085938,281.4346008300781,84.958251953125,44.575164794921875,64.73844909667969,51.0,0.0,-20.0
32,100,100,40,go_to_color_detect_down,red,true,false,joint 3 +,true,2024-03-04 15:41:13.265268,22.785,0.21,235.0,119.38970947265625,256.03204345703125,-2.8599166870117188,45.0,65.0,51.0,37.61537170410156,-20.0
32,100,100,40,go_to_color_detect_up_from_color_detect_down,red,true,false,joint 3 -,false,2024-03-04 15:41:14.665160,22.31,0.207,235.0,117.4372329711914,251.84494018554688,-8.743080139160156,45.0,65.0,51.0,38.7599983215332,-20.0
32,100,100,40,detecting_color,red,false,false,detecting_color,false,2024-03-04 15:41:15.357359,22.31,0.207,235.0,131.69407653808594,282.4188232421875,84.958251953125,45.0,65.0,51.0,-4.656612873077393e-10,-20.0
32,100,100,40,detecting_color,red,false,false,detecting_color,false,2024-03-04 15:41:16.748209,17.127,0.207,235.0,131.69407653808594,282.4188232421875,84.958251953125,45.0,65.0,51.0,-4.656612873077393e-10,-20.0
32,100,100,40,go_to_color_detect_down,red,true,false,joint 3 +,false,2024-03-04 15:41:17.445853,16.31,0.159,235.0,130.3365020751953,279.50750732421875,54.395233154296875,45.0,65.0,51.0,12.999999046325684,-20.0
32,100,100,40,go_to_color_detect_up_from_color_detect_down,red,true,false,joint 3 -,true,2024-03-04 15:41:18.833905,16.253,0.159,235.0,111.13883972167969,238.33799743652344,-24.284042358398438,45.0,65.0,51.0,48.0,-20.0
32,100,100,40,go_to_color_detect_up_from_color_detect_down,red,true,false,joint 3 -,true,2024-03-04 15:41:19.522724,20.089,0.159,235.0,130.6764678955078,280.236572265625,58.460723876953125,45.0,65.0,51.0,9.493349075317383,-20.0
32,100,100,40,go_to_green_up,green,true,false,joint 1 +,true,2024-03-04 15:41:20.215208,20.089,0.159,235.0,53.46846008300781,306.9932556152344,84.958251953125,60.12000274658203,81.24000549316406,51.0,-4.656612873077393e-10,-20.0
32,100,100,40,go_to_pick_up_from_green,green,true,false,joint 1 -,false,2024-03-04 15:41:21.599030,22.671,0.21,235.0,-73.06226348876953,302.928466796875,84.958251953125,83.55999755859375,103.19999694824219,51.0,-4.656612873077393e-10,-20.0
32,100,100,40,go_to_pick_up_from_green,green,true,false,joint 1 -,false,2024-03-04 15:41:22.289128,20.791,0.21,235.0,218.48416137695312,222.19000244140625,84.958251953125,25.481815338134766,44.073997497558594,51.0,-4.656612873077393e-10,-20.0
32,100,100,40,moving_belt,green,false,true,joint 1 -,false,2024-03-04 15:41:23.673304,16.424,0.161,235.0,292.8220520019531,106.5785140991211,84.958251953125,0.0,20.0,51.0,-4.656612873077393e-10,-20.0
32,100,100,40,moving_belt,green,false,true,joint 1 -,false,2024-03-04 15:41:24.367715,16.424,0.161,235.0,292.8220520019531,106.5785140991211,84.958251953125,0.0,20.0,51.0,-4.656612873077393e-10,-20.0
32,100,100,40,moving_belt,green,false,true,joint 1 -,false,2024-03-04 15:41:25.744422,17.43,0.168,235.0,292.8220520019531,106.5785140991211,84.958251953125,0.0,20.0,51.0,-4.656612873077393e-10,-20.0
32,100,100,40,moving_belt,green,false,true,joint 1 -,false,2024-03-04 15:41:26.432116,17.43,0.168,235.0,292.8220520019531,106.5785140991211,84.958251953125,0.0,20.0,51.0,-4.656612873077393e-10,-20.0
32,100,100,40,moving_belt,green,false,true,joint 1 -,false,2024-03-04 15:41:27.843285,17.411,0.169,235.0,292.8220520019531,106.5785140991211,84.958251953125,0.0,20.0,51.0,-4.656612873077393e-10,-20.0
32,100,100,40,moving_belt,green,false,true,joint 1 -,false,2024-03-04 15:41:28.536466,17.639,0.169,235.0,292.8220520019531,106.5785140991211,84.958251953125,0.0,20.0,51.0,-4.656612873077393e-10,-20.0
32,100,100,40,moving_belt,green,false,true,joint 1 -,false,2024-03-04 15:41:29.231254,17.393,0.169,235.0,292.8220520019531,106.5785140991211,84.958251953125,0.0,20.0,51.0,-4.656612873077393e-10,-20.0
32,100,100,40,go_to_pick_down,green,true,false,joint 3 +,false,2024-03-04 15:41:30.619260,17.601,0.168,235.0,286.1759033203125,104.15950775146484,39.909912109375,0.0,20.0,51.0,18.401662826538086,-20.0
32,100,100,40,go_to_pick_up_from_pick_down,green,true,false,joint 3 -,true,2024-03-04 15:41:31.311502,17.601,0.168,235.0,292.3475036621094,106.40579223632812,72.78374481201172,0.0,20.0,51.0,4.154499053955078,-20.0
32,100,100,40,go_to_color_detect_up_from_pick_up,green,true,false,joint 1 +,true,2024-03-04 15:41:32.693254,23.089,0.216,235.0,215.3290557861328,225.24905395507812,84.958251953125,26.289844512939453,47.493125915527344,51.0,0.0,-20.0
32,100,100,40,go_to_color_detect_down,green,true,false,joint 3 +,true,2024-03-04 15:41:33.384614,22.671,0.216,235.0,131.52725219726562,282.0610656738281,74.1922378540039,45.0,65.0,51.0,4.799999237060547,-20.0
32,100,100,40,go_to_color_detect_down,green,true,false,joint 3 +,true,2024-03-04 15:41:34.769138,22.196,0.205,235.0,111.8780517578125,239.92323303222656,-22.683425903320312,45.0,65.0,51.0,47.32715606689453,-20.0
32,100,100,40,go_to_color_detect_up_from_color_detect_down,green,true,false,joint 3 -,false,2024-03-04 15:41:35.460824,22.367,0.205,236.8,130.27099609375,279.3670349121094,53.674888610839844,45.0,65.0,51.0,11.315911293029785,-20.0
32,100,100,40,detecting_color,green,false,false,detecting_color,false,2024-03-04 15:41:36.861938,17.241,0.166,236.8,131.69407653808594,282.4188232421875,84.958251953125,45.0,65.0,51.0,-4.656612873077393e-10,-20.0
32,100,100,40,go_to_color_detect_down,green,true,false,joint 3 +,false,2024-03-04 15:41:37.554115,16.424,0.166,235.0,131.69407653808594,282.4188232421875,84.958251953125,45.0,65.0,51.0,-4.656612873077393e-10,-20.0
32,100,100,40,go_to_color_detect_down,green,true,false,joint 3 +,false,2024-03-04 15:41:38.270303,16.424,0.166,235.0,117.04146575927734,250.9962158203125,-9.863693237304688,45.0,65.0,51.0,40.94049835205078,-20.0
32,100,100,40,go_to_color_detect_up_from_color_detect_down,green,true,false,joint 3 -,true,2024-03-04 15:41:39.650786,16.367,0.16,235.0,120.45890808105469,258.324951171875,0.64251708984375,45.0,65.0,51.0,33.959999084472656,-20.0
32,100,100,40,go_to_blue_up,blue,true,false,joint 1 +,true,2024-03-04 15:41:40.338447,19.728,0.16,235.0,126.14859008789062,284.9390563964844,84.958251953125,46.12000274658203,66.44000244140625,51.0,-4.656612873077393e-10,-20.0
32,100,100,40,go_to_pick_up_from_blue,blue,true,false,joint 1 -,false,2024-03-04 15:41:41.716342,22.519,0.215,235.0,34.951534271240234,309.6484069824219,84.958251953125,63.55999755859375,83.19999694824219,51.0,-4.656612873077393e-10,-20.0
32,100,100,40,go_to_pick_up_from_blue,blue,true,false,joint 1 -,false,2024-03-04 15:41:42.407140,22.519,0.215,235.0,265.29217529296875,163.47413635253906,84.958251953125,11.641546249389648,30.696643829345703,51.0,-4.656612873077393e-10,-20.0
32,100,100,40,moving_belt,blue,false,true,joint 1 -,false,2024-03-04 15:41:43.792264,16.595,0.159,235.0,292.8220520019531,106.5785140991211,84.958251953125,0.0,20.0,51.0,-4.656612873077393e-10,-20.0
32,100,100,40,moving_belt,blue,false,true,joint 1 -,false,2024-03-04 15:41:44.482766,16.823,0.159,235.0,292.8220520019531,106.5785140991211,84.958251953125,0.0,20.0,51.0,-4.656612873077393e-10,-20.0
32,100,100,40,moving_belt,blue,false,true,joint 1 -,false,2024-03-04 15:41:45.861219,17.582,0.168,235.0,292.8220520019531,106.5785140991211,84.958251953125,0.0,20.0,51.0,-4.656612873077393e-10,-20.0
32,100,100,40,moving_belt,blue,false,true,joint 1 -,false,2024-03-04 15:41:46.560746,17.582,0.168,235.0,292.8220520019531,106.5785140991211,84.958251953125,0.0,20.0,51.0,-4.656612873077393e-10,-20.0
32,100,100,40,moving_belt,blue,false,true,joint 1 -,false,2024-03-04 15:41:47.250429,17.582,0.168,235.0,292.8220520019531,106.5785140991211,84.958251953125,0.0,20.0,51.0,-4.656612873077393e-10,-20.0
32,100,100,40,moving_belt,blue,false,true,joint 1 -,false,2024-03-04 15:41:48.651569,17.487,0.165,235.0,292.8220520019531,106.5785140991211,84.958251953125,0.0,20.0,51.0,-4.656612873077393e-10,-20.0
32,100,100,40,moving_belt,blue,false,true,joint 1 -,false,2024-03-04 15:41:49.340047,17.487,0.165,235.0,292.8220520019531,106.5785140991211,84.958251953125,0.0,20.0,51.0,-4.656612873077393e-10,-20.0
32,100,100,40,go_to_pick_down,blue,true,false,joint 3 +,false,2024-03-04 15:41:50.727313,17.544,0.169,235.0,283.49554443359375,103.18394470214844,31.859657287597656,0.0,20.0,51.0,21.410993576049805,-20.0
32,100,100,40,go_to_pick_up_from_pick_down,blue,true,false,joint 3 -,true,2024-03-04 15:41:51.416644,16.272,0.169,235.0,292.7965393066406,106.56922149658203,82.13280487060547,0.0,20.0,51.0,0.825168788433075,-20.0
32,100,100,40,go_to_color_detect_up_from_pick_up,blue,true,false,joint 1 +,true,2024-03-04 15:41:52.815746,22.386,0.207,235.0,179.64208984375,254.62216186523438,84.958251953125,34.79610061645508,55.67938232421875,51.0,0.0,-20.0
32,100,100,40,go_to_color_detect_down,blue,true,false,joint 3 +,true,2024-03-04 15:41:53.511565,22.386,0.207,235.0,130.7275390625,280.3460998535156,59.12882995605469,45.0,65.0,51.0,11.039999008178711,-20.0
32,100,100,40,go_to_color_detect_up_from_color_detect_down,blue,true,false,joint 3 -,false,2024-03-04 15:41:54.901497,22.386,0.205,235.0,111.33187866210938,238.75196838378906,-23.871063232421875,45.0,65.0,51.0,47.599998474121094,-20.0
32,100,100,40,go_to_color_detect_up_from_color_detect_down,blue,true,false,joint 3 -,false,2024-03-04 15:41:55.590247,22.386,0.205,235.0,131.31553649902344,281.6070556640625,68.75533294677734,45.0,65.0,51.0,5.6369428634643555,-20.0
32,100,100,40,detecting_color,blue,false,false,detecting_color,false,2024-03-04 15:41:56.280144,17.734,0.164,235.0,131.69407653808594,282.4188232421875,84.958251953125,45.0,65.0,51.0,-4.656612873077393e-10,-20.0
32,100,100,40,go_to_color_detect_down,blue,true,false,joint 3 +,false,2024-03-04 15:41:57.666182,16.557,0.164,236.8,131.66342163085938,282.35308837890625,80.34087371826172,45.0,65.0,51.0,2.1999995708465576,-20.0
32,100,100,40,go_to_color_detect_down,blue,true,false,joint 3 +,false,2024-03-04 15:41:58.357073,16.405,0.158,236.8,112.98084259033203,242.28819274902344,-20.196151733398438,45.0,65.0,51.0,46.08203125,-20.0
32,100,100,40,go_to_color_detect_up_from_color_detect_down,blue,true,false,joint 3 -,true,2024-03-04 15:41:59.741531,16.5,0.158,235.0,125.61415100097656,269.3804016113281,21.534198760986328,45.0,65.0,51.0,24.20000457763672,-20.0
32,100,100,40,go_to_red_up,red,true,false,joint 1 +,true,2024-03-04 15:42:00.432985,23.583,0.214,235.0,107.59998321533203,292.4482421875,84.958251953125,49.80000305175781,70.44000244140625,51.0,-4.656612873077393e-10,-20.0
32,100,100,40,go_to_red_up,red,true,false,joint 1 +,true,2024-03-04 15:42:01.885867,22.88,0.214,236.8,-160.95790100097656,266.8263244628906,84.958251953125,101.09967803955078,121.6380615234375,51.0,-4.656612873077393e-10,-20.0
32,100,100,40,go_to_pick_up_from_red,red,true,false,joint 1 -,false,2024-03-04 15:42:02.576405,22.88,0.207,236.8,-81.49203491210938,300.77032470703125,84.958251953125,85.15999603271484,103.87999725341797,51.0,-4.656612873077393e-10,-20.0
32,100,100,40,go_to_pick_up_from_red,red,true,false,joint 1 -,false,2024-03-04 15:42:03.267611,17.279,0.207,235.0,278.9232482910156,138.94442749023438,84.958251953125,6.479991912841797,25.779991149902344,51.0,-4.656612873077393e-10,-20.0
32,100,100,40,moving_belt,red,false,true,joint 1 -,false,2024-03-04 15:42:04.646873,16.31,0.159,235.0,292.8220520019531,106.5785140991211,84.958251953125,0.0,20.0,51.0,-4.656612873077393e-10,-20.0
32,100,100,40,moving_belt,red,false,true,joint 1 -,false,2024-03-04 15:42:05.337812,16.31,0.159,235.0,292.8220520019531,106.5785140991211,84.958251953125,0.0,20.0,51.0,-4.656612873077393e-10,-20.0
32,100,100,40,moving_belt,red,false,true,joint 1 -,false,2024-03-04 15:42:06.729189,17.525,0.168,235.0,292.8220520019531,106.5785140991211,84.958251953125,0.0,20.0,51.0,-4.656612873077393e-10,-20.0
32,100,100,40,moving_belt,red,false,true,joint 1 -,false,2024-03-04 15:42:07.420679,17.525,0.168,235.0,292.8220520019531,106.5785140991211,84.958251953125,0.0,20.0,51.0,-4.656612873077393e-10,-20.0
32,100,100,40,moving_belt,red,false,true,joint 1 -,false,2024-03-04 15:42:08.817488,17.449,0.168,235.0,292.8220520019531,106.5785140991211,84.958251953125,0.0,20.0,51.0,-4.656612873077393e-10,-20.0
32,100,100,40,moving_belt,red,false,true,joint 1 -,false,2024-03-04 15:42:09.509292,17.449,0.168,235.0,292.8220520019531,106.5785140991211,84.958251953125,0.0,20.0,51.0,-4.656612873077393e-10,-20.0
32,100,100,40,moving_belt,red,false,true,joint 1 -,false,2024-03-04 15:42:10.895599,17.601,0.168,235.0,292.8220520019531,106.5785140991211,84.958251953125,0.0,20.0,51.0,-4.656612873077393e-10,-20.0
32,100,100,40,go_to_pick_down,red,true,false,joint 3 +,false,2024-03-04 15:42:11.589133,17.393,0.166,235.0,282.97625732421875,102.99494171142578,30.454551696777344,0.0,20.0,51.0,21.879493713378906,-20.0
32,100,100,40,go_to_pick_up_from_pick_down,red,true,false,joint 3 -,true,2024-03-04 15:42:12.278599,17.393,0.166,235.0,292.8220520019531,106.5785140991211,84.958251953125,0.0,20.0,51.0,0.0,-20.0
32,100,100,40,go_to_color_detect_up_from_pick_up,red,true,false,joint 1 +,true,2024-03-04 15:42:13.669092,22.842,0.208,235.0,171.88888549804688,259.9190979003906,84.958251953125,36.52266311645508,57.32594299316406,51.0,0.0,-20.0
32,100,100,40,go_to_color_detect_down,red,true,false,joint 3 +,true,2024-03-04 15:42:14.359666,22.728,0.208,235.0,130.3365020751953,279.50750732421875,54.395233154296875,45.0,65.0,51.0,12.999999046325684,-20.0
32,100,100,40,go_to_color_detect_up_from_color_detect_down,red,true,false,joint 3 -,false,2024-03-04 15:42:15.739795,22.253,0.206,235.0,111.13883972167969,238.33799743652344,-24.284042358398438,45.0,65.0,51.0,47.959999084472656,-20.0
32,100,100,40,go_to_color_detect_up_from_color_detect_down,red,true,false,joint 3 -,false,2024-03-04 15:42:16.429512,22.121,0.206,235.0,131.51309204101562,282.0307312011719,73.74609375,45.0,65.0,51.0,3.803098678588867,-20.0
32,100,100,40,detecting_color,red,false,false,detecting_color,false,2024-03-04 15:42:17.811577,17.411,0.161,235.0,131.69407653808594,282.4188232421875,84.958251953125,45.0,65.0,51.0,-4.656612873077393e-10,-20.0
32,100,100,40,go_to_color_detect_down,red,true,false,joint 3 +,false,2024-03-04 15:42:18.506334,16.481,0.161,235.0,131.68740844726562,282.404541015625,82.8031997680664,45.0,65.0,51.0,1.1199997663497925,-20.0
32,100,100,40,go_to_color_detect_down,red,true,false,joint 3 +,false,2024-03-04 15:42:19.884712,16.253,0.158,235.0,112.66073608398438,241.60171508789062,-20.93079376220703,45.0,65.0,51.0,46.453311920166016,-20.0
32,100,100,40,go_to_color_detect_up_from_color_detect_down,red,true,false,joint 3 -,true,2024-03-04 15:42:20.576489,16.253,0.158,235.0,127.3722915649414,273.1507568359375,31.08867645263672,45.0,65.0,51.0,20.206161499023438,-20.0
32,100,100,40,go_to_green_up,green,true,false,joint 1 +,true,2024-03-04 15:42:21.270177,20.772,0.158,235.0,116.12750244140625,289.1679992675781,84.958251953125,48.12001037597656,68.64000701904297,51.0,-4.656612873077393e-10,-20.0
32,100,100,40,go_to_pick_up_from_green,green,true,false,joint 1 -,false,2024-03-04 15:42:22.649777,22.519,0.207,235.0,-80.65180969238281,300.9967041015625,84.958251953125,85.0,104.95999908447266,51.0,-4.656612873077393e-10,-20.0
32,100,100,40,go_to_pick_up_from_green,green,true,false,joint 1 -,false,2024-03-04 15:42:23.344538,22.519,0.207,235.0,156.0325469970703,269.7361145019531,84.958251953125,39.95217514038086,58.184356689453125,51.0,-4.656612873077393e-10,-20.0
32,100,100,40,moving_belt,green,false,true,joint 1 -,false,2024-03-04 15:42:24.727697,16.424,0.159,235.0,292.8220520019531,106.5785140991211,84.958251953125,0.0,20.0,51.0,-4.656612873077393e-10,-20.0
32,100,100,40,moving_belt,green,false,true,joint 1 -,false,2024-03-04 15:42:25.419261,16.424,0.159,235.0,292.8220520019531,106.5785140991211,84.958251953125,0.0,20.0,51.0,-4.656612873077393e-10,-20.0
32,100,100,40,moving_belt,green,false,true,joint 1 -,false,2024-03-04 15:42:26.800032,17.639,0.168,235.0,292.8220520019531,106.5785140991211,84.958251953125,0.0,20.0,51.0,-4.656612873077393e-10,-20.0
32,100,100,40,moving_belt,green,false,true,joint 1 -,false,2024-03-04 15:42:27.488084,17.506,0.168,235.0,292.8220520019531,106.5785140991211,84.958251953125,0.0,20.0,51.0,-4.656612873077393e-10,-20.0
32,100,100,40,moving_belt,green,false,true,joint 1 -,false,2024-03-04 15:42:28.871629,17.525,0.167,235.0,292.8220520019531,106.5785140991211,84.958251953125,0.0,20.0,51.0,-4.656612873077393e-10,-20.0
32,100,100,40,moving_belt,green,false,true,joint 1 -,false,2024-03-04 15:42:29.568166,17.696,0.167,235.0,292.8220520019531,106.5785140991211,84.958251953125,0.0,20.0,51.0,-4.656612873077393e-10,-20.0
32,100,100,40,moving_belt,green,false,true,joint 1 -,false,2024-03-04 15:42:30.257277,17.696,0.167,235.0,292.8220520019531,106.5785140991211,84.958251953125,0.0,20.0,51.0,-4.656612873077393e-10,-20.0
32,100,100,40,go_to_pick_down,green,true,false,joint 3 +,false,2024-03-04 15:42:31.643244,17.411,0.167,235.0,291.3401794433594,106.0391616821289,63.484046936035156,0.0,20.0,51.0,9.239999771118164,-20.0
32,100,100,40,go_to_pick_up_from_pick_down,green,true,false,joint 3 -,true,2024-03-04 15:42:32.334074,17.411,0.167,235.0,288.4822998046875,104.99897766113281,48.40084457397461,0.0,20.0,51.0,13.599996566772461,-20.0
32,100,100,40,go_to_color_detect_up_from_pick_up,green,true,false,joint 1 +,true,2024-03-04 15:42:33.732683,22.899,0.186,235.0,264.2642517089844,165.1306610107422,84.958251953125,12.0,33.0,51.0,0.0,-20.0
32,100,100,40,go_to_color_detect_down,green,true,false,joint 3 +,true,2024-03-04 15:42:34.422132,22.899,0.186,235.0,131.6935272216797,282.41766357421875,84.34249877929688,45.0,65.0,51.0,0.3999999165534973,-20.0
32,100,100,40,go_to_color_detect_down,green,true,false,joint 3 +,true,2024-03-04 15:42:35.801785,22.215,0.205,235.0,115.97435760498047,248.70779418945312,-12.776542663574219,45.0,65.0,51.0,42.363059997558594,-20.0
32,100,100,40,go_to_color_detect_up_from_color_detect_down,green,true,false,joint 3 -,false,2024-03-04 15:42:36.503073,22.234,0.205,235.0,125.61415100097656,269.3804016113281,21.534198760986328,45.0,65.0,51.0,24.20000457763672,-20.0
32,100,100,40,detecting_color,green,false,false,detecting_color,false,2024-03-04 15:42:37.884464,17.108,0.163,235.0,131.69407653808594,282.4188232421875,84.958251953125,45.0,65.0,51.0,-4.656612873077393e-10,-20.0
32,100,100,40,detecting_color,green,false,false,detecting_color,false,2024-03-04 15:42:38.581422,17.108,0.163,235.0,131.69407653808594,282.4188232421875,84.958251953125,45.0,65.0,51.0,-4.656612873077393e-10,-20.0
32,100,100,40,go_to_color_detect_down,green,true,false,joint 3 +,false,2024-03-04 15:42:39.280348,16.234,0.163,235.0,123.881103515625,265.66387939453125,13.590003967285156,45.0,65.0,51.0,30.25640106201172,-20.0
32,100,100,40,go_to_color_detect_up_from_color_detect_down,green,true,false,joint 3 -,true,2024-03-04 15:42:40.650058,16.291,0.155,235.0,114.85627746582031,246.31007385253906,-15.670166015625,45.0,65.0,51.0,42.55999755859375,-20.0
32,100,100,40,go_to_color_detect_up_from_color_detect_down,green,true,false,joint 3 -,true,2024-03-04 15:42:41.336798,21.988,0.155,235.0,131.69407653808594,282.4188232421875,84.94502258300781,45.0,65.0,51.0,-4.656612873077393e-10,-20.0
32,100,100,40,go_to_pick_up_from_blue,blue,true,false,joint 1 -,false,2024-03-04 15:42:42.723114,23.032,0.214,235.0,27.18715476989746,310.42645263671875,84.958251953125,64.99480438232422,85.0,51.0,-4.656612873077393e-10,-20.0
32,100,100,40,go_to_pick_up_from_blue,blue,true,false,joint 1 -,false,2024-03-04 15:42:43.413329,22.443,0.214,235.0,216.0727081298828,224.53578186035156,84.958251953125,26.100383758544922,44.675479888916016,51.0,-4.656612873077393e-10,-20.0
32,100,100,40,moving_belt,blue,false,true,joint 1 -,false,2024-03-04 15:42:44.833409,16.329,0.158,235.0,292.8220520019531,106.5785140991211,84.958251953125,0.0,20.0,51.0,-4.656612873077393e-10,-20.0
32,100,100,40,moving_belt,blue,false,true,joint 1 -,false,2024-03-04 15:42:45.528906,17.032,0.158,235.0,292.8220520019531,106.5785140991211,84.958251953125,0.0,20.0,51.0,-4.656612873077393e-10,-20.0
32,100,100,40,moving_belt,blue,false,true,joint 1 -,false,2024-03-04 15:42:46.909263,17.601,0.167,235.0,292.8220520019531,106.5785140991211,84.958251953125,0.0,20.0,51.0,-4.656612873077393e-10,-20.0
32,100,100,40,moving_belt,blue,false,true,joint 1 -,false,2024-03-04 15:42:47.600958,17.601,0.167,235.0,292.8220520019531,106.5785140991211,84.958251953125,0.0,20.0,51.0,-4.656612873077393e-10,-20.0
32,100,100,40,moving_belt,blue,false,true,joint 1 -,false,2024-03-04 15:42:48.303706,17.411,0.167,235.0,292.8220520019531,106.5785140991211,84.958251953125,0.0,20.0,51.0,-4.656612873077393e-10,-20.0
32,100,100,40,moving_belt,blue,false,true,joint 1 -,false,2024-03-04 15:42:49.681109,17.639,0.167,235.0,292.8220520019531,106.5785140991211,84.958251953125,0.0,20.0,51.0,-4.656612873077393e-10,-20.0
32,100,100,40,moving_belt,blue,false,true,joint 1 -,false,2024-03-04 15:42:50.379884,17.355,0.167,235.0,292.8220520019531,106.5785140991211,84.958251953125,0.0,20.0,51.0,-4.656612873077393e-10,-20.0
32,100,100,40,go_to_pick_down,blue,true,false,joint 3 +,false,2024-03-04 15:42:51.767856,17.468,0.166,235.0,286.6092224121094,104.31723022460938,41.36827850341797,0.0,20.0,51.0,17.845497131347656,-20.0
32,100,100,40,go_to_pick_up_from_pick_down,blue,true,false,joint 3 -,true,2024-03-04 15:42:52.458716,16.272,0.166,235.0,292.2120056152344,106.35647583007812,71.15796661376953,0.0,20.0,51.0,4.750665187835693,-20.0
32,100,100,40,go_to_color_detect_up_from_pick_up,blue,true,false,joint 1 +,true,2024-03-04 15:42:53.845903,23.488,0.174,235.0,210.55142211914062,229.72122192382812,84.958251953125,27.493125915527344,48.65640640258789,51.0,0.0,-20.0
32,100,100,40,go_to_color_detect_down,blue,true,false,joint 3 +,true,2024-03-04 15:42:54.536513,22.576,0.174,235.0,131.4761962890625,281.95159912109375,72.65760803222656,45.0,65.0,51.0,5.439999103546143,-20.0
32,100,100,40,go_to_color_detect_down,blue,true,false,joint 3 +,true,2024-03-04 15:42:55.916232,22.121,0.208,235.0,111.67813110351562,239.4945068359375,-23.121429443359375,45.0,65.0,51.0,47.53843688964844,-20.0
32,100,100,40,go_to_color_detect_up_from_color_detect_down,blue,true,false,joint 3 -,false,2024-03-04 15:42:56.602127,22.121,0.208,235.0,130.27099609375,279.3670349121094,53.674888610839844,45.0,65.0,51.0,11.315911293029785,-20.0
32,100,100,40,detecting_color,blue,false,false,detecting_color,false,2024-03-04 15:42:57.297224,17.108,0.163,235.0,131.69407653808594,282.4188232421875,84.958251953125,45.0,65.0,51.0,-4.656612873077393e-10,-20.0
32,100,100,40,go_to_color_detect_down,blue,true,false,joint 3 +,false,2024-03-04 15:42:58.683692,16.272,0.163,235.0,131.69406127929688,282.4187927246094,84.85562896728516,45.0,65.0,51.0,0.1199999749660492,-20.0
32,100,100,40,go_to_color_detect_down,blue,true,false,joint 3 +,false,2024-03-04 15:42:59.377533,16.272,0.16,235.0,117.04146575927734,250.9962158203125,-9.863693237304688,45.0,65.0,51.0,40.94049835205078,-20.0
32,100,100,40,go_to_color_detect_up_from_color_detect_down,blue,true,false,joint 3 -,true,2024-03-04 15:43:00.763039,17.317,0.16,235.0,119.21041107177734,255.64755249023438,-3.4265670776367188,45.0,65.0,51.0,36.0,-20.0
32,100,100,40,go_to_red_up,red,true,false,joint 1 +,true,2024-03-04 15:43:01.448846,17.317,0.214,235.0,129.7191619873047,283.3313903808594,84.958251953125,45.40000915527344,65.60000610351562,51.0,-4.656612873077393e-10,-20.0
32,100,100,40,go_to_red_up,red,true,false,joint 1 +,true,2024-03-04 15:43:02.833010,22.405,0.214,235.0,-119.43785858154297,287.8164978027344,84.958251953125,92.53742980957031,113.51581573486328,51.0,-4.656612873077393e-10,-20.0
32,100,100,40,go_to_pick_up_from_red,red,true,false,joint 1 -,false,2024-03-04 15:43:03.524971,22.842,0.21,235.0,-139.52825927734375,278.63165283203125,84.958251953125,96.59999084472656,115.75999450683594,51.0,-4.656612873077393e-10,-20.0
32,100,100,40,go_to_pick_up_from_red,red,true,false,joint 1 -,false,2024-03-04 15:43:04.928261,16.5,0.21,235.0,249.4545440673828,186.75161743164062,84.958251953125,16.819992065429688,35.67999267578125,51.0,-4.656612873077393e-10,-20.0
32,100,100,40,moving_belt,red,false,true,joint 1 -,false,2024-03-04 15:43:05.619153,16.5,0.159,235.0,292.8220520019531,106.5785140991211,84.958251953125,0.0,20.0,51.0,-4.656612873077393e-10,-20.0
32,100,100,40,moving_belt,red,false,true,joint 1 -,false,2024-03-04 15:43:06.308824,16.5,0.159,235.0,292.8220520019531,106.5785140991211,84.958251953125,0.0,20.0,51.0,-4.656612873077393e-10,-20.0
32,100,100,40,moving_belt,red,false,true,joint 1 -,false,2024-03-04 15:43:07.691261,17.658,0.166,235.0,292.8220520019531,106.5785140991211,84.958251953125,0.0,20.0,51.0,-4.656612873077393e-10,-20.0
32,100,100,40,moving_belt,red,false,true,joint 1 -,false,2024-03-04 15:43:08.381988,17.487,0.166,235.0,292.8220520019531,106.5785140991211,84.958251953125,0.0,20.0,51.0,-4.656612873077393e-10,-20.0
32,100,100,40,moving_belt,red,false,true,joint 1 -,false,2024-03-04 15:43:09.766633,17.544,0.166,235.0,292.8220520019531,106.5785140991211,84.958251953125,0.0,20.0,51.0,-4.656612873077393e-10,-20.0
32,100,100,40,moving_belt,red,false,true,joint 1 -,false,2024-03-04 15:43:10.453990,17.506,0.168,235.0,292.8220520019531,106.5785140991211,84.958251953125,0.0,20.0,51.0,-4.656612873077393e-10,-20.0
32,100,100,40,moving_belt,red,false,true,joint 1 -,false,2024-03-04 15:43:11.833224,17.544,0.168,235.0,292.8220520019531,106.5785140991211,84.958251953125,0.0,20.0,51.0,-4.656612873077393e-10,-20.0
32,100,100,40,go_to_pick_down,red,true,false,joint 3 +,false,2024-03-04 15:43:12.519070,17.544,0.166,235.0,284.3038635253906,103.4781494140625,34.13602828979492,0.0,20.0,51.0,20.582494735717773,-20.0
32,100,100,40,go_to_pick_up_from_pick_down,red,true,false,joint 3 -,true,2024-03-04 15:43:13.907706,21.133,0.166,235.0,292.7230224609375,106.54247283935547,79.39258575439453,0.0,20.0,51.0,1.7736676931381226,-20.0
32,100,100,40,go_to_color_detect_up_from_pick_up,red,true,false,joint 1 +,true,2024-03-04 15:43:14.595142,21.133,0.213,235.0,220.16571044921875,220.52386474609375,84.958251953125,25.04656219482422,46.28984451293945,51.0,0.0,-20.0
32,100,100,40,go_to_color_detect_down,red,true,false,joint 3 +,true,2024-03-04 15:43:15.288316,22.329,0.213,235.0,131.02761840820312,280.9896240234375,63.484046936035156,45.0,65.0,51.0,9.239998817443848,-20.0
32,100,100,40,go_to_color_detect_up_from_color_detect_down,red,true,false,joint 3 -,false,2024-03-04 15:43:16.704570,22.121,0.2,235.0,111.15208435058594,238.3664093017578,-24.255813598632812,45.0,65.0,51.0,47.994842529296875,-20.0
32,100,100,40,go_to_color_detect_up_from_color_detect_down,red,true,false,joint 3 -,false,2024-03-04 15:43:17.415202,20.26,0.2,235.0,130.27099609375,279.3670349121094,53.674888610839844,45.0,65.0,51.0,11.315911293029785,-20.0
32,100,100,40,detecting_color,red,false,false,detecting_color,false,2024-03-04 15:43:18.790892,16.956,0.164,235.0,131.69407653808594,282.4188232421875,84.958251953125,45.0,65.0,51.0,-4.656612873077393e-10,-20.0
32,100,100,40,detecting_color,red,false,false,detecting_color,false,2024-03-04 15:43:19.478105,16.956,0.164,235.0,131.69407653808594,282.4188232421875,84.958251953125,45.0,65.0,51.0,-4.656612873077393e-10,-20.0
32,100,100,40,go_to_color_detect_down,red,true,false,joint 3 +,false,2024-03-04 15:43:20.861961,16.405,0.157,235.0,117.60411071777344,252.20281982421875,-8.263710021972656,45.0,65.0,51.0,40.16921615600586,-20.0
32,100,100,40,go_to_color_detect_up_from_color_detect_down,red,true,false,joint 3 -,true,2024-03-04 15:43:21.550709,16.253,0.157,235.0,119.21041107177734,255.64755249023438,-3.4265670776367188,45.0,65.0,51.0,36.0,-20.0
32,100,100,40,go_to_green_up,green,true,false,joint 1 +,true,2024-03-04 15:43:22.931342,23.165,0.212,235.0,131.69407653808594,282.4188232421875,84.958251953125,45.0,65.0,51.0,-4.656612873077393e-10,-20.0
32,100,100,40,go_to_green_up,green,true,false,joint 1 +,true,2024-03-04 15:43:23.619288,22.785,0.212,235.0,-50.826839447021484,307.441650390625,84.958251953125,79.38733673095703,100.03715515136719,51.0,-4.656612873077393e-10,-20.0
32,100,100,40,go_to_pick_up_from_green,green,true,false,joint 1 -,false,2024-03-04 15:43:24.305603,22.424,0.212,235.0,47.67263412475586,307.9465026855469,84.958251953125,61.19999694824219,79.79999542236328,51.0,-4.656612873077393e-10,-20.0
32,100,100,40,go_to_pick_up_from_green,green,true,false,joint 1 -,false,2024-03-04 15:43:25.704663,17.886,0.159,235.0,288.3370666503906,118.17555236816406,84.958251953125,2.2863731384277344,21.878555297851562,51.0,-4.656612873077393e-10,-20.0
32,100,100,40,moving_belt,green,false,true,joint 1 -,false,2024-03-04 15:43:26.400751,16.291,0.159,235.0,292.8220520019531,106.5785140991211,84.958251953125,0.0,20.0,51.0,-4.656612873077393e-10,-20.0
32,100,100,40,moving_belt,green,false,true,joint 1 -,false,2024-03-04 15:43:27.818953,17.601,0.168,235.0,292.8220520019531,106.5785140991211,84.958251953125,0.0,20.0,51.0,-4.656612873077393e-10,-20.0
32,100,100,40,moving_belt,green,false,true,joint 1 -,false,2024-03-04 15:43:28.508979,17.374,0.168,235.0,292.8220520019531,106.5785140991211,84.958251953125,0.0,20.0,51.0,-4.656612873077393e-10,-20.0
32,100,100,40,moving_belt,green,false,true,joint 1 -,false,2024-03-04 15:43:29.893169,17.393,0.165,235.0,292.8220520019531,106.5785140991211,84.958251953125,0.0,20.0,51.0,-4.656612873077393e-10,-20.0
32,100,100,40,moving_belt,green,false,true,joint 1 -,false,2024-03-04 15:43:30.584384,17.393,0.165,235.0,292.8220520019531,106.5785140991211,84.958251953125,0.0,20.0,51.0,-4.656612873077393e-10,-20.0
32,100,100,40,moving_belt,green,false,true,joint 1 -,false,2024-03-04 15:43:31.964208,17.582,0.167,235.0,292.8220520019531,106.5785140991211,84.958251953125,0.0,20.0,51.0,-4.656612873077393e-10,-20.0
32,100,100,40,go_to_pick_down,green,true,false,joint 3 +,false,2024-03-04 15:43:32.657115,17.582,0.167,235.0,292.8220520019531,106.5785140991211,84.958251953125,0.0,20.0,51.0,0.03999999910593033,-20.0
32,100,100,40,go_to_pick_up_from_pick_down,green,true,false,joint 3 -,true,2024-03-04 15:43:33.349634,17.298,0.167,235.0,282.979248046875,102.99602508544922,30.462482452392578,0.0,20.0,51.0,21.599998474121094,-20.0
32,100,100,40,go_to_color_detect_up_from_pick_up,green,true,false,joint 1 +,true,2024-03-04 15:43:34.728138,19.424,0.158,235.0,292.59820556640625,107.19156646728516,84.958251953125,0.12000083923339844,20.240001678466797,51.0,0.0,-20.0
32,100,100,40,go_to_color_detect_up_from_pick_up,green,true,false,joint 1 +,true,2024-03-04 15:43:35.416307,22.462,0.158,235.0,142.65377807617188,277.04443359375,84.958251953125,42.75547790527344,63.15876007080078,51.0,0.0,-20.0
32,100,100,40,go_to_color_detect_down,green,true,false,joint 3 +,true,2024-03-04 15:43:36.798224,22.5,0.206,235.0,126.41095733642578,271.08917236328125,25.637104034423828,45.0,65.0,51.0,25.171276092529297,-20.0
32,100,100,40,go_to_color_detect_up_from_color_detect_down,green,true,false,joint 3 -,false,2024-03-04 15:43:37.488527,22.064,0.206,235.0,112.5685043334961,241.4039306640625,-21.14051055908203,45.0,65.0,51.0,45.79999542236328,-20.0
32,100,100,40,go_to_color_detect_up_from_color_detect_down,green,true,false,joint 3 -,false,2024-03-04 15:43:38.890379,21.779,0.19,235.0,131.68978881835938,282.4096374511719,83.23200988769531,45.0,65.0,51.0,0.4615650475025177,-20.0
32,100,100,40,detecting_color,green,false,false,detecting_color,false,2024-03-04 15:43:39.585772,17.222,0.19,235.0,131.69407653808594,282.4188232421875,84.958251953125,45.0,65.0,51.0,-4.656612873077393e-10,-20.0
32,100,100,40,go_to_color_detect_down,green,true,false,joint 3 +,false,2024-03-04 15:43:40.960286,16.367,0.159,235.0,131.4142608642578,281.81878662109375,71.02216339111328,45.0,65.0,51.0,6.119998931884766,-20.0
32,100,100,40,go_to_color_detect_down,green,true,false,joint 3 +,false,2024-03-04 15:43:41.650553,16.424,0.159,235.0,111.13883972167969,238.33799743652344,-24.284042358398438,45.0,65.0,51.0,48.0,-20.0
32,100,100,40,go_to_color_detect_up_from_color_detect_down,green,true,false,joint 3 -,true,2024-03-04 15:43:42.347400,16.424,0.159,235.0,130.48638916015625,279.8289489746094,56.1141357421875,45.0,65.0,51.0,10.38463020324707,-20.0
32,100,100,40,go_to_blue_up,blue,true,false,joint 1 +,true,2024-03-04 15:43:43.726920,22.956,0.182,235.0,80.0212173461914,301.16497802734375,84.958251953125,55.12000274658203,75.98885345458984,51.0,-4.656612873077393e-10,-20.0
32,100,100,40,go_to_pick_up_from_blue,blue,true,false,joint 1 -,false,2024-03-04 15:43:44.423590,22.956,0.182,235.0,112.89034271240234,290.44708251953125,84.958251953125,48.75999450683594,67.59999084472656,51.0,-4.656612873077393e-10,-20.0
32,100,100,40,go_to_pick_up_from_blue,blue,true,false,joint 1 -,false,2024-03-04 15:43:45.805511,16.5,0.205,235.0,292.1778564453125,108.3320541381836,84.958251953125,0.3434867858886719,20.198583602905273,51.0,-4.656612873077393e-10,-20.0
32,100,100,40,moving_belt,blue,false,true,joint 1 -,false,2024-03-04 15:43:46.495817,16.5,0.205,235.0,292.8220520019531,106.5785140991211,84.958251953125,0.0,20.0,51.0,-4.656612873077393e-10,-20.0
32,100,100,40,moving_belt,blue,false,true,joint 1 -,false,2024-03-04 15:43:47.886505,17.336,0.166,235.0,292.8220520019531,106.5785140991211,84.958251953125,0.0,20.0,51.0,-4.656612873077393e-10,-20.0
32,100,100,40,moving_belt,blue,false,true,joint 1 -,false,2024-03-04 15:43:48.577132,17.355,0.166,235.0,292.8220520019531,106.5785140991211,84.958251953125,0.0,20.0,51.0,-4.656612873077393e-10,-20.0
32,100,100,40,moving_belt,blue,false,true,joint 1 -,false,2024-03-04 15:43:49.965012,17.43,0.167,236.8,292.8220520019531,106.5785140991211,84.958251953125,0.0,20.0,51.0,-4.656612873077393e-10,-20.0
32,100,100,40,moving_belt,blue,false,true,joint 1 -,false,2024-03-04 15:43:50.653337,17.525,0.167,236.8,292.8220520019531,106.5785140991211,84.958251953125,0.0,20.0,51.0,-4.656612873077393e-10,-20.0
32,100,100,40,moving_belt,blue,false,true,joint 1 -,false,2024-03-04 15:43:51.345014,17.525,0.166,236.8,292.8220520019531,106.5785140991211,84.958251953125,0.0,20.0,51.0,-4.656612873077393e-10,-20.0
32,100,100,40,go_to_pick_down,blue,true,false,joint 3 +,false,2024-03-04 15:43:52.754603,17.677,0.166,236.8,292.795654296875,106.56890869140625,82.08492279052734,0.0,20.0,51.0,1.440000057220459,-20.0
32,100,100,40,go_to_pick_up_from_pick_down,blue,true,false,joint 3 -,true,2024-03-04 15:43:53.444712,17.677,0.161,236.8,285.39019775390625,103.87354278564453,37.39094924926758,0.0,20.0,51.0,18.359996795654297,-20.0
32,100,100,40,go_to_color_detect_up_from_pick_up,blue,true,false,joint 1 +,true,2024-03-04 15:43:54.842687,23.203,0.161,235.0,288.514892578125,117.74076843261719,84.958251953125,2.200002670288086,22.640003204345703,51.0,0.0,-20.0
32,100,100,40,go_to_color_detect_up_from_pick_up,blue,true,false,joint 1 +,true,2024-03-04 15:43:55.545884,23.203,0.206,235.0,138.93450927734375,278.9281921386719,84.958251953125,43.52204132080078,63.84532165527344,51.0,0.0,-20.0
32,100,100,40,go_to_color_detect_down,blue,true,false,joint 3 +,true,2024-03-04 15:43:56.287555,22.69,0.206,235.0,121.2841567993164,260.0946960449219,3.502349853515625,45.0,65.0,51.0,34.7015266418457,-20.0
32,100,100,40,go_to_color_detect_up_from_color_detect_down,blue,true,false,joint 3 -,false,2024-03-04 15:43:57.694891,22.386,0.205,235.0,116.87966918945312,250.6492462158203,-10.31536865234375,45.0,65.0,51.0,39.599998474121094,-20.0
32,100,100,40,detecting_color,blue,false,false,detecting_color,false,2024-03-04 15:43:58.382880,22.386,0.205,235.0,131.69383239746094,282.4183349609375,84.55030822753906,45.0,65.0,51.0,0.06772007793188095,-20.0
32,100,100,40,detecting_color,blue,false,false,detecting_color,false,2024-03-04 15:43:59.780974,16.348,0.205,235.0,131.69407653808594,282.4188232421875,84.958251953125,45.0,65.0,51.0,-4.656612873077393e-10,-20.0
32,100,100,40,go_to_color_detect_down,blue,true,false,joint 3 +,false,2024-03-04 15:44:00.466366,16.348,0.159,235.0,130.5443878173828,279.95330810546875,56.808597564697266,45.0,65.0,51.0,11.999999046325684,-20.0
32,100,100,40,go_to_color_detect_up_from_color_detect_down,blue,true,false,joint 3 -,true,2024-03-04 15:44:01.851860,16.443,0.159,235.0,111.13883972167969,238.33799743652344,-24.284042358398438,45.0,65.0,51.0,48.0,-20.0
32,100,100,40,go_to_color_detect_up_from_color_detect_down,blue,true,false,joint 3 -,true,2024-03-04 15:44:02.551144,17.411,0.159,235.0,131.45901489257812,281.9147644042969,72.1830062866211,45.0,65.0,51.0,4.374380111694336,-20.0
32,100,100,40,go_to_red_up,red,true,false,joint 1 +,true,2024-03-04 15:44:03.953716,22.291,0.159,235.0,41.212982177734375,308.8773498535156,84.958251953125,62.40000915527344,83.60000610351562,51.0,-4.656612873077393e-10,-20.0
32,100,100,40,go_to_pick_up_from_red,red,true,false,joint 1 -,false,2024-03-04 15:44:04.703213,22.291,0.207,235.0,-178.73486328125,255.2598114013672,84.958251953125,105.0,125.0,51.0,-4.656612873077393e-10,-20.0
32,100,100,40,go_to_pick_up_from_red,red,true,false,joint 1 -,false,2024-03-04 15:44:05.393748,22.842,0.207,235.0,96.29423522949219,296.36322021484375,84.958251953125,52.0,70.0,51.0,-4.656612873077393e-10,-20.0
32,100,100,40,go_to_pick_up_from_red,red,true,false,joint 1 -,false,2024-03-04 15:44:06.787750,16.5,0.16,235.0,292.48577880859375,107.49789428710938,84.958251953125,0.17999649047851562,20.07999610900879,51.0,-4.656612873077393e-10,-20.0
32,100,100,40,moving_belt,red,false,true,joint 1 -,false,2024-03-04 15:44:07.496743,16.519,0.16,235.0,292.8220520019531,106.5785140991211,84.958251953125,0.0,20.0,51.0,-4.656612873077393e-10,-20.0
32,100,100,40,moving_belt,red,false,true,joint 1 -,false,2024-03-04 15:44:08.871481,17.468,0.17,235.0,292.8220520019531,106.5785140991211,84.958251953125,0.0,20.0,51.0,-4.656612873077393e-10,-20.0
32,100,100,40,moving_belt,red,false,true,joint 1 -,false,2024-03-04 15:44:09.561257,17.487,0.17,235.0,292.8220520019531,106.5785140991211,84.958251953125,0.0,20.0,51.0,-4.656612873077393e-10,-20.0
32,100,100,40,moving_belt,red,false,true,joint 1 -,false,2024-03-04 15:44:10.944273,17.696,0.169,235.0,292.8220520019531,106.5785140991211,84.958251953125,0.0,20.0,51.0,-4.656612873077393e-10,-20.0
32,100,100,40,moving_belt,red,false,true,joint 1 -,false,2024-03-04 15:44:11.639947,17.696,0.169,235.0,292.8220520019531,106.5785140991211,84.958251953125,0.0,20.0,51.0,-4.656612873077393e-10,-20.0
32,100,100,40,moving_belt,red,false,true,joint 1 -,false,2024-03-04 15:44:12.337715,17.279,0.169,235.0,292.8220520019531,106.5785140991211,84.958251953125,0.0,20.0,51.0,-4.656612873077393e-10,-20.0
32,100,100,40,go_to_pick_down,red,true,false,joint 3 +,false,2024-03-04 15:44:13.728139,17.393,0.167,235.0,292.7784423828125,106.56263732910156,81.26412963867188,0.0,20.0,51.0,1.8000000715255737,-20.0
32,100,100,40,go_to_pick_up_from_pick_down,red,true,false,joint 3 -,true,2024-03-04 15:44:14.419785,16.842,0.167,235.0,285.39019775390625,103.87354278564453,37.39094924926758,0.0,20.0,51.0,18.359996795654297,-20.0
32,100,100,40,go_to_color_detect_up_from_pick_up,red,true,false,joint 1 +,true,2024-03-04 15:44:15.809296,21.418,0.184,235.0,288.514892578125,117.74076843261719,84.958251953125,2.200002670288086,22.640003204345703,51.0,0.0,-20.0
32,100,100,40,go_to_color_detect_up_from_pick_up,red,true,false,joint 1 +,true,2024-03-04 15:44:16.505966,22.31,0.184,235.0,138.93450927734375,278.9281921386719,84.958251953125,43.52204132080078,63.84532165527344,51.0,0.0,-20.0
32,100,100,40,go_to_color_detect_down,red,true,false,joint 3 +,true,2024-03-04 15:44:17.894149,22.348,0.205,235.0,120.64384460449219,258.7215576171875,1.2709426879882812,45.0,65.0,51.0,35.712806701660156,-20.0
32,100,100,40,go_to_color_detect_up_from_color_detect_down,red,true,false,joint 3 -,false,2024-03-04 15:44:18.602220,21.95,0.205,235.0,116.87966918945312,250.6492462158203,-10.31536865234375,45.0,65.0,51.0,39.599998474121094,-20.0
32,100,100,40,detecting_color,red,false,false,detecting_color,false,2024-03-04 15:44:19.302606,20.355,0.205,235.0,131.69403076171875,282.41876220703125,84.78450775146484,45.0,65.0,51.0,0.016438644379377365,-20.0
32,100,100,40,detecting_color,red,false,false,detecting_color,false,2024-03-04 15:44:20.696967,17.032,0.164,235.0,131.69407653808594,282.4188232421875,84.958251953125,45.0,65.0,51.0,-4.656612873077393e-10,-20.0
32,100,100,40,go_to_color_detect_down,red,true,false,joint 3 +,false,2024-03-04 15:44:21.388760,16.443,0.164,235.0,130.10182189941406,279.0042419433594,51.890445709228516,45.0,65.0,51.0,14.039999008178711,-20.0
32,100,100,40,go_to_color_detect_up_from_color_detect_down,red,true,false,joint 3 -,true,2024-03-04 15:44:22.778321,16.424,0.159,235.0,111.81121826171875,239.7799072265625,-22.83026885986328,45.0,65.0,51.0,46.87999725341797,-20.0
32,100,100,40,go_to_color_detect_up_from_color_detect_down,red,true,false,joint 3 -,true,2024-03-04 15:44:23.468836,16.424,0.159,235.0,131.51309204101562,282.0307312011719,73.74609375,45.0,65.0,51.0,3.803098678588867,-20.0
32,100,100,40,go_to_green_up,green,true,false,joint 1 +,true,2024-03-04 15:44:24.861313,22.576,0.215,235.0,34.73529052734375,309.6727294921875,84.958251953125,63.600006103515625,84.84000396728516,51.0,-4.656612873077393e-10,-20.0
32,100,100,40,go_to_pick_up_from_green,green,true,false,joint 1 -,false,2024-03-04 15:44:25.552134,22.519,0.215,235.0,-51.75307846069336,307.2870788574219,84.958251953125,79.55999755859375,98.87999725341797,51.0,-4.656612873077393e-10,-20.0
32,100,100,40,go_to_pick_up_from_green,green,true,false,joint 1 -,false,2024-03-04 15:44:26.946952,16.614,0.2,235.0,254.1969757080078,180.24322509765625,84.958251953125,15.339275360107422,34.25145721435547,51.0,-4.656612873077393e-10,-20.0
32,100,100,40,moving_belt,green,false,true,joint 1 -,false,2024-03-04 15:44:27.638866,16.614,0.2,235.0,292.8220520019531,106.5785140991211,84.958251953125,0.0,20.0,51.0,-4.656612873077393e-10,-20.0
32,100,100,40,moving_belt,green,false,true,joint 1 -,false,2024-03-04 15:44:28.336533,16.367,0.162,235.0,292.8220520019531,106.5785140991211,84.958251953125,0.0,20.0,51.0,-4.656612873077393e-10,-20.0
32,100,100,40,moving_belt,green,false,true,joint 1 -,false,2024-03-04 15:44:29.742870,17.506,0.162,235.0,292.8220520019531,106.5785140991211,84.958251953125,0.0,20.0,51.0,-4.656612873077393e-10,-20.0
32,100,100,40,moving_belt,green,false,true,joint 1 -,false,2024-03-04 15:44:30.437256,17.601,0.168,235.0,292.8220520019531,106.5785140991211,84.958251953125,0.0,20.0,51.0,-4.656612873077393e-10,-20.0
32,100,100,40,moving_belt,green,false,true,joint 1 -,false,2024-03-04 15:44:31.834255,17.506,0.168,235.0,292.8220520019531,106.5785140991211,84.958251953125,0.0,20.0,51.0,-4.656612873077393e-10,-20.0
32,100,100,40,moving_belt,green,false,true,joint 1 -,false,2024-03-04 15:44:32.522860,17.468,0.168,235.0,292.8220520019531,106.5785140991211,84.958251953125,0.0,20.0,51.0,-4.656612873077393e-10,-20.0
32,100,100,40,moving_belt,green,false,true,joint 1 -,false,2024-03-04 15:44:33.915363,17.563,0.168,235.0,292.8220520019531,106.5785140991211,84.958251953125,0.0,20.0,51.0,-4.656612873077393e-10,-20.0
32,100,100,40,go_to_pick_down,green,true,false,joint 3 +,false,2024-03-04 15:44:34.612193,17.563,0.165,235.0,284.0044860839844,103.36918640136719,33.279571533203125,0.0,20.0,51.0,20.89866065979004,-20.0
32,100,100,40,go_to_pick_up_from_pick_down,green,true,false,joint 3 -,true,2024-03-04 15:44:35.995112,21.475,0.165,235.0,292.67919921875,106.52651977539062,78.2745132446289,0.0,20.0,51.0,2.1698338985443115,-20.0
32,100,100,40,go_to_color_detect_up_from_pick_up,green,true,false,joint 1 +,true,2024-03-04 15:44:36.688619,21.475,0.207,235.0,225.04928588867188,215.5377960205078,84.958251953125,23.76327896118164,45.04656219482422,51.0,0.0,-20.0
32,100,100,40,go_to_color_detect_down,green,true,false,joint 3 +,true,2024-03-04 15:44:37.381589,22.443,0.207,235.0,131.56875610351562,282.15008544921875,75.62562561035156,45.0,65.0,51.0,4.1999993324279785,-20.0
32,100,100,40,go_to_color_detect_down,green,true,false,joint 3 +,true,2024-03-04 15:44:38.763646,22.196,0.208,235.0,111.1933822631836,238.45497131347656,-24.167709350585938,45.0,65.0,51.0,47.98356246948242,-20.0
32,100,100,40,go_to_color_detect_up_from_color_detect_down,green,true,false,joint 3 -,false,2024-03-04 15:44:39.453569,22.196,0.208,235.0,129.75582885742188,278.26226806640625,48.52571487426758,45.0,65.0,51.0,13.298473358154297,-20.0
32,100,100,40,detecting_color,green,false,false,detecting_color,false,2024-03-04 15:44:40.870418,17.127,0.208,235.0,131.69407653808594,282.4188232421875,84.958251953125,45.0,65.0,51.0,-4.656612873077393e-10,-20.0
32,100,100,40,go_to_color_detect_down,green,true,false,joint 3 +,false,2024-03-04 15:44:41.571738,17.127,0.161,235.0,131.69407653808594,282.4188232421875,84.958251953125,45.0,65.0,51.0,0.03999999165534973,-20.0
32,100,100,40,go_to_color_detect_down,green,true,false,joint 3 +,false,2024-03-04 15:44:42.978785,16.443,0.161,235.0,117.60411071777344,252.20281982421875,-8.263710021972656,45.0,65.0,51.0,40.16921615600586,-20.0
32,100,100,40,go_to_color_detect_up_from_color_detect_down,green,true,false,joint 3 -,true,2024-03-04 15:44:43.667404,16.329,0.159,235.0,118.6042709350586,254.34765625,-5.301177978515625,45.0,65.0,51.0,36.959999084472656,-20.0
32,100,100,40,go_to_blue_up,blue,true,false,joint 1 +,true,2024-03-04 15:44:44.355150,23.127,0.159,235.0,129.7191619873047,283.3313903808594,84.958251953125,45.40000915527344,65.60000610351562,51.0,-4.656612873077393e-10,-20.0
32,100,100,40,go_to_pick_up_from_blue,blue,true,false,joint 1 -,false,2024-03-04 15:44:45.736505,22.937,0.206,235.0,29.325571060180664,310.23175048828125,84.958251953125,64.59999084472656,84.39999389648438,51.0,-4.656612873077393e-10,-20.0
32,100,100,40,go_to_pick_up_from_blue,blue,true,false,joint 1 -,false,2024-03-04 15:44:46.425387,22.405,0.206,235.0,252.67208862304688,182.37474060058594,84.958251953125,15.821159362792969,34.71625518798828,51.0,-4.656612873077393e-10,-20.0
32,100,100,40,moving_belt,blue,false,true,joint 1 -,false,2024-03-04 15:44:47.810705,16.31,0.16,235.0,292.8220520019531,106.5785140991211,84.958251953125,0.0,20.0,51.0,-4.656612873077393e-10,-20.0
32,100,100,40,moving_belt,blue,false,true,joint 1 -,false,2024-03-04 15:44:48.504140,17.374,0.16,235.0,292.8220520019531,106.5785140991211,84.958251953125,0.0,20.0,51.0,-4.656612873077393e-10,-20.0
32,100,100,40,moving_belt,blue,false,true,joint 1 -,false,2024-03-04 15:44:49.899131,17.355,0.168,235.0,292.8220520019531,106.5785140991211,84.958251953125,0.0,20.0,51.0,-4.656612873077393e-10,-20.0
32,100,100,40,moving_belt,blue,false,true,joint 1 -,false,2024-03-04 15:44:50.593941,17.222,0.168,235.0,292.8220520019531,106.5785140991211,84.958251953125,0.0,20.0,51.0,-4.656612873077393e-10,-20.0
32,100,100,40,moving_belt,blue,false,true,joint 1 -,false,2024-03-04 15:44:51.983000,17.298,0.166,235.0,292.8220520019531,106.5785140991211,84.958251953125,0.0,20.0,51.0,-4.656612873077393e-10,-20.0
32,100,100,40,moving_belt,blue,false,true,joint 1 -,false,2024-03-04 15:44:52.679541,17.298,0.166,235.0,292.8220520019531,106.5785140991211,84.958251953125,0.0,20.0,51.0,-4.656612873077393e-10,-20.0
32,100,100,40,moving_belt,blue,false,true,joint 1 -,false,2024-03-04 15:44:53.374550,17.563,0.166,235.0,292.8220520019531,106.5785140991211,84.958251953125,0.0,20.0,51.0,-4.656612873077393e-10,-20.0
32,100,100,40,go_to_pick_down,blue,true,false,joint 3 +,false,2024-03-04 15:44:54.759740,17.43,0.167,235.0,284.9839172363281,103.72566986083984,36.14509201049805,0.0,20.0,51.0,19.830162048339844,-20.0
32,100,100,40,go_to_pick_up_from_pick_down,blue,true,false,joint 3 -,true,2024-03-04 15:44:55.451867,16.291,0.167,235.0,292.8077392578125,106.57330322265625,82.84124755859375,0.0,20.0,51.0,0.5890025496482849,-20.0
32,100,100,40,go_to_color_detect_up_from_pick_up,blue,true,false,joint 1 +,true,2024-03-04 15:44:56.830898,23.298,0.213,235.0,201.2184600830078,237.9387969970703,84.958251953125,29.77968978881836,50.862972259521484,51.0,0.0,-20.0
32,100,100,40,go_to_color_detect_down,blue,true,false,joint 3 +,true,2024-03-04 15:44:57.523457,22.5,0.213,235.0,131.4142608642578,281.81878662109375,71.02216339111328,45.0,65.0,51.0,6.119998931884766,-20.0
32,100,100,40,go_to_color_detect_down,blue,true,false,joint 3 +,true,2024-03-04 15:44:58.906980,22.234,0.204,235.0,111.13883972167969,238.33799743652344,-24.284042358398438,45.0,65.0,51.0,48.0,-20.0
32,100,100,40,go_to_color_detect_up_from_color_detect_down,blue,true,false,joint 3 -,false,2024-03-04 15:44:59.607244,22.102,0.204,235.0,130.27099609375,279.3670349121094,53.674888610839844,45.0,65.0,51.0,11.315911293029785,-20.0
32,100,100,40,detecting_color,blue,false,false,detecting_color,false,2024-03-04 15:45:00.989106,16.956,0.166,235.0,131.69407653808594,282.4188232421875,84.958251953125,45.0,65.0,51.0,-4.656612873077393e-10,-20.0
32,100,100,40,go_to_color_detect_down,blue,true,false,joint 3 +,false,2024-03-04 15:45:01.674570,16.386,0.166,236.8,131.69393920898438,282.4185485839844,84.65037536621094,45.0,65.0,51.0,0.2399999499320984,-20.0
32,100,100,40,go_to_color_detect_down,blue,true,false,joint 3 +,false,2024-03-04 15:45:02.373030,16.386,0.166,236.8,116.49774169921875,249.8302001953125,-11.367164611816406,45.0,65.0,51.0,41.67177963256836,-20.0
32,100,100,40,go_to_color_detect_up_from_color_detect_down,blue,true,false,joint 3 -,true,2024-03-04 15:45:03.767375,17.734,0.159,235.0,124.34054565429688,266.6491394042969,15.583740234375,45.0,65.0,51.0,26.8800048828125,-20.0
32,100,100,40,go_to_red_up,red,true,false,joint 1 +,true,2024-03-04 15:45:04.460850,17.734,0.159,235.0,126.14859008789062,284.9390563964844,84.958251953125,46.12000274658203,66.44000244140625,51.0,-4.656612873077393e-10,-20.0
32,100,100,40,go_to_red_up,red,true,false,joint 1 +,true,2024-03-04 15:45:05.185083,23.507,0.213,235.0,-128.99781799316406,283.6605224609375,84.958251953125,94.4542007446289,115.35258483886719,51.0,-4.656612873077393e-10,-20.0
32,100,100,40,go_to_pick_up_from_red,red,true,false,joint 1 -,false,2024-03-04 15:45:06.445790,22.196,0.213,235.0,-105.96498107910156,293.0446472167969,84.958251953125,89.87999725341797,108.75999450683594,51.0,-4.656612873077393e-10,-20.0
32,100,100,40,go_to_pick_up_from_red,red,true,false,joint 1 -,false,2024-03-04 15:45:07.249933,22.614,0.184,235.0,256.56317138671875,176.85890197753906,84.958251953125,14.579994201660156,33.51999282836914,51.0,-4.656612873077393e-10,-20.0
32,100,100,40,moving_belt,red,false,true,joint 1 -,false,2024-03-04 15:45:08.605405,16.348,0.184,235.0,292.8220520019531,106.5785140991211,84.958251953125,0.0,20.0,51.0,-4.656612873077393e-10,-20.0
32,100,100,40,moving_belt,red,false,true,joint 1 -,false,2024-03-04 15:45:08.605405,16.348,0.184,235.0,292.8220520019531,106.5785140991211,84.958251953125,0.0,20.0,51.0,-4.656612873077393e-10,-20.0
32,100,100,40,moving_belt,red,false,true,joint 1 -,false,2024-03-04 15:45:08.605405,16.348,0.184,235.0,292.8220520019531,106.5785140991211,84.958251953125,0.0,20.0,51.0,-4.656612873077393e-10,-20.0
32,100,100,40,moving_belt,red,false,true,joint 1 -,false,2024-03-04 15:45:11.899482,17.62,0.166,235.0,292.8220520019531,106.5785140991211,84.958251953125,0.0,20.0,51.0,-4.656612873077393e-10,-20.0
32,100,100,40,moving_belt,red,false,true,joint 1 -,false,2024-03-04 15:45:12.613096,17.411,0.166,235.0,292.8220520019531,106.5785140991211,84.958251953125,0.0,20.0,51.0,-4.656612873077393e-10,-20.0
32,100,100,40,moving_belt,red,false,true,joint 1 -,false,2024-03-04 15:45:13.330519,17.411,0.166,235.0,292.8220520019531,106.5785140991211,84.958251953125,0.0,20.0,51.0,-4.656612873077393e-10,-20.0
32,100,100,40,moving_belt,red,false,true,joint 1 -,false,2024-03-04 15:45:14.865942,17.582,0.168,235.0,292.8220520019531,106.5785140991211,84.958251953125,0.0,20.0,51.0,-4.656612873077393e-10,-20.0
32,100,100,40,go_to_pick_down,red,true,false,joint 3 +,false,2024-03-04 15:45:15.685475,16.861,0.168,235.0,284.0044860839844,103.36918640136719,33.279571533203125,0.0,20.0,51.0,20.89866065979004,-20.0
32,100,100,40,go_to_pick_up_from_pick_down,red,true,false,joint 3 -,true,2024-03-04 15:45:16.607006,16.861,0.161,235.0,292.7230224609375,106.54247283935547,79.39258575439453,0.0,20.0,51.0,1.7736676931381226,-20.0
32,100,100,40,go_to_color_detect_up_from_pick_up,red,true,false,joint 1 +,true,2024-03-04 15:45:17.295860,21.57,0.161,235.0,187.9271240234375,248.57017517089844,84.958251953125,32.9095344543457,53.87281799316406,51.0,0.0,-20.0
32,100,100,40,go_to_color_detect_down,red,true,false,joint 3 +,true,2024-03-04 15:45:18.836436,22.291,0.206,235.0,131.02761840820312,280.9896240234375,63.484046936035156,45.0,65.0,51.0,9.239998817443848,-20.0
32,100,100,40,go_to_color_detect_up_from_color_detect_down,red,true,false,joint 3 -,false,2024-03-04 15:45:19.610424,21.988,0.206,235.0,111.15208435058594,238.3664093017578,-24.255813598632812,45.0,65.0,51.0,47.994842529296875,-20.0
32,100,100,40,go_to_color_detect_up_from_color_detect_down,red,true,false,joint 3 -,false,2024-03-04 15:45:20.998264,19.215,0.204,235.0,131.22311401367188,281.40887451171875,66.89193725585938,45.0,65.0,51.0,6.328224182128906,-20.0
32,100,100,40,detecting_color,red,false,false,detecting_color,false,2024-03-04 15:45:21.696250,19.215,0.204,235.0,131.69407653808594,282.4188232421875,84.958251953125,45.0,65.0,51.0,-4.656612873077393e-10,-20.0
32,100,100,40,go_to_color_detect_down,red,true,false,joint 3 +,false,2024-03-04 15:45:22.447963,16.652,0.157,235.0,131.66342163085938,282.35308837890625,80.34087371826172,45.0,65.0,51.0,2.1999995708465576,-20.0
32,100,100,40,go_to_color_detect_down,red,true,false,joint 3 +,false,2024-03-04 15:45:23.832078,16.234,0.157,235.0,113.70602416992188,243.8433380126953,-18.492164611816406,45.0,65.0,51.0,45.21946716308594,-20.0
32,100,100,40,go_to_color_detect_up_from_color_detect_down,red,true,false,joint 3 -,true,2024-03-04 15:45:24.524278,16.215,0.156,235.0,124.98181915283203,268.02435302734375,18.49610137939453,45.0,65.0,51.0,25.56000518798828,-20.0
32,100,100,40,go_to_green_up,green,true,false,joint 1 +,true,2024-03-04 15:45:25.902783,23.127,0.156,235.0,107.59998321533203,292.4482421875,84.958251953125,49.80000305175781,70.44000244140625,51.0,-4.656612873077393e-10,-20.0
32,100,100,40,go_to_pick_up_from_green,green,true,false,joint 1 -,false,2024-03-04 15:45:26.590845,22.215,0.207,235.0,-80.6219253540039,301.0047302246094,84.958251953125,84.99430847167969,105.0,51.0,-4.656612873077393e-10,-20.0
32,100,100,40,go_to_pick_up_from_green,green,true,false,joint 1 -,false,2024-03-04 15:45:27.973813,22.386,0.207,235.0,138.5548858642578,279.116943359375,84.958251953125,43.59999465942383,61.75999450683594,51.0,-4.656612873077393e-10,-20.0
32,100,100,40,moving_belt,green,false,true,joint 1 -,false,2024-03-04 15:45:28.665181,16.31,0.207,235.0,292.8220520019531,106.5785140991211,84.958251953125,0.0,20.0,51.0,-4.656612873077393e-10,-20.0
32,100,100,40,moving_belt,green,false,true,joint 1 -,false,2024-03-04 15:45:29.366914,16.31,0.158,235.0,292.8220520019531,106.5785140991211,84.958251953125,0.0,20.0,51.0,-4.656612873077393e-10,-20.0
32,100,100,40,moving_belt,green,false,true,joint 1 -,false,2024-03-04 15:45:30.744023,17.582,0.158,235.0,292.8220520019531,106.5785140991211,84.958251953125,0.0,20.0,51.0,-4.656612873077393e-10,-20.0
32,100,100,40,moving_belt,green,false,true,joint 1 -,false,2024-03-04 15:45:31.434616,17.582,0.167,235.0,292.8220520019531,106.5785140991211,84.958251953125,0.0,20.0,51.0,-4.656612873077393e-10,-20.0
32,100,100,40,moving_belt,green,false,true,joint 1 -,false,2024-03-04 15:45:32.856427,17.449,0.167,235.0,292.8220520019531,106.5785140991211,84.958251953125,0.0,20.0,51.0,-4.656612873077393e-10,-20.0
32,100,100,40,moving_belt,green,false,true,joint 1 -,false,2024-03-04 15:45:33.643414,17.411,0.166,235.0,292.8220520019531,106.5785140991211,84.958251953125,0.0,20.0,51.0,-4.656612873077393e-10,-20.0
32,100,100,40,moving_belt,green,false,true,joint 1 -,false,2024-03-04 15:45:34.359540,17.487,0.166,235.0,292.8220520019531,106.5785140991211,84.958251953125,0.0,20.0,51.0,-4.656612873077393e-10,-20.0
32,100,100,40,go_to_pick_down,green,true,false,joint 3 +,false,2024-03-04 15:45:36.019321,17.393,0.166,235.0,292.0347900390625,106.29197692871094,69.28641510009766,0.0,20.0,51.0,6.839999675750732,-20.0
32,100,100,40,go_to_pick_up_from_pick_down,green,true,false,joint 3 -,true,2024-03-04 15:45:36.847087,16.481,0.166,235.0,289.41064453125,105.33686065673828,52.4907112121582,0.0,20.0,51.0,11.879996299743652,-20.0
32,100,100,40,go_to_color_detect_up_from_pick_up,green,true,false,joint 1 +,true,2024-03-04 15:45:37.535260,23.564,0.217,235.0,274.1114196777344,148.21151733398438,84.958251953125,8.400001525878906,29.240001678466797,51.0,0.0,-20.0
32,100,100,40,go_to_color_detect_down,green,true,false,joint 3 +,true,2024-03-04 15:45:38.922752,22.348,0.217,235.0,131.69407653808594,282.4188232421875,84.958251953125,45.0,65.0,51.0,0.0,-20.0
32,100,100,40,go_to_color_detect_down,green,true,false,joint 3 +,true,2024-03-04 15:45:39.609464,22.272,0.204,235.0,115.47264099121094,247.63186645507812,-14.094192504882812,45.0,65.0,51.0,43.01434326171875,-20.0
32,100,100,40,go_to_color_detect_up_from_color_detect_down,green,true,false,joint 3 -,false,2024-03-04 15:45:40.988195,22.215,0.204,236.8,121.74224090576172,261.0770568847656,5.154693603515625,45.0,65.0,51.0,31.76000213623047,-20.0
32,100,100,40,detecting_color,green,false,false,detecting_color,false,2024-03-04 15:45:41.677700,17.791,0.204,236.8,131.69407653808594,282.4188232421875,84.958251953125,45.0,65.0,51.0,-4.656612873077393e-10,-20.0
32,100,100,40,detecting_color,green,false,false,detecting_color,false,2024-03-04 15:45:42.372710,16.652,0.167,236.8,131.69407653808594,282.4188232421875,84.958251953125,45.0,65.0,51.0,-4.656612873077393e-10,-20.0
32,100,100,40,go_to_color_detect_down,green,true,false,joint 3 +,false,2024-03-04 15:45:43.753222,16.405,0.167,235.0,127.52101135253906,273.4696960449219,31.990859985351562,45.0,65.0,51.0,22.43999481201172,-20.0
32,100,100,40,go_to_color_detect_up_from_color_detect_down,green,true,false,joint 3 -,true,2024-03-04 15:45:44.443084,16.405,0.159,235.0,114.40845489501953,245.34971618652344,-16.786788940429688,45.0,65.0,51.0,43.19999694824219,-20.0
32,100,100,40,go_to_color_detect_up_from_color_detect_down,green,true,false,joint 3 -,true,2024-03-04 15:45:45.828540,23.393,0.159,235.0,131.68978881835938,282.4096374511719,83.23200988769531,45.0,65.0,51.0,0.4615650475025177,-20.0
32,100,100,40,go_to_blue_up,blue,true,false,joint 1 +,true,2024-03-04 15:45:46.516576,23.393,0.213,235.0,30.13475799560547,310.1542053222656,84.958251953125,64.45052337646484,84.6393814086914,51.0,-4.656612873077393e-10,-20.0
32,100,100,40,go_to_pick_up_from_blue,blue,true,false,joint 1 -,false,2024-03-04 15:45:48.016678,20.051,0.213,235.0,221.58935546875,219.0933380126953,84.958251953125,24.675479888916016,43.29057693481445,51.0,-4.656612873077393e-10,-20.0
32,100,100,40,moving_belt,blue,false,true,joint 1 -,false,2024-03-04 15:45:48.704274,20.051,0.159,235.0,292.8220520019531,106.5785140991211,84.958251953125,0.0,20.0,51.0,-4.656612873077393e-10,-20.0
32,100,100,40,moving_belt,blue,false,true,joint 1 -,false,2024-03-04 15:45:49.390699,16.481,0.159,235.0,292.8220520019531,106.5785140991211,84.958251953125,0.0,20.0,51.0,-4.656612873077393e-10,-20.0
32,100,100,40,moving_belt,blue,false,true,joint 1 -,false,2024-03-04 15:45:50.782441,17.658,0.168,235.0,292.8220520019531,106.5785140991211,84.958251953125,0.0,20.0,51.0,-4.656612873077393e-10,-20.0
32,100,100,40,moving_belt,blue,false,true,joint 1 -,false,2024-03-04 15:45:51.470579,17.449,0.168,235.0,292.8220520019531,106.5785140991211,84.958251953125,0.0,20.0,51.0,-4.656612873077393e-10,-20.0
32,100,100,40,moving_belt,blue,false,true,joint 1 -,false,2024-03-04 15:45:52.850492,17.563,0.169,235.0,292.8220520019531,106.5785140991211,84.958251953125,0.0,20.0,51.0,-4.656612873077393e-10,-20.0
32,100,100,40,moving_belt,blue,false,true,joint 1 -,false,2024-03-04 15:45:53.544088,17.487,0.169,235.0,292.8220520019531,106.5785140991211,84.958251953125,0.0,20.0,51.0,-4.656612873077393e-10,-20.0
32,100,100,40,moving_belt,blue,false,true,joint 1 -,false,2024-03-04 15:45:54.929512,17.506,0.168,235.0,292.8220520019531,106.5785140991211,84.958251953125,0.0,20.0,51.0,-4.656612873077393e-10,-20.0
32,100,100,40,go_to_pick_down,blue,true,false,joint 3 +,false,2024-03-04 15:45:55.621802,17.506,0.168,235.0,287.5127258300781,104.64608001708984,44.5949592590332,0.0,20.0,51.0,16.6131649017334,-20.0
32,100,100,40,go_to_pick_up_from_pick_down,blue,true,false,joint 3 -,true,2024-03-04 15:45:57.017348,19.633,0.191,235.0,291.8562927246094,106.22700500488281,67.60594940185547,0.0,20.0,51.0,6.062997817993164,-20.0
32,100,100,40,go_to_color_detect_up_from_pick_up,blue,true,false,joint 1 +,true,2024-03-04 15:45:57.710334,19.633,0.191,235.0,254.88491821289062,179.26907348632812,84.958251953125,15.119998931884766,36.23999786376953,51.0,0.0,-20.0
32,100,100,40,go_to_color_detect_down,blue,true,false,joint 3 +,true,2024-03-04 15:45:58.407010,22.5,0.191,235.0,131.62814331054688,282.2774353027344,78.1873779296875,45.0,65.0,51.0,3.119999408721924,-20.0
32,100,100,40,go_to_color_detect_down,blue,true,false,joint 3 +,true,2024-03-04 15:45:59.797552,21.874,0.204,235.0,112.66073608398438,241.60171508789062,-20.93079376220703,45.0,65.0,51.0,46.453311920166016,-20.0
32,100,100,40,go_to_color_detect_up_from_color_detect_down,blue,true,false,joint 3 -,false,2024-03-04 15:46:00.489434,21.874,0.204,235.0,127.3722915649414,273.1507568359375,31.08867645263672,45.0,65.0,51.0,20.206161499023438,-20.0
32,100,100,40,detecting_color,blue,false,false,detecting_color,false,2024-03-04 15:46:01.872566,17.222,0.165,235.0,131.69407653808594,282.4188232421875,84.958251953125,45.0,65.0,51.0,-4.656612873077393e-10,-20.0
32,100,100,40,detecting_color,blue,false,false,detecting_color,false,2024-03-04 15:46:02.558915,17.222,0.165,235.0,131.69407653808594,282.4188232421875,84.958251953125,45.0,65.0,51.0,-4.656612873077393e-10,-20.0
32,100,100,40,go_to_color_detect_down,blue,true,false,joint 3 +,false,2024-03-04 15:46:03.936036,16.291,0.16,235.0,121.2841567993164,260.0946960449219,3.502349853515625,45.0,65.0,51.0,34.7015266418457,-20.0
32,100,100,40,go_to_color_detect_up_from_color_detect_down,blue,true,false,joint 3 -,true,2024-03-04 15:46:04.628498,16.386,0.16,235.0,119.21041107177734,255.64755249023438,-3.4265670776367188,45.0,65.0,51.0,36.0,-20.0
32,100,100,40,go_to_red_up,red,true,false,joint 1 +,true,2024-03-04 15:46:06.010876,23.26,0.216,235.0,131.69407653808594,282.4188232421875,84.958251953125,45.0,65.0,51.0,-4.656612873077393e-10,-20.0
32,100,100,40,go_to_red_up,red,true,false,joint 1 +,true,2024-03-04 15:46:06.700511,22.595,0.216,236.8,-103.3127212524414,293.99017333984375,84.958251953125,89.36226654052734,110.46065521240234,51.0,-4.656612873077393e-10,-20.0
32,100,100,40,go_to_pick_up_from_red,red,true,false,joint 1 -,false,2024-03-04 15:46:07.388275,22.31,0.216,236.8,-147.06202697753906,274.7298278808594,84.958251953125,98.15999603271484,117.39999389648438,51.0,-4.656612873077393e-10,-20.0
32,100,100,40,go_to_pick_up_from_red,red,true,false,joint 1 -,false,2024-03-04 15:46:08.792596,20.469,0.209,235.0,241.4153594970703,197.03390502929688,84.958251953125,19.219993591308594,37.99999237060547,51.0,-4.656612873077393e-10,-20.0
32,100,100,40,moving_belt,red,false,true,joint 1 -,false,2024-03-04 15:46:09.487779,16.462,0.209,235.0,292.8220520019531,106.5785140991211,84.958251953125,0.0,20.0,51.0,-4.656612873077393e-10,-20.0
32,100,100,40,moving_belt,red,false,true,joint 1 -,false,2024-03-04 15:46:10.878338,17.449,0.159,235.0,292.8220520019531,106.5785140991211,84.958251953125,0.0,20.0,51.0,-4.656612873077393e-10,-20.0
32,100,100,40,moving_belt,red,false,true,joint 1 -,false,2024-03-04 15:46:11.569641,17.449,0.159,235.0,292.8220520019531,106.5785140991211,84.958251953125,0.0,20.0,51.0,-4.656612873077393e-10,-20.0
32,100,100,40,moving_belt,red,false,true,joint 1 -,false,2024-03-04 15:46:12.943429,17.468,0.166,235.0,292.8220520019531,106.5785140991211,84.958251953125,0.0,20.0,51.0,-4.656612873077393e-10,-20.0
32,100,100,40,moving_belt,red,false,true,joint 1 -,false,2024-03-04 15:46:13.632503,17.468,0.166,235.0,292.8220520019531,106.5785140991211,84.958251953125,0.0,20.0,51.0,-4.656612873077393e-10,-20.0
32,100,100,40,moving_belt,red,false,true,joint 1 -,false,2024-03-04 15:46:15.011006,17.544,0.166,235.0,292.8220520019531,106.5785140991211,84.958251953125,0.0,20.0,51.0,-4.656612873077393e-10,-20.0
32,100,100,40,moving_belt,red,false,true,joint 1 -,false,2024-03-04 15:46:15.736842,17.355,0.166,235.0,292.8220520019531,106.5785140991211,84.958251953125,0.0,20.0,51.0,-4.656612873077393e-10,-20.0
32,100,100,40,go_to_pick_down,red,true,false,joint 3 +,false,2024-03-04 15:46:16.425336,17.582,0.166,235.0,285.3606262207031,103.86277770996094,37.29911804199219,0.0,20.0,51.0,19.39399528503418,-20.0
32,100,100,40,go_to_pick_up_from_pick_down,red,true,false,joint 3 -,true,2024-03-04 15:46:17.815866,16.253,0.168,235.0,292.4590759277344,106.44640350341797,74.30866241455078,0.0,20.0,51.0,3.598332643508911,-20.0
32,100,100,40,go_to_color_detect_up_from_pick_up,red,true,false,joint 1 +,true,2024-03-04 15:46:18.509835,23.089,0.168,235.0,234.74993896484375,204.9297637939453,84.958251953125,21.119998931884766,42.439998626708984,51.0,0.0,-20.0
32,100,100,40,go_to_color_detect_down,red,true,false,joint 3 +,true,2024-03-04 15:46:19.889386,22.519,0.209,235.0,131.4142608642578,281.81878662109375,71.02216339111328,45.0,65.0,51.0,6.119998931884766,-20.0
32,100,100,40,go_to_color_detect_down,red,true,false,joint 3 +,true,2024-03-04 15:46:20.579598,22.177,0.209,235.0,111.5094223022461,239.13270568847656,-23.488121032714844,45.0,65.0,51.0,47.709716796875,-20.0
32,100,100,40,go_to_color_detect_up_from_color_detect_down,red,true,false,joint 3 -,false,2024-03-04 15:46:21.975114,22.215,0.204,235.0,128.73878479003906,276.0812072753906,40.15884017944336,45.0,65.0,51.0,16.572317123413086,-20.0
32,100,100,40,detecting_color,red,false,false,detecting_color,false,2024-03-04 15:46:22.667424,16.975,0.204,235.0,131.69407653808594,282.4188232421875,84.958251953125,45.0,65.0,51.0,-4.656612873077393e-10,-20.0
32,100,100,40,go_to_color_detect_down,red,true,false,joint 3 +,false,2024-03-04 15:46:24.056364,16.443,0.164,235.0,131.69407653808594,282.4188232421875,84.958251953125,45.0,65.0,51.0,-4.656612873077393e-10,-20.0
32,100,100,40,go_to_color_detect_down,red,true,false,joint 3 +,false,2024-03-04 15:46:24.746705,16.348,0.164,235.0,117.60411071777344,252.20281982421875,-8.263710021972656,45.0,65.0,51.0,40.16921615600586,-20.0
32,100,100,40,go_to_color_detect_up_from_color_detect_down,red,true,false,joint 3 -,true,2024-03-04 15:46:25.460616,16.348,0.158,235.0,119.21041107177734,255.64755249023438,-3.4265670776367188,45.0,65.0,51.0,36.0,-20.0
32,100,100,40,go_to_green_up,green,true,false,joint 1 +,true,2024-03-04 15:46:26.840736,23.355,0.158,235.0,131.69407653808594,282.4188232421875,84.958251953125,45.0,65.0,51.0,-4.656612873077393e-10,-20.0
32,100,100,40,go_to_green_up,green,true,false,joint 1 +,true,2024-03-04 15:46:27.532366,23.355,0.209,235.0,-54.310367584228516,306.8454284667969,84.958251953125,80.03715515136719,100.64698028564453,51.0,-4.656612873077393e-10,-20.0
32,100,100,40,go_to_pick_up_from_green,green,true,false,joint 1 -,false,2024-03-04 15:46:28.914220,22.348,0.209,235.0,62.8719596862793,305.20623779296875,84.958251953125,58.35999298095703,76.87998962402344,51.0,-4.656612873077393e-10,-20.0
32,100,100,40,go_to_pick_up_from_green,green,true,false,joint 1 -,false,2024-03-04 15:46:29.655161,22.348,0.159,235.0,290.55938720703125,112.6009292602539,84.958251953125,1.1829204559326172,20.895103454589844,51.0,-4.656612873077393e-10,-20.0
32,100,100,40,moving_belt,green,false,true,joint 1 -,false,2024-03-04 15:46:31.029681,17.393,0.159,235.0,292.8220520019531,106.5785140991211,84.958251953125,0.0,20.0,51.0,-4.656612873077393e-10,-20.0
32,100,100,40,moving_belt,green,false,true,joint 1 -,false,2024-03-04 15:46:31.735084,17.393,0.169,235.0,292.8220520019531,106.5785140991211,84.958251953125,0.0,20.0,51.0,-4.656612873077393e-10,-20.0
32,100,100,40,moving_belt,green,false,true,joint 1 -,false,2024-03-04 15:46:32.426166,17.411,0.169,235.0,292.8220520019531,106.5785140991211,84.958251953125,0.0,20.0,51.0,-4.656612873077393e-10,-20.0
32,100,100,40,moving_belt,green,false,true,joint 1 -,false,2024-03-04 15:46:33.810838,17.449,0.169,235.0,292.8220520019531,106.5785140991211,84.958251953125,0.0,20.0,51.0,-4.656612873077393e-10,-20.0
32,100,100,40,moving_belt,green,false,true,joint 1 -,false,2024-03-04 15:46:34.502163,17.411,0.169,235.0,292.8220520019531,106.5785140991211,84.958251953125,0.0,20.0,51.0,-4.656612873077393e-10,-20.0
32,100,100,40,moving_belt,green,false,true,joint 1 -,false,2024-03-04 15:46:35.885118,17.449,0.169,235.0,292.8220520019531,106.5785140991211,84.958251953125,0.0,20.0,51.0,-4.656612873077393e-10,-20.0
32,100,100,40,go_to_pick_down,green,true,false,joint 3 +,false,2024-03-04 15:46:36.575624,17.449,0.168,235.0,292.7538757324219,106.55370330810547,80.34086608886719,0.0,20.0,51.0,2.200000047683716,-20.0
32,100,100,40,go_to_pick_up_from_pick_down,green,true,false,joint 3 -,true,2024-03-04 15:46:37.961276,16.443,0.168,235.0,283.7506103515625,103.27677917480469,32.565711975097656,0.0,20.0,51.0,20.55999755859375,-20.0
32,100,100,40,go_to_color_detect_up_from_pick_up,green,true,false,joint 1 +,true,2024-03-04 15:46:38.651317,16.443,0.176,235.0,291.6899108886719,109.63904571533203,84.958251953125,0.6000022888183594,20.840002059936523,51.0,0.0,-20.0
32,100,100,40,go_to_color_detect_up_from_pick_up,green,true,false,joint 1 +,true,2024-03-04 15:46:40.024790,22.367,0.176,235.0,137.35850524902344,279.7076416015625,84.958251953125,43.84532165527344,64.12860107421875,51.0,0.0,-20.0
32,100,100,40,go_to_color_detect_down,green,true,false,joint 3 +,true,2024-03-04 15:46:40.844220,22.102,0.204,235.0,124.52679443359375,267.0485534667969,16.41339874267578,45.0,65.0,51.0,29.045120239257812,-20.0
32,100,100,40,go_to_color_detect_up_from_color_detect_down,green,true,false,joint 3 -,false,2024-03-04 15:46:41.533258,22.102,0.204,236.8,114.40845489501953,245.34971618652344,-16.786788940429688,45.0,65.0,51.0,43.19999694824219,-20.0
32,100,100,40,go_to_color_detect_up_from_color_detect_down,green,true,false,joint 3 -,false,2024-03-04 15:46:42.915938,17.089,0.164,236.8,131.69407653808594,282.4188232421875,84.91607666015625,45.0,65.0,51.0,0.00515705905854702,-20.0
32,100,100,40,detecting_color,green,false,false,detecting_color,false,2024-03-04 15:46:43.608964,17.089,0.164,235.0,131.69407653808594,282.4188232421875,84.958251953125,45.0,65.0,51.0,-4.656612873077393e-10,-20.0
32,100,100,40,go_to_color_detect_down,green,true,false,joint 3 +,false,2024-03-04 15:46:44.988465,16.5,0.159,235.0,130.88796997070312,280.69012451171875,61.35441970825195,45.0,65.0,51.0,10.119998931884766,-20.0
32,100,100,40,go_to_color_detect_up_from_color_detect_down,green,true,false,joint 3 -,true,2024-03-04 15:46:45.676085,16.348,0.159,235.0,111.14300537109375,238.34693908691406,-24.275192260742188,45.0,65.0,51.0,48.0,-20.0
32,100,100,40,go_to_color_detect_up_from_color_detect_down,green,true,false,joint 3 -,true,2024-03-04 15:46:47.055873,17.753,0.216,235.0,131.31553649902344,281.6070556640625,68.75533294677734,45.0,65.0,51.0,5.6369428634643555,-20.0
32,100,100,40,go_to_blue_up,blue,true,false,joint 1 +,true,2024-03-04 15:46:47.741794,23.412,0.216,236.8,59.11566162109375,305.95599365234375,84.958251953125,59.06427764892578,79.7331314086914,51.0,-4.656612873077393e-10,-20.0
32,100,100,40,go_to_pick_up_from_blue,blue,true,false,joint 1 -,false,2024-03-04 15:46:48.431329,22.102,0.216,236.8,143.59814453125,276.55615234375,84.958251953125,42.55999755859375,61.19999694824219,51.0,-4.656612873077393e-10,-20.0
32,100,100,40,moving_belt,blue,false,true,joint 1 -,false,2024-03-04 15:46:49.804512,17.26,0.17,236.8,292.8220520019531,106.5785140991211,84.958251953125,0.0,20.0,51.0,-4.656612873077393e-10,-20.0
32,100,100,40,moving_belt,blue,false,true,joint 1 -,false,2024-03-04 15:46:50.497195,16.595,0.17,235.0,292.8220520019531,106.5785140991211,84.958251953125,0.0,20.0,51.0,-4.656612873077393e-10,-20.0
32,100,100,40,moving_belt,blue,false,true,joint 1 -,false,2024-03-04 15:46:51.870511,17.525,0.168,235.0,292.8220520019531,106.5785140991211,84.958251953125,0.0,20.0,51.0,-4.656612873077393e-10,-20.0
32,100,100,40,moving_belt,blue,false,true,joint 1 -,false,2024-03-04 15:46:52.556331,17.525,0.168,235.0,292.8220520019531,106.5785140991211,84.958251953125,0.0,20.0,51.0,-4.656612873077393e-10,-20.0
32,100,100,40,moving_belt,blue,false,true,joint 1 -,false,2024-03-04 15:46:53.934009,17.468,0.168,235.0,292.8220520019531,106.5785140991211,84.958251953125,0.0,20.0,51.0,-4.656612873077393e-10,-20.0
32,100,100,40,moving_belt,blue,false,true,joint 1 -,false,2024-03-04 15:46:54.624126,17.468,0.168,235.0,292.8220520019531,106.5785140991211,84.958251953125,0.0,20.0,51.0,-4.656612873077393e-10,-20.0
32,100,100,40,moving_belt,blue,false,true,joint 1 -,false,2024-03-04 15:46:56.001054,17.544,0.167,235.0,292.8220520019531,106.5785140991211,84.958251953125,0.0,20.0,51.0,-4.656612873077393e-10,-20.0
32,100,100,40,go_to_pick_down,blue,true,false,joint 3 +,false,2024-03-04 15:46:56.689157,17.487,0.167,235.0,292.6172790527344,106.50399017333984,76.95742797851562,0.0,20.0,51.0,3.640000104904175,-20.0
32,100,100,40,go_to_pick_up_from_pick_down,blue,true,false,joint 3 -,true,2024-03-04 15:46:58.066435,16.747,0.159,235.0,286.6444396972656,104.33004760742188,41.48917770385742,0.0,20.0,51.0,16.55999755859375,-20.0
32,100,100,40,go_to_color_detect_up_from_pick_up,blue,true,false,joint 1 +,true,2024-03-04 15:46:58.756150,23.241,0.159,235.0,285.4649353027344,124.95398712158203,84.958251953125,3.640003204345703,24.200002670288086,51.0,0.0,-20.0
32,100,100,40,go_to_color_detect_up_from_pick_up,blue,true,false,joint 1 +,true,2024-03-04 15:46:59.448048,22.291,0.159,235.0,134.7821807861328,280.95819091796875,84.958251953125,44.37187957763672,64.57516479492188,51.0,0.0,-20.0
32,100,100,40,go_to_color_detect_down,blue,true,false,joint 3 +,true,2024-03-04 15:47:00.827474,22.367,0.208,235.0,119.38970947265625,256.03204345703125,-2.8599166870117188,45.0,65.0,51.0,37.61537170410156,-20.0
32,100,100,40,go_to_color_detect_up_from_color_detect_down,blue,true,false,joint 3 -,false,2024-03-04 15:47:01.521045,22.026,0.208,235.0,117.4372329711914,251.84494018554688,-8.743080139160156,45.0,65.0,51.0,38.7599983215332,-20.0
32,100,100,40,detecting_color,blue,false,false,detecting_color,false,2024-03-04 15:47:02.904230,19.462,0.174,235.0,131.69407653808594,282.4188232421875,84.958251953125,45.0,65.0,51.0,-4.656612873077393e-10,-20.0
32,100,100,40,detecting_color,blue,false,false,detecting_color,false,2024-03-04 15:47:03.616265,16.918,0.174,235.0,131.69407653808594,282.4188232421875,84.958251953125,45.0,65.0,51.0,-4.656612873077393e-10,-20.0
32,100,100,40,go_to_color_detect_down,blue,true,false,joint 3 +,false,2024-03-04 15:47:04.995120,16.367,0.161,235.0,130.10182189941406,279.0042419433594,51.890445709228516,45.0,65.0,51.0,14.039999008178711,-20.0
32,100,100,40,go_to_color_detect_up_from_color_detect_down,blue,true,false,joint 3 -,true,2024-03-04 15:47:05.698827,16.367,0.161,235.0,112.28592681884766,240.7979278564453,-21.777687072753906,45.0,65.0,51.0,46.19999694824219,-20.0
32,100,100,40,go_to_color_detect_up_from_color_detect_down,blue,true,false,joint 3 -,true,2024-03-04 15:47:07.075000,23.431,0.211,235.0,131.5928192138672,282.2016906738281,76.56852722167969,45.0,65.0,51.0,2.7805356979370117,-20.0
32,100,100,40,go_to_red_up,red,true,false,joint 1 +,true,2024-03-04 15:47:07.765511,22.424,0.211,236.8,21.08601951599121,310.9004821777344,84.958251953125,66.12000274658203,87.44000244140625,51.0,-4.656612873077393e-10,-20.0
32,100,100,40,go_to_pick_up_from_red,red,true,false,joint 1 -,false,2024-03-04 15:47:08.464852,22.424,0.211,236.8,-178.73486328125,255.2598114013672,84.958251953125,105.0,124.95999908447266,51.0,-4.656612873077393e-10,-20.0
32,100,100,40,go_to_pick_up_from_red,red,true,false,joint 1 -,false,2024-03-04 15:47:09.901149,18.874,0.209,236.8,126.3475341796875,284.85089111328125,84.958251953125,46.079994201660156,64.17999267578125,51.0,-4.656612873077393e-10,-20.0
32,100,100,40,moving_belt,red,false,true,joint 1 -,false,2024-03-04 15:47:10.590379,18.874,0.209,236.8,292.8220520019531,106.57848358154297,84.958251953125,-3.814697265625e-06,20.0,51.0,-4.656612873077393e-10,-20.0
32,100,100,40,moving_belt,red,false,true,joint 1 -,false,2024-03-04 15:47:12.047021,17.544,0.16,235.0,292.8220520019531,106.5785140991211,84.958251953125,0.0,20.0,51.0,-4.656612873077393e-10,-20.0
32,100,100,40,moving_belt,red,false,true,joint 1 -,false,2024-03-04 15:47:12.737360,17.544,0.16,235.0,292.8220520019531,106.5785140991211,84.958251953125,0.0,20.0,51.0,-4.656612873077393e-10,-20.0
32,100,100,40,moving_belt,red,false,true,joint 1 -,false,2024-03-04 15:47:13.428135,17.506,0.169,235.0,292.8220520019531,106.5785140991211,84.958251953125,0.0,20.0,51.0,-4.656612873077393e-10,-20.0
32,100,100,40,moving_belt,red,false,true,joint 1 -,false,2024-03-04 15:47:14.813290,17.487,0.169,235.0,292.8220520019531,106.5785140991211,84.958251953125,0.0,20.0,51.0,-4.656612873077393e-10,-20.0
32,100,100,40,moving_belt,red,false,true,joint 1 -,false,2024-03-04 15:47:15.506852,17.468,0.167,235.0,292.8220520019531,106.5785140991211,84.958251953125,0.0,20.0,51.0,-4.656612873077393e-10,-20.0
32,100,100,40,moving_belt,red,false,true,joint 1 -,false,2024-03-04 15:47:16.888780,17.544,0.167,236.8,292.8220520019531,106.5785140991211,84.958251953125,0.0,20.0,51.0,-4.656612873077393e-10,-20.0
32,100,100,40,go_to_pick_down,red,true,false,joint 3 +,false,2024-03-04 15:47:17.592569,17.544,0.167,236.8,292.54339599609375,106.47708892822266,75.62562561035156,0.0,20.0,51.0,4.200000286102295,-20.0
32,100,100,40,go_to_pick_up_from_pick_down,red,true,false,joint 3 -,true,2024-03-04 15:47:18.977626,16.671,0.167,236.8,288.0148620605469,104.82884216308594,46.5154914855957,0.0,20.0,51.0,14.399996757507324,-20.0
32,100,100,40,go_to_color_detect_up_from_pick_up,red,true,false,joint 1 +,true,2024-03-04 15:47:19.675499,16.671,0.213,236.8,279.79071044921875,137.18922424316406,84.958251953125,6.120002746582031,26.840002059936523,51.0,0.0,-20.0
32,100,100,40,go_to_color_detect_down,red,true,false,joint 3 +,true,2024-03-04 15:47:21.069783,22.405,0.213,236.8,131.96502685546875,282.2923278808594,84.958251953125,44.94501495361328,64.98829650878906,51.0,0.0,-20.0
32,100,100,40,go_to_color_detect_down,red,true,false,joint 3 +,true,2024-03-04 15:47:21.759935,21.988,0.202,236.8,117.04146575927734,250.9962158203125,-9.863693237304688,45.0,65.0,51.0,40.94049835205078,-20.0
32,100,100,40,go_to_color_detect_up_from_color_detect_down,red,true,false,joint 3 -,false,2024-03-04 15:47:22.450822,21.988,0.202,236.8,119.82927703857422,256.9747009277344,-1.4461822509765625,45.0,65.0,51.0,35.0,-20.0
32,100,100,40,detecting_color,red,false,false,detecting_color,false,2024-03-04 15:47:23.832047,17.279,0.165,236.8,131.69407653808594,282.4188232421875,84.958251953125,45.0,65.0,51.0,-4.656612873077393e-10,-20.0
32,100,100,40,detecting_color,red,false,false,detecting_color,false,2024-03-04 15:47:24.522677,17.279,0.165,236.8,131.69407653808594,282.4188232421875,84.958251953125,45.0,65.0,51.0,-4.656612873077393e-10,-20.0
32,100,100,40,go_to_color_detect_down,red,true,false,joint 3 +,false,2024-03-04 15:47:25.909178,16.31,0.165,236.8,129.5434112548828,277.8067321777344,46.61455154418945,45.0,65.0,51.0,16.23999786376953,-20.0
32,100,100,40,go_to_color_detect_up_from_color_detect_down,red,true,false,joint 3 -,true,2024-03-04 15:47:26.594947,16.348,0.158,236.8,112.28592681884766,240.7979278564453,-21.777687072753906,45.0,65.0,51.0,46.19999694824219,-20.0
32,100,100,40,go_to_color_detect_up_from_color_detect_down,red,true,false,joint 3 -,true,2024-03-04 15:47:27.975774,19.158,0.158,236.8,131.5928192138672,282.2016906738281,76.56852722167969,45.0,65.0,51.0,2.7805356979370117,-20.0
32,100,100,40,go_to_green_up,green,true,false,joint 1 +,true,2024-03-04 15:47:28.665526,23.393,0.215,236.8,28.0257511138916,310.35186767578125,84.958251953125,64.84000396728516,86.08982849121094,51.0,-4.656612873077393e-10,-20.0
32,100,100,40,go_to_pick_up_from_green,green,true,false,joint 1 -,false,2024-03-04 15:47:30.061875,20.639,0.215,236.8,-44.229949951171875,308.45977783203125,84.958251953125,78.15999603271484,97.39999389648438,51.0,-4.656612873077393e-10,-20.0
32,100,100,40,go_to_pick_up_from_green,green,true,false,joint 1 -,false,2024-03-04 15:47:30.747887,20.639,0.166,236.8,260.73724365234375,170.6453094482422,84.958251953125,13.20363998413086,32.195823669433594,51.0,-4.656612873077393e-10,-20.0
32,100,100,40,moving_belt,green,false,true,joint 1 -,false,2024-03-04 15:47:32.129355,16.481,0.166,236.8,292.8220520019531,106.5785140991211,84.958251953125,0.0,20.0,51.0,-4.656612873077393e-10,-20.0
32,100,100,40,moving_belt,green,false,true,joint 1 -,false,2024-03-04 15:47:32.820342,17.544,0.168,236.8,292.8220520019531,106.5785140991211,84.958251953125,0.0,20.0,51.0,-4.656612873077393e-10,-20.0
32,100,100,40,moving_belt,green,false,true,joint 1 -,false,2024-03-04 15:47:33.511219,17.544,0.168,236.8,292.8220520019531,106.5785140991211,84.958251953125,0.0,20.0,51.0,-4.656612873077393e-10,-20.0
32,100,100,40,moving_belt,green,false,true,joint 1 -,false,2024-03-04 15:47:34.904776,17.393,0.166,236.8,292.8220520019531,106.5785140991211,84.958251953125,0.0,20.0,51.0,-4.656612873077393e-10,-20.0
32,100,100,40,moving_belt,green,false,true,joint 1 -,false,2024-03-04 15:47:35.595720,17.393,0.166,236.8,292.8220520019531,106.5785140991211,84.958251953125,0.0,20.0,51.0,-4.656612873077393e-10,-20.0
32,100,100,40,moving_belt,green,false,true,joint 1 -,false,2024-03-04 15:47:36.985288,17.525,0.168,235.0,292.8220520019531,106.5785140991211,84.958251953125,0.0,20.0,51.0,-4.656612873077393e-10,-20.0
32,100,100,40,moving_belt,green,false,true,joint 1 -,false,2024-03-04 15:47:37.675387,17.544,0.168,235.0,292.8220520019531,106.5785140991211,84.958251953125,0.0,20.0,51.0,-4.656612873077393e-10,-20.0
32,100,100,40,go_to_pick_down,green,true,false,joint 3 +,false,2024-03-04 15:47:39.055947,17.449,0.168,236.8,283.49554443359375,103.18394470214844,31.859657287597656,0.0,20.0,51.0,21.410993576049805,-20.0
32,100,100,40,go_to_pick_up_from_pick_down,green,true,false,joint 3 -,true,2024-03-04 15:47:39.740700,16.88,0.158,236.8,292.77978515625,106.56312561035156,81.32183074951172,0.0,20.0,51.0,1.1013351678848267,-20.0
32,100,100,40,go_to_color_detect_up_from_pick_up,green,true,false,joint 1 +,true,2024-03-04 15:47:41.125507,22.975,0.158,235.0,192.2506866455078,245.2415313720703,84.958251953125,31.906253814697266,52.9095344543457,51.0,0.0,-20.0
32,100,100,40,go_to_color_detect_down,green,true,false,joint 3 +,true,2024-03-04 15:47:41.821394,22.405,0.206,235.0,131.14834594726562,281.24853515625,65.51657104492188,45.0,65.0,51.0,8.399998664855957,-20.0
32,100,100,40,go_to_color_detect_up_from_color_detect_down,green,true,false,joint 3 -,false,2024-03-04 15:47:42.517800,22.121,0.206,235.0,111.1933822631836,238.45497131347656,-24.167709350585938,45.0,65.0,51.0,47.98356246948242,-20.0
32,100,100,40,go_to_color_detect_up_from_color_detect_down,green,true,false,joint 3 -,false,2024-03-04 15:47:43.923929,21.95,0.198,235.0,131.11474609375,281.1764831542969,64.9298095703125,45.0,65.0,51.0,7.059505462646484,-20.0
32,100,100,40,detecting_color,green,false,false,detecting_color,false,2024-03-04 15:47:44.610949,17.184,0.198,235.0,131.69407653808594,282.4188232421875,84.958251953125,45.0,65.0,51.0,-4.656612873077393e-10,-20.0
32,100,100,40,go_to_color_detect_down,green,true,false,joint 3 +,false,2024-03-04 15:47:45.995629,16.424,0.157,235.0,131.690673828125,282.4115295410156,83.41889953613281,45.0,65.0,51.0,0.8399998545646667,-20.0
32,100,100,40,go_to_color_detect_down,green,true,false,joint 3 +,false,2024-03-04 15:47:46.692294,16.424,0.157,235.0,114.99384307861328,246.60507202148438,-15.322425842285156,45.0,65.0,51.0,43.62562561035156,-20.0
32,100,100,40,go_to_color_detect_up_from_color_detect_down,green,true,false,joint 3 -,true,2024-03-04 15:47:48.086834,18.874,0.169,235.0,121.0972900390625,259.6939697265625,2.8420028686523438,45.0,65.0,51.0,32.880001068115234,-20.0
32,100,100,40,go_to_blue_up,blue,true,false,joint 1 +,true,2024-03-04 15:47:48.776375,23.165,0.169,235.0,124.55525970458984,285.6391296386719,84.958251953125,46.44000244140625,66.80000305175781,51.0,-4.656612873077393e-10,-20.0
32,100,100,40,go_to_pick_up_from_blue,blue,true,false,joint 1 -,false,2024-03-04 15:47:49.466744,23.165,0.169,235.0,36.89640426635742,309.42266845703125,84.958251953125,63.19999694824219,82.79999542236328,51.0,-4.656612873077393e-10,-20.0
32,100,100,40,go_to_pick_up_from_blue,blue,true,false,joint 1 -,false,2024-03-04 15:47:50.861698,16.709,0.205,235.0,267.9519348144531,159.0769805908203,84.958251953125,10.696643829345703,29.79174041748047,51.0,-4.656612873077393e-10,-20.0
32,100,100,40,moving_belt,blue,false,true,joint 1 -,false,2024-03-04 15:47:51.571302,16.709,0.205,235.0,292.8220520019531,106.5785140991211,84.958251953125,0.0,20.0,51.0,-4.656612873077393e-10,-20.0
32,100,100,40,moving_belt,blue,false,true,joint 1 -,false,2024-03-04 15:47:52.959784,16.614,0.163,235.0,292.8220520019531,106.5785140991211,84.958251953125,0.0,20.0,51.0,-4.656612873077393e-10,-20.0
32,100,100,40,moving_belt,blue,false,true,joint 1 -,false,2024-03-04 15:47:53.652778,17.677,0.163,235.0,292.8220520019531,106.5785140991211,84.958251953125,0.0,20.0,51.0,-4.656612873077393e-10,-20.0
