demetriskallis/dobot_magician_pick_and_place_and_color_sorting/Sampling/WholeSystemExperiments_training_data/payload_32g/joint_measurements__armv_100_arma_50_belts_60_cube_32g.csv
cube/weight,arm/velocity_ratio,arm/acceleration_ratio,belt/speed,dobot/operation,dobot/color,dobot/moving_arm,dobot/moving_belt,dobot/operation2,dobot/suction,meross/sample_timestamp,meross/power,meross/current,meross/voltage,dobot/pose_x,dobot/pose_y,dobot/pose_z,dobot/pose_rHead,dobot/pose_joint1Angle,dobot/pose_joint2Angle,dobot/pose_joint3Angle,dobot/pose_joint4Angle
32,100,50,60,homing,,,,homing,,,,,,174.99647521972656,78.99246978759766,65.95809936523438,4.294158935546875,23.8941593170166,1.0648975372314453,28.00276756286621,-20.0
32,100,50,60,homing,,,,homing,,,,,,191.78668212890625,9.024881362915039,65.95809936523438,-17.305828094482422,2.294172763824463,1.0648975372314453,28.00276756286621,-20.0
32,100,50,60,homing,,,,homing,,,,,,185.5381317138672,-49.38806915283203,65.95809936523438,-34.90582275390625,-15.305821418762207,1.0648975372314453,28.00276756286621,-20.0
32,100,50,60,homing,,,,homing,,,,,,151.902099609375,-117.427978515625,65.95809936523438,-57.70582962036133,-38.105831146240234,1.0648975372314453,28.00276756286621,-20.0
32,100,50,60,homing,,,,homing,,2024-03-04 12:55:51.534529,16.31,0.153,235.0,104.83439636230469,-160.85186767578125,65.95809936523438,-76.90589904785156,-57.305904388427734,1.0648975372314453,28.00276756286621,-20.0
32,100,50,60,homing,,,,homing,,2024-03-04 12:55:52.230193,16.405,0.153,235.0,46.10407638549805,-186.38131713867188,65.95809936523438,-96.10597229003906,-76.50597381591797,1.0648975372314453,28.00276756286621,-20.0
32,100,50,60,homing,,,,homing,,2024-03-04 12:55:53.611230,16.31,0.153,236.8,-25.74530601501465,-190.2649688720703,65.95809936523438,-117.7060546875,-98.1060562133789,1.0648975372314453,28.00276756286621,-20.0
32,100,50,60,homing,,,,homing,,2024-03-04 12:55:54.335572,16.386,0.155,236.8,-88.07847595214844,-170.60409545898438,65.95809936523438,-137.30612182617188,-117.70613098144531,1.0648975372314453,28.00276756286621,-20.0
32,100,50,60,homing,,,,homing,,2024-03-04 12:55:55.727912,16.348,0.155,236.8,-139.28501892089844,-132.1486358642578,65.95809936523438,-156.50604248046875,-136.4860382080078,1.0648975372314453,28.00276756286621,-20.0
32,100,50,60,homing,,,,homing,,2024-03-04 12:55:56.414763,16.348,0.155,236.8,-136.76895141601562,-134.75099182128906,65.95809936523438,-155.42581176757812,-135.4058074951172,1.0648975372314453,28.00276756286621,-20.0
32,100,50,60,homing,,,,homing,,2024-03-04 12:55:57.102745,16.386,0.155,236.8,-116.0803451538086,-156.2058868408203,64.43071746826172,-145.87371826171875,-126.1609115600586,2.5787103176116943,28.66643524169922,-19.21663475036621
32,100,50,60,homing,,,,homing,,2024-03-04 12:55:58.500028,16.405,0.157,236.8,-33.325870513916016,-202.33584594726562,57.415740966796875,-115.578857421875,-98.75296783447266,8.531814575195312,31.27631950378418,-16.136032104492188
32,100,50,60,homing,,,,homing,,2024-03-04 12:55:59.355773,16.405,0.157,235.0,88.2213134765625,-207.36380004882812,38.692291259765625,-76.81466674804688,-66.3530502319336,20.934816360473633,36.71389389038086,-9.717747688293457
32,100,50,60,homing,,,,homing,,2024-03-04 12:56:00.741876,16.576,0.158,235.0,189.39134216308594,-148.78555297851562,17.587989807128906,-42.30152893066406,-37.553123474121094,31.87723731994629,41.511138916015625,-4.055281639099121
32,100,50,60,homing,,,,homing,,2024-03-04 12:56:01.429585,16.576,0.158,236.8,244.99276733398438,-40.56947326660156,3.6520004272460938,-10.23108959197998,-8.933487892150879,38.192596435546875,44.27983856201172,-0.7872203588485718
32,100,50,60,homing,,,,homing,,2024-03-04 12:56:02.158120,16.69,0.158,236.8,253.2626495361328,-0.7674558162689209,-1.2686233520507812,-0.1736215054988861,-0.15838070213794708,40.96088409423828,44.53704071044922,0.0
32,100,50,60,homing,,,,homing,,2024-03-04 12:56:03.562519,16.253,0.155,236.8,249.99998474121094,0.00017966009909287095,-7.62939453125e-06,4.117506250622682e-05,4.117506250622682e-05,39.71385955810547,44.94676971435547,0.0
32,100,50,60,homing,,,,homing,,2024-03-04 12:56:04.249383,16.386,0.155,236.8,249.99998474121094,0.00017966009909287095,-7.62939453125e-06,4.117506250622682e-05,4.117506250622682e-05,39.71385955810547,44.94676971435547,0.0
32,100,50,60,homing,,,,homing,,2024-03-04 12:56:05.627497,16.329,0.154,236.8,249.99998474121094,0.00017966009909287095,-7.62939453125e-06,4.117506250622682e-05,4.117506250622682e-05,39.71385955810547,44.94676971435547,0.0
32,100,50,60,homing,,,,homing,,2024-03-04 12:56:06.330458,16.329,0.154,235.0,249.99998474121094,0.00017966009909287095,-7.62939453125e-06,4.117506250622682e-05,4.117506250622682e-05,39.71385955810547,44.94676971435547,0.0
32,100,50,60,homing,,,,homing,,2024-03-04 12:56:07.025523,16.386,0.154,235.0,249.99998474121094,0.00017966009909287095,-7.62939453125e-06,4.117506250622682e-05,4.117506250622682e-05,39.71385955810547,44.94676971435547,0.0
32,100,50,60,homing,,,,homing,,2024-03-04 12:56:08.256708,16.386,0.155,235.0,249.99998474121094,0.00017966009909287095,-7.62939453125e-06,4.117506250622682e-05,4.117506250622682e-05,39.71385955810547,44.94676971435547,0.0
32,100,50,60,homing,,,,homing,,2024-03-04 12:56:09.639372,16.481,0.156,235.0,249.99998474121094,0.00017966009909287095,-7.62939453125e-06,4.117506250622682e-05,4.117506250622682e-05,39.71385955810547,44.94676971435547,0.0
32,100,50,60,homing,,,,homing,,2024-03-04 12:56:09.639372,16.481,0.156,235.0,249.99998474121094,0.00017966009909287095,-7.62939453125e-06,4.117506250622682e-05,4.117506250622682e-05,39.71385955810547,44.94676971435547,0.0
32,100,50,60,homing,,,,homing,,2024-03-04 12:56:11.244346,16.443,0.156,235.0,249.99998474121094,0.00017966009909287095,-7.62939453125e-06,4.117506250622682e-05,4.117506250622682e-05,39.71385955810547,44.94676971435547,0.0
32,100,50,60,homing,,,,homing,,2024-03-04 12:56:12.648719,16.234,0.154,236.8,251.27291870117188,5.071567058563232,3.251434326171875,4.112720489501953e-05,1.2915129661560059,39.08863067626953,43.482486724853516,-1.2914718389511108
32,100,50,60,homing,,,,homing,,2024-03-04 12:56:13.445054,16.443,0.154,236.8,266.5068664550781,67.94637298583984,42.897010803222656,4.100799560546875e-05,14.587764739990234,37.965274810791016,25.19764518737793,-14.587723731994629
32,100,50,60,go_to_pick_up_from_homing,nothing,,,go_to_pick_up_from_homing,,2024-03-04 12:56:14.143368,17.146,0.161,236.8,275.165771484375,103.04065704345703,65.14942169189453,4.1961669921875e-05,20.5273380279541,42.530792236328125,13.477080345153809,-20.52729606628418
32,100,50,60,go_to_pick_up_from_homing,nothing,,,go_to_pick_up_from_homing,,2024-03-04 12:56:15.537696,16.5,0.161,235.0,290.52667236328125,106.2543716430664,81.7150650024414,9.5367431640625e-06,20.080842971801758,49.70167922973633,2.0660228729248047,-20.080833435058594
32,100,50,60,moving_belt,nothing,false,true,go_to_pick_up_from_homing,,2024-03-04 12:56:16.266929,16.5,0.157,235.0,292.8220520019531,106.5785140991211,84.958251953125,0.0,20.0,51.0,0.0,-20.0
32,100,50,60,moving_belt,nothing,false,true,go_to_pick_up_from_homing,,2024-03-04 12:56:17.716779,16.367,0.157,236.8,292.8220520019531,106.5785140991211,84.958251953125,0.0,20.0,51.0,0.0,-20.0
32,100,50,60,moving_belt,nothing,false,true,go_to_pick_up_from_homing,,2024-03-04 12:56:18.443094,16.405,0.155,236.8,292.8220520019531,106.5785140991211,84.958251953125,0.0,20.0,51.0,0.0,-20.0
32,100,50,60,moving_belt,nothing,false,true,go_to_pick_up_from_homing,,2024-03-04 12:56:19.132778,16.443,0.155,236.8,292.8220520019531,106.5785140991211,84.958251953125,0.0,20.0,51.0,0.0,-20.0
32,100,50,60,go_to_pick_down,nothing,true,false,joint 3 +,,2024-03-04 12:56:20.511130,16.329,0.155,235.0,292.82183837890625,106.57843780517578,84.70169067382812,0.0,20.0,51.0,0.15000000596046448,-20.0
32,100,50,60,go_to_pick_down,nothing,true,false,joint 3 +,,2024-03-04 12:56:21.202681,16.329,0.154,235.0,289.0231018066406,105.19580841064453,50.720375061035156,0.0,20.0,51.0,13.876581192016602,-20.0
32,100,50,60,go_to_pick_up_from_pick_down,nothing,true,false,joint 3 -,true,2024-03-04 12:56:22.597011,16.31,0.154,236.8,282.8177490234375,102.93724060058594,30.033843994140625,0.0,20.0,51.0,21.89999771118164,-20.0
32,100,50,60,go_to_pick_up_from_pick_down,nothing,true,false,joint 3 -,true,2024-03-04 12:56:23.289684,16.158,0.161,236.8,291.9090881347656,106.24622344970703,68.08521270751953,0.0,20.0,51.0,6.233002185821533,-20.0
32,100,50,60,go_to_color_detect_up_from_pick_up,nothing,true,false,joint 1 +,true,2024-03-04 12:56:24.306236,23.013,0.161,235.0,291.7854919433594,109.38444519042969,84.958251953125,0.5500011444091797,20.660001754760742,51.0,0.0,-20.0
32,100,50,60,go_to_color_detect_up_from_pick_up,nothing,true,false,joint 1 +,true,2024-03-04 12:56:25.695375,22.215,0.199,235.0,248.50607299804688,188.01185607910156,84.958251953125,17.110000610351562,37.70000076293945,51.0,0.0,-20.0
32,100,50,60,go_to_color_detect_up_from_pick_up,nothing,true,false,joint 1 +,true,2024-03-04 12:56:26.395289,22.291,0.199,236.8,143.14500427246094,276.79095458984375,84.958251953125,42.65383529663086,62.865474700927734,51.0,0.0,-20.0
32,100,50,60,go_to_color_detect_down,nothing,true,false,joint 3 +,true,2024-03-04 12:56:27.774451,22.102,0.198,236.8,131.63351440429688,282.2889709472656,78.46930694580078,45.0,65.0,51.0,2.7599997520446777,-20.0
32,100,50,60,go_to_color_detect_down,nothing,true,false,joint 3 +,true,2024-03-04 12:56:28.592516,21.969,0.198,236.8,125.94853973388672,270.0975036621094,23.215805053710938,45.0,65.0,51.0,25.51127815246582,-20.0
32,100,50,60,go_to_color_detect_down,nothing,true,false,joint 3 +,true,2024-03-04 12:56:29.288008,22.007,0.198,236.8,112.7353744506836,241.7617645263672,-20.76043701171875,45.0,65.0,51.0,46.182029724121094,-20.0
32,100,50,60,go_to_color_detect_up_from_color_detect_down,nothing,true,false,joint 3 -,false,2024-03-04 12:56:29.977700,21.95,0.198,236.8,114.97486877441406,246.56439208984375,-15.370536804199219,45.0,65.0,51.0,42.720001220703125,-20.0
32,100,50,60,go_to_color_detect_up_from_color_detect_down,nothing,true,false,joint 3 -,false,2024-03-04 12:56:31.495600,16.5,0.156,236.8,128.83709716796875,276.29205322265625,40.89253616333008,45.0,65.0,51.0,16.857955932617188,-20.0
32,100,50,60,go_to_color_detect_up_from_color_detect_down,nothing,true,false,joint 3 -,false,2024-03-04 12:56:32.181586,16.5,0.156,236.8,131.69052124023438,282.4112243652344,83.38595581054688,45.0,65.0,51.0,0.5072008371353149,-20.0
32,100,50,60,detecting_color,nothing,false,false,detecting_color,false,2024-03-04 12:56:33.747815,16.291,0.156,235.0,131.69407653808594,282.4188232421875,84.958251953125,45.0,65.0,51.0,0.0,-20.0
32,100,50,60,go_to_color_detect_down,nothing,true,false,joint 3 +,false,2024-03-04 12:56:34.436775,16.291,0.153,235.0,131.68045043945312,282.3896179199219,81.87971496582031,45.0,65.0,51.0,1.3599997758865356,-20.0
32,100,50,60,go_to_color_detect_down,nothing,true,false,joint 3 +,false,2024-03-04 12:56:35.137022,16.158,0.153,235.0,126.25674438476562,270.7584533691406,24.816600799560547,45.0,65.0,51.0,24.83563804626465,-20.0
32,100,50,60,go_to_color_detect_down,nothing,true,false,joint 3 +,false,2024-03-04 12:56:36.519309,16.272,0.153,235.0,112.89545440673828,242.10507202148438,-20.393173217773438,45.0,65.0,51.0,45.98638916015625,-20.0
32,100,50,60,go_to_color_detect_up_from_color_detect_down,nothing,true,false,joint 3 -,true,2024-03-04 12:56:37.211592,16.272,0.153,236.8,113.13628387451172,242.6215362548828,-19.835609436035156,45.0,65.0,51.0,45.2400016784668,-20.0
32,100,50,60,go_to_color_detect_up_from_color_detect_down,nothing,true,false,joint 3 -,true,2024-03-04 12:56:38.591336,22.88,0.204,236.8,128.2168426513672,274.9619140625,36.46825408935547,45.0,65.0,51.0,18.64487648010254,-20.0
32,100,50,60,go_to_color_detect_up_from_color_detect_down,nothing,true,false,joint 3 -,true,2024-03-04 12:56:39.426170,22.69,0.204,235.0,131.684814453125,282.39898681640625,82.41900634765625,45.0,65.0,51.0,0.8541231155395508,-20.0
32,100,50,60,go_to_red_up,red,true,false,joint 1 +,true,2024-03-04 12:56:40.114471,22.215,0.204,235.0,106.78290557861328,292.7475891113281,84.958251953125,49.959999084472656,70.27999877929688,51.0,0.0,-20.0
32,100,50,60,go_to_red_up,red,true,false,joint 1 +,true,2024-03-04 12:56:41.543090,21.874,0.199,236.8,-55.20555114746094,306.6856384277344,84.958251953125,80.20435333251953,100.90354919433594,51.0,0.0,-20.0
32,100,50,60,go_to_red_up,red,true,false,joint 1 +,true,2024-03-04 12:56:42.231143,22.386,0.199,236.8,-167.3646240234375,262.8551025390625,84.958251953125,102.48564147949219,122.704833984375,51.0,0.0,-20.0
32,100,50,60,go_to_pick_up_from_red,red,true,false,joint 1 -,false,2024-03-04 12:56:43.619794,22.31,0.2,235.0,-167.29286193847656,262.9007873535156,84.958251953125,102.47000122070312,122.23999786376953,51.0,0.0,-20.0
32,100,50,60,go_to_pick_up_from_red,red,true,false,joint 1 -,false,2024-03-04 12:56:44.337713,19.101,0.2,235.0,-31.165985107421875,310.0522766113281,84.958251953125,75.73999786376953,94.97000122070312,51.0,0.0,-20.0
32,100,50,60,go_to_pick_up_from_red,red,true,false,joint 1 -,false,2024-03-04 12:56:45.721273,16.158,0.154,235.0,190.33087158203125,246.7344512939453,84.958251953125,32.353416442871094,51.55402755737305,51.0,0.0,-20.0
32,100,50,60,go_to_pick_up_from_red,red,true,false,joint 1 -,false,2024-03-04 12:56:46.408995,16.424,0.154,235.0,281.81207275390625,132.98751831054688,84.958251953125,5.262691497802734,24.943302154541016,51.0,0.0,-20.0
32,100,50,60,moving_belt,red,false,true,joint 1 -,false,2024-03-04 12:56:47.096739,16.424,0.155,235.0,292.8220520019531,106.5785140991211,84.958251953125,0.0,20.0,51.0,0.0,-20.0
32,100,50,60,moving_belt,red,false,true,joint 1 -,false,2024-03-04 12:56:48.523421,16.177,0.155,235.0,292.8220520019531,106.5785140991211,84.958251953125,0.0,20.0,51.0,0.0,-20.0
32,100,50,60,moving_belt,red,false,true,joint 1 -,false,2024-03-04 12:56:49.212462,16.443,0.156,235.0,292.8220520019531,106.5785140991211,84.958251953125,0.0,20.0,51.0,0.0,-20.0
32,100,50,60,moving_belt,red,false,true,joint 1 -,false,2024-03-04 12:56:50.596365,16.329,0.156,235.0,292.8220520019531,106.5785140991211,84.958251953125,0.0,20.0,51.0,0.0,-20.0
32,100,50,60,moving_belt,red,false,true,joint 1 -,false,2024-03-04 12:56:51.283676,16.329,0.156,235.0,292.8220520019531,106.5785140991211,84.958251953125,0.0,20.0,51.0,0.0,-20.0
32,100,50,60,go_to_pick_down,red,true,false,joint 3 +,false,2024-03-04 12:56:52.662370,16.348,0.155,235.0,289.9342956542969,105.52745819091797,55.05766296386719,0.0,20.0,51.0,12.184248924255371,-20.0
32,100,50,60,go_to_pick_up_from_pick_down,red,true,false,joint 3 -,true,2024-03-04 12:56:53.577302,16.348,0.155,235.0,282.76361083984375,102.91754913330078,29.89107894897461,0.0,20.0,51.0,21.989999771118164,-20.0
32,100,50,60,go_to_pick_up_from_pick_down,red,true,false,joint 3 -,true,2024-03-04 12:56:54.272983,16.367,0.155,235.0,290.611572265625,105.77397155761719,58.765628814697266,0.0,20.0,51.0,9.815750122070312,-20.0
32,100,50,60,go_to_color_detect_up_from_pick_up,red,true,false,joint 1 +,true,2024-03-04 12:56:55.651800,22.405,0.155,235.0,292.429443359375,107.65104675292969,84.958251953125,0.21000099182128906,20.280000686645508,51.0,0.0,-20.0
32,100,50,60,go_to_color_detect_up_from_pick_up,red,true,false,joint 1 +,true,2024-03-04 12:56:56.340506,22.405,0.202,235.0,255.72686767578125,178.0659637451172,84.958251953125,14.849998474121094,35.39999771118164,51.0,0.0,-20.0
32,100,50,60,go_to_color_detect_up_from_pick_up,red,true,false,joint 1 +,true,2024-03-04 12:56:57.753055,22.083,0.202,235.0,155.8665771484375,269.8320617675781,84.958251953125,39.9874267578125,60.299068450927734,51.0,0.0,-20.0
32,100,50,60,go_to_color_detect_down,red,true,false,joint 3 +,true,2024-03-04 12:56:58.448914,22.196,0.2,235.0,131.66641235351562,282.3594970703125,80.57167053222656,45.0,65.0,51.0,1.8999996185302734,-20.0
32,100,50,60,go_to_color_detect_down,red,true,false,joint 3 +,true,2024-03-04 12:56:59.147840,22.196,0.2,235.0,127.12559509277344,272.6217041015625,29.6295166015625,45.0,65.0,51.0,22.779996871948242,-20.0
32,100,50,60,go_to_color_detect_down,red,true,false,joint 3 +,true,2024-03-04 12:57:00.541403,21.969,0.198,235.0,112.43709564208984,241.1221160888672,-21.43779754638672,45.0,65.0,51.0,46.543312072753906,-20.0
32,100,50,60,go_to_color_detect_up_from_color_detect_down,red,true,false,joint 3 -,false,2024-03-04 12:57:01.234863,22.045,0.198,235.0,113.68936920166016,243.80763244628906,-18.53191375732422,45.0,65.0,51.0,44.4900016784668,-20.0
32,100,50,60,go_to_color_detect_up_from_color_detect_down,red,true,false,joint 3 -,false,2024-03-04 12:57:02.745685,16.614,0.155,235.0,127.50245666503906,273.42987060546875,31.877330780029297,45.0,65.0,51.0,20.521799087524414,-20.0
32,100,50,60,go_to_color_detect_up_from_color_detect_down,red,true,false,joint 3 -,false,2024-03-04 12:57:03.471898,16.709,0.155,235.0,131.69052124023438,282.4112243652344,83.38595581054688,45.0,65.0,51.0,0.5072008371353149,-20.0
32,100,50,60,detecting_color,red,false,false,detecting_color,false,2024-03-04 12:57:04.631389,16.215,0.154,235.0,131.69407653808594,282.4188232421875,84.958251953125,45.0,65.0,51.0,0.0,-20.0
32,100,50,60,detecting_color,red,false,false,detecting_color,false,2024-03-04 12:57:05.320540,16.215,0.154,235.0,131.69407653808594,282.4188232421875,84.958251953125,45.0,65.0,51.0,0.0,-20.0
32,100,50,60,go_to_color_detect_down,red,true,false,joint 3 +,false,2024-03-04 12:57:06.708495,16.329,0.155,235.0,131.05892944335938,281.0567626953125,63.991798400878906,45.0,65.0,51.0,8.60999870300293,-20.0
32,100,50,60,go_to_color_detect_down,red,true,false,joint 3 +,false,2024-03-04 12:57:07.398874,16.31,0.155,235.0,120.16668701171875,257.6982727050781,-0.33649444580078125,45.0,65.0,51.0,35.96281051635742,-20.0
32,100,50,60,go_to_color_detect_up_from_color_detect_down,red,true,false,joint 3 -,true,2024-03-04 12:57:08.784527,16.12,0.155,235.0,111.13883972167969,238.33799743652344,-24.284042358398438,45.0,65.0,51.0,47.9900016784668,-20.0
32,100,50,60,go_to_color_detect_up_from_color_detect_down,red,true,false,joint 3 -,true,2024-03-04 12:57:09.477852,22.595,0.154,235.0,119.6758804321289,256.6457214355469,-1.9435806274414062,45.0,65.0,51.0,35.75,-20.0
32,100,50,60,go_to_color_detect_up_from_color_detect_down,red,true,false,joint 3 -,true,2024-03-04 12:57:10.166539,22.595,0.154,235.0,130.954833984375,280.83355712890625,62.348388671875,45.0,65.0,51.0,8.432064056396484,-20.0
32,100,50,60,go_to_green_up,green,true,false,joint 1 +,true,2024-03-04 12:57:11.630858,22.462,0.203,235.0,129.471923828125,283.4444580078125,84.958251953125,45.44999694824219,65.54999542236328,51.0,0.0,-20.0
32,100,50,60,go_to_green_up,green,true,false,joint 1 +,true,2024-03-04 12:57:12.325976,22.026,0.203,235.0,48.96213150024414,307.744140625,84.958251953125,60.959999084472656,81.52999877929688,51.0,0.0,-20.0
32,100,50,60,go_to_green_up,green,true,false,joint 1 +,true,2024-03-04 12:57:13.706657,22.272,0.199,235.0,-67.87767028808594,304.13214111328125,84.958251953125,82.58135223388672,102.7962646484375,51.0,0.0,-20.0
32,100,50,60,go_to_pick_up_from_green,green,true,false,joint 1 -,false,2024-03-04 12:57:14.395039,22.007,0.199,236.8,-55.98497009277344,306.5443115234375,84.958251953125,80.3499984741211,100.04000091552734,51.0,0.0,-20.0
32,100,50,60,go_to_pick_up_from_green,green,true,false,joint 1 -,false,2024-03-04 12:57:15.773298,16.633,0.154,236.8,80.80941009521484,300.9544372558594,84.958251953125,54.970001220703125,74.19000244140625,51.0,0.0,-20.0
32,100,50,60,go_to_pick_up_from_green,green,true,false,joint 1 -,false,2024-03-04 12:57:16.492504,16.329,0.154,235.0,258.37811279296875,174.19664001464844,84.958251953125,13.987560272216797,33.46364974975586,51.0,0.0,-20.0
32,100,50,60,go_to_pick_up_from_green,green,true,false,joint 1 -,false,2024-03-04 12:57:17.201567,16.329,0.154,235.0,292.59832763671875,107.19120025634766,84.958251953125,0.11993026733398438,20.076021194458008,51.0,0.0,-20.0
32,100,50,60,moving_belt,green,false,true,joint 1 -,false,2024-03-04 12:57:18.583538,16.443,0.155,235.0,292.8220520019531,106.5785140991211,84.958251953125,0.0,20.0,51.0,0.0,-20.0
32,100,50,60,moving_belt,green,false,true,joint 1 -,false,2024-03-04 12:57:19.272234,16.785,0.155,235.0,292.8220520019531,106.5785140991211,84.958251953125,0.0,20.0,51.0,0.0,-20.0
32,100,50,60,moving_belt,green,false,true,joint 1 -,false,2024-03-04 12:57:20.650094,16.215,0.155,235.0,292.8220520019531,106.5785140991211,84.958251953125,0.0,20.0,51.0,0.0,-20.0
32,100,50,60,moving_belt,green,false,true,joint 1 -,false,2024-03-04 12:57:21.340893,16.443,0.155,235.0,292.8220520019531,106.5785140991211,84.958251953125,0.0,20.0,51.0,0.0,-20.0
32,100,50,60,go_to_pick_down,green,true,false,joint 3 +,false,2024-03-04 12:57:22.028602,16.443,0.155,235.0,292.7098083496094,106.53765869140625,79.03324127197266,0.0,20.0,51.0,2.5299999713897705,-20.0
32,100,50,60,go_to_pick_down,green,true,false,joint 3 +,false,2024-03-04 12:57:23.527818,16.443,0.154,235.0,285.26019287109375,103.82622528076172,36.988372802734375,0.0,20.0,51.0,19.283994674682617,-20.0
32,100,50,60,go_to_pick_up_from_pick_down,green,true,false,joint 3 -,true,2024-03-04 12:57:24.224488,16.291,0.154,235.0,284.7452087402344,103.63878631591797,35.429405212402344,0.0,20.0,51.0,19.469999313354492,-20.0
32,100,50,60,go_to_pick_up_from_pick_down,green,true,false,joint 3 -,true,2024-03-04 12:57:25.636353,20.545,0.155,235.0,292.76300048828125,106.55702209472656,80.65991973876953,0.0,20.0,51.0,1.4975056648254395,-20.0
32,100,50,60,go_to_color_detect_up_from_pick_up,green,true,false,joint 1 +,true,2024-03-04 12:57:26.324733,22.405,0.155,235.0,285.1587829589844,125.65113067626953,84.958251953125,3.780000686645508,24.060001373291016,51.0,0.0,-20.0
32,100,50,60,go_to_color_detect_up_from_pick_up,green,true,false,joint 1 +,true,2024-03-04 12:57:27.716078,22.14,0.199,235.0,209.345703125,230.82049560546875,84.958251953125,27.79312515258789,48.3747673034668,51.0,0.0,-20.0
32,100,50,60,go_to_color_detect_up_from_pick_up,green,true,false,joint 1 +,true,2024-03-04 12:57:28.403422,22.14,0.199,235.0,132.22752380371094,282.16949462890625,84.958251953125,44.89173126220703,64.9333724975586,51.0,0.0,-20.0
32,100,50,60,go_to_color_detect_down,green,true,false,joint 3 +,true,2024-03-04 12:57:29.781694,21.95,0.199,235.0,131.05892944335938,281.0567626953125,63.991798400878906,45.0,65.0,51.0,8.60999870300293,-20.0
32,100,50,60,go_to_color_detect_down,green,true,false,joint 3 +,true,2024-03-04 12:57:30.468178,21.893,0.199,235.0,120.48281860351562,258.376220703125,0.7233734130859375,45.0,65.0,51.0,35.46717071533203,-20.0
32,100,50,60,go_to_color_detect_up_from_color_detect_down,green,true,false,joint 3 -,false,2024-03-04 12:57:31.153788,21.893,0.198,235.0,111.13883972167969,238.33799743652344,-24.284042358398438,45.0,65.0,51.0,47.9900016784668,-20.0
32,100,50,60,go_to_color_detect_up_from_color_detect_down,green,true,false,joint 3 -,false,2024-03-04 12:57:32.794935,19.69,0.198,235.0,119.6758804321289,256.6457214355469,-1.9435806274414062,45.0,65.0,51.0,35.75,-20.0
32,100,50,60,go_to_color_detect_up_from_color_detect_down,green,true,false,joint 3 -,false,2024-03-04 12:57:33.496598,16.842,0.156,235.0,130.954833984375,280.83355712890625,62.348388671875,45.0,65.0,51.0,8.432064056396484,-20.0
32,100,50,60,detecting_color,green,false,false,detecting_color,false,2024-03-04 12:57:34.186593,16.842,0.156,235.0,131.69407653808594,282.4188232421875,84.958251953125,45.0,65.0,51.0,0.0,-20.0
32,100,50,60,detecting_color,green,false,false,detecting_color,false,2024-03-04 12:57:35.608993,16.614,0.155,235.0,131.69407653808594,282.4188232421875,84.958251953125,45.0,65.0,51.0,0.0,-20.0
32,100,50,60,go_to_color_detect_down,green,true,false,joint 3 +,false,2024-03-04 12:57:36.295105,16.367,0.155,235.0,131.64358520507812,282.3105773925781,79.03324127197266,45.0,65.0,51.0,2.5299997329711914,-20.0
32,100,50,60,go_to_color_detect_down,green,true,false,joint 3 +,false,2024-03-04 12:57:37.671505,16.253,0.154,235.0,126.25674438476562,270.7584533691406,24.816600799560547,45.0,65.0,51.0,24.83563804626465,-20.0
32,100,50,60,go_to_color_detect_down,green,true,false,joint 3 +,false,2024-03-04 12:57:38.372777,16.253,0.154,235.0,112.89545440673828,242.10507202148438,-20.393173217773438,45.0,65.0,51.0,45.98638916015625,-20.0
32,100,50,60,go_to_color_detect_up_from_color_detect_down,green,true,false,joint 3 -,true,2024-03-04 12:57:39.746051,18.019,0.161,235.0,113.49811553955078,243.39747619628906,-18.98644256591797,45.0,65.0,51.0,44.75,-20.0
32,100,50,60,go_to_color_detect_up_from_color_detect_down,green,true,false,joint 3 -,true,2024-03-04 12:57:40.439127,18.019,0.161,235.0,128.6403045654297,275.8699951171875,39.4370231628418,45.0,65.0,51.0,17.44359588623047,-20.0
32,100,50,60,go_to_color_detect_up_from_color_detect_down,green,true,false,joint 3 -,true,2024-03-04 12:57:41.826034,22.5,0.202,235.0,131.68905639648438,282.4080810546875,83.08928680419922,45.0,65.0,51.0,0.6128416061401367,-20.0
32,100,50,60,go_to_blue_up,blue,true,false,joint 1 +,true,2024-03-04 12:57:42.513328,22.102,0.202,235.0,103.4549789428711,293.94012451171875,84.958251953125,50.61000061035156,70.94999694824219,51.0,0.0,-20.0
32,100,50,60,go_to_blue_up,blue,true,false,joint 1 +,true,2024-03-04 12:57:43.227197,22.102,0.202,235.0,27.26534652709961,310.41961669921875,84.958251953125,64.9803695678711,84.99479675292969,51.0,0.0,-20.0
32,100,50,60,go_to_pick_up_from_blue,blue,true,false,joint 1 -,false,2024-03-04 12:57:44.751785,21.779,0.199,235.0,75.54468536376953,302.3189392089844,84.958251953125,55.970001220703125,75.54000091552734,51.0,0.0,-20.0
32,100,50,60,go_to_pick_up_from_blue,blue,true,false,joint 1 -,false,2024-03-04 12:57:45.779413,16.462,0.199,235.0,220.246826171875,220.44287109375,84.958251953125,25.02548599243164,44.323036193847656,51.0,0.0,-20.0
32,100,50,60,go_to_pick_up_from_blue,blue,true,false,joint 1 -,false,2024-03-04 12:57:46.599462,16.462,0.155,235.0,290.1245422363281,113.71670532226562,84.958251953125,1.4031047821044922,21.24065399169922,51.0,0.0,-20.0
32,100,50,60,moving_belt,blue,false,true,joint 1 -,false,2024-03-04 12:57:47.418780,16.386,0.155,236.8,292.8220520019531,106.5785140991211,84.958251953125,0.0,20.0,51.0,0.0,-20.0
32,100,50,60,moving_belt,blue,false,true,joint 1 -,false,2024-03-04 12:57:47.418780,16.386,0.155,236.8,292.8220520019531,106.5785140991211,84.958251953125,0.0,20.0,51.0,0.0,-20.0
32,100,50,60,moving_belt,blue,false,true,joint 1 -,false,2024-03-04 12:57:49.562630,16.386,0.157,235.0,292.8220520019531,106.5785140991211,84.958251953125,0.0,20.0,51.0,0.0,-20.0
32,100,50,60,moving_belt,blue,false,true,joint 1 -,false,2024-03-04 12:57:50.253906,16.386,0.157,235.0,292.8220520019531,106.5785140991211,84.958251953125,0.0,20.0,51.0,0.0,-20.0
32,100,50,60,go_to_pick_down,blue,true,false,joint 3 +,false,2024-03-04 12:57:51.631431,16.291,0.155,235.0,292.8193359375,106.57752227783203,84.03462982177734,0.0,20.0,51.0,0.45000001788139343,-20.0
32,100,50,60,go_to_pick_down,blue,true,false,joint 3 +,false,2024-03-04 12:57:52.320691,16.291,0.155,235.0,288.0897216796875,104.85608673095703,46.81067657470703,0.0,20.0,51.0,15.408913612365723,-20.0
32,100,50,60,go_to_pick_up_from_pick_down,blue,true,false,joint 3 -,true,2024-03-04 12:57:53.697728,16.215,0.155,235.0,283.01495361328125,103.00902557373047,30.55780792236328,0.0,20.0,51.0,21.639999389648438,-20.0
32,100,50,60,go_to_pick_up_from_pick_down,blue,true,false,joint 3 -,true,2024-03-04 12:57:54.391751,18.266,0.155,235.0,292.24945068359375,106.37010192871094,71.58734893798828,0.0,20.0,51.0,4.900669574737549,-20.0
32,100,50,60,go_to_color_detect_up_from_pick_up,blue,true,false,joint 1 +,true,2024-03-04 12:57:55.772989,22.424,0.202,235.0,291.34405517578125,110.55487823486328,84.958251953125,0.7800025939941406,20.910001754760742,51.0,0.0,-20.0
32,100,50,60,go_to_color_detect_up_from_pick_up,blue,true,false,joint 1 +,true,2024-03-04 12:57:56.462271,21.969,0.202,235.0,242.4778594970703,195.72483825683594,84.958251953125,18.90999984741211,39.529998779296875,51.0,0.0,-20.0
32,100,50,60,go_to_color_detect_up_from_pick_up,blue,true,false,joint 1 +,true,2024-03-04 12:57:57.841349,22.083,0.199,235.0,146.49151611328125,275.03448486328125,84.958251953125,41.95891189575195,62.20055389404297,51.0,0.0,-20.0
32,100,50,60,go_to_color_detect_down,blue,true,false,joint 3 +,true,2024-03-04 12:57:58.638691,21.874,0.199,235.0,131.57752990722656,282.1689147949219,75.95851135253906,45.0,65.0,51.0,3.7799997329711914,-20.0
32,100,50,60,go_to_color_detect_down,blue,true,false,joint 3 +,true,2024-03-04 12:57:59.327698,21.874,0.196,235.0,124.685546875,267.3890075683594,17.130821228027344,45.0,65.0,51.0,28.113842010498047,-20.0
32,100,50,60,go_to_color_detect_down,blue,true,false,joint 3 +,true,2024-03-04 12:58:00.709443,21.798,0.196,235.0,111.54590606689453,239.21095275878906,-23.409027099609375,45.0,65.0,51.0,47.58843994140625,-20.0
32,100,50,60,go_to_color_detect_up_from_color_detect_down,blue,true,false,joint 3 -,false,2024-03-04 12:58:01.415083,21.76,0.197,235.0,115.70067596435547,248.1208953857422,-13.499244689941406,45.0,65.0,51.0,41.70000076293945,-20.0
32,100,50,60,go_to_color_detect_up_from_color_detect_down,blue,true,false,joint 3 -,false,2024-03-04 12:58:02.800681,16.633,0.197,235.0,129.3714141845703,277.4378662109375,45.1388053894043,45.0,65.0,51.0,15.161033630371094,-20.0
32,100,50,60,go_to_color_detect_up_from_color_detect_down,blue,true,false,joint 3 -,false,2024-03-04 12:58:03.505897,16.633,0.159,235.0,131.69406127929688,282.4187927246094,84.83583068847656,45.0,65.0,51.0,0.0220745000988245,-20.0
32,100,50,60,detecting_color,blue,false,false,detecting_color,false,2024-03-04 12:58:04.220517,16.69,0.159,235.0,131.69407653808594,282.4188232421875,84.958251953125,45.0,65.0,51.0,0.0,-20.0
32,100,50,60,go_to_color_detect_down,blue,true,false,joint 3 +,false,2024-03-04 12:58:05.342121,16.139,0.159,235.0,131.6089324951172,282.23626708984375,77.2648696899414,45.0,65.0,51.0,3.249999761581421,-20.0
32,100,50,60,go_to_color_detect_down,blue,true,false,joint 3 +,false,2024-03-04 12:58:06.722682,16.253,0.154,235.0,125.32231140136719,268.7545471191406,20.110031127929688,45.0,65.0,51.0,26.83255958557129,-20.0
32,100,50,60,go_to_color_detect_down,blue,true,false,joint 3 +,false,2024-03-04 12:58:07.416962,16.253,0.154,235.0,112.43709564208984,241.1221160888672,-21.43779754638672,45.0,65.0,51.0,46.543312072753906,-20.0
32,100,50,60,go_to_color_detect_up_from_color_detect_down,blue,true,false,joint 3 -,true,2024-03-04 12:58:08.854820,19.709,0.154,235.0,115.45295715332031,247.58966064453125,-14.145256042480469,45.0,65.0,51.0,42.04999923706055,-20.0
32,100,50,60,go_to_color_detect_up_from_color_detect_down,blue,true,false,joint 3 -,true,2024-03-04 12:58:09.667359,19.709,0.154,235.0,129.20236206054688,277.0753479003906,43.743797302246094,45.0,65.0,51.0,15.716673851013184,-20.0
32,100,50,60,go_to_color_detect_up_from_color_detect_down,blue,true,false,joint 3 -,true,2024-03-04 12:58:10.361774,22.405,0.202,235.0,131.69247436523438,282.4154052734375,83.90235137939453,45.0,65.0,51.0,0.3259192705154419,-20.0
32,100,50,60,go_to_red_up,red,true,false,joint 1 +,true,2024-03-04 12:58:11.745812,21.969,0.202,235.0,98.05122375488281,295.78656005859375,84.958251953125,51.659996032714844,72.02999877929688,51.0,0.0,-20.0
32,100,50,60,go_to_red_up,red,true,false,joint 1 +,true,2024-03-04 12:58:12.433044,22.007,0.197,235.0,-80.06700897216797,301.1528015136719,84.958251953125,84.88871002197266,105.51790618896484,51.0,0.0,-20.0
32,100,50,60,go_to_red_up,red,true,false,joint 1 +,true,2024-03-04 12:58:13.131057,22.007,0.197,235.0,-173.39511108398438,258.91668701171875,84.958251953125,103.80999755859375,123.95919036865234,51.0,0.0,-20.0
32,100,50,60,go_to_pick_up_from_red,red,true,false,joint 1 -,false,2024-03-04 12:58:14.553156,21.836,0.199,235.0,-157.4530029296875,268.909423828125,84.958251953125,100.3499984741211,120.04000091552734,51.0,0.0,-20.0
32,100,50,60,go_to_pick_up_from_red,red,true,false,joint 1 -,false,2024-03-04 12:58:15.239110,21.836,0.199,235.0,3.8069770336151123,311.5914611816406,84.958251953125,69.30000305175781,88.45000457763672,51.0,0.0,-20.0
32,100,50,60,go_to_pick_up_from_red,red,true,false,joint 1 -,false,2024-03-04 12:58:16.795724,16.291,0.154,235.0,212.6492156982422,227.7806854248047,84.958251953125,26.96768569946289,46.23829650878906,51.0,0.0,-20.0
32,100,50,60,go_to_pick_up_from_red,red,true,false,joint 1 -,false,2024-03-04 12:58:17.492621,16.291,0.154,235.0,286.33685302734375,122.94283294677734,84.958251953125,3.236959457397461,22.98756980895996,51.0,0.0,-20.0
32,100,50,60,moving_belt,red,false,true,joint 1 -,false,2024-03-04 12:58:18.180227,16.272,0.154,235.0,292.8220520019531,106.5785140991211,84.958251953125,0.0,20.0,51.0,0.0,-20.0
32,100,50,60,moving_belt,red,false,true,joint 1 -,false,2024-03-04 12:58:19.558480,16.728,0.154,235.0,292.8220520019531,106.5785140991211,84.958251953125,0.0,20.0,51.0,0.0,-20.0
32,100,50,60,moving_belt,red,false,true,joint 1 -,false,2024-03-04 12:58:20.255761,16.272,0.154,235.0,292.8220520019531,106.5785140991211,84.958251953125,0.0,20.0,51.0,0.0,-20.0
32,100,50,60,moving_belt,red,false,true,joint 1 -,false,2024-03-04 12:58:21.638932,16.272,0.156,235.0,292.8220520019531,106.5785140991211,84.958251953125,0.0,20.0,51.0,0.0,-20.0
32,100,50,60,go_to_pick_down,red,true,false,joint 3 +,false,2024-03-04 12:58:22.330794,16.272,0.156,235.0,292.8220520019531,106.5785140991211,84.9325942993164,0.0,20.0,51.0,0.029999999329447746,-20.0
32,100,50,60,go_to_pick_down,red,true,false,joint 3 +,false,2024-03-04 12:58:23.708621,16.443,0.156,235.0,289.48358154296875,105.3634033203125,52.83528137207031,0.0,20.0,51.0,13.0504150390625,-20.0
32,100,50,60,go_to_pick_up_from_pick_down,red,true,false,joint 3 -,true,2024-03-04 12:58:24.434308,16.196,0.156,235.0,283.01495361328125,103.00902557373047,30.55780792236328,0.0,20.0,51.0,21.639999389648438,-20.0
32,100,50,60,go_to_pick_up_from_pick_down,red,true,false,joint 3 -,true,2024-03-04 12:58:25.808552,19.443,0.193,235.0,291.6909484863281,106.16683197021484,66.1849594116211,0.0,20.0,51.0,6.959168434143066,-20.0
32,100,50,60,go_to_color_detect_up_from_pick_up,red,true,false,joint 1 +,true,2024-03-04 12:58:26.495298,22.633,0.193,235.0,292.2976989746094,108.00823974609375,84.958251953125,0.2800006866455078,20.360000610351562,51.0,0.0,-20.0
32,100,50,60,go_to_color_detect_up_from_pick_up,red,true,false,joint 1 +,true,2024-03-04 12:58:27.191162,22.272,0.193,235.0,252.2294158935547,182.9864959716797,84.958251953125,15.959999084472656,36.529998779296875,51.0,0.0,-20.0
32,100,50,60,go_to_color_detect_up_from_pick_up,red,true,false,joint 1 +,true,2024-03-04 12:58:28.590916,22.196,0.199,235.0,145.33026123046875,275.6498718261719,84.958251953125,42.20055389404297,62.432193756103516,51.0,0.0,-20.0
32,100,50,60,go_to_color_detect_down,red,true,false,joint 3 +,true,2024-03-04 12:58:29.280148,22.253,0.199,235.0,131.65234375,282.329345703125,79.57162475585938,45.0,65.0,51.0,2.309999704360962,-20.0
32,100,50,60,go_to_color_detect_down,red,true,false,joint 3 +,true,2024-03-04 12:58:30.674654,22.064,0.199,235.0,124.36414337158203,266.69976806640625,15.688179016113281,45.0,65.0,51.0,28.739482879638672,-20.0
32,100,50,60,go_to_color_detect_down,red,true,false,joint 3 +,true,2024-03-04 12:58:31.367944,22.064,0.199,235.0,112.04552459716797,240.28237915039062,-22.313514709472656,45.0,65.0,51.0,47.01023483276367,-20.0
32,100,50,60,go_to_color_detect_up_from_color_detect_down,red,true,false,joint 3 -,false,2024-03-04 12:58:32.772148,21.684,0.199,235.0,114.30325317382812,245.12411499023438,-17.045745849609375,45.0,65.0,51.0,43.650001525878906,-20.0
32,100,50,60,go_to_color_detect_up_from_color_detect_down,red,true,false,joint 3 -,false,2024-03-04 12:58:33.457056,21.684,0.199,235.0,128.2168426513672,274.9619140625,36.46825408935547,45.0,65.0,51.0,18.64487648010254,-20.0
32,100,50,60,go_to_color_detect_up_from_color_detect_down,red,true,false,joint 3 -,false,2024-03-04 12:58:34.573290,16.538,0.158,235.0,131.6930694580078,282.41668701171875,84.1220703125,45.0,65.0,51.0,0.2502784729003906,-20.0
32,100,50,60,detecting_color,red,false,false,detecting_color,false,2024-03-04 12:58:35.262627,16.595,0.158,235.0,131.69407653808594,282.4188232421875,84.958251953125,45.0,65.0,51.0,0.0,-20.0
32,100,50,60,detecting_color,red,false,false,detecting_color,false,2024-03-04 12:58:36.641724,16.272,0.154,235.0,131.69407653808594,282.4188232421875,84.958251953125,45.0,65.0,51.0,0.0,-20.0
32,100,50,60,go_to_color_detect_down,red,true,false,joint 3 +,false,2024-03-04 12:58:37.332752,16.272,0.154,235.0,131.65992736816406,282.3455810546875,80.08444213867188,45.0,65.0,51.0,2.0999996662139893,-20.0
32,100,50,60,go_to_color_detect_down,red,true,false,joint 3 +,false,2024-03-04 12:58:38.719452,16.139,0.154,235.0,125.32231140136719,268.7545471191406,20.110031127929688,45.0,65.0,51.0,26.83255958557129,-20.0
32,100,50,60,go_to_color_detect_down,red,true,false,joint 3 +,false,2024-03-04 12:58:39.408775,16.139,0.154,236.8,112.43709564208984,241.1221160888672,-21.43779754638672,45.0,65.0,51.0,46.543312072753906,-20.0
32,100,50,60,go_to_color_detect_up_from_color_detect_down,red,true,false,joint 3 -,true,2024-03-04 12:58:40.791981,16.291,0.155,236.8,114.09204864501953,244.67117309570312,-17.561798095703125,45.0,65.0,51.0,43.94000244140625,-20.0
32,100,50,60,go_to_color_detect_up_from_color_detect_down,red,true,false,joint 3 -,true,2024-03-04 12:58:41.482270,22.918,0.155,235.0,129.20236206054688,277.0753479003906,43.743797302246094,45.0,65.0,51.0,15.716673851013184,-20.0
32,100,50,60,go_to_color_detect_up_from_color_detect_down,red,true,false,joint 3 -,true,2024-03-04 12:58:42.878826,22.576,0.204,235.0,131.6930694580078,282.41668701171875,84.1220703125,45.0,65.0,51.0,0.2502784729003906,-20.0
32,100,50,60,go_to_green_up,green,true,false,joint 1 +,true,2024-03-04 12:58:43.798427,22.064,0.204,236.8,96.1390609741211,296.41357421875,84.958251953125,52.029998779296875,72.40999603271484,51.0,0.0,-20.0
32,100,50,60,go_to_green_up,green,true,false,joint 1 +,true,2024-03-04 12:58:44.484161,22.064,0.204,236.8,-48.08920669555664,307.8817443847656,84.958251953125,78.87751007080078,99.22241973876953,51.0,0.0,-20.0
32,100,50,60,go_to_pick_up_from_green,green,true,false,joint 1 -,false,2024-03-04 12:58:45.877765,22.158,0.198,235.0,-77.7588119506836,301.75701904296875,84.958251953125,84.45000457763672,104.34000396728516,51.0,0.0,-20.0
32,100,50,60,go_to_pick_up_from_green,green,true,false,joint 1 -,false,2024-03-04 12:58:46.566069,22.158,0.198,235.0,11.473069190979004,311.4034423828125,84.958251953125,67.88999938964844,87.30000305175781,51.0,0.0,-20.0
32,100,50,60,go_to_pick_up_from_green,green,true,false,joint 1 -,false,2024-03-04 12:58:47.256473,16.329,0.152,235.0,217.083740234375,223.55844116210938,84.958251953125,25.841827392578125,45.1279182434082,51.0,0.0,-20.0
32,100,50,60,go_to_pick_up_from_green,green,true,false,joint 1 -,false,2024-03-04 12:58:48.638206,16.329,0.152,235.0,287.6434631347656,119.85395812988281,84.958251953125,2.620290756225586,22.396381378173828,51.0,0.0,-20.0
32,100,50,60,moving_belt,green,false,true,joint 1 -,false,2024-03-04 12:58:49.331276,16.291,0.154,235.0,292.8220520019531,106.5785140991211,84.958251953125,0.0,20.0,51.0,0.0,-20.0
32,100,50,60,moving_belt,green,false,true,joint 1 -,false,2024-03-04 12:58:50.864377,16.557,0.154,235.0,292.8220520019531,106.5785140991211,84.958251953125,0.0,20.0,51.0,0.0,-20.0
32,100,50,60,moving_belt,green,false,true,joint 1 -,false,2024-03-04 12:58:51.551831,16.557,0.154,235.0,292.8220520019531,106.5785140991211,84.958251953125,0.0,20.0,51.0,0.0,-20.0
32,100,50,60,moving_belt,green,false,true,joint 1 -,false,2024-03-04 12:58:51.551831,16.557,0.154,235.0,292.8220520019531,106.5785140991211,84.958251953125,0.0,20.0,51.0,0.0,-20.0
32,100,50,60,go_to_pick_down,green,true,false,joint 3 +,false,2024-03-04 12:58:53.115554,16.158,0.154,235.0,292.8220520019531,106.5785140991211,84.958251953125,0.0,20.0,51.0,0.0,-20.0
32,100,50,60,go_to_pick_down,green,true,false,joint 3 +,false,2024-03-04 12:58:54.753083,16.424,0.156,235.0,289.2542724609375,105.27994537353516,51.764427185058594,0.0,20.0,51.0,13.468498229980469,-20.0
32,100,50,60,go_to_pick_up_from_pick_down,green,true,false,joint 3 -,true,2024-03-04 12:58:55.571733,16.158,0.156,235.0,282.8177490234375,102.93724060058594,30.033843994140625,0.0,20.0,51.0,21.89999771118164,-20.0
32,100,50,60,go_to_pick_up_from_pick_down,green,true,false,joint 3 -,true,2024-03-04 12:58:56.530256,16.158,0.156,235.0,291.1403503417969,105.9664306640625,62.09014892578125,0.0,20.0,51.0,8.531500816345215,-20.0
32,100,50,60,go_to_color_detect_up_from_pick_up,green,true,false,joint 1 +,true,2024-03-04 12:58:57.222544,22.766,0.156,235.0,291.9759521484375,108.87503051757812,84.958251953125,0.4500007629394531,20.55000114440918,51.0,0.0,-20.0
32,100,50,60,go_to_color_detect_up_from_pick_up,green,true,false,joint 1 +,true,2024-03-04 12:58:58.608867,21.779,0.198,235.0,248.50607299804688,188.01185607910156,84.958251953125,17.110000610351562,37.70000076293945,51.0,0.0,-20.0
32,100,50,60,go_to_color_detect_up_from_pick_up,green,true,false,joint 1 +,true,2024-03-04 12:58:59.303326,22.007,0.198,235.0,150.2454833984375,273.0018615722656,84.958251953125,41.173988342285156,61.44562911987305,51.0,0.0,-20.0
32,100,50,60,go_to_color_detect_down,green,true,false,joint 3 +,true,2024-03-04 12:59:00.685812,21.988,0.197,235.0,131.64358520507812,282.3105773925781,79.03324127197266,45.0,65.0,51.0,2.5299997329711914,-20.0
32,100,50,60,go_to_color_detect_down,green,true,false,joint 3 +,true,2024-03-04 12:59:01.371408,21.76,0.197,235.0,126.25674438476562,270.7584533691406,24.816600799560547,45.0,65.0,51.0,24.83563804626465,-20.0
32,100,50,60,go_to_color_detect_down,green,true,false,joint 3 +,true,2024-03-04 12:59:02.755321,21.779,0.197,235.0,112.89545440673828,242.10507202148438,-20.393173217773438,45.0,65.0,51.0,45.98638916015625,-20.0
32,100,50,60,go_to_color_detect_up_from_color_detect_down,green,true,false,joint 3 -,false,2024-03-04 12:59:03.443315,21.779,0.197,235.0,114.97486877441406,246.56439208984375,-15.370536804199219,45.0,65.0,51.0,42.720001220703125,-20.0
32,100,50,60,go_to_color_detect_up_from_color_detect_down,green,true,false,joint 3 -,false,2024-03-04 12:59:04.820973,17.962,0.158,235.0,128.83709716796875,276.29205322265625,40.89253616333008,45.0,65.0,51.0,16.857955932617188,-20.0
32,100,50,60,go_to_color_detect_up_from_color_detect_down,green,true,false,joint 3 -,false,2024-03-04 12:59:05.510492,16.937,0.158,235.0,131.69052124023438,282.4112243652344,83.38595581054688,45.0,65.0,51.0,0.5072008371353149,-20.0
32,100,50,60,detecting_color,green,false,false,detecting_color,false,2024-03-04 12:59:06.891485,16.576,0.155,235.0,131.69407653808594,282.4188232421875,84.958251953125,45.0,65.0,51.0,0.0,-20.0
32,100,50,60,go_to_color_detect_down,green,true,false,joint 3 +,false,2024-03-04 12:59:07.586158,16.196,0.155,235.0,131.69407653808594,282.4188232421875,84.958251953125,45.0,65.0,51.0,0.0,-20.0
32,100,50,60,go_to_color_detect_down,green,true,false,joint 3 +,false,2024-03-04 12:59:08.274060,16.196,0.155,235.0,130.03778076171875,278.86688232421875,51.24082565307617,45.0,65.0,51.0,13.779997825622559,-20.0
32,100,50,60,go_to_color_detect_down,green,true,false,joint 3 +,false,2024-03-04 12:59:09.656362,16.272,0.155,235.0,116.62938690185547,250.1125030517578,-11.006874084472656,45.0,65.0,51.0,41.130496978759766,-20.0
32,100,50,60,go_to_color_detect_up_from_color_detect_down,green,true,false,joint 3 -,true,2024-03-04 12:59:10.348647,16.329,0.155,235.0,111.36397552490234,238.82080078125,-23.80205535888672,45.0,65.0,51.0,47.63999938964844,-20.0
32,100,50,60,go_to_color_detect_up_from_color_detect_down,green,true,false,joint 3 -,true,2024-03-04 12:59:11.732829,20.127,0.166,235.0,121.90644073486328,261.42919921875,5.758934020996094,45.0,65.0,51.0,32.040000915527344,-20.0
32,100,50,60,go_to_color_detect_up_from_color_detect_down,green,true,false,joint 3 -,true,2024-03-04 12:59:12.421034,22.405,0.166,235.0,131.52529907226562,282.056884765625,74.12986755371094,45.0,65.0,51.0,3.938734531402588,-20.0
32,100,50,60,go_to_blue_up,blue,true,false,joint 1 +,true,2024-03-04 12:59:13.803031,22.405,0.202,235.0,125.75067138671875,285.1148986816406,84.958251953125,46.19999694824219,66.36000061035156,51.0,0.0,-20.0
32,100,50,60,go_to_blue_up,blue,true,false,joint 1 +,true,2024-03-04 12:59:13.803031,22.405,0.202,235.0,45.338035583496094,308.2988586425781,84.958251953125,61.634117126464844,81.88854217529297,51.0,0.0,-20.0
32,100,50,60,go_to_pick_up_from_blue,blue,true,false,joint 1 -,false,2024-03-04 12:59:15.627039,21.95,0.197,235.0,43.36838912963867,308.5821228027344,84.958251953125,62.0,81.75,51.0,0.0,-20.0
32,100,50,60,go_to_pick_up_from_blue,blue,true,false,joint 1 -,false,2024-03-04 12:59:16.312747,19.728,0.197,235.0,161.7968292236328,266.3184509277344,84.958251953125,38.720001220703125,57.9900016784668,51.0,0.0,-20.0
32,100,50,60,go_to_pick_up_from_blue,blue,true,false,joint 1 -,false,2024-03-04 12:59:17.694979,16.31,0.155,235.0,274.36468505859375,147.74215698242188,84.958251953125,8.30194091796875,27.89948844909668,51.0,0.0,-20.0
32,100,50,60,moving_belt,blue,false,true,joint 1 -,false,2024-03-04 12:59:18.382478,16.386,0.155,235.0,292.8220520019531,106.5785140991211,84.958251953125,0.0,20.0,51.0,0.0,-20.0
32,100,50,60,moving_belt,blue,false,true,joint 1 -,false,2024-03-04 12:59:19.759935,16.5,0.155,235.0,292.8220520019531,106.5785140991211,84.958251953125,0.0,20.0,51.0,0.0,-20.0
32,100,50,60,moving_belt,blue,false,true,joint 1 -,false,2024-03-04 12:59:20.452743,16.5,0.155,235.0,292.8220520019531,106.5785140991211,84.958251953125,0.0,20.0,51.0,0.0,-20.0
32,100,50,60,moving_belt,blue,false,true,joint 1 -,false,2024-03-04 12:59:21.834324,16.348,0.155,235.0,292.8220520019531,106.5785140991211,84.958251953125,0.0,20.0,51.0,0.0,-20.0
32,100,50,60,moving_belt,blue,false,true,joint 1 -,false,2024-03-04 12:59:22.591392,16.367,0.155,235.0,292.8220520019531,106.5785140991211,84.958251953125,0.0,20.0,51.0,0.0,-20.0
32,100,50,60,go_to_pick_down,blue,true,false,joint 3 +,false,2024-03-04 12:59:23.314934,16.519,0.155,235.0,292.1604309082031,106.33770751953125,70.58802795410156,0.0,20.0,51.0,5.950000286102295,-20.0
32,100,50,60,go_to_pick_down,blue,true,false,joint 3 +,false,2024-03-04 12:59:24.695825,16.291,0.154,235.0,282.94219970703125,102.9825439453125,30.363819122314453,0.0,20.0,51.0,21.8594913482666,-20.0
32,100,50,60,go_to_pick_up_from_pick_down,blue,true,false,joint 3 -,true,2024-03-04 12:59:25.383854,16.291,0.154,235.0,288.3676452636719,104.95724487304688,47.92888259887695,0.0,20.0,51.0,14.19999885559082,-20.0
32,100,50,60,go_to_pick_up_from_pick_down,blue,true,false,joint 3 -,true,2024-03-04 12:59:26.767694,22.253,0.202,235.0,292.820556640625,106.57797241210938,84.27406311035156,0.0,20.0,51.0,0.1985909342765808,-20.0
32,100,50,60,go_to_color_detect_up_from_pick_up,blue,true,false,joint 1 +,true,2024-03-04 12:59:27.457422,22.253,0.202,235.0,270.13775634765625,155.3361358642578,84.958251953125,9.900001525878906,30.35000228881836,51.0,0.0,-20.0
32,100,50,60,go_to_color_detect_up_from_pick_up,blue,true,false,joint 1 +,true,2024-03-04 12:59:28.832963,21.931,0.198,235.0,172.80255126953125,259.31256103515625,84.958251953125,36.32101821899414,56.73265838623047,51.0,0.0,-20.0
32,100,50,60,go_to_color_detect_down,blue,true,false,joint 3 +,true,2024-03-04 12:59:29.519657,21.988,0.198,235.0,131.69398498535156,282.41864013671875,84.70169067382812,45.0,65.0,51.0,0.1499999761581421,-20.0
32,100,50,60,go_to_color_detect_down,blue,true,false,joint 3 +,true,2024-03-04 12:59:30.233868,21.76,0.198,235.0,129.1265106201172,276.91265869140625,43.13420867919922,45.0,65.0,51.0,17.109996795654297,-20.0
32,100,50,60,go_to_color_detect_down,blue,true,false,joint 3 +,true,2024-03-04 12:59:31.615178,21.722,0.197,235.0,115.34822845458984,247.3650665283203,-14.416038513183594,45.0,65.0,51.0,42.85870361328125,-20.0
32,100,50,60,go_to_color_detect_up_from_color_detect_down,blue,true,false,joint 3 -,false,2024-03-04 12:59:32.306465,21.608,0.197,235.0,112.49800872802734,241.25274658203125,-21.300201416015625,45.0,65.0,51.0,46.10000228881836,-20.0
32,100,50,60,go_to_color_detect_up_from_color_detect_down,blue,true,false,joint 3 -,false,2024-03-04 12:59:33.681962,18.494,0.196,235.0,125.4588394165039,269.0473327636719,20.771461486816406,45.0,65.0,51.0,25.220003128051758,-20.0
32,100,50,60,go_to_color_detect_up_from_color_detect_down,blue,true,false,joint 3 -,false,2024-03-04 12:59:34.419615,16.709,0.196,235.0,131.61473083496094,282.2486877441406,77.53089904785156,45.0,65.0,51.0,2.6605308055877686,-20.0
32,100,50,60,detecting_color,blue,false,false,detecting_color,false,2024-03-04 12:59:35.801829,16.443,0.158,235.0,131.69407653808594,282.4188232421875,84.958251953125,45.0,65.0,51.0,0.0,-20.0
32,100,50,60,go_to_color_detect_down,blue,true,false,joint 3 +,false,2024-03-04 12:59:36.495294,16.443,0.158,235.0,131.69398498535156,282.41864013671875,84.70169067382812,45.0,65.0,51.0,0.1499999761581421,-20.0
32,100,50,60,go_to_color_detect_down,blue,true,false,joint 3 +,false,2024-03-04 12:59:37.876053,16.177,0.154,235.0,128.9445343017578,276.5224304199219,41.70981216430664,45.0,65.0,51.0,17.699996948242188,-20.0
32,100,50,60,go_to_color_detect_down,blue,true,false,joint 3 +,false,2024-03-04 12:59:38.564525,16.234,0.154,235.0,115.10881042480469,246.85162353515625,-15.030082702636719,45.0,65.0,51.0,43.17434310913086,-20.0
32,100,50,60,go_to_color_detect_up_from_color_detect_down,blue,true,false,joint 3 -,true,2024-03-04 12:59:39.314008,16.234,0.154,235.0,111.86682891845703,239.899169921875,-22.708099365234375,45.0,65.0,51.0,46.95000076293945,-20.0
32,100,50,60,go_to_color_detect_up_from_color_detect_down,blue,true,false,joint 3 -,true,2024-03-04 12:59:40.712082,22.709,0.154,235.0,125.77223205566406,269.71942138671875,22.32225799560547,45.0,65.0,51.0,24.540002822875977,-20.0
32,100,50,60,go_to_color_detect_up_from_color_detect_down,blue,true,false,joint 3 -,true,2024-03-04 12:59:41.410349,22.329,0.154,235.0,131.61473083496094,282.2486877441406,77.53089904785156,45.0,65.0,51.0,2.6605308055877686,-20.0
32,100,50,60,go_to_red_up,red,true,false,joint 1 +,true,2024-03-04 12:59:42.789825,22.102,0.203,235.0,112.78895568847656,290.4864501953125,84.958251953125,48.779998779296875,69.05999755859375,51.0,0.0,-20.0
32,100,50,60,go_to_red_up,red,true,false,joint 1 +,true,2024-03-04 12:59:43.478513,21.817,0.203,235.0,-19.02364158630371,311.0334777832031,84.958251953125,73.5,94.26000213623047,51.0,0.0,-20.0
32,100,50,60,go_to_red_up,red,true,false,joint 1 +,true,2024-03-04 12:59:44.860689,21.969,0.197,235.0,-156.103515625,269.695068359375,84.958251953125,100.06289672851562,120.3720932006836,51.0,0.0,-20.0
32,100,50,60,go_to_pick_up_from_red,red,true,false,joint 1 -,false,2024-03-04 12:59:45.547292,21.988,0.197,235.0,-170.1733856201172,261.04547119140625,84.958251953125,103.0999984741211,122.9000015258789,51.0,0.0,-20.0
32,100,50,60,go_to_pick_up_from_red,red,true,false,joint 1 -,false,2024-03-04 12:59:46.255913,20.564,0.187,235.0,-65.95828247070312,304.5541687011719,84.958251953125,82.22000122070312,101.54000091552734,51.0,0.0,-20.0
32,100,50,60,go_to_pick_up_from_red,red,true,false,joint 1 -,false,2024-03-04 12:59:47.634781,16.215,0.187,235.0,155.8170928955078,269.8606262207031,84.958251953125,39.997928619384766,59.10853958129883,51.0,0.0,-20.0
32,100,50,60,go_to_pick_up_from_red,red,true,false,joint 1 -,false,2024-03-04 12:59:48.354038,16.215,0.154,235.0,279.4044494628906,137.97418212890625,84.958251953125,6.280860900878906,25.93147087097168,51.0,0.0,-20.0
32,100,50,60,moving_belt,red,false,true,joint 1 -,false,2024-03-04 12:59:49.040348,16.272,0.154,235.0,292.8220520019531,106.5785140991211,84.958251953125,0.0,20.0,51.0,0.0,-20.0
32,100,50,60,moving_belt,red,false,true,joint 1 -,false,2024-03-04 12:59:50.872388,16.367,0.156,235.0,292.8220520019531,106.5785140991211,84.958251953125,0.0,20.0,51.0,0.0,-20.0
32,100,50,60,moving_belt,red,false,true,joint 1 -,false,2024-03-04 12:59:51.561309,16.367,0.156,235.0,292.8220520019531,106.5785140991211,84.958251953125,0.0,20.0,51.0,0.0,-20.0
32,100,50,60,moving_belt,red,false,true,joint 1 -,false,2024-03-04 12:59:52.267441,16.424,0.156,235.0,292.8220520019531,106.5785140991211,84.958251953125,0.0,20.0,51.0,0.0,-20.0
32,100,50,60,moving_belt,red,false,true,joint 1 -,false,2024-03-04 12:59:53.646227,16.424,0.153,235.0,292.8220520019531,106.5785140991211,84.958251953125,0.0,20.0,51.0,0.0,-20.0
32,100,50,60,go_to_pick_down,red,true,false,joint 3 +,false,2024-03-04 12:59:54.334924,16.424,0.153,235.0,291.4098205566406,106.06449890136719,63.991798400878906,0.0,20.0,51.0,8.609999656677246,-20.0
32,100,50,60,go_to_pick_down,red,true,false,joint 3 +,false,2024-03-04 12:59:55.708986,16.082,0.154,235.0,282.8901062011719,102.96358489990234,30.22549057006836,0.0,20.0,51.0,21.907573699951172,-20.0
32,100,50,60,go_to_pick_up_from_pick_down,red,true,false,joint 3 -,true,2024-03-04 12:59:56.398754,16.196,0.154,235.0,288.6014099121094,105.04232025146484,48.898067474365234,0.0,20.0,51.0,13.799999237060547,-20.0
32,100,50,60,go_to_pick_up_from_pick_down,red,true,false,joint 3 -,true,2024-03-04 12:59:57.779649,22.424,0.205,235.0,292.8220520019531,106.5785140991211,84.95801544189453,0.0,20.0,51.0,0.0,-20.0
32,100,50,60,go_to_color_detect_up_from_pick_up,red,true,false,joint 1 +,true,2024-03-04 12:59:58.468541,22.424,0.205,235.0,268.909423828125,157.45297241210938,84.958251953125,10.35000228881836,30.810001373291016,51.0,0.0,-20.0
32,100,50,60,go_to_color_detect_up_from_pick_up,red,true,false,joint 1 +,true,2024-03-04 12:59:59.907650,22.177,0.198,235.0,170.93508911132812,260.54736328125,84.958251953125,36.73265838623047,57.134300231933594,51.0,0.0,-20.0
32,100,50,60,go_to_color_detect_down,red,true,false,joint 3 +,true,2024-03-04 13:00:00.609027,21.988,0.198,235.0,131.6912078857422,282.4126892089844,83.54717254638672,45.0,65.0,51.0,0.6599998474121094,-20.0
32,100,50,60,go_to_color_detect_down,red,true,false,joint 3 +,true,2024-03-04 13:00:01.298976,21.988,0.198,235.0,128.9445343017578,276.5224304199219,41.70981216430664,45.0,65.0,51.0,17.699996948242188,-20.0
32,100,50,60,go_to_color_detect_down,red,true,false,joint 3 +,true,2024-03-04 13:00:02.696437,21.931,0.198,235.0,115.10881042480469,246.85162353515625,-15.030082702636719,45.0,65.0,51.0,43.17434310913086,-20.0
32,100,50,60,go_to_color_detect_up_from_color_detect_down,red,true,false,joint 3 -,false,2024-03-04 13:00:03.405683,21.836,0.198,235.0,112.64669036865234,241.57159423828125,-20.96276092529297,45.0,65.0,51.0,45.900001525878906,-20.0
32,100,50,60,go_to_color_detect_up_from_color_detect_down,red,true,false,joint 3 -,false,2024-03-04 13:00:04.852040,16.576,0.198,235.0,125.4588394165039,269.0473327636719,20.771461486816406,45.0,65.0,51.0,25.220003128051758,-20.0
32,100,50,60,go_to_color_detect_up_from_color_detect_down,red,true,false,joint 3 -,false,2024-03-04 13:00:05.545138,16.576,0.157,235.0,131.6688690185547,282.3647766113281,80.77086639404297,45.0,65.0,51.0,1.456686019897461,-20.0
32,100,50,60,detecting_color,red,false,false,detecting_color,false,2024-03-04 13:00:06.249933,16.671,0.157,235.0,131.69407653808594,282.4188232421875,84.958251953125,45.0,65.0,51.0,0.0,-20.0
32,100,50,60,detecting_color,red,false,false,detecting_color,false,2024-03-04 13:00:07.710491,16.31,0.157,235.0,131.69407653808594,282.4188232421875,84.958251953125,45.0,65.0,51.0,0.0,-20.0
32,100,50,60,detecting_color,red,false,false,detecting_color,false,2024-03-04 13:00:08.504003,16.177,0.154,235.0,131.69407653808594,282.4188232421875,84.958251953125,45.0,65.0,51.0,0.0,-20.0
32,100,50,60,detecting_color,red,false,false,detecting_color,false,2024-03-04 13:00:09.425382,16.196,0.154,235.0,131.69407653808594,282.4188232421875,84.958251953125,45.0,65.0,51.0,0.0,-20.0
32,100,50,60,go_to_color_detect_down,red,true,false,joint 3 +,false,2024-03-04 13:00:10.832070,16.177,0.154,235.0,131.69216918945312,282.41473388671875,83.80372619628906,45.0,65.0,51.0,0.5499998927116394,-20.0
32,100,50,60,go_to_color_detect_down,red,true,false,joint 3 +,false,2024-03-04 13:00:11.524963,16.177,0.154,235.0,127.88793182373047,274.25653076171875,34.295745849609375,45.0,65.0,51.0,20.799997329711914,-20.0
32,100,50,60,go_to_color_detect_down,red,true,false,joint 3 +,false,2024-03-04 13:00:12.911540,16.082,0.154,235.0,114.0035629272461,244.48141479492188,-17.77655029296875,45.0,65.0,51.0,44.60254669189453,-20.0
32,100,50,60,go_to_color_detect_up_from_color_detect_down,red,true,false,joint 3 -,true,2024-03-04 13:00:13.599272,16.158,0.154,235.0,112.64669036865234,241.57159423828125,-20.96276092529297,45.0,65.0,51.0,45.900001525878906,-20.0
32,100,50,60,go_to_color_detect_up_from_color_detect_down,red,true,false,joint 3 -,true,2024-03-04 13:00:14.291612,22.842,0.154,235.0,125.77223205566406,269.71942138671875,22.32225799560547,45.0,65.0,51.0,24.540002822875977,-20.0
32,100,50,60,go_to_color_detect_up_from_color_detect_down,red,true,false,joint 3 -,true,2024-03-04 13:00:15.832969,22.443,0.205,235.0,131.67401123046875,282.37579345703125,81.22132873535156,45.0,65.0,51.0,1.2910453081130981,-20.0
32,100,50,60,go_to_green_up,green,true,false,joint 1 +,true,2024-03-04 13:00:16.521302,22.462,0.2,235.0,111.3680191040039,291.0341796875,84.958251953125,49.05999755859375,69.3499984741211,51.0,0.0,-20.0
32,100,50,60,go_to_green_up,green,true,false,joint 1 +,true,2024-03-04 13:00:17.908025,22.234,0.2,235.0,-13.613348960876465,311.3172302246094,84.958251953125,72.50383758544922,92.99874877929688,51.0,0.0,-20.0
32,100,50,60,go_to_pick_up_from_green,green,true,false,joint 1 -,false,2024-03-04 13:00:18.664708,22.234,0.2,235.0,-80.65180969238281,300.9967041015625,84.958251953125,85.0,104.98999786376953,51.0,0.0,-20.0
32,100,50,60,go_to_pick_up_from_green,green,true,false,joint 1 -,false,2024-03-04 13:00:19.354691,21.969,0.2,235.0,-17.612035751342773,311.1166076660156,84.958251953125,73.23999786376953,92.75,51.0,0.0,-20.0
32,100,50,60,go_to_pick_up_from_green,green,true,false,joint 1 -,false,2024-03-04 13:00:20.813773,16.215,0.154,235.0,162.2410888671875,266.04803466796875,84.958251953125,38.62437057495117,57.75046157836914,51.0,0.0,-20.0
32,100,50,60,go_to_pick_up_from_green,green,true,false,joint 1 -,false,2024-03-04 13:00:21.502671,16.348,0.154,235.0,280.6866760253906,135.34666442871094,84.958251953125,5.743289947509766,25.409381866455078,51.0,0.0,-20.0
32,100,50,60,moving_belt,green,false,true,joint 1 -,false,2024-03-04 13:00:22.884599,16.139,0.154,235.0,292.8220520019531,106.5785140991211,84.958251953125,0.0,20.0,51.0,0.0,-20.0
32,100,50,60,moving_belt,green,false,true,joint 1 -,false,2024-03-04 13:00:23.573954,16.557,0.154,235.0,292.8220520019531,106.5785140991211,84.958251953125,0.0,20.0,51.0,0.0,-20.0
32,100,50,60,moving_belt,green,false,true,joint 1 -,false,2024-03-04 13:00:24.264185,16.557,0.154,235.0,292.8220520019531,106.5785140991211,84.958251953125,0.0,20.0,51.0,0.0,-20.0
32,100,50,60,moving_belt,green,false,true,joint 1 -,false,2024-03-04 13:00:25.647769,16.405,0.154,235.0,292.8220520019531,106.5785140991211,84.958251953125,0.0,20.0,51.0,0.0,-20.0
32,100,50,60,moving_belt,green,false,true,joint 1 -,false,2024-03-04 13:00:26.341510,16.386,0.154,235.0,292.8220520019531,106.5785140991211,84.958251953125,0.0,20.0,51.0,0.0,-20.0
32,100,50,60,go_to_pick_down,green,true,false,joint 3 +,false,2024-03-04 13:00:27.718964,16.196,0.154,235.0,291.5440368652344,106.11334991455078,65.00806427001953,0.0,20.0,51.0,8.199999809265137,-20.0
32,100,50,60,go_to_pick_down,green,true,false,joint 3 +,false,2024-03-04 13:00:28.404617,16.196,0.154,235.0,282.94219970703125,102.9825439453125,30.363819122314453,0.0,20.0,51.0,21.8594913482666,-20.0
32,100,50,60,go_to_pick_up_from_pick_down,green,true,false,joint 3 -,true,2024-03-04 13:00:29.795615,21.418,0.202,235.0,288.6014099121094,105.04232025146484,48.898067474365234,0.0,20.0,51.0,13.799999237060547,-20.0
32,100,50,60,go_to_pick_up_from_pick_down,green,true,false,joint 3 -,true,2024-03-04 13:00:30.482965,21.418,0.202,235.0,292.8220520019531,106.5785140991211,84.95801544189453,0.0,20.0,51.0,0.0,-20.0
32,100,50,60,go_to_color_detect_up_from_pick_up,green,true,false,joint 1 +,true,2024-03-04 13:00:31.177649,22.291,0.202,235.0,268.909423828125,157.45297241210938,84.958251953125,10.35000228881836,30.810001373291016,51.0,0.0,-20.0
32,100,50,60,go_to_color_detect_up_from_pick_up,green,true,false,joint 1 +,true,2024-03-04 13:00:32.678747,22.083,0.198,235.0,170.93508911132812,260.54736328125,84.958251953125,36.73265838623047,57.134300231933594,51.0,0.0,-20.0
32,100,50,60,go_to_color_detect_down,green,true,false,joint 3 +,true,2024-03-04 13:00:33.365705,22.083,0.198,235.0,131.69216918945312,282.41473388671875,83.80372619628906,45.0,65.0,51.0,0.5499998927116394,-20.0
32,100,50,60,go_to_color_detect_down,green,true,false,joint 3 +,true,2024-03-04 13:00:34.257296,21.817,0.198,235.0,129.1265106201172,276.91265869140625,43.13420867919922,45.0,65.0,51.0,17.109996795654297,-20.0
32,100,50,60,go_to_color_detect_down,green,true,false,joint 3 +,true,2024-03-04 13:00:35.653789,21.684,0.198,235.0,115.10881042480469,246.85162353515625,-15.030082702636719,45.0,65.0,51.0,43.17434310913086,-20.0
32,100,50,60,go_to_color_detect_up_from_color_detect_down,green,true,false,joint 3 -,false,2024-03-04 13:00:36.354044,21.76,0.196,235.0,112.64669036865234,241.57159423828125,-20.96276092529297,45.0,65.0,51.0,45.900001525878906,-20.0
32,100,50,60,go_to_color_detect_up_from_color_detect_down,green,true,false,joint 3 -,false,2024-03-04 13:00:37.739557,18.722,0.196,236.8,125.77223205566406,269.71942138671875,22.32225799560547,45.0,65.0,51.0,24.540002822875977,-20.0
32,100,50,60,go_to_color_detect_up_from_color_detect_down,green,true,false,joint 3 -,false,2024-03-04 13:00:38.426258,16.633,0.158,236.8,131.62710571289062,282.2752380371094,78.13475799560547,45.0,65.0,51.0,2.434890031814575,-20.0
32,100,50,60,detecting_color,green,false,false,detecting_color,false,2024-03-04 13:00:39.810092,16.424,0.158,235.0,131.69407653808594,282.4188232421875,84.958251953125,45.0,65.0,51.0,0.0,-20.0
32,100,50,60,go_to_color_detect_down,green,true,false,joint 3 +,false,2024-03-04 13:00:40.497982,16.424,0.155,235.0,131.69407653808594,282.4188232421875,84.958251953125,45.0,65.0,51.0,0.0,-20.0
32,100,50,60,go_to_color_detect_down,green,true,false,joint 3 +,false,2024-03-04 13:00:41.887360,16.253,0.155,235.0,130.49400329589844,279.84527587890625,56.204490661621094,45.0,65.0,51.0,11.759998321533203,-20.0
32,100,50,60,go_to_color_detect_down,green,true,false,joint 3 +,false,2024-03-04 13:00:42.579283,16.329,0.155,235.0,116.36248779296875,249.54014587402344,-11.734855651855469,45.0,65.0,51.0,41.49613952636719,-20.0
32,100,50,60,go_to_color_detect_up_from_color_detect_down,green,true,false,joint 3 -,true,2024-03-04 13:00:43.285053,16.234,0.155,235.0,111.4281005859375,238.9583282470703,-23.663864135742188,45.0,65.0,51.0,47.54999923706055,-20.0
32,100,50,60,go_to_color_detect_up_from_color_detect_down,green,true,false,joint 3 -,true,2024-03-04 13:00:44.666301,22.5,0.155,235.0,122.23107147216797,262.1253662109375,6.973106384277344,45.0,65.0,51.0,31.470001220703125,-20.0
32,100,50,60,go_to_color_detect_up_from_color_detect_down,green,true,false,joint 3 -,true,2024-03-04 13:00:45.366481,22.329,0.203,235.0,131.37574768066406,281.7362060546875,70.09638977050781,45.0,65.0,51.0,5.466938018798828,-20.0
32,100,50,60,go_to_blue_up,blue,true,false,joint 1 +,true,2024-03-04 13:00:46.777554,22.291,0.203,235.0,124.95397186279297,285.4649658203125,84.958251953125,46.36000061035156,66.52999877929688,51.0,0.0,-20.0
32,100,50,60,go_to_blue_up,blue,true,false,joint 1 +,true,2024-03-04 13:00:47.475299,21.836,0.198,235.0,43.96857452392578,308.4971618652344,84.958251953125,61.88854217529297,82.13297271728516,51.0,0.0,-20.0
32,100,50,60,go_to_pick_up_from_blue,blue,true,false,joint 1 -,false,2024-03-04 13:00:48.877725,22.026,0.198,235.0,39.649112701416016,309.0820007324219,84.958251953125,62.69000244140625,82.47000122070312,51.0,0.0,-20.0
32,100,50,60,go_to_pick_up_from_blue,blue,true,false,joint 1 -,false,2024-03-04 13:00:49.597794,18.095,0.172,235.0,171.99168395996094,259.85107421875,84.958251953125,36.5,55.7400016784668,51.0,0.0,-20.0
32,100,50,60,go_to_pick_up_from_blue,blue,true,false,joint 1 -,false,2024-03-04 13:00:50.309110,16.386,0.172,235.0,277.34246826171875,142.07351684570312,84.958251953125,7.124584197998047,26.752132415771484,51.0,0.0,-20.0
32,100,50,60,moving_belt,blue,false,true,joint 1 -,false,2024-03-04 13:00:51.846618,16.386,0.155,235.0,292.8220520019531,106.5785140991211,84.958251953125,0.0,20.0,51.0,0.0,-20.0
32,100,50,60,moving_belt,blue,false,true,joint 1 -,false,2024-03-04 13:00:52.535925,16.386,0.155,235.0,292.8220520019531,106.5785140991211,84.958251953125,0.0,20.0,51.0,0.0,-20.0
32,100,50,60,moving_belt,blue,false,true,joint 1 -,false,2024-03-04 13:00:53.918328,16.633,0.155,235.0,292.8220520019531,106.5785140991211,84.958251953125,0.0,20.0,51.0,0.0,-20.0
32,100,50,60,moving_belt,blue,false,true,joint 1 -,false,2024-03-04 13:00:54.607027,16.177,0.155,235.0,292.8220520019531,106.5785140991211,84.958251953125,0.0,20.0,51.0,0.0,-20.0
32,100,50,60,moving_belt,blue,false,true,joint 1 -,false,2024-03-04 13:00:55.295721,16.538,0.155,235.0,292.8220520019531,106.5785140991211,84.958251953125,0.0,20.0,51.0,0.0,-20.0
32,100,50,60,go_to_pick_down,blue,true,false,joint 3 +,false,2024-03-04 13:00:56.678359,16.386,0.155,236.8,291.889892578125,106.2392349243164,67.90958404541016,0.0,20.0,51.0,7.03000020980835,-20.0
32,100,50,60,go_to_pick_down,blue,true,false,joint 3 +,false,2024-03-04 13:00:57.380017,16.386,0.155,236.8,283.1508483886719,103.05848693847656,30.922286987304688,0.0,20.0,51.0,21.655242919921875,-20.0
32,100,50,60,go_to_pick_up_from_pick_down,blue,true,false,joint 3 -,true,2024-03-04 13:00:58.758072,16.215,0.155,235.0,289.29791259765625,105.29582977294922,51.965450286865234,0.0,20.0,51.0,12.539999008178711,-20.0
32,100,50,60,go_to_pick_up_from_pick_down,blue,true,false,joint 3 -,true,2024-03-04 13:00:59.450764,22.899,0.155,235.0,292.8219909667969,106.5784912109375,84.81883239746094,0.0,20.0,51.0,0.026258356869220734,-20.0
32,100,50,60,go_to_color_detect_up_from_pick_up,blue,true,false,joint 1 +,true,2024-03-04 13:01:00.837140,21.836,0.198,235.0,272.4652099609375,151.2165069580078,84.958251953125,9.030000686645508,29.46000099182129,51.0,0.0,-20.0
32,100,50,60,go_to_color_detect_up_from_pick_up,blue,true,false,joint 1 +,true,2024-03-04 13:01:01.530829,21.874,0.198,235.0,165.556640625,263.9975891113281,84.958251953125,37.9075813293457,58.27922058105469,51.0,0.0,-20.0
32,100,50,60,go_to_color_detect_down,blue,true,false,joint 3 +,true,2024-03-04 13:01:02.914335,21.817,0.197,235.0,131.69284057617188,282.41619873046875,84.03462982177734,45.0,65.0,51.0,0.4499998986721039,-20.0
32,100,50,60,go_to_color_detect_down,blue,true,false,joint 3 +,true,2024-03-04 13:01:03.632866,21.741,0.197,235.0,129.29940795898438,277.283447265625,44.53822708129883,45.0,65.0,51.0,16.529996871948242,-20.0
32,100,50,60,go_to_color_detect_down,blue,true,false,joint 3 +,true,2024-03-04 13:01:04.320559,21.741,0.196,235.0,114.2119140625,244.92823791503906,-17.269546508789062,45.0,65.0,51.0,44.33690643310547,-20.0
32,100,50,60,go_to_color_detect_up_from_color_detect_down,blue,true,false,joint 3 -,false,2024-03-04 13:01:05.706819,21.798,0.196,236.8,112.09659576416016,240.39190673828125,-22.20013427734375,45.0,65.0,51.0,46.63999938964844,-20.0
32,100,50,60,go_to_color_detect_up_from_color_detect_down,blue,true,false,joint 3 -,false,2024-03-04 13:01:06.395117,17.127,0.196,236.8,124.50343322753906,266.99847412109375,16.30864715576172,45.0,65.0,51.0,27.200002670288086,-20.0
32,100,50,60,go_to_color_detect_up_from_color_detect_down,blue,true,false,joint 3 -,false,2024-03-04 13:01:07.774763,16.785,0.156,236.8,131.64747619628906,282.31890869140625,79.2658920288086,45.0,65.0,51.0,2.013608455657959,-20.0
32,100,50,60,detecting_color,blue,false,false,detecting_color,false,2024-03-04 13:01:08.459921,16.785,0.156,236.8,131.69407653808594,282.4188232421875,84.958251953125,45.0,65.0,51.0,0.0,-20.0
32,100,50,60,go_to_color_detect_down,blue,true,false,joint 3 +,false,2024-03-04 13:01:09.844197,16.348,0.155,236.8,131.69386291503906,282.41839599609375,84.57341003417969,45.0,65.0,51.0,0.2099999636411667,-20.0
32,100,50,60,go_to_color_detect_down,blue,true,false,joint 3 +,false,2024-03-04 13:01:10.532102,16.082,0.155,236.8,129.76651000976562,278.28515625,48.62453842163086,45.0,65.0,51.0,14.849997520446777,-20.0
32,100,50,60,go_to_color_detect_down,blue,true,false,joint 3 +,false,2024-03-04 13:01:11.908906,16.234,0.154,235.0,116.36248779296875,249.54014587402344,-11.734855651855469,45.0,65.0,51.0,41.49613952636719,-20.0
32,100,50,60,go_to_color_detect_up_from_color_detect_down,blue,true,false,joint 3 -,true,2024-03-04 13:01:12.597208,16.215,0.154,235.0,111.86682891845703,239.899169921875,-22.708099365234375,45.0,65.0,51.0,46.95000076293945,-20.0
32,100,50,60,go_to_color_detect_up_from_color_detect_down,blue,true,false,joint 3 -,true,2024-03-04 13:01:13.286217,16.215,0.173,235.0,123.85746002197266,265.6131591796875,13.489364624023438,45.0,65.0,51.0,28.470001220703125,-20.0
32,100,50,60,go_to_color_detect_up_from_color_detect_down,blue,true,false,joint 3 -,true,2024-03-04 13:01:14.800015,22.367,0.173,236.8,131.52529907226562,282.056884765625,74.12986755371094,45.0,65.0,51.0,3.938734531402588,-20.0
32,100,50,60,go_to_red_up,red,true,false,joint 1 +,true,2024-03-04 13:01:15.561340,22.14,0.199,236.8,120.20384216308594,287.4974060058594,84.958251953125,47.30999755859375,67.52999877929688,51.0,0.0,-20.0
32,100,50,60,go_to_red_up,red,true,false,joint 1 +,true,2024-03-04 13:01:16.381285,22.14,0.199,235.0,4.622695446014404,311.5804138183594,84.958251953125,69.1500015258789,89.8499984741211,51.0,0.0,-20.0
32,100,50,60,go_to_red_up,red,true,false,joint 1 +,true,2024-03-04 13:01:17.718821,21.76,0.199,235.0,-146.28341674804688,275.14520263671875,84.958251953125,97.99774169921875,118.36693572998047,51.0,0.0,-20.0
32,100,50,60,go_to_pick_up_from_red,red,true,false,joint 1 -,false,2024-03-04 13:01:18.438386,22.026,0.198,235.0,-174.6584014892578,258.0661926269531,84.958251953125,104.09000396728516,123.95000457763672,51.0,0.0,-20.0
32,100,50,60,go_to_pick_up_from_red,red,true,false,joint 1 -,false,2024-03-04 13:01:19.824027,19.861,0.155,235.0,-83.11819458007812,300.32501220703125,84.958251953125,85.47000122070312,104.84000396728516,51.0,0.0,-20.0
32,100,50,60,go_to_pick_up_from_red,red,true,false,joint 1 -,false,2024-03-04 13:01:20.514568,16.158,0.155,236.8,133.68765258789062,281.4806213378906,84.958251953125,44.594879150390625,63.65549087524414,51.0,0.0,-20.0
32,100,50,60,go_to_pick_up_from_red,red,true,false,joint 1 -,false,2024-03-04 13:01:21.915709,16.272,0.155,236.8,274.6841125488281,147.14743041992188,84.958251953125,8.177812576293945,27.778423309326172,51.0,0.0,-20.0
32,100,50,60,moving_belt,red,false,true,joint 1 -,false,2024-03-04 13:01:22.605338,16.272,0.155,235.0,292.8220520019531,106.5785140991211,84.958251953125,0.0,20.0,51.0,0.0,-20.0
32,100,50,60,moving_belt,red,false,true,joint 1 -,false,2024-03-04 13:01:23.309933,16.348,0.155,235.0,292.8220520019531,106.5785140991211,84.958251953125,0.0,20.0,51.0,0.0,-20.0
32,100,50,60,moving_belt,red,false,true,joint 1 -,false,2024-03-04 13:01:23.995801,16.348,0.155,235.0,292.8220520019531,106.5785140991211,84.958251953125,0.0,20.0,51.0,0.0,-20.0
32,100,50,60,moving_belt,red,false,true,joint 1 -,false,2024-03-04 13:01:25.349385,16.5,0.155,235.0,292.8220520019531,106.5785140991211,84.958251953125,0.0,20.0,51.0,0.0,-20.0
32,100,50,60,moving_belt,red,false,true,joint 1 -,false,2024-03-04 13:01:26.729277,16.196,0.155,235.0,292.8220520019531,106.5785140991211,84.958251953125,0.0,20.0,51.0,0.0,-20.0
32,100,50,60,go_to_pick_down,red,true,false,joint 3 +,false,2024-03-04 13:01:27.419967,16.196,0.155,235.0,292.47540283203125,106.45233917236328,74.55049133300781,0.0,20.0,51.0,4.349999904632568,-20.0
32,100,50,60,go_to_pick_down,red,true,false,joint 3 +,false,2024-03-04 13:01:28.802281,16.196,0.155,235.0,283.23760986328125,103.09005737304688,31.15639877319336,0.0,20.0,51.0,21.56715965270996,-20.0
32,100,50,60,go_to_pick_up_from_pick_down,red,true,false,joint 3 -,true,2024-03-04 13:01:29.494638,16.177,0.155,235.0,287.43768310546875,104.61876678466797,44.316261291503906,0.0,20.0,51.0,15.69999885559082,-20.0
32,100,50,60,go_to_pick_up_from_pick_down,red,true,false,joint 3 -,true,2024-03-04 13:01:30.906654,22.899,0.205,235.0,292.8134765625,106.57539367675781,83.31883239746094,0.0,20.0,51.0,0.5309234857559204,-20.0
32,100,50,60,go_to_color_detect_up_from_pick_up,red,true,false,joint 1 +,true,2024-03-04 13:01:31.596698,22.386,0.205,235.0,274.6271057128906,147.2537841796875,84.958251953125,8.200000762939453,28.610000610351562,51.0,0.0,-20.0
32,100,50,60,go_to_color_detect_up_from_pick_up,red,true,false,joint 1 +,true,2024-03-04 13:01:32.972885,22.272,0.2,235.0,180.62576293945312,253.92532348632812,84.958251953125,34.57445526123047,55.02609634399414,51.0,0.0,-20.0
32,100,50,60,go_to_color_detect_down,red,true,false,joint 3 +,true,2024-03-04 13:01:33.663209,22.272,0.2,235.0,131.69407653808594,282.4188232421875,84.958251953125,45.0,65.0,51.0,0.0,-20.0
32,100,50,60,go_to_color_detect_down,red,true,false,joint 3 +,true,2024-03-04 13:01:34.351657,22.102,0.2,235.0,129.76651000976562,278.28515625,48.62453842163086,45.0,65.0,51.0,14.849997520446777,-20.0
32,100,50,60,go_to_color_detect_down,red,true,false,joint 3 +,true,2024-03-04 13:01:35.771915,22.007,0.199,235.0,116.36248779296875,249.54014587402344,-11.734855651855469,45.0,65.0,51.0,41.49613952636719,-20.0
32,100,50,60,go_to_color_detect_up_from_color_detect_down,red,true,false,joint 3 -,false,2024-03-04 13:01:36.487319,22.007,0.199,235.0,111.4281005859375,238.9583282470703,-23.663864135742188,45.0,65.0,51.0,47.54999923706055,-20.0
32,100,50,60,go_to_color_detect_up_from_color_detect_down,red,true,false,joint 3 -,false,2024-03-04 13:01:37.887921,16.633,0.196,235.0,124.18110656738281,266.3072204589844,14.883560180664062,45.0,65.0,51.0,27.840002059936523,-20.0
32,100,50,60,go_to_color_detect_up_from_color_detect_down,red,true,false,joint 3 -,false,2024-03-04 13:01:38.576413,16.633,0.196,235.0,131.54733276367188,282.1041564941406,74.86085510253906,45.0,65.0,51.0,3.6630938053131104,-20.0
32,100,50,60,detecting_color,red,false,false,detecting_color,false,2024-03-04 13:01:39.964915,16.709,0.158,235.0,131.69407653808594,282.4188232421875,84.958251953125,45.0,65.0,51.0,0.0,-20.0
32,100,50,60,detecting_color,red,false,false,detecting_color,false,2024-03-04 13:01:40.652615,16.386,0.158,235.0,131.69407653808594,282.4188232421875,84.958251953125,45.0,65.0,51.0,0.0,-20.0
32,100,50,60,detecting_color,red,false,false,detecting_color,false,2024-03-04 13:01:41.392863,16.158,0.158,235.0,131.69407653808594,282.4188232421875,84.958251953125,45.0,65.0,51.0,0.0,-20.0
32,100,50,60,go_to_color_detect_down,red,true,false,joint 3 +,false,2024-03-04 13:01:42.780586,16.196,0.154,235.0,131.57752990722656,282.1689147949219,75.95851135253906,45.0,65.0,51.0,3.7799997329711914,-20.0
32,100,50,60,go_to_color_detect_down,red,true,false,joint 3 +,false,2024-03-04 13:01:43.472200,16.196,0.154,235.0,125.00505065917969,268.0741882324219,18.604698181152344,45.0,65.0,51.0,27.478200912475586,-20.0
32,100,50,60,go_to_color_detect_down,red,true,false,joint 3 +,false,2024-03-04 13:01:44.857291,16.272,0.154,235.0,111.63027954101562,239.3918914794922,-23.22571563720703,45.0,65.0,51.0,47.4927978515625,-20.0
32,100,50,60,go_to_color_detect_up_from_color_detect_down,red,true,false,joint 3 -,true,2024-03-04 13:01:45.549143,16.253,0.154,235.0,115.70067596435547,248.1208953857422,-13.499244689941406,45.0,65.0,51.0,41.70000076293945,-20.0
32,100,50,60,go_to_color_detect_up_from_color_detect_down,red,true,false,joint 3 -,true,2024-03-04 13:01:46.923506,22.5,0.205,235.0,129.3714141845703,277.4378662109375,45.1388053894043,45.0,65.0,51.0,15.161033630371094,-20.0
32,100,50,60,go_to_color_detect_up_from_color_detect_down,red,true,false,joint 3 -,true,2024-03-04 13:01:47.611341,22.5,0.205,235.0,131.6930694580078,282.41668701171875,84.1220703125,45.0,65.0,51.0,0.2502784729003906,-20.0
32,100,50,60,go_to_green_up,green,true,false,joint 1 +,true,2024-03-04 13:01:48.325779,22.196,0.2,235.0,83.4850082397461,300.2232360839844,84.958251953125,54.459999084472656,74.9000015258789,51.0,0.0,-20.0
32,100,50,60,go_to_green_up,green,true,false,joint 1 +,true,2024-03-04 13:01:49.707424,22.177,0.2,235.0,-46.18116760253906,308.1737060546875,84.958251953125,78.52259826660156,98.87751007080078,51.0,0.0,-20.0
32,100,50,60,go_to_pick_up_from_green,green,true,false,joint 1 -,false,2024-03-04 13:01:50.599716,22.083,0.2,235.0,-75.1225814819336,302.4241027832031,84.958251953125,83.95000457763672,103.80000305175781,51.0,0.0,-20.0
32,100,50,60,go_to_pick_up_from_green,green,true,false,joint 1 -,false,2024-03-04 13:01:51.366359,22.083,0.2,235.0,24.611650466918945,310.6412658691406,84.958251953125,65.47000122070312,84.84000396728516,51.0,0.0,-20.0
32,100,50,60,go_to_pick_up_from_green,green,true,false,joint 1 -,false,2024-03-04 13:01:52.751564,16.386,0.155,235.0,211.32594299316406,229.00892639160156,84.958251953125,27.299644470214844,46.56573486328125,51.0,0.0,-20.0
32,100,50,60,go_to_pick_up_from_green,green,true,false,joint 1 -,false,2024-03-04 13:01:53.445883,16.158,0.155,235.0,288.5509033203125,117.65248107910156,84.958251953125,2.1824722290039062,21.97856330871582,51.0,0.0,-20.0
32,100,50,60,moving_belt,green,false,true,joint 1 -,false,2024-03-04 13:01:54.860931,16.272,0.155,235.0,292.8220520019531,106.5785140991211,84.958251953125,0.0,20.0,51.0,0.0,-20.0
32,100,50,60,moving_belt,green,false,true,joint 1 -,false,2024-03-04 13:01:55.584740,16.804,0.155,235.0,292.8220520019531,106.5785140991211,84.958251953125,0.0,20.0,51.0,0.0,-20.0
32,100,50,60,moving_belt,green,false,true,joint 1 -,false,2024-03-04 13:01:56.293751,16.804,0.155,235.0,292.8220520019531,106.5785140991211,84.958251953125,0.0,20.0,51.0,0.0,-20.0
32,100,50,60,moving_belt,green,false,true,joint 1 -,false,2024-03-04 13:01:57.573860,16.424,0.154,235.0,292.8220520019531,106.5785140991211,84.958251953125,0.0,20.0,51.0,0.0,-20.0
32,100,50,60,go_to_pick_down,green,true,false,joint 3 +,false,2024-03-04 13:01:58.975888,16.31,0.154,236.8,292.8220520019531,106.5785140991211,84.958251953125,0.0,20.0,51.0,0.0,-20.0
32,100,50,60,go_to_pick_down,green,true,false,joint 3 +,false,2024-03-04 13:01:59.694776,16.538,0.156,236.8,289.0231018066406,105.19580841064453,50.720375061035156,0.0,20.0,51.0,13.876581192016602,-20.0
32,100,50,60,go_to_pick_up_from_pick_down,green,true,false,joint 3 -,true,2024-03-04 13:02:00.387016,16.538,0.156,236.8,282.79071044921875,102.92739868164062,29.96245574951172,0.0,20.0,51.0,21.939998626708984,-20.0
32,100,50,60,go_to_pick_up_from_pick_down,green,true,false,joint 3 -,true,2024-03-04 13:02:01.793398,22.329,0.163,236.8,291.1403503417969,105.9664306640625,62.09014892578125,0.0,20.0,51.0,8.531500816345215,-20.0
32,100,50,60,go_to_color_detect_up_from_pick_up,green,true,false,joint 1 +,true,2024-03-04 13:02:02.484542,22.348,0.163,235.0,291.7854919433594,109.38444519042969,84.958251953125,0.5500011444091797,20.660001754760742,51.0,0.0,-20.0
32,100,50,60,go_to_color_detect_up_from_pick_up,green,true,false,joint 1 +,true,2024-03-04 13:02:04.005320,21.969,0.199,235.0,248.50607299804688,188.01185607910156,84.958251953125,17.110000610351562,37.70000076293945,51.0,0.0,-20.0
32,100,50,60,go_to_color_detect_up_from_pick_up,green,true,false,joint 1 +,true,2024-03-04 13:02:04.759684,22.083,0.199,235.0,151.58560180664062,272.2600402832031,84.958251953125,40.89234924316406,61.173988342285156,51.0,0.0,-20.0
32,100,50,60,go_to_color_detect_down,green,true,false,joint 3 +,true,2024-03-04 13:02:05.447535,22.083,0.198,235.0,131.62200927734375,282.2643127441406,77.87983703613281,45.0,65.0,51.0,2.999999761581421,-20.0
32,100,50,60,go_to_color_detect_down,green,true,false,joint 3 +,true,2024-03-04 13:02:06.905275,21.893,0.198,235.0,125.63692474365234,269.4292297363281,21.647003173828125,45.0,65.0,51.0,26.176918029785156,-20.0
32,100,50,60,go_to_color_detect_down,green,true,false,joint 3 +,true,2024-03-04 13:02:07.593272,21.76,0.198,235.0,112.58256530761719,241.43408203125,-21.10858917236328,45.0,65.0,51.0,46.367671966552734,-20.0
32,100,50,60,go_to_color_detect_up_from_color_detect_down,green,true,false,joint 3 -,false,2024-03-04 13:02:08.968715,18.342,0.198,235.0,114.97486877441406,246.56439208984375,-15.370536804199219,45.0,65.0,51.0,42.720001220703125,-20.0
32,100,50,60,go_to_color_detect_up_from_color_detect_down,green,true,false,joint 3 -,false,2024-03-04 13:02:09.751848,18.342,0.157,235.0,129.02435302734375,276.693603515625,42.3282470703125,45.0,65.0,51.0,16.28231430053711,-20.0
32,100,50,60,go_to_color_detect_up_from_color_detect_down,green,true,false,joint 3 -,false,2024-03-04 13:02:10.452822,16.785,0.157,235.0,131.691650390625,282.41363525390625,83.65697479248047,45.0,65.0,51.0,0.41156005859375,-20.0
32,100,50,60,detecting_color,green,false,false,detecting_color,false,2024-03-04 13:02:11.827668,16.462,0.157,235.0,131.69407653808594,282.4188232421875,84.958251953125,45.0,65.0,51.0,0.0,-20.0
32,100,50,60,go_to_color_detect_down,green,true,false,joint 3 +,false,2024-03-04 13:02:12.517528,16.462,0.154,235.0,131.68832397460938,282.406494140625,82.95712280273438,45.0,65.0,51.0,0.9099998474121094,-20.0
32,100,50,60,go_to_color_detect_down,green,true,false,joint 3 +,false,2024-03-04 13:02:13.906897,16.329,0.154,235.0,128.55213928222656,275.6809387207031,38.801368713378906,45.0,65.0,51.0,18.909997940063477,-20.0
32,100,50,60,go_to_color_detect_down,green,true,false,joint 3 +,false,2024-03-04 13:02:14.600759,16.329,0.155,235.0,113.4184341430664,243.2266082763672,-19.174636840820312,45.0,65.0,51.0,45.33946990966797,-20.0
32,100,50,60,go_to_color_detect_up_from_color_detect_down,green,true,false,joint 3 -,true,2024-03-04 13:02:15.987780,16.367,0.155,235.0,112.80269622802734,241.90614318847656,-20.60631561279297,45.0,65.0,51.0,45.69000244140625,-20.0
32,100,50,60,go_to_color_detect_up_from_color_detect_down,green,true,false,joint 3 -,true,2024-03-04 13:02:16.690371,22.747,0.206,235.0,126.0824203491211,270.3846130371094,23.904972076416016,45.0,65.0,51.0,23.85000228881836,-20.0
32,100,50,60,go_to_color_detect_up_from_color_detect_down,green,true,false,joint 3 -,true,2024-03-04 13:02:17.379067,22.538,0.206,235.0,131.6782989501953,282.385009765625,81.64617919921875,45.0,65.0,51.0,1.1354045867919922,-20.0
32,100,50,60,go_to_blue_up,blue,true,false,joint 1 +,true,2024-03-04 13:02:18.769921,22.234,0.199,235.0,109.89352416992188,291.5941467285156,84.958251953125,49.349998474121094,69.6500015258789,51.0,0.0,-20.0
32,100,50,60,go_to_blue_up,blue,true,false,joint 1 +,true,2024-03-04 13:02:19.454631,21.855,0.199,235.0,31.024690628051758,310.0664367675781,84.958251953125,64.28610229492188,84.40052795410156,51.0,0.0,-20.0
32,100,50,60,go_to_pick_up_from_blue,blue,true,false,joint 1 -,false,2024-03-04 13:02:20.834291,22.007,0.188,235.0,64.94790649414062,304.771240234375,84.958251953125,57.970001220703125,77.59000396728516,51.0,0.0,-20.0
32,100,50,60,go_to_pick_up_from_blue,blue,true,false,joint 1 -,false,2024-03-04 13:02:21.627180,17.639,0.188,235.0,205.71629333496094,234.0609588623047,84.958251953125,28.687744140625,47.9352912902832,51.0,0.0,-20.0
32,100,50,60,go_to_pick_up_from_blue,blue,true,false,joint 1 -,false,2024-03-04 13:02:22.363717,16.31,0.188,235.0,288.17388916015625,118.57295227050781,84.958251953125,2.3653621673583984,22.152910232543945,51.0,0.0,-20.0
32,100,50,60,moving_belt,blue,false,true,joint 1 -,false,2024-03-04 13:02:23.962822,16.139,0.155,235.0,292.8220520019531,106.5785140991211,84.958251953125,0.0,20.0,51.0,0.0,-20.0
32,100,50,60,moving_belt,blue,false,true,joint 1 -,false,2024-03-04 13:02:24.647531,16.139,0.155,235.0,292.8220520019531,106.5785140991211,84.958251953125,0.0,20.0,51.0,0.0,-20.0
32,100,50,60,moving_belt,blue,false,true,joint 1 -,false,2024-03-04 13:02:25.348409,16.443,0.155,235.0,292.8220520019531,106.5785140991211,84.958251953125,0.0,20.0,51.0,0.0,-20.0
32,100,50,60,moving_belt,blue,false,true,joint 1 -,false,2024-03-04 13:02:26.726588,16.329,0.155,235.0,292.8220520019531,106.5785140991211,84.958251953125,0.0,20.0,51.0,0.0,-20.0
32,100,50,60,go_to_pick_down,blue,true,false,joint 3 +,false,2024-03-04 13:02:27.416849,16.025,0.154,235.0,292.8220520019531,106.5785140991211,84.958251953125,0.0,20.0,51.0,0.0,-20.0
32,100,50,60,go_to_pick_down,blue,true,false,joint 3 +,false,2024-03-04 13:02:28.797219,16.31,0.154,235.0,289.48358154296875,105.3634033203125,52.83528137207031,0.0,20.0,51.0,13.0504150390625,-20.0
32,100,50,60,go_to_pick_up_from_pick_down,blue,true,false,joint 3 -,true,2024-03-04 13:02:29.486359,16.31,0.154,235.0,282.77264404296875,102.92082214355469,29.914867401123047,0.0,20.0,51.0,21.969999313354492,-20.0
32,100,50,60,go_to_pick_up_from_pick_down,blue,true,false,joint 3 -,true,2024-03-04 13:02:30.404221,16.424,0.155,235.0,290.7998962402344,105.84251403808594,59.89763641357422,0.0,20.0,51.0,9.377667427062988,-20.0
32,100,50,60,go_to_color_detect_up_from_pick_up,blue,true,false,joint 1 +,true,2024-03-04 13:02:31.796564,22.348,0.203,235.0,292.2976989746094,108.00823974609375,84.958251953125,0.2800006866455078,20.360000610351562,51.0,0.0,-20.0
32,100,50,60,go_to_color_detect_up_from_pick_up,blue,true,false,joint 1 +,true,2024-03-04 13:02:32.527654,21.912,0.203,235.0,254.0058135986328,180.5125274658203,84.958251953125,15.39999771118164,35.959999084472656,51.0,0.0,-20.0
32,100,50,60,go_to_color_detect_up_from_pick_up,blue,true,false,joint 1 +,true,2024-03-04 13:02:33.906400,22.083,0.199,235.0,154.3966064453125,270.67584228515625,84.958251953125,40.299068450927734,60.6007080078125,51.0,0.0,-20.0
32,100,50,60,go_to_color_detect_down,blue,true,false,joint 3 +,true,2024-03-04 13:02:34.610663,22.045,0.199,235.0,131.65234375,282.329345703125,79.57162475585938,45.0,65.0,51.0,2.309999704360962,-20.0
32,100,50,60,go_to_color_detect_down,blue,true,false,joint 3 +,true,2024-03-04 13:02:35.983675,21.95,0.199,235.0,126.55872344970703,271.4060363769531,26.436275482177734,45.0,65.0,51.0,24.14999771118164,-20.0
32,100,50,60,go_to_color_detect_down,blue,true,false,joint 3 +,true,2024-03-04 13:02:35.983675,21.95,0.199,235.0,113.06271362304688,242.46376037597656,-20.006576538085938,45.0,65.0,51.0,45.7807502746582,-20.0
32,100,50,60,go_to_color_detect_up_from_color_detect_down,blue,true,false,joint 3 -,false,2024-03-04 13:02:37.856607,21.703,0.199,235.0,114.09204864501953,244.67117309570312,-17.561798095703125,45.0,65.0,51.0,43.94000244140625,-20.0
32,100,50,60,go_to_color_detect_up_from_color_detect_down,blue,true,false,joint 3 -,false,2024-03-04 13:02:38.543155,17.563,0.164,235.0,127.98958587646484,274.47454833984375,34.95585250854492,45.0,65.0,51.0,19.260517120361328,-20.0
32,100,50,60,go_to_color_detect_up_from_color_detect_down,blue,true,false,joint 3 -,false,2024-03-04 13:02:39.918173,16.804,0.164,235.0,131.69247436523438,282.4154052734375,83.90235137939453,45.0,65.0,51.0,0.3259192705154419,-20.0
32,100,50,60,detecting_color,blue,false,false,detecting_color,false,2024-03-04 13:02:40.618859,16.424,0.157,235.0,131.69407653808594,282.4188232421875,84.958251953125,45.0,65.0,51.0,0.0,-20.0
32,100,50,60,go_to_color_detect_down,blue,true,false,joint 3 +,false,2024-03-04 13:02:41.993679,16.272,0.157,235.0,131.68832397460938,282.406494140625,82.95712280273438,45.0,65.0,51.0,0.9099998474121094,-20.0
32,100,50,60,go_to_color_detect_down,blue,true,false,joint 3 +,false,2024-03-04 13:02:42.683799,16.272,0.155,235.0,127.12559509277344,272.6217041015625,29.6295166015625,45.0,65.0,51.0,22.779996871948242,-20.0
32,100,50,60,go_to_color_detect_down,blue,true,false,joint 3 +,false,2024-03-04 13:02:43.375996,16.31,0.155,235.0,113.60669708251953,243.63034057617188,-18.728851318359375,45.0,65.0,51.0,45.10382843017578,-20.0
32,100,50,60,go_to_color_detect_up_from_color_detect_down,blue,true,false,joint 3 -,true,2024-03-04 13:02:44.066694,16.31,0.155,235.0,113.88738250732422,244.23226928710938,-18.057113647460938,45.0,65.0,51.0,44.220001220703125,-20.0
32,100,50,60,go_to_color_detect_up_from_color_detect_down,blue,true,false,joint 3 -,true,2024-03-04 13:02:45.789448,22.937,0.16,235.0,127.7515640258789,273.964111328125,33.425384521484375,45.0,65.0,51.0,19.886157989501953,-20.0
32,100,50,60,go_to_color_detect_up_from_color_detect_down,blue,true,false,joint 3 -,true,2024-03-04 13:02:46.479152,22.329,0.16,235.0,131.6782989501953,282.385009765625,81.64617919921875,45.0,65.0,51.0,1.1354045867919922,-20.0
32,100,50,60,go_to_red_up,red,true,false,joint 1 +,true,2024-03-04 13:02:47.855400,22.158,0.199,235.0,99.90774536132812,295.1646423339844,84.958251953125,51.29999542236328,71.65999603271484,51.0,0.0,-20.0
32,100,50,60,go_to_red_up,red,true,false,joint 1 +,true,2024-03-04 13:02:48.545531,21.855,0.199,235.0,-51.405303955078125,307.345458984375,84.958251953125,79.49516296386719,100.20435333251953,51.0,0.0,-20.0
32,100,50,60,go_to_red_up,red,true,false,joint 1 +,true,2024-03-04 13:02:49.924779,22.196,0.198,235.0,-166.3118133544922,263.5224914550781,84.958251953125,102.2564468383789,122.48564147949219,51.0,0.0,-20.0
32,100,50,60,go_to_pick_up_from_red,red,true,false,joint 1 -,false,2024-03-04 13:02:50.633408,22.196,0.198,235.0,-161.5178680419922,266.48773193359375,84.958251953125,101.22000122070312,120.94000244140625,51.0,0.0,-20.0
32,100,50,60,go_to_pick_up_from_red,red,true,false,joint 1 -,false,2024-03-04 13:02:52.010330,20.886,0.158,235.0,-35.27582550048828,309.6116027832031,84.958251953125,76.5,95.73999786376953,51.0,0.0,-20.0
32,100,50,60,go_to_pick_up_from_red,red,true,false,joint 1 -,false,2024-03-04 13:02:52.697581,16.31,0.158,235.0,186.8264923095703,249.39846801757812,84.958251953125,33.16280746459961,52.353416442871094,51.0,0.0,-20.0
32,100,50,60,go_to_pick_up_from_red,red,true,false,joint 1 -,false,2024-03-04 13:02:53.387266,16.348,0.158,235.0,285.1900329589844,125.58015441894531,84.958251953125,3.7657394409179688,23.496349334716797,51.0,0.0,-20.0
32,100,50,60,moving_belt,red,false,true,joint 1 -,false,2024-03-04 13:02:54.763878,16.405,0.156,235.0,292.8220520019531,106.5785140991211,84.958251953125,0.0,20.0,51.0,0.0,-20.0
32,100,50,60,moving_belt,red,false,true,joint 1 -,false,2024-03-04 13:02:55.522880,16.405,0.156,235.0,292.8220520019531,106.5785140991211,84.958251953125,0.0,20.0,51.0,0.0,-20.0
32,100,50,60,moving_belt,red,false,true,joint 1 -,false,2024-03-04 13:02:56.909277,16.5,0.157,235.0,292.8220520019531,106.5785140991211,84.958251953125,0.0,20.0,51.0,0.0,-20.0
32,100,50,60,moving_belt,red,false,true,joint 1 -,false,2024-03-04 13:02:57.601963,16.5,0.157,235.0,292.8220520019531,106.5785140991211,84.958251953125,0.0,20.0,51.0,0.0,-20.0
32,100,50,60,go_to_pick_down,red,true,false,joint 3 +,false,2024-03-04 13:02:58.988942,16.386,0.155,235.0,292.8220520019531,106.5785140991211,84.958251953125,0.0,20.0,51.0,0.0,-20.0
32,100,50,60,go_to_pick_down,red,true,false,joint 3 +,false,2024-03-04 13:02:59.675717,16.519,0.155,235.0,289.9342956542969,105.52745819091797,55.05766296386719,0.0,20.0,51.0,12.184248924255371,-20.0
32,100,50,60,go_to_pick_up_from_pick_down,red,true,false,joint 3 -,true,2024-03-04 13:03:00.361305,16.519,0.154,235.0,282.76361083984375,102.91754913330078,29.89107894897461,0.0,20.0,51.0,22.0,-20.0
32,100,50,60,go_to_pick_up_from_pick_down,red,true,false,joint 3 -,true,2024-03-04 13:03:01.797221,22.994,0.154,236.8,290.19598388671875,105.62271118164062,56.430973052978516,0.0,20.0,51.0,10.721916198730469,-20.0
32,100,50,60,go_to_color_detect_up_from_pick_up,red,true,false,joint 1 +,true,2024-03-04 13:03:02.485786,22.994,0.204,236.8,292.7102966308594,106.88510131835938,84.958251953125,0.060001373291015625,20.10000228881836,51.0,0.0,-20.0
32,100,50,60,go_to_color_detect_up_from_pick_up,red,true,false,joint 1 +,true,2024-03-04 13:03:03.880876,21.969,0.204,235.0,259.0074768066406,173.25949096679688,84.958251953125,13.779998779296875,34.30999755859375,51.0,0.0,-20.0
32,100,50,60,go_to_color_detect_up_from_pick_up,red,true,false,joint 1 +,true,2024-03-04 13:03:04.572141,22.272,0.202,235.0,158.93296813964844,268.0373840332031,84.958251953125,39.334144592285156,59.66578674316406,51.0,0.0,-20.0
32,100,50,60,go_to_color_detect_down,red,true,false,joint 3 +,true,2024-03-04 13:03:05.553164,22.272,0.202,235.0,131.6912078857422,282.4126892089844,83.54717254638672,45.0,65.0,51.0,0.6599998474121094,-20.0
32,100,50,60,go_to_color_detect_down,red,true,false,joint 3 +,true,2024-03-04 13:03:06.949944,21.95,0.199,235.0,127.64513397216797,273.7358703613281,32.75753402709961,45.0,65.0,51.0,21.449996948242188,-20.0
32,100,50,60,go_to_color_detect_down,red,true,false,joint 3 +,true,2024-03-04 13:03:07.640991,22.045,0.199,235.0,113.8017807006836,244.0487060546875,-18.262901306152344,45.0,65.0,51.0,44.85818862915039,-20.0
32,100,50,60,go_to_color_detect_up_from_color_detect_down,red,true,false,joint 3 -,false,2024-03-04 13:03:09.020646,22.007,0.199,235.0,112.64669036865234,241.57159423828125,-20.96276092529297,45.0,65.0,51.0,45.900001525878906,-20.0
32,100,50,60,go_to_color_detect_up_from_color_detect_down,red,true,false,joint 3 -,false,2024-03-04 13:03:09.710160,18.38,0.199,235.0,127.50245666503906,273.42987060546875,31.877330780029297,45.0,65.0,51.0,20.521799087524414,-20.0
32,100,50,60,go_to_color_detect_up_from_color_detect_down,red,true,false,joint 3 -,false,2024-03-04 13:03:10.402192,16.804,0.199,235.0,131.67401123046875,282.37579345703125,81.22132873535156,45.0,65.0,51.0,1.2910453081130981,-20.0
32,100,50,60,detecting_color,red,false,false,detecting_color,false,2024-03-04 13:03:11.781356,16.367,0.158,235.0,131.69407653808594,282.4188232421875,84.958251953125,45.0,65.0,51.0,0.0,-20.0
32,100,50,60,detecting_color,red,false,false,detecting_color,false,2024-03-04 13:03:12.470404,16.367,0.158,235.0,131.69407653808594,282.4188232421875,84.958251953125,45.0,65.0,51.0,0.0,-20.0
32,100,50,60,go_to_color_detect_down,red,true,false,joint 3 +,false,2024-03-04 13:03:13.715240,16.31,0.155,235.0,131.69407653808594,282.4188232421875,84.958251953125,45.0,65.0,51.0,0.0,-20.0
32,100,50,60,go_to_color_detect_down,red,true,false,joint 3 +,false,2024-03-04 13:03:14.405502,16.367,0.155,236.8,130.49400329589844,279.84527587890625,56.204490661621094,45.0,65.0,51.0,11.759998321533203,-20.0
32,100,50,60,go_to_color_detect_down,red,true,false,joint 3 +,false,2024-03-04 13:03:15.785755,16.196,0.154,236.8,117.74520874023438,252.50540161132812,-7.855171203613281,45.0,65.0,51.0,39.567935943603516,-20.0
32,100,50,60,go_to_color_detect_up_from_color_detect_down,red,true,false,joint 3 -,true,2024-03-04 13:03:16.541645,16.196,0.154,235.0,111.18716430664062,238.44163513183594,-24.180984497070312,45.0,65.0,51.0,47.900001525878906,-20.0
32,100,50,60,go_to_color_detect_up_from_color_detect_down,red,true,false,joint 3 -,true,2024-03-04 13:03:17.990353,22.994,0.199,235.0,122.8819351196289,263.5211486816406,9.489700317382812,45.0,65.0,51.0,30.30000114440918,-20.0
32,100,50,60,go_to_color_detect_up_from_color_detect_down,red,true,false,joint 3 -,true,2024-03-04 13:03:18.678661,22.709,0.199,235.0,131.4441375732422,281.8828430175781,71.7852554321289,45.0,65.0,51.0,4.825656414031982,-20.0
32,100,50,60,go_to_green_up,green,true,false,joint 1 +,true,2024-03-04 13:03:19.369126,22.709,0.199,235.0,127.192138671875,284.4747619628906,84.958251953125,45.909996032714844,66.04999542236328,51.0,0.0,-20.0
32,100,50,60,go_to_green_up,green,true,false,joint 1 +,true,2024-03-04 13:03:20.749294,22.102,0.202,235.0,13.051016807556152,311.3412780761719,84.958251953125,67.59963989257812,88.1845474243164,51.0,0.0,-20.0
32,100,50,60,go_to_green_up,green,true,false,joint 1 +,true,2024-03-04 13:03:21.786439,22.367,0.202,235.0,-77.47107696533203,301.8310241699219,84.958251953125,84.39537811279297,104.50028991699219,51.0,0.0,-20.0
32,100,50,60,go_to_pick_up_from_green,green,true,false,joint 1 -,false,2024-03-04 13:03:22.486167,22.14,0.2,235.0,-50.841094970703125,307.4393005371094,84.958251953125,79.38999938964844,99.05000305175781,51.0,0.0,-20.0
32,100,50,60,go_to_pick_up_from_green,green,true,false,joint 1 -,false,2024-03-04 13:03:23.951918,16.348,0.155,235.0,123.1578598022461,286.24444580078125,84.958251953125,46.720001220703125,65.84000396728516,51.0,0.0,-20.0
32,100,50,60,go_to_pick_up_from_green,green,true,false,joint 1 -,false,2024-03-04 13:03:24.643261,16.443,0.155,235.0,264.4027404785156,164.90882873535156,84.958251953125,11.951923370361328,31.468013763427734,51.0,0.0,-20.0
32,100,50,60,moving_belt,green,false,true,joint 1 -,false,2024-03-04 13:03:26.028073,16.272,0.155,235.0,292.8140563964844,106.6004638671875,84.958251953125,0.00429534912109375,20.00038719177246,51.0,0.0,-20.0
32,100,50,60,moving_belt,green,false,true,joint 1 -,false,2024-03-04 13:03:26.721752,16.272,0.154,235.0,292.8220520019531,106.5785140991211,84.958251953125,0.0,20.0,51.0,0.0,-20.0
32,100,50,60,moving_belt,green,false,true,joint 1 -,false,2024-03-04 13:03:27.512717,16.31,0.154,235.0,292.8220520019531,106.5785140991211,84.958251953125,0.0,20.0,51.0,0.0,-20.0
32,100,50,60,moving_belt,green,false,true,joint 1 -,false,2024-03-04 13:03:28.299096,16.405,0.154,235.0,292.8220520019531,106.5785140991211,84.958251953125,0.0,20.0,51.0,0.0,-20.0
32,100,50,60,moving_belt,green,false,true,joint 1 -,false,2024-03-04 13:03:29.837035,16.215,0.156,235.0,292.8220520019531,106.5785140991211,84.958251953125,0.0,20.0,51.0,0.0,-20.0
32,100,50,60,go_to_pick_down,green,true,false,joint 3 +,false,2024-03-04 13:03:30.758547,16.215,0.155,235.0,292.56292724609375,106.48419952392578,75.95851135253906,0.0,20.0,51.0,3.7799999713897705,-20.0
32,100,50,60,go_to_pick_down,green,true,false,joint 3 +,false,2024-03-04 13:03:31.457384,16.348,0.155,235.0,284.221923828125,103.44831848144531,33.89997100830078,0.0,20.0,51.0,20.50249481201172,-20.0
32,100,50,60,go_to_pick_up_from_pick_down,green,true,false,joint 3 -,true,2024-03-04 13:03:32.843469,16.234,0.161,235.0,285.6913757324219,103.98316955566406,38.33879852294922,0.0,20.0,51.0,18.219999313354492,-20.0
32,100,50,60,go_to_pick_up_from_pick_down,green,true,false,joint 3 -,true,2024-03-04 13:03:33.534210,22.083,0.161,236.8,292.8055725097656,106.572509765625,82.68730926513672,0.0,20.0,51.0,0.7570897340774536,-20.0
32,100,50,60,go_to_color_detect_up_from_pick_up,green,true,false,joint 1 +,true,2024-03-04 13:03:34.935179,21.931,0.199,236.8,281.7718811035156,133.07264709472656,84.958251953125,5.280000686645508,25.610000610351562,51.0,0.0,-20.0
32,100,50,60,go_to_color_detect_up_from_pick_up,green,true,false,joint 1 +,true,2024-03-04 13:03:35.643997,21.931,0.199,236.8,186.84075927734375,249.38778686523438,84.958251953125,33.1595344543457,53.64117431640625,51.0,0.0,-20.0
32,100,50,60,go_to_color_detect_up_from_pick_up,green,true,false,joint 1 +,true,2024-03-04 13:03:36.484696,22.026,0.199,236.8,131.70245361328125,282.4149475097656,84.958251953125,44.99829864501953,64.99993896484375,51.0,0.0,-20.0
32,100,50,60,go_to_color_detect_down,green,true,false,joint 3 +,true,2024-03-04 13:03:38.045021,21.836,0.198,235.0,130.76898193359375,280.43499755859375,59.68467712402344,45.0,65.0,51.0,10.349998474121094,-20.0
32,100,50,60,go_to_color_detect_down,green,true,false,joint 3 +,true,2024-03-04 13:03:38.773584,21.722,0.198,235.0,118.62730407714844,254.39706420898438,-5.2310333251953125,45.0,65.0,51.0,38.291011810302734,-20.0
32,100,50,60,go_to_color_detect_up_from_color_detect_down,green,true,false,joint 3 -,false,2024-03-04 13:03:39.463406,21.722,0.198,235.0,111.2193603515625,238.51068115234375,-24.112205505371094,45.0,65.0,51.0,47.85000228881836,-20.0
