demetriskallis/dobot_magician_pick_and_place_and_color_sorting/Sampling/WholeSystemExperiments_training_data/payload_32g/joint_measurements__armv_80_arma_100_belts_60_cube_32g.csv
cube/weight,arm/velocity_ratio,arm/acceleration_ratio,belt/speed,dobot/operation,dobot/color,dobot/moving_arm,dobot/moving_belt,dobot/operation2,dobot/suction,meross/sample_timestamp,meross/power,meross/current,meross/voltage,dobot/pose_x,dobot/pose_y,dobot/pose_z,dobot/pose_rHead,dobot/pose_joint1Angle,dobot/pose_joint2Angle,dobot/pose_joint3Angle,dobot/pose_joint4Angle
32,80,100,60,homing,,,,homing,,,,,,197.34014892578125,54.3893928527832,105.912841796875,-4.591133117675781,15.008867263793945,0.38370180130004883,11.411334991455078,-20.0
32,80,100,60,homing,,,,homing,,,,,,204.25022888183594,-13.534517288208008,105.912841796875,-23.791128158569336,-4.191127777099609,0.38370180130004883,11.411334991455078,-20.0
32,80,100,60,homing,,,,homing,,,,,,188.43804931640625,-79.95272064208984,105.912841796875,-42.99111557006836,-23.391115188598633,0.38370180130004883,11.411334991455078,-20.0
32,80,100,60,homing,,,,homing,,,,,,145.77259826660156,-143.7069549560547,105.912841796875,-64.59115600585938,-44.99115753173828,0.38370180130004883,11.411334991455078,-20.0
32,80,100,60,homing,,,,homing,,,,,,90.403564453125,-183.65330505371094,105.912841796875,-83.79122924804688,-64.19123077392578,0.38370180130004883,11.411334991455078,-20.0
32,80,100,60,homing,,,,homing,,,,,,24.977258682250977,-203.16859436035156,105.912841796875,-102.99130249023438,-83.39130401611328,0.38370180130004883,11.411334991455078,-20.0
32,80,100,60,homing,,,,homing,,,,,,-51.568363189697266,-198.09605407714844,105.912841796875,-124.59138488769531,-104.99138641357422,0.38370180130004883,11.411334991455078,-20.0
32,80,100,60,homing,,,,homing,,,,,,-113.84732818603516,-170.1179656982422,105.912841796875,-143.7914581298828,-124.19145965576172,0.38370180130004883,11.411334991455078,-20.0
32,80,100,60,homing,,,,homing,,,,,,-147.9191436767578,-141.4965362548828,105.912841796875,-156.27127075195312,-136.2512664794922,0.38370180130004883,11.411334991455078,-20.0
32,80,100,60,homing,,,,homing,,2024-03-03 17:39:55.786700,16.424,0.159,235.0,-145.5271453857422,-143.9555206298828,105.912841796875,-155.31106567382812,-135.2910614013672,0.38370180130004883,11.411334991455078,-20.0
32,80,100,60,homing,,,,homing,,2024-03-03 17:39:57.179559,16.443,0.159,235.0,-105.86061096191406,-180.77520751953125,100.30043029785156,-139.05787658691406,-119.75291442871094,3.0343496799468994,13.67144775390625,-18.652103424072266
32,80,100,60,homing,,,,homing,,2024-03-03 17:39:57.868759,16.633,0.159,235.0,-3.69822096824646,-222.3240509033203,82.4508285522461,-105.82463836669922,-90.35298919677734,10.674452781677246,20.18589210510254,-14.766992568969727
32,80,100,60,homing,,,,homing,,2024-03-03 17:39:58.643077,16.785,0.163,235.0,111.33562469482422,-210.74810791015625,50.553863525390625,-70.89332580566406,-61.553062438964844,22.792335510253906,30.518390655517578,-8.60485553741455
32,80,100,60,homing,,,,homing,,2024-03-03 17:39:59.335769,16.785,0.163,235.0,214.99249267578125,-122.89395904541016,17.490936279296875,-32.694000244140625,-29.153135299682617,34.084651947021484,40.146942138671875,-2.8625423908233643
32,80,100,60,homing,,,,homing,,2024-03-03 17:40:00.932066,16.804,0.162,235.0,249.1064453125,-18.47154998779297,2.2424545288085938,-4.614595413208008,-3.9277334213256836,39.03300094604492,44.36623001098633,-0.34622451663017273
32,80,100,60,homing,,,,homing,,2024-03-03 17:40:01.620948,16.804,0.162,235.0,250.28884887695312,0.0001798676821636036,-0.17815399169921875,4.117506250622682e-05,4.117506250622682e-05,39.78950881958008,44.93668746948242,0.0
32,80,100,60,homing,,,,homing,,2024-03-03 17:40:02.442434,16.557,0.162,235.0,249.99998474121094,0.00017966009909287095,-7.62939453125e-06,4.117506250622682e-05,4.117506250622682e-05,39.71385955810547,44.94676971435547,0.0
32,80,100,60,homing,,,,homing,,2024-03-03 17:40:04.192761,16.386,0.157,235.0,249.99998474121094,0.00017966009909287095,-7.62939453125e-06,4.117506250622682e-05,4.117506250622682e-05,39.71385955810547,44.94676971435547,0.0
32,80,100,60,homing,,,,homing,,2024-03-03 17:40:05.013018,16.576,0.157,235.0,249.99998474121094,0.00017966009909287095,-7.62939453125e-06,4.117506250622682e-05,4.117506250622682e-05,39.71385955810547,44.94676971435547,0.0
32,80,100,60,homing,,,,homing,,2024-03-03 17:40:05.850755,16.367,0.159,235.0,249.99998474121094,0.00017966009909287095,-7.62939453125e-06,4.117506250622682e-05,4.117506250622682e-05,39.71385955810547,44.94676971435547,0.0
32,80,100,60,homing,,,,homing,,2024-03-03 17:40:06.541551,16.367,0.159,235.0,249.99998474121094,0.00017966009909287095,-7.62939453125e-06,4.117506250622682e-05,4.117506250622682e-05,39.71385955810547,44.94676971435547,0.0
32,80,100,60,homing,,,,homing,,2024-03-03 17:40:08.169314,16.519,0.158,235.0,250.00840759277344,0.00017966615268960595,0.00107574462890625,4.117506250622682e-05,4.117506250622682e-05,39.71385955810547,44.94676971435547,0.0
32,80,100,60,homing,,,,homing,,2024-03-03 17:40:08.862235,16.367,0.158,235.0,249.99998474121094,0.00017966009909287095,-7.62939453125e-06,4.117506250622682e-05,4.117506250622682e-05,39.71385955810547,44.94676971435547,0.0
32,80,100,60,homing,,,,homing,,2024-03-03 17:40:09.553354,16.348,0.158,235.0,249.99998474121094,0.00017966009909287095,-7.62939453125e-06,4.117506250622682e-05,4.117506250622682e-05,39.71385955810547,44.94676971435547,0.0
32,80,100,60,homing,,,,homing,,2024-03-03 17:40:10.933970,16.557,0.157,235.0,250.0391387939453,0.00017968822794500738,0.01287078857421875,4.117506250622682e-05,4.117506250622682e-05,39.714210510253906,44.9461669921875,0.0
32,80,100,60,homing,,,,homing,,2024-03-03 17:40:11.625585,16.557,0.157,235.0,249.99998474121094,0.00017966009909287095,-7.62939453125e-06,4.117506250622682e-05,4.117506250622682e-05,39.71385955810547,44.94676971435547,0.0
32,80,100,60,homing,,,,homing,,2024-03-03 17:40:13.007820,16.481,0.16,235.0,260.199462890625,41.75442886352539,26.332687377929688,4.100799560546875e-05,9.607138633728027,37.071598052978516,32.91322708129883,-9.607097625732422
32,80,100,60,go_to_pick_up_from_homing,nothing,,,go_to_pick_up_from_homing,,2024-03-03 17:40:13.698320,16.899,0.16,235.0,276.8273010253906,103.4430160522461,66.67256164550781,4.00543212890625e-05,20.47686004638672,43.34144592285156,12.187082290649414,-20.476821899414062
32,80,100,60,moving_belt,nothing,false,true,go_to_pick_up_from_homing,,2024-03-03 17:40:14.428461,16.899,0.165,235.0,292.8220520019531,106.5785140991211,84.958251953125,0.0,20.0,51.0,0.0,-20.0
32,80,100,60,moving_belt,nothing,false,true,go_to_pick_up_from_homing,,2024-03-03 17:40:15.656435,16.975,0.165,235.0,292.8220520019531,106.5785140991211,84.958251953125,0.0,20.0,51.0,0.0,-20.0
32,80,100,60,moving_belt,nothing,false,true,go_to_pick_up_from_homing,,2024-03-03 17:40:16.354647,16.975,0.16,235.0,292.8220520019531,106.5785140991211,84.958251953125,0.0,20.0,51.0,0.0,-20.0
32,80,100,60,moving_belt,nothing,false,true,go_to_pick_up_from_homing,,2024-03-03 17:40:17.719081,16.519,0.16,235.0,292.8220520019531,106.5785140991211,84.958251953125,0.0,20.0,51.0,0.0,-20.0
32,80,100,60,moving_belt,nothing,false,true,go_to_pick_up_from_homing,,2024-03-03 17:40:17.719081,16.519,0.16,235.0,292.8220520019531,106.5785140991211,84.958251953125,0.0,20.0,51.0,0.0,-20.0
32,80,100,60,go_to_pick_up_from_pick_down,nothing,true,false,joint 3 -,true,2024-03-03 17:40:19.914441,16.728,0.158,235.0,282.77099609375,102.92022705078125,29.9105224609375,0.0,20.0,51.0,22.0,-20.0
32,80,100,60,go_to_color_detect_up_from_pick_up,nothing,true,false,joint 1 +,true,2024-03-03 17:40:20.730522,16.538,0.177,235.0,292.822021484375,106.57849884033203,84.84449768066406,0.0,20.0,51.0,0.00817110762000084,-20.0
32,80,100,60,go_to_color_detect_up_from_pick_up,nothing,true,false,joint 1 +,true,2024-03-03 17:40:21.480698,23.412,0.177,235.0,179.90798950195312,254.43434143066406,84.958251953125,34.73624801635742,55.62249755859375,51.0,0.0,-20.0
32,80,100,60,go_to_color_detect_down,nothing,true,false,joint 3 +,true,2024-03-03 17:40:22.951388,22.747,0.21,235.0,129.2152099609375,277.1029052734375,43.84801483154297,45.0,65.0,51.0,17.399999618530273,-20.0
32,80,100,60,go_to_color_detect_up_from_color_detect_down,nothing,true,false,joint 3 -,false,2024-03-03 17:40:23.721374,22.462,0.21,235.0,111.33187866210938,238.75196838378906,-23.871063232421875,45.0,65.0,51.0,47.599998474121094,-20.0
32,80,100,60,go_to_color_detect_up_from_color_detect_down,nothing,true,false,joint 3 -,false,2024-03-03 17:40:25.194205,17.013,0.162,235.0,131.29718017578125,281.5677185058594,68.3683853149414,45.0,65.0,51.0,5.779991149902344,-20.0
32,80,100,60,detecting_color,nothing,false,false,detecting_color,false,2024-03-03 17:40:25.906440,17.013,0.162,235.0,131.69407653808594,282.4188232421875,84.958251953125,45.0,65.0,51.0,0.0,-20.0
32,80,100,60,go_to_color_detect_down,nothing,true,false,joint 3 +,false,2024-03-03 17:40:26.610069,16.424,0.162,235.0,131.66342163085938,282.35308837890625,80.34086608886719,45.0,65.0,51.0,2.200000047683716,-20.0
32,80,100,60,go_to_color_detect_down,nothing,true,false,joint 3 +,false,2024-03-03 17:40:28.109189,16.405,0.158,235.0,113.40601348876953,243.19998168945312,-19.20391845703125,45.0,65.0,51.0,45.58000183105469,-20.0
32,80,100,60,go_to_color_detect_up_from_color_detect_down,nothing,true,false,joint 3 -,true,2024-03-03 17:40:28.801114,18.171,0.158,235.0,128.65347290039062,275.89825439453125,39.53277587890625,45.0,65.0,51.0,16.819992065429688,-20.0
32,80,100,60,go_to_red_up,red,true,false,joint 1 +,true,2024-03-03 17:40:30.191652,23.772,0.218,235.0,107.59998321533203,292.4482421875,84.958251953125,49.80000305175781,70.44000244140625,51.0,0.0,-20.0
32,80,100,60,go_to_red_up,red,true,false,joint 1 +,true,2024-03-03 17:40:30.888960,22.443,0.218,235.0,-157.10076904296875,269.1153564453125,84.958251953125,100.27498626708984,120.86998748779297,51.0,0.0,-20.0
32,80,100,60,go_to_pick_up_from_red,red,true,false,joint 1 -,false,2024-03-03 17:40:31.585620,22.956,0.211,235.0,-47.457637786865234,307.9797058105469,84.958251953125,78.76000213623047,97.4800033569336,51.0,0.0,-20.0
32,80,100,60,go_to_pick_up_from_red,red,true,false,joint 1 -,false,2024-03-03 17:40:32.977950,16.443,0.211,235.0,247.42713928222656,189.42950439453125,84.958251953125,17.43756103515625,36.276309967041016,51.0,0.0,-20.0
32,80,100,60,moving_belt,red,false,true,joint 1 -,false,2024-03-03 17:40:33.670543,16.443,0.158,235.0,292.8220520019531,106.5785140991211,84.958251953125,0.0,20.0,51.0,0.0,-20.0
32,80,100,60,moving_belt,red,false,true,joint 1 -,false,2024-03-03 17:40:35.085403,16.557,0.158,235.0,292.8220520019531,106.5785140991211,84.958251953125,0.0,20.0,51.0,0.0,-20.0
32,80,100,60,moving_belt,red,false,true,joint 1 -,false,2024-03-03 17:40:35.852654,16.557,0.158,235.0,292.8220520019531,106.5785140991211,84.958251953125,0.0,20.0,51.0,0.0,-20.0
32,80,100,60,moving_belt,red,false,true,joint 1 -,false,2024-03-03 17:40:36.544331,16.557,0.157,235.0,292.8220520019531,106.5785140991211,84.958251953125,0.0,20.0,51.0,0.0,-20.0
32,80,100,60,moving_belt,red,false,true,joint 1 -,false,2024-03-03 17:40:37.926317,16.519,0.157,235.0,292.8220520019531,106.5785140991211,84.958251953125,0.0,20.0,51.0,0.0,-20.0
32,80,100,60,go_to_pick_down,red,true,false,joint 3 +,true,2024-03-03 17:40:38.630550,16.443,0.159,235.0,282.8721618652344,102.9570541381836,30.177860260009766,0.0,20.0,51.0,21.955659866333008,-20.0
32,80,100,60,go_to_color_detect_up_from_pick_up,red,true,false,joint 1 +,true,2024-03-03 17:40:40.054009,20.222,0.159,235.0,292.82086181640625,106.57808685302734,84.35104370117188,0.0,20.0,51.0,0.12050371617078781,-20.0
32,80,100,60,go_to_color_detect_up_from_pick_up,red,true,false,joint 1 +,true,2024-03-03 17:40:40.759658,22.766,0.217,235.0,164.94032287597656,264.3830871582031,84.958251953125,38.0412483215332,58.76749801635742,51.0,0.0,-20.0
32,80,100,60,go_to_color_detect_down,red,true,false,joint 3 +,true,2024-03-03 17:40:41.581026,22.766,0.217,235.0,130.10182189941406,279.0042419433594,51.890445709228516,45.0,65.0,51.0,14.039999961853027,-20.0
32,80,100,60,go_to_color_detect_up_from_color_detect_down,red,true,false,joint 3 -,false,2024-03-03 17:40:42.979370,22.329,0.206,235.0,111.13883972167969,238.33799743652344,-24.284042358398438,45.0,65.0,51.0,47.959999084472656,-20.0
32,80,100,60,go_to_color_detect_up_from_color_detect_down,red,true,false,joint 3 -,false,2024-03-03 17:40:43.679569,22.064,0.206,235.0,131.50257873535156,282.0081481933594,73.42478942871094,45.0,65.0,51.0,3.9199905395507812,-20.0
32,80,100,60,detecting_color,red,false,false,detecting_color,false,2024-03-03 17:40:44.592136,17.43,0.165,235.0,131.69407653808594,282.4188232421875,84.958251953125,45.0,65.0,51.0,0.0,-20.0
32,80,100,60,detecting_color,red,false,false,detecting_color,false,2024-03-03 17:40:45.284820,17.43,0.165,235.0,131.69407653808594,282.4188232421875,84.958251953125,45.0,65.0,51.0,0.0,-20.0
32,80,100,60,detecting_color,red,false,false,detecting_color,false,2024-03-03 17:40:47.000072,16.5,0.159,235.0,131.69407653808594,282.4188232421875,84.958251953125,45.0,65.0,51.0,0.0,-20.0
32,80,100,60,detecting_color,red,false,false,detecting_color,false,2024-03-03 17:40:47.000072,16.5,0.159,235.0,131.69407653808594,282.4188232421875,84.958251953125,45.0,65.0,51.0,0.0,-20.0
32,80,100,60,go_to_color_detect_down,red,true,false,joint 3 +,false,2024-03-03 17:40:48.493078,16.481,0.159,235.0,128.44918823242188,275.4601745605469,38.07122802734375,45.0,65.0,51.0,19.84000015258789,-20.0
32,80,100,60,go_to_color_detect_up_from_color_detect_down,red,true,false,joint 3 -,true,2024-03-03 17:40:49.571665,16.481,0.158,235.0,111.62002563476562,239.36990356445312,-23.248023986816406,45.0,65.0,51.0,47.159996032714844,-20.0
32,80,100,60,go_to_color_detect_up_from_color_detect_down,red,true,false,joint 3 -,true,2024-03-03 17:40:51.013655,20.962,0.158,235.0,131.65623474121094,282.3376770019531,79.82804870605469,45.0,65.0,51.0,1.619990348815918,-20.0
32,80,100,60,go_to_green_up,green,true,false,joint 1 +,true,2024-03-03 17:40:51.706544,23.469,0.218,235.0,8.323090553283691,311.5035400390625,84.958251953125,68.46947479248047,89.59929656982422,51.0,0.0,-20.0
32,80,100,60,go_to_pick_up_from_green,green,true,false,joint 1 -,false,2024-03-03 17:40:53.099074,22.576,0.218,235.0,-55.182220458984375,306.6898498535156,84.958251953125,80.19999694824219,99.55999755859375,51.0,0.0,-20.0
32,80,100,60,go_to_pick_up_from_green,green,true,false,joint 1 -,false,2024-03-03 17:40:53.794230,20.545,0.2,235.0,249.80838012695312,186.2779998779297,84.958251953125,16.711288452148438,35.57503890991211,51.0,0.0,-20.0
32,80,100,60,moving_belt,green,false,true,joint 1 -,false,2024-03-03 17:40:54.757564,16.633,0.2,235.0,292.8220520019531,106.5785140991211,84.958251953125,0.0,20.0,51.0,0.0,-20.0
32,80,100,60,moving_belt,green,false,true,joint 1 -,false,2024-03-03 17:40:56.136974,16.614,0.159,235.0,292.8220520019531,106.5785140991211,84.958251953125,0.0,20.0,51.0,0.0,-20.0
32,80,100,60,moving_belt,green,false,true,joint 1 -,false,2024-03-03 17:40:56.827231,16.614,0.159,235.0,292.8220520019531,106.5785140991211,84.958251953125,0.0,20.0,51.0,0.0,-20.0
32,80,100,60,moving_belt,green,false,true,joint 1 -,false,2024-03-03 17:40:58.209449,16.215,0.159,235.0,292.8220520019531,106.5785140991211,84.958251953125,0.0,20.0,51.0,0.0,-20.0
32,80,100,60,moving_belt,green,false,true,joint 1 -,false,2024-03-03 17:40:58.900147,16.215,0.159,235.0,292.8220520019531,106.5785140991211,84.958251953125,0.0,20.0,51.0,0.0,-20.0
32,80,100,60,go_to_pick_down,green,true,false,joint 3 +,false,2024-03-03 17:40:59.595406,16.652,0.159,235.0,282.8036193847656,102.9321060180664,29.996570587158203,0.0,20.0,51.0,21.9918270111084,-20.0
32,80,100,60,go_to_pick_up_from_pick_down,green,true,false,joint 3 -,true,2024-03-03 17:41:01.017237,17.222,0.159,235.0,292.82086181640625,106.57808685302734,84.35104370117188,0.0,20.0,51.0,0.12050371617078781,-20.0
32,80,100,60,go_to_color_detect_up_from_pick_up,green,true,false,joint 1 +,true,2024-03-03 17:41:01.713604,23.412,0.159,235.0,188.21241760253906,248.35423278808594,84.958251953125,32.843746185302734,53.80999755859375,51.0,0.0,-20.0
32,80,100,60,go_to_color_detect_down,green,true,false,joint 3 +,true,2024-03-03 17:41:03.095056,22.747,0.21,235.0,129.83819580078125,278.4388732910156,49.296165466308594,45.0,65.0,51.0,15.119999885559082,-20.0
32,80,100,60,go_to_color_detect_up_from_color_detect_down,green,true,false,joint 3 -,false,2024-03-03 17:41:03.791396,22.348,0.21,235.0,111.23545837402344,238.54519653320312,-24.077789306640625,45.0,65.0,51.0,47.7599983215332,-20.0
32,80,100,60,go_to_color_detect_up_from_color_detect_down,green,true,false,joint 3 -,false,2024-03-03 17:41:05.201434,22.443,0.208,235.0,131.58599853515625,282.18707275390625,76.29145812988281,45.0,65.0,51.0,2.879990577697754,-20.0
32,80,100,60,detecting_color,green,false,false,detecting_color,false,2024-03-03 17:41:05.895115,17.298,0.208,235.0,131.69407653808594,282.4188232421875,84.958251953125,45.0,65.0,51.0,0.0,-20.0
32,80,100,60,go_to_color_detect_down,green,true,false,joint 3 +,false,2024-03-03 17:41:06.588872,16.595,0.16,235.0,131.66342163085938,282.35308837890625,80.34086608886719,45.0,65.0,51.0,2.200000047683716,-20.0
32,80,100,60,go_to_color_detect_down,green,true,false,joint 3 +,false,2024-03-03 17:41:07.995386,16.443,0.16,235.0,113.40601348876953,243.19998168945312,-19.20391845703125,45.0,65.0,51.0,45.58000183105469,-20.0
32,80,100,60,go_to_color_detect_up_from_color_detect_down,green,true,false,joint 3 -,true,2024-03-03 17:41:08.684363,16.443,0.16,235.0,124.98181915283203,268.02435302734375,18.496116638183594,45.0,65.0,51.0,25.599994659423828,-20.0
32,80,100,60,go_to_blue_up,blue,true,false,joint 1 +,true,2024-03-03 17:41:10.213240,23.621,0.16,235.0,110.65652465820312,291.3054504394531,84.958251953125,49.20000457763672,69.80000305175781,51.0,0.0,-20.0
32,80,100,60,go_to_pick_up_from_blue,blue,true,false,joint 1 -,false,2024-03-03 17:41:11.033506,22.671,0.209,235.0,53.03978729248047,307.067626953125,84.958251953125,60.19999694824219,79.55999755859375,51.0,0.0,-20.0
32,80,100,60,go_to_pick_up_from_blue,blue,true,false,joint 1 -,false,2024-03-03 17:41:11.853872,17.62,0.209,235.0,276.57177734375,143.56805419921875,84.958251953125,7.433767318725586,26.682518005371094,51.0,0.0,-20.0
32,80,100,60,moving_belt,blue,false,true,joint 1 -,false,2024-03-03 17:41:12.672701,17.62,0.209,235.0,292.8220520019531,106.5785140991211,84.958251953125,0.0,20.0,51.0,0.0,-20.0
32,80,100,60,moving_belt,blue,false,true,joint 1 -,false,2024-03-03 17:41:14.002800,16.538,0.159,235.0,292.8220520019531,106.5785140991211,84.958251953125,0.0,20.0,51.0,0.0,-20.0
32,80,100,60,moving_belt,blue,false,true,joint 1 -,false,2024-03-03 17:41:14.700043,16.538,0.159,235.0,292.8220520019531,106.5785140991211,84.958251953125,0.0,20.0,51.0,0.0,-20.0
32,80,100,60,moving_belt,blue,false,true,joint 1 -,false,2024-03-03 17:41:16.082477,16.5,0.158,235.0,292.8220520019531,106.5785140991211,84.958251953125,0.0,20.0,51.0,0.0,-20.0
32,80,100,60,go_to_pick_down,blue,true,false,joint 3 +,false,2024-03-03 17:41:16.771173,16.405,0.158,235.0,292.795654296875,106.56890869140625,82.08492279052734,0.0,20.0,51.0,1.440000057220459,-20.0
32,80,100,60,go_to_pick_up_from_pick_down,blue,true,false,joint 3 -,true,2024-03-03 17:41:18.156996,16.576,0.159,235.0,283.2984619140625,103.1122055053711,31.321365356445312,0.0,20.0,51.0,21.159997940063477,-20.0
32,80,100,60,go_to_color_detect_up_from_pick_up,blue,true,false,joint 1 +,true,2024-03-03 17:41:18.852383,23.64,0.159,235.0,289.329833984375,115.72370147705078,84.958251953125,1.8000030517578125,22.200002670288086,51.0,0.0,-20.0
32,80,100,60,go_to_color_detect_up_from_pick_up,blue,true,false,joint 1 +,true,2024-03-03 17:41:19.571976,23.64,0.213,235.0,140.8034210205078,277.98944091796875,84.958251953125,43.13749694824219,63.503746032714844,51.0,0.0,-20.0
32,80,100,60,go_to_color_detect_down,blue,true,false,joint 3 +,true,2024-03-03 17:41:20.970489,22.728,0.213,235.0,126.46333312988281,271.20147705078125,25.91891098022461,45.0,65.0,51.0,24.960002899169922,-20.0
32,80,100,60,go_to_color_detect_up_from_color_detect_down,blue,true,false,joint 3 -,false,2024-03-03 17:41:21.662818,22.405,0.208,235.0,114.85627746582031,246.31007385253906,-15.670166015625,45.0,65.0,51.0,42.55999755859375,-20.0
32,80,100,60,go_to_color_detect_up_from_color_detect_down,blue,true,false,joint 3 -,false,2024-03-03 17:41:23.047624,20.184,0.208,235.0,131.68917846679688,282.4083251953125,83.11106872558594,45.0,65.0,51.0,0.49999040365219116,-20.0
32,80,100,60,detecting_color,blue,false,false,detecting_color,false,2024-03-03 17:41:23.740902,17.411,0.166,235.0,131.69407653808594,282.4188232421875,84.958251953125,45.0,65.0,51.0,0.0,-20.0
32,80,100,60,go_to_color_detect_down,blue,true,false,joint 3 +,false,2024-03-03 17:41:25.172392,16.747,0.166,235.0,130.88796997070312,280.69012451171875,61.35441970825195,45.0,65.0,51.0,10.119999885559082,-20.0
32,80,100,60,go_to_color_detect_up_from_color_detect_down,blue,true,false,joint 3 -,true,2024-03-03 17:41:25.870060,16.747,0.16,235.0,111.13883972167969,238.33799743652344,-24.284042358398438,45.0,65.0,51.0,48.0,-20.0
32,80,100,60,go_to_color_detect_up_from_color_detect_down,blue,true,false,joint 3 -,true,2024-03-03 17:41:26.563800,16.69,0.16,235.0,131.2014923095703,281.36248779296875,66.48338317871094,45.0,65.0,51.0,6.4799909591674805,-20.0
32,80,100,60,go_to_red_up,red,true,false,joint 1 +,true,2024-03-03 17:41:27.956662,23.184,0.208,235.0,70.09805297851562,303.6280822753906,84.958251953125,57.0,78.0,51.0,0.0,-20.0
32,80,100,60,go_to_red_up,red,true,false,joint 1 +,true,2024-03-03 17:41:28.649356,23.184,0.208,235.0,-176.1641387939453,257.04071044921875,84.958251953125,104.42498779296875,124.61998748779297,51.0,0.0,-20.0
32,80,100,60,go_to_pick_up_from_red,red,true,false,joint 1 -,false,2024-03-03 17:41:30.030852,22.026,0.208,235.0,15.004950523376465,311.2532653808594,84.958251953125,67.2400131225586,85.96001434326172,51.0,0.0,-20.0
32,80,100,60,go_to_pick_up_from_red,red,true,false,joint 1 -,false,2024-03-03 17:41:30.733548,22.026,0.163,235.0,264.1739807128906,165.27503967285156,84.958251953125,12.03131103515625,31.07006072998047,51.0,0.0,-20.0
32,80,100,60,moving_belt,red,false,true,joint 1 -,false,2024-03-03 17:41:30.733548,22.026,0.163,235.0,292.8220520019531,106.5785140991211,84.958251953125,0.0,20.0,51.0,0.0,-20.0
32,80,100,60,moving_belt,red,false,true,joint 1 -,false,2024-03-03 17:41:33.122107,16.69,0.156,235.0,292.8220520019531,106.5785140991211,84.958251953125,0.0,20.0,51.0,0.0,-20.0
32,80,100,60,moving_belt,red,false,true,joint 1 -,false,2024-03-03 17:41:33.932903,16.633,0.156,235.0,292.8220520019531,106.5785140991211,84.958251953125,0.0,20.0,51.0,0.0,-20.0
32,80,100,60,moving_belt,red,false,true,joint 1 -,false,2024-03-03 17:41:34.647523,16.519,0.155,235.0,292.8220520019531,106.5785140991211,84.958251953125,0.0,20.0,51.0,0.0,-20.0
32,80,100,60,go_to_pick_down,red,true,false,joint 3 +,false,2024-03-03 17:41:35.650094,16.519,0.155,235.0,292.8220520019531,106.5785140991211,84.958251953125,0.0,20.0,51.0,0.03999999910593033,-20.0
32,80,100,60,go_to_pick_up_from_pick_down,red,true,false,joint 3 -,true,2024-03-03 17:41:36.754011,16.576,0.155,235.0,282.76361083984375,102.91754913330078,29.89107894897461,0.0,20.0,51.0,22.0,-20.0
32,80,100,60,go_to_color_detect_up_from_pick_up,red,true,false,joint 1 +,true,2024-03-03 17:41:37.990204,16.462,0.155,235.0,292.59820556640625,107.19156646728516,84.958251953125,0.12000083923339844,20.240001678466797,51.0,0.0,-20.0
32,80,100,60,go_to_color_detect_up_from_pick_up,red,true,false,joint 1 +,true,2024-03-03 17:41:38.815241,23.716,0.155,235.0,152.46913146972656,271.7662353515625,84.958251953125,40.70624923706055,61.272499084472656,51.0,0.0,-20.0
32,80,100,60,go_to_color_detect_down,red,true,false,joint 3 +,true,2024-03-03 17:41:39.785487,22.329,0.206,235.0,128.8512725830078,276.3224182128906,40.9992561340332,45.0,65.0,51.0,18.600000381469727,-20.0
32,80,100,60,go_to_color_detect_up_from_color_detect_down,red,true,false,joint 3 -,false,2024-03-03 17:41:40.560405,22.576,0.206,235.0,112.8804931640625,242.07298278808594,-20.42760467529297,45.0,65.0,51.0,45.3599967956543,-20.0
32,80,100,60,go_to_color_detect_up_from_color_detect_down,red,true,false,joint 3 -,false,2024-03-03 17:41:42.024522,18.513,0.205,235.0,131.638671875,282.3000183105469,78.75128936767578,45.0,65.0,51.0,1.999990463256836,-20.0
32,80,100,60,detecting_color,red,false,false,detecting_color,false,2024-03-03 17:41:42.714240,18.513,0.205,235.0,131.69407653808594,282.4188232421875,84.958251953125,45.0,65.0,51.0,0.0,-20.0
32,80,100,60,detecting_color,red,false,false,detecting_color,false,2024-03-03 17:41:44.056495,16.975,0.157,235.0,131.69407653808594,282.4188232421875,84.958251953125,45.0,65.0,51.0,0.0,-20.0
32,80,100,60,detecting_color,red,false,false,detecting_color,false,2024-03-03 17:41:44.056495,16.975,0.157,235.0,131.69407653808594,282.4188232421875,84.958251953125,45.0,65.0,51.0,0.0,-20.0
32,80,100,60,detecting_color,red,false,false,detecting_color,false,2024-03-03 17:41:45.373643,16.538,0.157,235.0,131.69407653808594,282.4188232421875,84.958251953125,45.0,65.0,51.0,0.0,-20.0
32,80,100,60,detecting_color,red,false,false,detecting_color,false,2024-03-03 17:41:47.158512,16.595,0.157,235.0,131.69407653808594,282.4188232421875,84.958251953125,45.0,65.0,51.0,0.0,-20.0
32,80,100,60,go_to_color_detect_down,red,true,false,joint 3 +,false,2024-03-03 17:41:47.845801,16.538,0.156,235.0,125.89177703857422,269.97576904296875,22.92638397216797,45.0,65.0,51.0,26.24000358581543,-20.0
32,80,100,60,go_to_color_detect_up_from_color_detect_down,red,true,false,joint 3 -,true,2024-03-03 17:41:49.232575,16.671,0.156,235.0,112.5685043334961,241.4039306640625,-21.14051055908203,45.0,65.0,51.0,45.79999542236328,-20.0
32,80,100,60,go_to_color_detect_up_from_color_detect_down,red,true,false,joint 3 -,true,2024-03-03 17:41:49.926264,23.772,0.214,235.0,131.68917846679688,282.4083251953125,83.11106872558594,45.0,65.0,51.0,0.49999040365219116,-20.0
32,80,100,60,go_to_green_up,green,true,false,joint 1 +,true,2024-03-03 17:41:50.616439,23.772,0.214,235.0,-20.210071563720703,310.9586486816406,84.958251953125,73.71858215332031,94.64840698242188,51.0,0.0,-20.0
32,80,100,60,go_to_pick_up_from_green,green,true,false,joint 1 -,false,2024-03-03 17:41:52.004229,22.69,0.204,235.0,-35.81607437133789,309.5495910644531,84.958251953125,76.59999084472656,95.75999450683594,51.0,0.0,-20.0
32,80,100,60,go_to_pick_up_from_green,green,true,false,joint 1 -,false,2024-03-03 17:41:52.695333,22.69,0.204,235.0,265.893798828125,162.4936981201172,84.958251953125,11.430038452148438,30.49378776550293,51.0,0.0,-20.0
32,80,100,60,moving_belt,green,false,true,joint 1 -,false,2024-03-03 17:41:54.084935,16.614,0.204,235.0,292.8220520019531,106.5785140991211,84.958251953125,0.0,20.0,51.0,0.0,-20.0
32,80,100,60,moving_belt,green,false,true,joint 1 -,false,2024-03-03 17:41:54.784594,16.614,0.16,235.0,292.8220520019531,106.5785140991211,84.958251953125,0.0,20.0,51.0,0.0,-20.0
32,80,100,60,moving_belt,green,false,true,joint 1 -,false,2024-03-03 17:41:56.184684,16.633,0.16,235.0,292.8220520019531,106.5785140991211,84.958251953125,0.0,20.0,51.0,0.0,-20.0
32,80,100,60,moving_belt,green,false,true,joint 1 -,false,2024-03-03 17:41:56.878365,16.348,0.158,235.0,292.8220520019531,106.5785140991211,84.958251953125,0.0,20.0,51.0,0.0,-20.0
32,80,100,60,go_to_pick_down,green,true,false,joint 3 +,false,2024-03-03 17:41:58.257461,16.557,0.158,235.0,292.8220520019531,106.5785140991211,84.958251953125,0.0,20.0,51.0,0.0,-20.0
32,80,100,60,go_to_pick_up_from_pick_down,green,true,false,joint 3 -,true,2024-03-03 17:41:58.948675,16.5,0.158,235.0,282.7997131347656,102.93067932128906,29.986251831054688,0.0,20.0,51.0,21.8799991607666,-20.0
32,80,100,60,go_to_color_detect_up_from_pick_up,green,true,false,joint 1 +,true,2024-03-03 17:41:59.643924,16.5,0.158,235.0,292.8220520019531,106.5785140991211,84.958251953125,0.0,20.040000915527344,51.0,0.0,-20.0
32,80,100,60,go_to_color_detect_up_from_pick_up,green,true,false,joint 1 +,true,2024-03-03 17:42:01.040019,22.31,0.207,235.0,149.77587890625,273.2597961425781,84.958251953125,41.272499084472656,61.79874801635742,51.0,0.0,-20.0
32,80,100,60,go_to_color_detect_down,green,true,false,joint 3 +,true,2024-03-03 17:42:01.731580,22.31,0.207,235.0,128.006591796875,274.5110168457031,35.067230224609375,45.0,65.0,51.0,21.1200008392334,-20.0
32,80,100,60,go_to_color_detect_up_from_color_detect_down,green,true,false,joint 3 -,false,2024-03-03 17:42:03.113196,22.329,0.207,235.0,112.03331756591797,240.25621032714844,-22.340538024902344,45.0,65.0,51.0,46.55999755859375,-20.0
32,80,100,60,go_to_color_detect_up_from_color_detect_down,green,true,false,joint 3 -,false,2024-03-03 17:42:03.804882,18.665,0.207,235.0,131.67857360839844,282.3855895996094,81.6745376586914,45.0,65.0,51.0,0.9799904823303223,-20.0
32,80,100,60,detecting_color,green,false,false,detecting_color,false,2024-03-03 17:42:05.210249,16.956,0.159,235.0,131.69407653808594,282.4188232421875,84.958251953125,45.0,65.0,51.0,0.0,-20.0
32,80,100,60,go_to_color_detect_down,green,true,false,joint 3 +,false,2024-03-03 17:42:05.915888,16.956,0.159,235.0,131.4761962890625,281.95159912109375,72.65760803222656,45.0,65.0,51.0,5.440000057220459,-20.0
32,80,100,60,go_to_color_detect_down,green,true,false,joint 3 +,false,2024-03-03 17:42:06.615608,16.557,0.159,235.0,111.71571350097656,239.57510375976562,-23.039398193359375,45.0,65.0,51.0,47.5,-20.0
32,80,100,60,go_to_color_detect_up_from_color_detect_down,green,true,false,joint 3 -,true,2024-03-03 17:42:08.005698,16.671,0.159,235.0,128.23133850097656,274.9929504394531,36.56641387939453,45.0,65.0,51.0,17.99999237060547,-20.0
32,80,100,60,go_to_blue_up,blue,true,false,joint 1 +,true,2024-03-03 17:42:08.705036,23.64,0.159,235.0,89.02467346191406,298.62744140625,84.958251953125,53.40000915527344,74.24000549316406,51.0,0.0,-20.0
32,80,100,60,go_to_pick_up_from_blue,blue,true,false,joint 1 -,false,2024-03-03 17:42:10.147312,22.196,0.207,235.0,76.65227508544922,302.0400085449219,84.958251953125,55.75999450683594,74.87999725341797,51.0,0.0,-20.0
32,80,100,60,go_to_pick_up_from_blue,blue,true,false,joint 1 -,false,2024-03-03 17:42:10.866099,22.196,0.207,235.0,285.71240234375,124.38706970214844,84.958251953125,3.5262680053710938,23.015018463134766,51.0,0.0,-20.0
32,80,100,60,moving_belt,blue,false,true,joint 1 -,false,2024-03-03 17:42:12.252648,16.519,0.158,235.0,292.8220520019531,106.5785140991211,84.958251953125,0.0,20.0,51.0,0.0,-20.0
32,80,100,60,moving_belt,blue,false,true,joint 1 -,false,2024-03-03 17:42:12.996367,16.88,0.158,235.0,292.8220520019531,106.5785140991211,84.958251953125,0.0,20.0,51.0,0.0,-20.0
32,80,100,60,moving_belt,blue,false,true,joint 1 -,false,2024-03-03 17:42:13.775359,16.367,0.158,235.0,292.8220520019531,106.5785140991211,84.958251953125,0.0,20.0,51.0,0.0,-20.0
32,80,100,60,moving_belt,blue,false,true,joint 1 -,false,2024-03-03 17:42:15.178936,16.614,0.159,235.0,292.8220520019531,106.5785140991211,84.958251953125,0.0,20.0,51.0,0.0,-20.0
32,80,100,60,go_to_pick_down,blue,true,false,joint 3 +,false,2024-03-03 17:42:15.874609,16.614,0.159,235.0,292.6172790527344,106.50399017333984,76.95742797851562,0.0,20.0,51.0,3.640000104904175,-20.0
32,80,100,60,go_to_pick_up_from_pick_down,blue,true,false,joint 3 -,true,2024-03-03 17:42:17.279754,16.462,0.158,235.0,284.6556396484375,103.6061782836914,35.16378402709961,0.0,20.0,51.0,19.359996795654297,-20.0
32,80,100,60,go_to_color_detect_up_from_pick_up,blue,true,false,joint 1 +,true,2024-03-03 17:42:17.983409,18.076,0.158,235.0,282.8768005371094,130.70745849609375,84.958251953125,4.8000030517578125,25.44000244140625,51.0,0.0,-20.0
32,80,100,60,go_to_color_detect_up_from_pick_up,blue,true,false,joint 1 +,true,2024-03-03 17:42:18.674670,22.88,0.21,235.0,132.9989013671875,281.80670166015625,84.958251953125,44.73499298095703,64.86124420166016,51.0,0.0,-20.0
32,80,100,60,go_to_color_detect_down,blue,true,false,joint 3 +,true,2024-03-03 17:42:20.064362,22.158,0.21,235.0,122.71981811523438,263.1734924316406,8.8521728515625,45.0,65.0,51.0,32.320003509521484,-20.0
32,80,100,60,go_to_color_detect_up_from_color_detect_down,blue,true,false,joint 3 -,false,2024-03-03 17:42:20.755647,22.158,0.206,235.0,118.01263427734375,253.07888793945312,-7.072502136230469,45.0,65.0,51.0,37.87999725341797,-20.0
32,80,100,60,detecting_color,blue,false,false,detecting_color,false,2024-03-03 17:42:22.143596,17.411,0.206,235.0,131.69407653808594,282.4188232421875,84.9582748413086,45.0,65.0,51.0,0.0,-20.0
32,80,100,60,detecting_color,blue,false,false,detecting_color,false,2024-03-03 17:42:22.838264,17.411,0.16,235.0,131.69407653808594,282.4188232421875,84.958251953125,45.0,65.0,51.0,0.0,-20.0
32,80,100,60,go_to_color_detect_down,blue,true,false,joint 3 +,false,2024-03-03 17:42:24.235221,16.519,0.16,235.0,130.5443878173828,279.95330810546875,56.80859375,45.0,65.0,51.0,12.0,-20.0
32,80,100,60,go_to_color_detect_up_from_color_detect_down,blue,true,false,joint 3 -,true,2024-03-03 17:42:24.930642,16.614,0.159,235.0,111.13883972167969,238.33799743652344,-24.284042358398438,45.0,65.0,51.0,48.0,-20.0
32,80,100,60,go_to_color_detect_up_from_color_detect_down,blue,true,false,joint 3 -,true,2024-03-03 17:42:25.627312,16.614,0.159,235.0,131.29718017578125,281.5677185058594,68.3683853149414,45.0,65.0,51.0,5.779991149902344,-20.0
32,80,100,60,go_to_red_up,red,true,false,joint 1 +,true,2024-03-03 17:42:27.029832,23.545,0.208,235.0,47.45757293701172,307.979736328125,84.958251953125,61.24000549316406,82.40000915527344,51.0,0.0,-20.0
32,80,100,60,go_to_pick_up_from_red,red,true,false,joint 1 -,false,2024-03-03 17:42:27.722090,22.519,0.208,235.0,-178.244384765625,255.60255432128906,84.958251953125,104.88998413085938,124.96498107910156,51.0,0.0,-20.0
32,80,100,60,go_to_pick_up_from_red,red,true,false,joint 1 -,false,2024-03-03 17:42:29.143579,22.671,0.208,235.0,42.72188949584961,308.6722717285156,84.958251953125,62.120018005371094,80.84001922607422,51.0,0.0,-20.0
32,80,100,60,go_to_pick_up_from_red,red,true,false,joint 1 -,false,2024-03-03 17:42:29.835388,16.405,0.16,235.0,281.349365234375,133.96365356445312,84.958251953125,5.461311340332031,24.82006072998047,51.0,0.0,-20.0
32,80,100,60,moving_belt,red,false,true,joint 1 -,false,2024-03-03 17:42:31.221184,16.633,0.16,235.0,292.8220520019531,106.5785140991211,84.958251953125,0.0,20.0,51.0,0.0,-20.0
32,80,100,60,moving_belt,red,false,true,joint 1 -,false,2024-03-03 17:42:31.935383,16.709,0.162,235.0,292.8220520019531,106.5785140991211,84.958251953125,0.0,20.0,51.0,0.0,-20.0
32,80,100,60,moving_belt,red,false,true,joint 1 -,false,2024-03-03 17:42:32.626072,16.709,0.162,235.0,292.8220520019531,106.5785140991211,84.958251953125,0.0,20.0,51.0,0.0,-20.0
32,80,100,60,moving_belt,red,false,true,joint 1 -,false,2024-03-03 17:42:34.010232,16.424,0.16,235.0,292.8220520019531,106.5785140991211,84.958251953125,0.0,20.0,51.0,0.0,-20.0
32,80,100,60,go_to_pick_down,red,true,false,joint 3 +,false,2024-03-03 17:42:34.715081,16.424,0.16,235.0,292.795654296875,106.56890869140625,82.08492279052734,0.0,20.0,51.0,1.440000057220459,-20.0
32,80,100,60,go_to_pick_up_from_pick_down,red,true,false,joint 3 -,true,2024-03-03 17:42:36.159251,16.595,0.159,235.0,283.5084533691406,103.18864440917969,31.895137786865234,0.0,20.0,51.0,20.87999725341797,-20.0
32,80,100,60,go_to_color_detect_up_from_pick_up,red,true,false,joint 1 +,true,2024-03-03 17:42:36.883827,21.266,0.159,235.0,292.07086181640625,108.62020111083984,84.958251953125,0.40000152587890625,20.60000228881836,51.0,0.0,-20.0
32,80,100,60,go_to_color_detect_up_from_pick_up,red,true,false,joint 1 +,true,2024-03-03 17:42:38.282480,22.88,0.211,235.0,139.02357482910156,278.8837890625,84.958251953125,43.503746032714844,63.829994201660156,51.0,0.0,-20.0
32,80,100,60,go_to_color_detect_down,red,true,false,joint 3 +,true,2024-03-03 17:42:38.983137,22.975,0.211,235.0,125.29210662841797,268.68975830078125,19.964820861816406,45.0,65.0,51.0,27.520004272460938,-20.0
32,80,100,60,go_to_color_detect_up_from_color_detect_down,red,true,false,joint 3 -,false,2024-03-03 17:42:39.678650,22.538,0.211,235.0,112.8804931640625,242.07298278808594,-20.42760467529297,45.0,65.0,51.0,45.3599967956543,-20.0
32,80,100,60,go_to_color_detect_up_from_color_detect_down,red,true,false,joint 3 -,false,2024-03-03 17:42:41.084556,22.253,0.209,235.0,131.69171142578125,282.41375732421875,83.67547607421875,45.0,65.0,51.0,0.319990336894989,-20.0
32,80,100,60,detecting_color,red,false,false,detecting_color,false,2024-03-03 17:42:41.792802,17.468,0.209,235.0,131.69407653808594,282.4188232421875,84.958251953125,45.0,65.0,51.0,0.0,-20.0
32,80,100,60,detecting_color,red,false,false,detecting_color,false,2024-03-03 17:42:42.494465,17.468,0.161,235.0,131.69407653808594,282.4188232421875,84.958251953125,45.0,65.0,51.0,0.0,-20.0
32,80,100,60,detecting_color,red,false,false,detecting_color,false,2024-03-03 17:42:43.736312,16.614,0.161,235.0,131.69407653808594,282.4188232421875,84.958251953125,45.0,65.0,51.0,0.0,-20.0
32,80,100,60,go_to_color_detect_down,red,true,false,joint 3 +,false,2024-03-03 17:42:45.149682,16.633,0.16,235.0,130.7275390625,280.3460998535156,59.12882614135742,45.0,65.0,51.0,11.039999961853027,-20.0
32,80,100,60,go_to_color_detect_up_from_color_detect_down,red,true,false,joint 3 -,true,2024-03-03 17:42:45.840884,16.633,0.16,235.0,111.13883972167969,238.33799743652344,-24.284042358398438,45.0,65.0,51.0,48.0,-20.0
32,80,100,60,go_to_color_detect_up_from_color_detect_down,red,true,false,joint 3 -,true,2024-03-03 17:42:47.237393,23.924,0.161,235.0,130.44256591796875,279.7349853515625,55.60090637207031,45.0,65.0,51.0,10.57999038696289,-20.0
32,80,100,60,go_to_green_up,green,true,false,joint 1 +,true,2024-03-03 17:42:47.938841,23.924,0.161,235.0,53.46846008300781,306.9932556152344,84.958251953125,60.12000274658203,81.24000549316406,51.0,0.0,-20.0
32,80,100,60,go_to_pick_up_from_green,green,true,false,joint 1 -,false,2024-03-03 17:42:48.629141,22.956,0.211,235.0,-73.06226348876953,302.928466796875,84.958251953125,83.55999755859375,103.19999694824219,51.0,0.0,-20.0
32,80,100,60,go_to_pick_up_from_green,green,true,false,joint 1 -,false,2024-03-03 17:42:50.036206,23.032,0.211,235.0,186.83859252929688,249.389404296875,84.958251953125,33.16002655029297,51.880027770996094,51.0,0.0,-20.0
32,80,100,60,moving_belt,green,false,true,joint 1 -,false,2024-03-03 17:42:50.733881,16.747,0.211,235.0,292.8220520019531,106.5785140991211,84.958251953125,0.0,20.0,51.0,0.0,-20.0
32,80,100,60,moving_belt,green,false,true,joint 1 -,false,2024-03-03 17:42:52.141217,16.633,0.16,235.0,292.8220520019531,106.5785140991211,84.958251953125,0.0,20.0,51.0,0.0,-20.0
32,80,100,60,moving_belt,green,false,true,joint 1 -,false,2024-03-03 17:42:52.852847,16.481,0.16,235.0,292.8220520019531,106.5785140991211,84.958251953125,0.0,20.0,51.0,0.0,-20.0
32,80,100,60,moving_belt,green,false,true,joint 1 -,false,2024-03-03 17:42:54.242990,16.557,0.158,235.0,292.8220520019531,106.5785140991211,84.958251953125,0.0,20.0,51.0,0.0,-20.0
32,80,100,60,moving_belt,green,false,true,joint 1 -,false,2024-03-03 17:42:54.940670,16.443,0.158,235.0,292.8220520019531,106.5785140991211,84.958251953125,0.0,20.0,51.0,0.0,-20.0
32,80,100,60,go_to_pick_down,green,true,false,joint 3 +,false,2024-03-03 17:42:55.643965,16.443,0.158,235.0,286.1759033203125,104.15950775146484,39.909912109375,0.0,20.0,51.0,18.401662826538086,-20.0
32,80,100,60,go_to_pick_up_from_pick_down,green,true,false,joint 3 -,true,2024-03-03 17:42:57.053833,16.538,0.158,235.0,292.7230224609375,106.54247283935547,79.39258575439453,0.0,20.0,51.0,1.7736676931381226,-20.0
32,80,100,60,go_to_color_detect_up_from_pick_up,green,true,false,joint 1 +,true,2024-03-03 17:42:57.747521,23.146,0.216,235.0,225.3623504638672,215.21047973632812,84.958251953125,23.68000030517578,44.959999084472656,51.0,0.0,-20.0
32,80,100,60,go_to_color_detect_down,green,true,false,joint 3 +,true,2024-03-03 17:42:59.145984,22.557,0.216,235.0,131.62814331054688,282.2774353027344,78.1873779296875,45.0,65.0,51.0,3.120000123977661,-20.0
32,80,100,60,go_to_color_detect_down,green,true,false,joint 3 +,true,2024-03-03 17:42:59.833518,22.557,0.205,235.0,111.39604949951172,238.88958740234375,-23.732986450195312,45.0,65.0,51.0,47.81999969482422,-20.0
32,80,100,60,go_to_color_detect_up_from_color_detect_down,green,true,false,joint 3 -,false,2024-03-03 17:43:01.234079,20.526,0.205,235.0,128.65347290039062,275.89825439453125,39.53277587890625,45.0,65.0,51.0,16.819992065429688,-20.0
32,80,100,60,detecting_color,green,false,false,detecting_color,false,2024-03-03 17:43:01.978794,20.526,0.166,235.0,131.69407653808594,282.4188232421875,84.958251953125,45.0,65.0,51.0,0.0,-20.0
32,80,100,60,detecting_color,green,false,false,detecting_color,false,2024-03-03 17:43:02.672474,17.449,0.166,235.0,131.69407653808594,282.4188232421875,84.958251953125,45.0,65.0,51.0,0.0,-20.0
32,80,100,60,go_to_color_detect_down,green,true,false,joint 3 +,false,2024-03-03 17:43:04.054429,16.557,0.159,235.0,121.42206573486328,260.39044189453125,3.9947433471679688,45.0,65.0,51.0,34.480003356933594,-20.0
32,80,100,60,go_to_color_detect_up_from_color_detect_down,green,true,false,joint 3 -,true,2024-03-03 17:43:04.750101,16.652,0.159,235.0,116.34143829345703,249.49501037597656,-11.791847229003906,45.0,65.0,51.0,40.39999771118164,-20.0
32,80,100,60,go_to_color_detect_up_from_color_detect_down,green,true,false,joint 3 -,true,2024-03-03 17:43:06.136651,22.614,0.217,235.0,131.69375610351562,282.4181823730469,84.4964599609375,45.0,65.0,51.0,0.07999003678560257,-20.0
32,80,100,60,go_to_pick_up_from_blue,blue,true,false,joint 1 -,false,2024-03-03 17:43:06.830339,23.222,0.217,235.0,27.716480255126953,310.3796691894531,84.958251953125,64.8970947265625,84.96595001220703,51.0,0.0,-20.0
32,80,100,60,go_to_pick_up_from_blue,blue,true,false,joint 1 -,false,2024-03-03 17:43:08.213304,22.557,0.16,235.0,226.41128540039062,214.10665893554688,84.958251953125,23.40001678466797,42.120018005371094,51.0,0.0,-20.0
32,80,100,60,moving_belt,blue,false,true,joint 1 -,false,2024-03-03 17:43:08.905988,16.728,0.16,235.0,292.8220520019531,106.5785140991211,84.958251953125,0.0,20.0,51.0,0.0,-20.0
32,80,100,60,moving_belt,blue,false,true,joint 1 -,false,2024-03-03 17:43:10.285956,16.614,0.16,235.0,292.8220520019531,106.5785140991211,84.958251953125,0.0,20.0,51.0,0.0,-20.0
32,80,100,60,moving_belt,blue,false,true,joint 1 -,false,2024-03-03 17:43:10.988819,16.614,0.159,235.0,292.8220520019531,106.5785140991211,84.958251953125,0.0,20.0,51.0,0.0,-20.0
32,80,100,60,moving_belt,blue,false,true,joint 1 -,false,2024-03-03 17:43:11.712939,16.614,0.159,235.0,292.8220520019531,106.5785140991211,84.958251953125,0.0,20.0,51.0,0.0,-20.0
32,80,100,60,moving_belt,blue,false,true,joint 1 -,false,2024-03-03 17:43:13.107798,16.481,0.156,235.0,292.8220520019531,106.5785140991211,84.958251953125,0.0,20.0,51.0,0.0,-20.0
32,80,100,60,go_to_pick_down,blue,true,false,joint 3 +,false,2024-03-03 17:43:13.799676,16.538,0.156,235.0,283.73455810546875,103.27093505859375,32.52097702026367,0.0,20.0,51.0,21.174827575683594,-20.0
32,80,100,60,go_to_pick_up_from_pick_down,blue,true,false,joint 3 -,true,2024-03-03 17:43:15.176226,16.405,0.16,235.0,292.755859375,106.5544204711914,80.40839385986328,0.0,20.0,51.0,1.417501449584961,-20.0
32,80,100,60,go_to_color_detect_up_from_pick_up,blue,true,false,joint 1 +,true,2024-03-03 17:43:15.879701,23.507,0.16,235.0,215.65745544433594,224.93463134765625,84.958251953125,26.206249237060547,47.412498474121094,51.0,0.0,-20.0
32,80,100,60,go_to_color_detect_down,blue,true,false,joint 3 +,true,2024-03-03 17:43:17.266361,22.424,0.206,235.0,131.14833068847656,281.2485046386719,65.51656341552734,45.0,65.0,51.0,8.399999618530273,-20.0
32,80,100,60,go_to_color_detect_down,blue,true,false,joint 3 +,false,2024-03-03 17:43:17.965730,22.424,0.206,235.0,111.28367614746094,238.6486053466797,-23.97449493408203,45.0,65.0,51.0,47.91999816894531,-20.0
32,80,100,60,go_to_color_detect_up_from_color_detect_down,blue,true,false,joint 3 -,false,2024-03-03 17:43:18.656031,22.443,0.206,235.0,129.38217163085938,277.4609375,45.229408264160156,45.0,65.0,51.0,14.579991340637207,-20.0
32,80,100,60,detecting_color,blue,false,false,detecting_color,false,2024-03-03 17:43:20.063438,17.108,0.168,235.0,131.69407653808594,282.4188232421875,84.958251953125,45.0,65.0,51.0,0.0,-20.0
32,80,100,60,go_to_color_detect_down,blue,true,false,joint 3 +,false,2024-03-03 17:43:20.811934,16.538,0.168,235.0,131.69407653808594,282.4188232421875,84.958251953125,45.0,65.0,51.0,0.0,-20.0
32,80,100,60,go_to_color_detect_down,blue,true,false,joint 3 +,false,2024-03-03 17:43:22.219899,16.462,0.158,235.0,116.61158752441406,250.0743408203125,-11.055732727050781,45.0,65.0,51.0,41.52000427246094,-20.0
32,80,100,60,go_to_color_detect_up_from_color_detect_down,blue,true,false,joint 3 -,true,2024-03-03 17:43:22.927654,16.538,0.158,235.0,120.45890808105469,258.324951171875,0.64251708984375,45.0,65.0,51.0,33.959999084472656,-20.0
32,80,100,60,go_to_red_up,red,true,false,joint 1 +,true,2024-03-03 17:43:23.650232,16.538,0.209,235.0,131.49684143066406,282.5107116699219,84.958251953125,45.040000915527344,65.12000274658203,51.0,0.0,-20.0
32,80,100,60,go_to_red_up,red,true,false,joint 1 +,true,2024-03-03 17:43:25.071695,22.443,0.209,235.0,-127.11764526367188,284.508056640625,84.958251953125,94.07498931884766,114.989990234375,51.0,0.0,-20.0
32,80,100,60,go_to_pick_up_from_red,red,true,false,joint 1 -,false,2024-03-03 17:43:25.771982,22.823,0.21,235.0,-135.4285125732422,280.6471862792969,84.958251953125,95.75999450683594,114.87999725341797,51.0,0.0,-20.0
32,80,100,60,go_to_pick_up_from_red,red,true,false,joint 1 -,false,2024-03-03 17:43:27.175215,17.336,0.21,235.0,171.9007568359375,259.9112548828125,84.958251953125,36.520042419433594,55.24004364013672,51.0,0.0,-20.0
32,80,100,60,moving_belt,red,false,true,joint 1 -,false,2024-03-03 17:43:27.870878,16.462,0.159,235.0,292.8220520019531,106.5785140991211,84.958251953125,0.0,20.0,51.0,0.0,-20.0
32,80,100,60,moving_belt,red,false,true,joint 1 -,false,2024-03-03 17:43:29.251902,16.709,0.159,235.0,292.8220520019531,106.5785140991211,84.958251953125,0.0,20.0,51.0,0.0,-20.0
32,80,100,60,moving_belt,red,false,true,joint 1 -,false,2024-03-03 17:43:29.942232,16.709,0.158,235.0,292.8220520019531,106.5785140991211,84.958251953125,0.0,20.0,51.0,0.0,-20.0
32,80,100,60,moving_belt,red,false,true,joint 1 -,false,2024-03-03 17:43:30.640491,16.576,0.158,235.0,292.8220520019531,106.5785140991211,84.958251953125,0.0,20.0,51.0,0.0,-20.0
32,80,100,60,moving_belt,red,false,true,joint 1 -,false,2024-03-03 17:43:32.057325,16.405,0.158,235.0,292.8220520019531,106.5785140991211,84.958251953125,0.0,20.0,51.0,0.0,-20.0
32,80,100,60,go_to_pick_down,red,true,false,joint 3 +,false,2024-03-03 17:43:32.876176,16.728,0.158,235.0,287.5127258300781,104.64608001708984,44.5949592590332,0.0,20.0,51.0,16.6131649017334,-20.0
32,80,100,60,go_to_pick_up_from_pick_down,red,true,false,joint 3 -,true,2024-03-03 17:43:34.299096,17.07,0.199,235.0,292.54974365234375,106.47940063476562,75.73231506347656,0.0,20.0,51.0,3.0821664333343506,-20.0
32,80,100,60,go_to_color_detect_up_from_pick_up,red,true,false,joint 1 +,true,2024-03-03 17:43:34.987410,22.994,0.199,235.0,234.7499237060547,204.92977905273438,84.958251953125,21.12000274658203,42.400001525878906,51.0,0.0,-20.0
32,80,100,60,go_to_color_detect_down,red,true,false,joint 3 +,true,2024-03-03 17:43:35.678097,22.994,0.199,235.0,131.64828491210938,282.3206481933594,79.31524658203125,45.0,65.0,51.0,2.640000104904175,-20.0
32,80,100,60,go_to_color_detect_down,red,true,false,joint 3 +,true,2024-03-03 17:43:37.066715,22.121,0.206,235.0,111.54015350341797,239.19862365722656,-23.421524047851562,45.0,65.0,51.0,47.68000030517578,-20.0
32,80,100,60,go_to_color_detect_up_from_color_detect_down,red,true,false,joint 3 -,false,2024-03-03 17:43:37.809818,22.121,0.206,235.0,128.65347290039062,275.89825439453125,39.53277587890625,45.0,65.0,51.0,16.819992065429688,-20.0
32,80,100,60,detecting_color,red,false,false,detecting_color,false,2024-03-03 17:43:39.191979,17.298,0.164,235.0,131.69407653808594,282.4188232421875,84.958251953125,45.0,65.0,51.0,0.0,-20.0
32,80,100,60,detecting_color,red,false,false,detecting_color,false,2024-03-03 17:43:39.893633,16.5,0.164,235.0,131.69407653808594,282.4188232421875,84.958251953125,45.0,65.0,51.0,0.0,-20.0
32,80,100,60,detecting_color,red,false,false,detecting_color,false,2024-03-03 17:43:40.590306,16.5,0.164,235.0,131.69407653808594,282.4188232421875,84.958251953125,45.0,65.0,51.0,0.0,-20.0
32,80,100,60,detecting_color,red,false,false,detecting_color,false,2024-03-03 17:43:41.825172,16.5,0.159,235.0,131.69407653808594,282.4188232421875,84.958251953125,45.0,65.0,51.0,0.0,-20.0
32,80,100,60,go_to_color_detect_down,red,true,false,joint 3 +,false,2024-03-03 17:43:43.282307,16.31,0.159,235.0,130.10182189941406,279.0042419433594,51.890445709228516,45.0,65.0,51.0,14.039999961853027,-20.0
32,80,100,60,go_to_color_detect_up_from_color_detect_down,red,true,false,joint 3 -,true,2024-03-03 17:43:43.973090,16.367,0.159,235.0,112.03331756591797,240.25621032714844,-22.340538024902344,45.0,65.0,51.0,46.55999755859375,-20.0
32,80,100,60,go_to_color_detect_up_from_color_detect_down,red,true,false,joint 3 -,true,2024-03-03 17:43:44.665873,16.367,0.159,235.0,131.54873657226562,282.1071472167969,74.9088363647461,45.0,65.0,51.0,3.379990577697754,-20.0
32,80,100,60,go_to_green_up,green,true,false,joint 1 +,true,2024-03-03 17:43:46.336414,23.298,0.217,235.0,28.0257511138916,310.35186767578125,84.958251953125,64.84000396728516,86.08982849121094,51.0,0.0,-20.0
32,80,100,60,go_to_pick_up_from_green,green,true,false,joint 1 -,false,2024-03-03 17:43:47.024112,22.443,0.217,235.0,-44.229949951171875,308.45977783203125,84.958251953125,78.15999603271484,97.39999389648438,51.0,0.0,-20.0
32,80,100,60,go_to_pick_up_from_green,green,true,false,joint 1 -,false,2024-03-03 17:43:47.721407,19.861,0.205,235.0,237.44735717773438,201.7981414794922,84.958251953125,20.36003875732422,39.103790283203125,51.0,0.0,-20.0
32,80,100,60,moving_belt,green,false,true,joint 1 -,false,2024-03-03 17:43:49.136786,16.614,0.205,235.0,292.8220520019531,106.5785140991211,84.958251953125,0.0,20.0,51.0,0.0,-20.0
32,80,100,60,moving_belt,green,false,true,joint 1 -,false,2024-03-03 17:43:49.841717,16.424,0.161,235.0,292.8220520019531,106.5785140991211,84.958251953125,0.0,20.0,51.0,0.0,-20.0
32,80,100,60,moving_belt,green,false,true,joint 1 -,false,2024-03-03 17:43:51.229270,16.671,0.161,235.0,292.8220520019531,106.5785140991211,84.958251953125,0.0,20.0,51.0,0.0,-20.0
32,80,100,60,moving_belt,green,false,true,joint 1 -,false,2024-03-03 17:43:51.927497,16.671,0.16,235.0,292.8220520019531,106.5785140991211,84.958251953125,0.0,20.0,51.0,0.0,-20.0
32,80,100,60,moving_belt,green,false,true,joint 1 -,false,2024-03-03 17:43:52.653662,16.519,0.16,235.0,292.8220520019531,106.5785140991211,84.958251953125,0.0,20.0,51.0,0.0,-20.0
32,80,100,60,go_to_pick_down,green,true,false,joint 3 +,false,2024-03-03 17:43:54.243611,16.576,0.158,235.0,283.1153869628906,103.04557800292969,30.826858520507812,0.0,20.0,51.0,21.76332664489746,-20.0
32,80,100,60,go_to_pick_up_from_pick_down,green,true,false,joint 3 -,true,2024-03-03 17:43:54.243611,16.576,0.158,235.0,292.8077392578125,106.57330322265625,82.84124755859375,0.0,20.0,51.0,0.5890025496482849,-20.0
32,80,100,60,go_to_color_detect_up_from_pick_up,green,true,false,joint 1 +,true,2024-03-03 17:43:56.185819,22.994,0.208,235.0,175.95103454589844,257.1866149902344,84.958251953125,35.62249755859375,56.468746185302734,51.0,0.0,-20.0
32,80,100,60,go_to_color_detect_down,green,true,false,joint 3 +,true,2024-03-03 17:43:56.877242,22.519,0.208,235.0,130.7275390625,280.3460998535156,59.12882614135742,45.0,65.0,51.0,11.039999961853027,-20.0
32,80,100,60,go_to_color_detect_up_from_color_detect_down,green,true,false,joint 3 -,false,2024-03-03 17:43:58.306861,22.007,0.206,235.0,111.13883972167969,238.33799743652344,-24.284042358398438,45.0,65.0,51.0,48.0,-20.0
32,80,100,60,go_to_color_detect_up_from_color_detect_down,green,true,false,joint 3 -,false,2024-03-03 17:43:59.001527,22.064,0.206,235.0,131.29718017578125,281.5677185058594,68.3683853149414,45.0,65.0,51.0,5.779991149902344,-20.0
32,80,100,60,detecting_color,green,false,false,detecting_color,false,2024-03-03 17:43:59.703763,17.43,0.206,235.0,131.69407653808594,282.4188232421875,84.958251953125,45.0,65.0,51.0,0.0,-20.0
32,80,100,60,go_to_color_detect_down,green,true,false,joint 3 +,false,2024-03-03 17:44:01.085134,16.595,0.161,235.0,131.690673828125,282.4115295410156,83.41889953613281,45.0,65.0,51.0,0.8399999737739563,-20.0
32,80,100,60,go_to_color_detect_down,green,true,false,joint 3 +,false,2024-03-03 17:44:01.772842,16.595,0.161,235.0,115.09308624267578,246.81790161132812,-15.070137023925781,45.0,65.0,51.0,43.500003814697266,-20.0
32,80,100,60,go_to_color_detect_up_from_color_detect_down,green,true,false,joint 3 -,true,2024-03-03 17:44:03.165977,18.779,0.159,235.0,123.04268646240234,263.8658752441406,10.129173278808594,45.0,65.0,51.0,29.399995803833008,-20.0
32,80,100,60,go_to_blue_up,blue,true,false,joint 1 +,true,2024-03-03 17:44:03.863256,18.779,0.159,235.0,128.72940063476562,283.7824401855469,84.958251953125,45.600006103515625,65.84000396728516,51.0,0.0,-20.0
32,80,100,60,go_to_pick_up_from_blue,blue,true,false,joint 1 -,false,2024-03-03 17:44:05.264905,22.348,0.208,235.0,41.428707122802734,308.8485107421875,84.958251953125,62.35999298095703,81.87998962402344,51.0,0.0,-20.0
32,80,100,60,go_to_pick_up_from_blue,blue,true,false,joint 1 -,false,2024-03-03 17:44:05.955372,16.823,0.208,235.0,267.5565185546875,159.74114990234375,84.958251953125,10.838766098022461,29.92751693725586,51.0,0.0,-20.0
32,80,100,60,moving_belt,blue,false,true,joint 1 -,false,2024-03-03 17:44:07.348428,16.519,0.159,235.0,292.8220520019531,106.5785140991211,84.958251953125,0.0,20.0,51.0,0.0,-20.0
32,80,100,60,moving_belt,blue,false,true,joint 1 -,false,2024-03-03 17:44:08.049231,16.519,0.159,235.0,292.8220520019531,106.5785140991211,84.958251953125,0.0,20.0,51.0,0.0,-20.0
32,80,100,60,moving_belt,blue,false,true,joint 1 -,false,2024-03-03 17:44:08.740918,16.462,0.159,235.0,292.8220520019531,106.5785140991211,84.958251953125,0.0,20.0,51.0,0.0,-20.0
32,80,100,60,moving_belt,blue,false,true,joint 1 -,false,2024-03-03 17:44:10.119817,16.177,0.158,235.0,292.8220520019531,106.5785140991211,84.958251953125,0.0,20.0,51.0,0.0,-20.0
32,80,100,60,go_to_pick_down,blue,true,false,joint 3 +,false,2024-03-03 17:44:10.817475,16.519,0.158,235.0,292.8217468261719,106.57840728759766,84.65037536621094,0.0,20.0,51.0,0.24000000953674316,-20.0
32,80,100,60,go_to_pick_up_from_pick_down,blue,true,false,joint 3 -,true,2024-03-03 17:44:12.215858,16.424,0.158,235.0,282.76361083984375,102.91754913330078,29.89107894897461,0.0,20.0,51.0,21.959999084472656,-20.0
32,80,100,60,go_to_color_detect_up_from_pick_up,blue,true,false,joint 1 +,true,2024-03-03 17:44:12.915278,16.424,0.158,235.0,292.8220520019531,106.5785140991211,84.958251953125,0.0,20.0,51.0,0.0,-20.0
32,80,100,60,go_to_color_detect_up_from_pick_up,blue,true,false,joint 1 +,true,2024-03-03 17:44:14.308203,22.462,0.215,235.0,152.46913146972656,271.7662353515625,84.958251953125,40.70624923706055,61.272499084472656,51.0,0.0,-20.0
32,80,100,60,go_to_color_detect_down,blue,true,false,joint 3 +,true,2024-03-03 17:44:15.005860,22.405,0.215,235.0,128.44918823242188,275.4601745605469,38.07122802734375,45.0,65.0,51.0,19.84000015258789,-20.0
32,80,100,60,go_to_color_detect_up_from_color_detect_down,blue,true,false,joint 3 -,false,2024-03-03 17:44:15.695158,22.405,0.205,235.0,111.81121826171875,239.7799072265625,-22.83026885986328,45.0,65.0,51.0,46.87999725341797,-20.0
32,80,100,60,go_to_color_detect_up_from_color_detect_down,blue,true,false,joint 3 -,false,2024-03-03 17:44:17.092068,18.019,0.205,235.0,131.66925048828125,282.3656005859375,80.80250549316406,45.0,65.0,51.0,1.2799904346466064,-20.0
32,80,100,60,detecting_color,blue,false,false,detecting_color,false,2024-03-03 17:44:17.787537,18.019,0.165,235.0,131.69407653808594,282.4188232421875,84.958251953125,45.0,65.0,51.0,0.0,-20.0
32,80,100,60,go_to_color_detect_down,blue,true,false,joint 3 +,false,2024-03-03 17:44:19.175852,16.861,0.165,235.0,131.6822052001953,282.3934020996094,82.08492279052734,45.0,65.0,51.0,1.440000057220459,-20.0
32,80,100,60,go_to_color_detect_down,blue,true,false,joint 3 +,false,2024-03-03 17:44:19.879327,16.576,0.165,235.0,114.19778442382812,244.89791870117188,-17.3040771484375,45.0,65.0,51.0,44.62000274658203,-20.0
32,80,100,60,go_to_color_detect_up_from_color_detect_down,blue,true,false,joint 3 -,true,2024-03-03 17:44:21.278721,16.481,0.158,235.0,123.6932373046875,265.260986328125,12.79541015625,45.0,65.0,51.0,28.159996032714844,-20.0
32,80,100,60,go_to_red_up,red,true,false,joint 1 +,true,2024-03-03 17:44:22.024823,23.374,0.158,235.0,116.12750244140625,289.1679992675781,84.958251953125,48.12001037597656,68.64000701904297,51.0,0.0,-20.0
32,80,100,60,go_to_red_up,red,true,false,joint 1 +,true,2024-03-03 17:44:22.746997,22.842,0.215,235.0,-147.49330139160156,274.4985656738281,84.958251953125,98.24998474121094,118.96498107910156,51.0,0.0,-20.0
32,80,100,60,go_to_pick_up_from_red,red,true,false,joint 1 -,false,2024-03-03 17:44:24.185901,20.222,0.191,235.0,-105.96498107910156,293.0446472167969,84.958251953125,89.87999725341797,108.75999450683594,51.0,0.0,-20.0
32,80,100,60,go_to_pick_up_from_red,red,true,false,joint 1 -,false,2024-03-03 17:44:24.883150,20.222,0.191,235.0,239.1295166015625,199.80191040039062,84.958251953125,19.88005828857422,38.63880920410156,51.0,0.0,-20.0
32,80,100,60,moving_belt,red,false,true,joint 1 -,false,2024-03-03 17:44:26.289655,16.481,0.191,235.0,292.8220520019531,106.5785140991211,84.958251953125,0.0,20.0,51.0,0.0,-20.0
32,80,100,60,moving_belt,red,false,true,joint 1 -,false,2024-03-03 17:44:26.981341,16.671,0.159,235.0,292.8220520019531,106.5785140991211,84.958251953125,0.0,20.0,51.0,0.0,-20.0
32,80,100,60,moving_belt,red,false,true,joint 1 -,false,2024-03-03 17:44:27.673753,16.671,0.159,235.0,292.8220520019531,106.5785140991211,84.958251953125,0.0,20.0,51.0,0.0,-20.0
32,80,100,60,moving_belt,red,false,true,joint 1 -,false,2024-03-03 17:44:29.083247,16.595,0.159,235.0,292.8220520019531,106.5785140991211,84.958251953125,0.0,20.0,51.0,0.0,-20.0
32,80,100,60,moving_belt,red,false,true,joint 1 -,false,2024-03-03 17:44:29.781790,16.595,0.159,235.0,292.8220520019531,106.5785140991211,84.958251953125,0.0,20.0,51.0,0.0,-20.0
32,80,100,60,go_to_pick_down,red,true,false,joint 3 +,false,2024-03-03 17:44:31.168790,16.348,0.158,235.0,283.49554443359375,103.18394470214844,31.859657287597656,0.0,20.0,51.0,21.410993576049805,-20.0
32,80,100,60,go_to_pick_up_from_pick_down,red,true,false,joint 3 -,true,2024-03-03 17:44:31.877420,16.462,0.158,235.0,292.77978515625,106.56312561035156,81.32183074951172,0.0,20.0,51.0,1.1013351678848267,-20.0
32,80,100,60,go_to_color_detect_up_from_pick_up,red,true,false,joint 1 +,true,2024-03-03 17:44:33.277019,23.583,0.208,235.0,210.8744659423828,229.42471313476562,84.958251953125,27.412498474121094,48.5787467956543,51.0,0.0,-20.0
32,80,100,60,go_to_color_detect_down,red,true,false,joint 3 +,true,2024-03-03 17:44:33.971694,22.5,0.208,235.0,130.88796997070312,280.69012451171875,61.35441970825195,45.0,65.0,51.0,10.119999885559082,-20.0
32,80,100,60,go_to_color_detect_up_from_color_detect_down,red,true,false,joint 3 -,false,2024-03-03 17:44:34.666361,22.215,0.208,235.0,111.13883972167969,238.33799743652344,-24.284042358398438,45.0,65.0,51.0,48.0,-20.0
32,80,100,60,go_to_color_detect_up_from_color_detect_down,red,true,false,joint 3 -,false,2024-03-03 17:44:36.078249,22.272,0.207,235.0,130.44256591796875,279.7349853515625,55.60090637207031,45.0,65.0,51.0,10.57999038696289,-20.0
32,80,100,60,detecting_color,red,false,false,detecting_color,false,2024-03-03 17:44:36.773931,16.994,0.207,235.0,131.69407653808594,282.4188232421875,84.958251953125,45.0,65.0,51.0,0.0,-20.0
32,80,100,60,detecting_color,red,false,false,detecting_color,false,2024-03-03 17:44:38.166266,16.538,0.161,235.0,131.69407653808594,282.4188232421875,84.958251953125,45.0,65.0,51.0,0.0,-20.0
32,80,100,60,detecting_color,red,false,false,detecting_color,false,2024-03-03 17:44:38.857148,16.614,0.161,235.0,131.69407653808594,282.4188232421875,84.958251953125,45.0,65.0,51.0,0.0,-20.0
32,80,100,60,detecting_color,red,false,false,detecting_color,false,2024-03-03 17:44:40.247494,16.557,0.161,235.0,131.69407653808594,282.4188232421875,84.958251953125,45.0,65.0,51.0,0.0,-20.0
32,80,100,60,go_to_color_detect_down,red,true,false,joint 3 +,false,2024-03-03 17:44:40.941173,16.557,0.161,235.0,127.52101135253906,273.4696960449219,31.990848541259766,45.0,65.0,51.0,22.400001525878906,-20.0
32,80,100,60,go_to_color_detect_up_from_color_detect_down,red,true,false,joint 3 -,true,2024-03-03 17:44:42.329733,16.424,0.159,235.0,112.03331756591797,240.25621032714844,-22.340538024902344,45.0,65.0,51.0,46.55999755859375,-20.0
32,80,100,60,go_to_color_detect_up_from_color_detect_down,red,true,false,joint 3 -,true,2024-03-03 17:44:43.023413,16.614,0.159,235.0,131.54873657226562,282.1071472167969,74.9088363647461,45.0,65.0,51.0,3.379990577697754,-20.0
32,80,100,60,go_to_green_up,green,true,false,joint 1 +,true,2024-03-03 17:44:43.723890,23.583,0.159,235.0,-3.747795820236206,311.5921936035156,84.958251953125,70.68911743164062,91.73893737792969,51.0,0.0,-20.0
32,80,100,60,go_to_pick_up_from_green,green,true,false,joint 1 -,false,2024-03-03 17:44:45.104504,22.519,0.213,235.0,-44.229949951171875,308.45977783203125,84.958251953125,78.15999603271484,97.39999389648438,51.0,0.0,-20.0
32,80,100,60,go_to_pick_up_from_green,green,true,false,joint 1 -,false,2024-03-03 17:44:45.797111,22.519,0.213,235.0,260.0833740234375,171.64022827148438,84.958251953125,13.422538757324219,32.406288146972656,51.0,0.0,-20.0
32,80,100,60,moving_belt,green,false,true,joint 1 -,false,2024-03-03 17:44:47.202813,16.633,0.16,235.0,292.8220520019531,106.5785140991211,84.958251953125,0.0,20.0,51.0,0.0,-20.0
32,80,100,60,moving_belt,green,false,true,joint 1 -,false,2024-03-03 17:44:47.892048,16.595,0.16,235.0,292.8220520019531,106.5785140991211,84.958251953125,0.0,20.0,51.0,0.0,-20.0
32,80,100,60,moving_belt,green,false,true,joint 1 -,false,2024-03-03 17:44:49.271442,16.519,0.16,235.0,292.8220520019531,106.5785140991211,84.958251953125,0.0,20.0,51.0,0.0,-20.0
32,80,100,60,moving_belt,green,false,true,joint 1 -,false,2024-03-03 17:44:50.013951,16.69,0.16,235.0,292.8220520019531,106.5785140991211,84.958251953125,0.0,20.0,51.0,0.0,-20.0
32,80,100,60,go_to_pick_down,green,true,false,joint 3 +,false,2024-03-03 17:44:50.703171,16.69,0.159,235.0,292.8220520019531,106.5785140991211,84.958251953125,0.0,20.0,51.0,0.0,-20.0
32,80,100,60,go_to_pick_up_from_pick_down,green,true,false,joint 3 -,true,2024-03-03 17:44:52.092513,16.424,0.159,235.0,282.76361083984375,102.91754913330078,29.89107894897461,0.0,20.0,51.0,22.0,-20.0
32,80,100,60,go_to_color_detect_up_from_pick_up,green,true,false,joint 1 +,true,2024-03-03 17:44:52.782745,16.367,0.166,235.0,292.8220520019531,106.5785140991211,84.93728637695312,0.0,20.0,51.0,0.0,-20.0
32,80,100,60,go_to_color_detect_up_from_pick_up,green,true,false,joint 1 +,true,2024-03-03 17:44:54.179694,23.374,0.166,235.0,175.95103454589844,257.1866149902344,84.958251953125,35.62249755859375,56.468746185302734,51.0,0.0,-20.0
32,80,100,60,go_to_color_detect_down,green,true,false,joint 3 +,true,2024-03-03 17:44:54.868399,22.291,0.208,235.0,129.2152099609375,277.1029052734375,43.84801483154297,45.0,65.0,51.0,17.399999618530273,-20.0
32,80,100,60,go_to_color_detect_up_from_color_detect_down,green,true,false,joint 3 -,false,2024-03-03 17:44:56.256821,22.064,0.208,235.0,111.33187866210938,238.75196838378906,-23.871063232421875,45.0,65.0,51.0,47.599998474121094,-20.0
32,80,100,60,go_to_color_detect_up_from_color_detect_down,green,true,false,joint 3 -,false,2024-03-03 17:44:56.955051,22.064,0.17,235.0,131.29718017578125,281.5677185058594,68.3683853149414,45.0,65.0,51.0,5.779991149902344,-20.0
32,80,100,60,detecting_color,green,false,false,detecting_color,false,2024-03-03 17:44:57.941322,16.899,0.17,235.0,131.69407653808594,282.4188232421875,84.958251953125,45.0,65.0,51.0,0.0,-20.0
32,80,100,60,go_to_color_detect_down,green,true,false,joint 3 +,false,2024-03-03 17:44:58.703765,16.614,0.17,235.0,131.69407653808594,282.4188232421875,84.958251953125,45.0,65.0,51.0,0.0,-20.0
32,80,100,60,go_to_color_detect_down,green,true,false,joint 3 +,false,2024-03-03 17:45:00.329896,16.443,0.159,235.0,118.30989074707031,253.7163543701172,-6.189537048339844,45.0,65.0,51.0,39.18000411987305,-20.0
32,80,100,60,go_to_color_detect_up_from_color_detect_down,green,true,false,joint 3 -,true,2024-03-03 17:45:01.188784,16.519,0.159,235.0,119.21041107177734,255.64755249023438,-3.4265670776367188,45.0,65.0,51.0,36.0,-20.0
32,80,100,60,go_to_blue_up,blue,true,false,joint 1 +,true,2024-03-03 17:45:02.010634,23.545,0.19,235.0,131.69407653808594,282.4188232421875,84.958251953125,45.0,65.0,51.0,0.0,-20.0
32,80,100,60,go_to_pick_up_from_blue,blue,true,false,joint 1 -,false,2024-03-03 17:45:02.978388,22.5,0.19,235.0,30.40831184387207,310.12750244140625,84.958251953125,64.39999389648438,84.15999603271484,51.0,0.0,-20.0
32,80,100,60,go_to_pick_up_from_blue,blue,true,false,joint 1 -,false,2024-03-03 17:45:03.723497,21.608,0.207,235.0,248.3870086669922,188.16912841796875,84.958251953125,17.14626693725586,35.995018005371094,51.0,0.0,-20.0
32,80,100,60,moving_belt,blue,false,true,joint 1 -,false,2024-03-03 17:45:05.216416,16.595,0.207,235.0,292.8220520019531,106.5785140991211,84.958251953125,0.0,20.0,51.0,0.0,-20.0
32,80,100,60,moving_belt,blue,false,true,joint 1 -,false,2024-03-03 17:45:05.942799,16.595,0.161,235.0,292.8220520019531,106.5785140991211,84.958251953125,0.0,20.0,51.0,0.0,-20.0
32,80,100,60,moving_belt,blue,false,true,joint 1 -,false,2024-03-03 17:45:07.320192,16.538,0.161,235.0,292.8220520019531,106.5785140991211,84.958251953125,0.0,20.0,51.0,0.0,-20.0
32,80,100,60,moving_belt,blue,false,true,joint 1 -,false,2024-03-03 17:45:08.014899,16.538,0.16,235.0,292.8220520019531,106.5785140991211,84.958251953125,0.0,20.0,51.0,0.0,-20.0
32,80,100,60,go_to_pick_down,blue,true,false,joint 3 +,false,2024-03-03 17:45:08.747682,16.595,0.16,235.0,292.8220520019531,106.5785140991211,84.958251953125,0.0,20.0,51.0,0.0,-20.0
32,80,100,60,go_to_pick_up_from_pick_down,blue,true,false,joint 3 -,true,2024-03-03 17:45:10.136331,16.557,0.16,235.0,282.8036193847656,102.9321060180664,29.996570587158203,0.0,20.0,51.0,21.9918270111084,-20.0
32,80,100,60,go_to_color_detect_up_from_pick_up,blue,true,false,joint 1 +,true,2024-03-03 17:45:10.829591,18.988,0.158,235.0,292.74755859375,106.78292846679688,84.958251953125,0.04000091552734375,20.1200008392334,51.0,0.0,-20.0
32,80,100,60,go_to_color_detect_up_from_pick_up,blue,true,false,joint 1 +,true,2024-03-03 17:45:12.230731,22.557,0.158,235.0,161.57598876953125,266.45245361328125,84.958251953125,38.76749801635742,59.4537467956543,51.0,0.0,-20.0
32,80,100,60,go_to_color_detect_down,blue,true,false,joint 3 +,true,2024-03-03 17:45:12.946938,22.557,0.206,235.0,129.5434112548828,277.8067321777344,46.61454772949219,45.0,65.0,51.0,16.239999771118164,-20.0
32,80,100,60,go_to_color_detect_up_from_color_detect_down,blue,true,false,joint 3 -,false,2024-03-03 17:45:14.329441,22.026,0.206,235.0,112.5685043334961,241.4039306640625,-21.14051055908203,45.0,65.0,51.0,45.79999542236328,-20.0
32,80,100,60,go_to_color_detect_up_from_color_detect_down,blue,true,false,joint 3 -,false,2024-03-03 17:45:15.018753,21.969,0.203,235.0,131.6156005859375,282.25054931640625,77.5723648071289,45.0,65.0,51.0,2.4199905395507812,-20.0
32,80,100,60,detecting_color,blue,false,false,detecting_color,false,2024-03-03 17:45:15.711175,17.317,0.203,235.0,131.69407653808594,282.4188232421875,84.958251953125,45.0,65.0,51.0,0.0,-20.0
32,80,100,60,go_to_color_detect_down,blue,true,false,joint 3 +,false,2024-03-03 17:45:17.119907,16.557,0.159,235.0,131.69393920898438,282.4185485839844,84.65037536621094,45.0,65.0,51.0,0.23999999463558197,-20.0
32,80,100,60,go_to_color_detect_down,blue,true,false,joint 3 +,false,2024-03-03 17:45:17.812233,16.557,0.159,235.0,116.61158752441406,250.0743408203125,-11.055732727050781,45.0,65.0,51.0,41.52000427246094,-20.0
32,80,100,60,go_to_color_detect_up_from_color_detect_down,blue,true,false,joint 3 -,true,2024-03-03 17:45:19.195816,19.215,0.159,235.0,121.0972900390625,259.6939697265625,2.8420028686523438,45.0,65.0,51.0,32.87999725341797,-20.0
32,80,100,60,go_to_red_up,red,true,false,joint 1 +,true,2024-03-03 17:45:19.886516,19.215,0.159,235.0,124.55525970458984,285.6391296386719,84.958251953125,46.44000244140625,66.80000305175781,51.0,0.0,-20.0
32,80,100,60,go_to_red_up,red,true,false,joint 1 +,true,2024-03-03 17:45:21.287450,22.291,0.208,235.0,-131.6447296142578,282.44183349609375,84.958251953125,94.989990234375,115.864990234375,51.0,0.0,-20.0
32,80,100,60,go_to_pick_up_from_red,red,true,false,joint 1 -,false,2024-03-03 17:45:21.982250,22.633,0.208,235.0,-131.10226440429688,282.69403076171875,84.958251953125,94.87999725341797,113.95999908447266,51.0,0.0,-20.0
32,80,100,60,go_to_pick_up_from_red,red,true,false,joint 1 -,false,2024-03-03 17:45:23.380157,16.519,0.159,235.0,210.28292846679688,229.9669952392578,84.958251953125,27.56005096435547,46.280052185058594,51.0,0.0,-20.0
32,80,100,60,moving_belt,red,false,true,joint 1 -,false,2024-03-03 17:45:24.072847,16.519,0.159,235.0,292.8220520019531,106.5785140991211,84.958251953125,0.0,20.0,51.0,0.0,-20.0
32,80,100,60,moving_belt,red,false,true,joint 1 -,false,2024-03-03 17:45:24.778480,16.557,0.159,235.0,292.8220520019531,106.5785140991211,84.958251953125,0.0,20.0,51.0,0.0,-20.0
32,80,100,60,moving_belt,red,false,true,joint 1 -,false,2024-03-03 17:45:26.179958,16.538,0.159,235.0,292.8220520019531,106.5785140991211,84.958251953125,0.0,20.0,51.0,0.0,-20.0
32,80,100,60,moving_belt,red,false,true,joint 1 -,false,2024-03-03 17:45:26.887591,16.576,0.159,235.0,292.8220520019531,106.5785140991211,84.958251953125,0.0,20.0,51.0,0.0,-20.0
32,80,100,60,moving_belt,red,false,true,joint 1 -,false,2024-03-03 17:45:28.280641,16.367,0.157,235.0,292.8220520019531,106.5785140991211,84.958251953125,0.0,20.0,51.0,0.0,-20.0
32,80,100,60,go_to_pick_down,red,true,false,joint 3 +,false,2024-03-03 17:45:29.005994,16.367,0.157,235.0,284.6309814453125,103.59720611572266,35.090972900390625,0.0,20.0,51.0,20.226327896118164,-20.0
32,80,100,60,go_to_pick_up_from_pick_down,red,true,false,joint 3 -,true,2024-03-03 17:45:29.707361,16.69,0.157,235.0,292.54974365234375,106.47940063476562,75.73231506347656,0.0,20.0,51.0,3.0821664333343506,-20.0
32,80,100,60,go_to_color_detect_up_from_pick_up,red,true,false,joint 1 +,true,2024-03-03 17:45:31.101418,21.57,0.168,235.0,201.5284881591797,237.67625427246094,84.958251953125,29.704998016357422,50.7912483215332,51.0,0.0,-20.0
32,80,100,60,go_to_color_detect_down,red,true,false,joint 3 +,true,2024-03-03 17:45:31.798079,22.443,0.168,235.0,131.2519073486328,281.4706115722656,67.45097351074219,45.0,65.0,51.0,7.59999942779541,-20.0
32,80,100,60,go_to_color_detect_up_from_color_detect_down,red,true,false,joint 3 -,false,2024-03-03 17:45:33.196411,22.196,0.209,235.0,111.28367614746094,238.6486053466797,-23.97449493408203,45.0,65.0,51.0,47.91999816894531,-20.0
32,80,100,60,go_to_color_detect_up_from_color_detect_down,red,true,false,joint 3 -,false,2024-03-03 17:45:33.889118,19.937,0.209,235.0,130.95944213867188,280.8434143066406,62.41864776611328,45.0,65.0,51.0,7.999990940093994,-20.0
32,80,100,60,detecting_color,red,false,false,detecting_color,false,2024-03-03 17:45:35.274103,17.279,0.163,235.0,131.69407653808594,282.4188232421875,84.958251953125,45.0,65.0,51.0,0.0,-20.0
32,80,100,60,detecting_color,red,false,false,detecting_color,false,2024-03-03 17:45:35.968780,17.279,0.163,235.0,131.69407653808594,282.4188232421875,84.958251953125,45.0,65.0,51.0,0.0,-20.0
32,80,100,60,detecting_color,red,false,false,detecting_color,false,2024-03-03 17:45:37.358133,16.519,0.16,235.0,131.69407653808594,282.4188232421875,84.958251953125,45.0,65.0,51.0,0.0,-20.0
32,80,100,60,detecting_color,red,false,false,detecting_color,false,2024-03-03 17:45:38.050815,16.652,0.16,235.0,131.69407653808594,282.4188232421875,84.958251953125,45.0,65.0,51.0,0.0,-20.0
32,80,100,60,detecting_color,red,false,false,detecting_color,false,2024-03-03 17:45:38.757444,16.595,0.16,235.0,131.69407653808594,282.4188232421875,84.958251953125,45.0,65.0,51.0,0.0,-20.0
32,80,100,60,go_to_color_detect_down,red,true,false,joint 3 +,false,2024-03-03 17:45:40.270418,16.595,0.16,235.0,129.83819580078125,278.4388732910156,49.296165466308594,45.0,65.0,51.0,15.119999885559082,-20.0
32,80,100,60,go_to_color_detect_up_from_color_detect_down,red,true,false,joint 3 -,true,2024-03-03 17:45:40.978051,16.595,0.16,235.0,111.17107391357422,238.40711975097656,-24.215347290039062,45.0,65.0,51.0,47.87999725341797,-20.0
32,80,100,60,go_to_color_detect_up_from_color_detect_down,red,true,false,joint 3 -,true,2024-03-03 17:45:42.360030,23.564,0.16,235.0,131.08949279785156,281.1222839355469,64.49982452392578,45.0,65.0,51.0,7.2199907302856445,-20.0
32,80,100,60,go_to_green_up,green,true,false,joint 1 +,true,2024-03-03 17:45:43.059716,22.747,0.211,235.0,28.0257511138916,310.35186767578125,84.958251953125,64.84000396728516,86.08982849121094,51.0,0.0,-20.0
32,80,100,60,go_to_pick_up_from_green,green,true,false,joint 1 -,false,2024-03-03 17:45:43.771304,22.747,0.211,235.0,-61.379634857177734,305.5098571777344,84.958251953125,81.35999298095703,100.79999542236328,51.0,0.0,-20.0
32,80,100,60,go_to_pick_up_from_green,green,true,false,joint 1 -,false,2024-03-03 17:45:45.174807,16.709,0.211,235.0,213.4733428955078,227.0084991455078,84.958251953125,26.760032653808594,45.48003387451172,51.0,0.0,-20.0
32,80,100,60,moving_belt,green,false,true,joint 1 -,false,2024-03-03 17:45:45.870480,16.709,0.16,235.0,292.8220520019531,106.5785140991211,84.958251953125,0.0,20.0,51.0,0.0,-20.0
32,80,100,60,moving_belt,green,false,true,joint 1 -,false,2024-03-03 17:45:47.252785,16.633,0.16,235.0,292.8220520019531,106.5785140991211,84.958251953125,0.0,20.0,51.0,0.0,-20.0
32,80,100,60,moving_belt,green,false,true,joint 1 -,false,2024-03-03 17:45:47.942469,16.576,0.159,235.0,292.8220520019531,106.5785140991211,84.958251953125,0.0,20.0,51.0,0.0,-20.0
32,80,100,60,moving_belt,green,false,true,joint 1 -,false,2024-03-03 17:45:49.325850,16.595,0.159,235.0,292.8220520019531,106.5785140991211,84.958251953125,0.0,20.0,51.0,0.0,-20.0
32,80,100,60,moving_belt,green,false,true,joint 1 -,false,2024-03-03 17:45:50.020142,16.557,0.159,235.0,292.8220520019531,106.5785140991211,84.958251953125,0.0,20.0,51.0,0.0,-20.0
32,80,100,60,go_to_pick_down,green,true,false,joint 3 +,false,2024-03-03 17:45:51.402076,16.405,0.159,235.0,283.73455810546875,103.27093505859375,32.52097702026367,0.0,20.0,51.0,21.174827575683594,-20.0
32,80,100,60,go_to_pick_up_from_pick_down,green,true,false,joint 3 -,true,2024-03-03 17:45:52.184091,23.317,0.18,235.0,292.8217468261719,106.57840728759766,84.64908599853516,0.0,20.0,51.0,0.04433741420507431,-20.0
32,80,100,60,go_to_color_detect_up_from_pick_up,green,true,false,joint 1 +,true,2024-03-03 17:45:52.879773,23.317,0.18,235.0,183.9975128173828,251.49282836914062,84.958251953125,33.80999755859375,54.73624801635742,51.0,0.0,-20.0
32,80,100,60,go_to_color_detect_down,green,true,false,joint 3 +,true,2024-03-03 17:45:54.278728,22.557,0.206,235.0,130.88796997070312,280.69012451171875,61.35441970825195,45.0,65.0,51.0,10.119999885559082,-20.0
32,80,100,60,go_to_color_detect_up_from_color_detect_down,green,true,false,joint 3 -,false,2024-03-03 17:45:54.967424,22.253,0.206,235.0,111.23545837402344,238.54519653320312,-24.077789306640625,45.0,65.0,51.0,47.7599983215332,-20.0
32,80,100,60,go_to_color_detect_up_from_color_detect_down,green,true,false,joint 3 -,false,2024-03-03 17:45:56.354419,19.443,0.164,235.0,131.2014923095703,281.36248779296875,66.48338317871094,45.0,65.0,51.0,6.4799909591674805,-20.0
32,80,100,60,detecting_color,green,false,false,detecting_color,false,2024-03-03 17:45:57.054181,17.108,0.164,235.0,131.69407653808594,282.4188232421875,84.958251953125,45.0,65.0,51.0,0.0,-20.0
32,80,100,60,go_to_color_detect_down,green,true,false,joint 3 +,false,2024-03-03 17:45:57.751851,17.108,0.164,235.0,131.6935272216797,282.41766357421875,84.34249877929688,45.0,65.0,51.0,0.3999999761581421,-20.0
32,80,100,60,go_to_color_detect_down,green,true,false,joint 3 +,false,2024-03-03 17:45:59.408058,16.595,0.162,235.0,116.0835952758789,248.9420623779297,-12.485328674316406,45.0,65.0,51.0,42.22000503540039,-20.0
32,80,100,60,go_to_color_detect_up_from_color_detect_down,green,true,false,joint 3 -,true,2024-03-03 17:46:00.103923,16.747,0.162,235.0,124.98181915283203,268.02435302734375,18.496116638183594,45.0,65.0,51.0,25.599994659423828,-20.0
32,80,100,60,go_to_blue_up,blue,true,false,joint 1 +,true,2024-03-03 17:46:00.795255,23.545,0.217,235.0,124.55525970458984,285.6391296386719,84.958251953125,46.44000244140625,66.80000305175781,51.0,0.0,-20.0
32,80,100,60,go_to_pick_up_from_blue,blue,true,false,joint 1 -,false,2024-03-03 17:46:02.172835,22.918,0.217,235.0,36.89640426635742,309.42266845703125,84.958251953125,63.19999694824219,82.79999542236328,51.0,0.0,-20.0
32,80,100,60,go_to_pick_up_from_blue,blue,true,false,joint 1 -,false,2024-03-03 17:46:02.862720,22.462,0.184,235.0,276.57177734375,143.56805419921875,84.958251953125,7.433767318725586,26.682518005371094,51.0,0.0,-20.0
32,80,100,60,moving_belt,blue,false,true,joint 1 -,false,2024-03-03 17:46:04.302199,16.823,0.184,235.0,292.8220520019531,106.5785140991211,84.958251953125,0.0,20.0,51.0,0.0,-20.0
32,80,100,60,moving_belt,blue,false,true,joint 1 -,false,2024-03-03 17:46:04.993140,16.576,0.158,235.0,292.8220520019531,106.5785140991211,84.958251953125,0.0,20.0,51.0,0.0,-20.0
32,80,100,60,moving_belt,blue,false,true,joint 1 -,false,2024-03-03 17:46:06.377104,16.519,0.158,235.0,292.8220520019531,106.5785140991211,84.958251953125,0.0,20.0,51.0,0.0,-20.0
32,80,100,60,moving_belt,blue,false,true,joint 1 -,false,2024-03-03 17:46:07.067786,16.519,0.159,235.0,292.8220520019531,106.5785140991211,84.958251953125,0.0,20.0,51.0,0.0,-20.0
32,80,100,60,go_to_pick_down,blue,true,false,joint 3 +,false,2024-03-03 17:46:07.766457,16.272,0.159,235.0,292.822021484375,106.57849884033203,84.85562896728516,0.0,20.0,51.0,0.11999999731779099,-20.0
32,80,100,60,go_to_pick_up_from_pick_down,blue,true,false,joint 3 -,true,2024-03-03 17:46:09.184871,16.5,0.159,235.0,282.76361083984375,102.91754913330078,29.89107894897461,0.0,20.0,51.0,21.959999084472656,-20.0
32,80,100,60,go_to_color_detect_up_from_pick_up,blue,true,false,joint 1 +,true,2024-03-03 17:46:09.877561,16.975,0.159,235.0,292.07086181640625,108.62020111083984,84.958251953125,0.40000152587890625,20.60000228881836,51.0,0.0,-20.0
32,80,100,60,go_to_color_detect_up_from_pick_up,blue,true,false,joint 1 +,true,2024-03-03 17:46:11.371765,23.032,0.213,235.0,152.46913146972656,271.7662353515625,84.958251953125,40.70624923706055,61.272499084472656,51.0,0.0,-20.0
32,80,100,60,go_to_color_detect_down,blue,true,false,joint 3 +,true,2024-03-03 17:46:12.073626,23.032,0.213,235.0,125.29210662841797,268.68975830078125,19.964820861816406,45.0,65.0,51.0,27.520004272460938,-20.0
32,80,100,60,go_to_color_detect_up_from_color_detect_down,blue,true,false,joint 3 -,false,2024-03-03 17:46:12.767921,22.386,0.213,235.0,113.59001922607422,243.59457397460938,-18.768508911132812,45.0,65.0,51.0,44.3599967956543,-20.0
32,80,100,60,go_to_color_detect_up_from_color_detect_down,blue,true,false,joint 3 -,false,2024-03-03 17:46:14.189166,22.272,0.205,235.0,131.66925048828125,282.3656005859375,80.80250549316406,45.0,65.0,51.0,1.2799904346466064,-20.0
32,80,100,60,detecting_color,blue,false,false,detecting_color,false,2024-03-03 17:46:14.882838,17.336,0.205,235.0,131.69407653808594,282.4188232421875,84.958251953125,45.0,65.0,51.0,0.0,-20.0
32,80,100,60,go_to_color_detect_down,blue,true,false,joint 3 +,false,2024-03-03 17:46:16.310100,16.519,0.161,235.0,131.2519073486328,281.4706115722656,67.45097351074219,45.0,65.0,51.0,7.59999942779541,-20.0
32,80,100,60,go_to_color_detect_down,blue,true,false,joint 3 +,true,2024-03-03 17:46:17.004395,16.538,0.161,235.0,111.28367614746094,238.6486053466797,-23.97449493408203,45.0,65.0,51.0,47.91999816894531,-20.0
32,80,100,60,go_to_color_detect_up_from_color_detect_down,blue,true,false,joint 3 -,true,2024-03-03 17:46:18.388718,18.247,0.167,235.0,130.63792419433594,280.1539306640625,57.967864990234375,45.0,65.0,51.0,9.679990768432617,-20.0
32,80,100,60,go_to_red_up,red,true,false,joint 1 +,true,2024-03-03 17:46:19.080045,23.583,0.167,235.0,84.63713073730469,299.9004821777344,84.958251953125,54.24000549316406,75.12000274658203,51.0,0.0,-20.0
32,80,100,60,go_to_red_up,red,true,false,joint 1 +,true,2024-03-03 17:46:19.769738,22.462,0.167,235.0,-172.44483947753906,259.5505676269531,84.958251953125,103.59998321533203,123.91498565673828,51.0,0.0,-20.0
32,80,100,60,go_to_pick_up_from_red,red,true,false,joint 1 -,false,2024-03-03 17:46:21.156114,23.013,0.211,235.0,1.0876591205596924,311.6128234863281,84.958251953125,69.80001068115234,88.52001190185547,51.0,0.0,-20.0
32,80,100,60,go_to_pick_up_from_red,red,true,false,joint 1 -,false,2024-03-03 17:46:21.845838,16.633,0.211,235.0,269.4606628417969,156.50775146484375,84.958251953125,10.148811340332031,29.267560958862305,51.0,0.0,-20.0
32,80,100,60,moving_belt,red,false,true,joint 1 -,false,2024-03-03 17:46:23.255933,16.69,0.16,235.0,292.8220520019531,106.5785140991211,84.958251953125,0.0,20.0,51.0,0.0,-20.0
32,80,100,60,moving_belt,red,false,true,joint 1 -,false,2024-03-03 17:46:23.953553,16.69,0.16,235.0,292.8220520019531,106.5785140991211,84.958251953125,0.0,20.0,51.0,0.0,-20.0
32,80,100,60,moving_belt,red,false,true,joint 1 -,false,2024-03-03 17:46:25.334130,16.538,0.159,235.0,292.8220520019531,106.5785140991211,84.958251953125,0.0,20.0,51.0,0.0,-20.0
32,80,100,60,moving_belt,red,false,true,joint 1 -,false,2024-03-03 17:46:26.025426,16.538,0.159,235.0,292.8220520019531,106.5785140991211,84.958251953125,0.0,20.0,51.0,0.0,-20.0
32,80,100,60,go_to_pick_down,red,true,false,joint 3 +,false,2024-03-03 17:46:27.412416,16.424,0.159,235.0,292.8208312988281,106.57807159423828,84.34249877929688,0.0,20.0,51.0,0.4000000059604645,-20.0
32,80,100,60,go_to_pick_up_from_pick_down,red,true,false,joint 3 -,true,2024-03-03 17:46:28.105800,16.538,0.159,235.0,282.7997131347656,102.93067932128906,29.986251831054688,0.0,20.0,51.0,21.8799991607666,-20.0
32,80,100,60,go_to_color_detect_up_from_pick_up,red,true,false,joint 1 +,true,2024-03-03 17:46:28.797068,16.538,0.175,235.0,292.8220520019531,106.5785140991211,84.958251953125,0.0,20.040000915527344,51.0,0.0,-20.0
32,80,100,60,go_to_color_detect_up_from_pick_up,red,true,false,joint 1 +,true,2024-03-03 17:46:30.249446,22.519,0.175,235.0,147.25975036621094,274.6239013671875,84.958251953125,41.79874801635742,62.284996032714844,51.0,0.0,-20.0
32,80,100,60,go_to_color_detect_down,red,true,false,joint 3 +,true,2024-03-03 17:46:30.939895,22.538,0.208,235.0,127.52101135253906,273.4696960449219,31.990848541259766,45.0,65.0,51.0,22.400001525878906,-20.0
32,80,100,60,go_to_color_detect_up_from_color_detect_down,red,true,false,joint 3 -,false,2024-03-03 17:46:32.319871,21.95,0.208,235.0,111.81121826171875,239.7799072265625,-22.83026885986328,45.0,65.0,51.0,46.87999725341797,-20.0
32,80,100,60,go_to_color_detect_up_from_color_detect_down,red,true,false,joint 3 -,false,2024-03-03 17:46:33.007882,21.817,0.162,235.0,131.66925048828125,282.3656005859375,80.80250549316406,45.0,65.0,51.0,1.2799904346466064,-20.0
32,80,100,60,detecting_color,red,false,false,detecting_color,false,2024-03-03 17:46:34.417405,17.298,0.162,235.0,131.69407653808594,282.4188232421875,84.958251953125,45.0,65.0,51.0,0.0,-20.0
32,80,100,60,detecting_color,red,false,false,detecting_color,false,2024-03-03 17:46:35.118065,16.481,0.162,235.0,131.69407653808594,282.4188232421875,84.958251953125,45.0,65.0,51.0,0.0,-20.0
32,80,100,60,detecting_color,red,false,false,detecting_color,false,2024-03-03 17:46:35.809751,16.481,0.16,235.0,131.69407653808594,282.4188232421875,84.958251953125,45.0,65.0,51.0,0.0,-20.0
32,80,100,60,go_to_color_detect_down,red,true,false,joint 3 +,false,2024-03-03 17:46:37.196123,16.595,0.16,235.0,130.3365020751953,279.50750732421875,54.39522933959961,45.0,65.0,51.0,13.0,-20.0
32,80,100,60,go_to_color_detect_up_from_color_detect_down,red,true,false,joint 3 -,true,2024-03-03 17:46:37.884185,16.462,0.16,235.0,111.13883972167969,238.33799743652344,-24.284042358398438,45.0,65.0,51.0,48.0,-20.0
32,80,100,60,go_to_color_detect_up_from_color_detect_down,red,true,false,joint 3 -,true,2024-03-03 17:46:39.282625,16.462,0.16,235.0,130.8095703125,280.5220031738281,60.24091339111328,45.0,65.0,51.0,8.819991111755371,-20.0
32,80,100,60,go_to_green_up,green,true,false,joint 1 +,true,2024-03-03 17:46:39.979496,23.469,0.217,235.0,47.45757293701172,307.979736328125,84.958251953125,61.24000549316406,82.40000915527344,51.0,0.0,-20.0
32,80,100,60,go_to_pick_up_from_green,green,true,false,joint 1 -,false,2024-03-03 17:46:41.385793,22.367,0.217,235.0,-73.06226348876953,302.928466796875,84.958251953125,83.55999755859375,103.19999694824219,51.0,0.0,-20.0
32,80,100,60,go_to_pick_up_from_green,green,true,false,joint 1 -,false,2024-03-03 17:46:42.107379,22.367,0.196,235.0,192.36293029785156,245.15350341796875,84.958251953125,31.880027770996094,50.60002899169922,51.0,0.0,-20.0
32,80,100,60,moving_belt,green,false,true,joint 1 -,false,2024-03-03 17:46:42.805046,16.633,0.196,235.0,292.8220520019531,106.5785140991211,84.958251953125,0.0,20.0,51.0,0.0,-20.0
32,80,100,60,moving_belt,green,false,true,joint 1 -,false,2024-03-03 17:46:44.192805,16.557,0.159,235.0,292.8220520019531,106.5785140991211,84.958251953125,0.0,20.0,51.0,0.0,-20.0
32,80,100,60,moving_belt,green,false,true,joint 1 -,false,2024-03-03 17:46:44.906384,16.557,0.159,235.0,292.8220520019531,106.5785140991211,84.958251953125,0.0,20.0,51.0,0.0,-20.0
32,80,100,60,moving_belt,green,false,true,joint 1 -,false,2024-03-03 17:46:46.342572,16.69,0.161,235.0,292.8220520019531,106.5785140991211,84.958251953125,0.0,20.0,51.0,0.0,-20.0
32,80,100,60,moving_belt,green,false,true,joint 1 -,false,2024-03-03 17:46:47.043229,16.69,0.161,235.0,292.8220520019531,106.5785140991211,84.958251953125,0.0,20.0,51.0,0.0,-20.0
32,80,100,60,go_to_pick_down,green,true,false,joint 3 +,false,2024-03-03 17:46:47.754025,16.69,0.161,235.0,285.7587890625,104.0076904296875,38.55379104614258,0.0,20.0,51.0,18.917829513549805,-20.0
32,80,100,60,go_to_pick_up_from_pick_down,green,true,false,joint 3 -,true,2024-03-03 17:46:49.157967,16.519,0.158,235.0,292.755859375,106.5544204711914,80.40839385986328,0.0,20.0,51.0,1.417501449584961,-20.0
32,80,100,60,go_to_color_detect_up_from_pick_up,green,true,false,joint 1 +,true,2024-03-03 17:46:49.846664,23.412,0.158,235.0,215.65745544433594,224.93463134765625,84.958251953125,26.206249237060547,47.412498474121094,51.0,0.0,-20.0
32,80,100,60,go_to_color_detect_down,green,true,false,joint 3 +,true,2024-03-03 17:46:51.230797,22.367,0.207,235.0,131.56875610351562,282.15008544921875,75.62562561035156,45.0,65.0,51.0,4.200000286102295,-20.0
32,80,100,60,go_to_color_detect_down,green,true,false,joint 3 +,true,2024-03-03 17:46:51.922484,22.329,0.207,235.0,112.1597900390625,240.52743530273438,-22.059532165527344,45.0,65.0,51.0,47.02000045776367,-20.0
32,80,100,60,go_to_color_detect_up_from_color_detect_down,green,true,false,joint 3 -,false,2024-03-03 17:46:53.307170,18.076,0.207,235.0,129.6934814453125,278.1285705566406,47.9537353515625,45.0,65.0,51.0,13.519990921020508,-20.0
32,80,100,60,detecting_color,green,false,false,detecting_color,false,2024-03-03 17:46:54.005426,18.076,0.207,235.0,131.69407653808594,282.4188232421875,84.958251953125,45.0,65.0,51.0,0.0,-20.0
32,80,100,60,detecting_color,green,false,false,detecting_color,false,2024-03-03 17:46:54.738983,16.823,0.159,235.0,131.69407653808594,282.4188232421875,84.958251953125,45.0,65.0,51.0,0.0,-20.0
32,80,100,60,go_to_color_detect_down,green,true,false,joint 3 +,false,2024-03-03 17:46:55.544682,16.823,0.159,235.0,125.29210662841797,268.68975830078125,19.964820861816406,45.0,65.0,51.0,27.520004272460938,-20.0
32,80,100,60,go_to_color_detect_up_from_color_detect_down,green,true,false,joint 3 -,true,2024-03-03 17:46:57.337945,16.576,0.159,235.0,113.22123718261719,242.8037109375,-19.637489318847656,45.0,65.0,51.0,44.87999725341797,-20.0
32,80,100,60,go_to_color_detect_up_from_color_detect_down,green,true,false,joint 3 -,true,2024-03-03 17:46:58.138537,23.526,0.159,235.0,131.69309997558594,282.416748046875,84.13727569580078,45.0,65.0,51.0,0.17999018728733063,-20.0
32,80,100,60,go_to_blue_up,blue,true,false,joint 1 +,true,2024-03-03 17:46:58.957404,22.709,0.159,235.0,29.112285614013672,310.2518615722656,84.958251953125,64.6393814086914,84.78823852539062,51.0,0.0,-20.0
32,80,100,60,go_to_pick_up_from_blue,blue,true,false,joint 1 -,false,2024-03-03 17:47:00.352443,22.386,0.208,235.0,179.09104919433594,255.01004028320312,84.958251953125,34.920005798339844,53.64000701904297,51.0,0.0,-20.0
32,80,100,60,moving_belt,blue,false,true,joint 1 -,false,2024-03-03 17:47:01.065059,16.671,0.208,235.0,292.8220520019531,106.5785140991211,84.958251953125,0.0,20.0,51.0,0.0,-20.0
32,80,100,60,moving_belt,blue,false,true,joint 1 -,false,2024-03-03 17:47:01.752759,16.671,0.16,235.0,292.8220520019531,106.5785140991211,84.958251953125,0.0,20.0,51.0,0.0,-20.0
32,80,100,60,moving_belt,blue,false,true,joint 1 -,false,2024-03-03 17:47:03.155857,16.804,0.16,235.0,292.8220520019531,106.5785140991211,84.958251953125,0.0,20.0,51.0,0.0,-20.0
32,80,100,60,moving_belt,blue,false,true,joint 1 -,false,2024-03-03 17:47:03.848246,16.367,0.159,235.0,292.8220520019531,106.5785140991211,84.958251953125,0.0,20.0,51.0,0.0,-20.0
32,80,100,60,moving_belt,blue,false,true,joint 1 -,false,2024-03-03 17:47:05.229626,16.5,0.159,235.0,292.8220520019531,106.5785140991211,84.958251953125,0.0,20.0,51.0,0.0,-20.0
32,80,100,60,go_to_pick_down,blue,true,false,joint 3 +,false,2024-03-03 17:47:05.928546,16.576,0.158,235.0,286.6092224121094,104.31723022460938,41.36827850341797,0.0,20.0,51.0,17.845497131347656,-20.0
32,80,100,60,go_to_pick_up_from_pick_down,blue,true,false,joint 3 -,true,2024-03-03 17:47:07.361599,17.051,0.158,235.0,292.6222229003906,106.50578308105469,77.05435180664062,0.0,20.0,51.0,2.6060001850128174,-20.0
32,80,100,60,go_to_color_detect_up_from_pick_up,blue,true,false,joint 1 +,true,2024-03-03 17:47:08.051924,23.241,0.213,235.0,230.11355590820312,210.12254333496094,84.958251953125,22.400001525878906,43.68000030517578,51.0,0.0,-20.0
32,80,100,60,go_to_color_detect_down,blue,true,false,joint 3 +,true,2024-03-03 17:47:09.457713,22.614,0.213,235.0,131.64828491210938,282.3206481933594,79.31524658203125,45.0,65.0,51.0,2.640000104904175,-20.0
32,80,100,60,go_to_color_detect_down,blue,true,false,joint 3 +,true,2024-03-03 17:47:10.147064,22.291,0.204,235.0,111.54015350341797,239.19862365722656,-23.421524047851562,45.0,65.0,51.0,47.68000030517578,-20.0
32,80,100,60,go_to_color_detect_up_from_color_detect_down,blue,true,false,joint 3 -,false,2024-03-03 17:47:10.838759,22.291,0.204,235.0,128.23133850097656,274.9929504394531,36.56641387939453,45.0,65.0,51.0,17.99999237060547,-20.0
32,80,100,60,detecting_color,blue,false,false,detecting_color,false,2024-03-03 17:47:12.225707,17.165,0.168,235.0,131.69407653808594,282.4188232421875,84.958251953125,45.0,65.0,51.0,0.0,-20.0
32,80,100,60,go_to_color_detect_down,blue,true,false,joint 3 +,false,2024-03-03 17:47:12.913407,16.747,0.168,235.0,131.69407653808594,282.4188232421875,84.958251953125,45.0,65.0,51.0,0.0,-20.0
32,80,100,60,go_to_color_detect_down,blue,true,false,joint 3 +,false,2024-03-03 17:47:14.306422,16.5,0.16,235.0,120.78020477294922,259.01397705078125,1.7388153076171875,45.0,65.0,51.0,35.500003814697266,-20.0
32,80,100,60,go_to_color_detect_up_from_color_detect_down,blue,true,false,joint 3 -,true,2024-03-03 17:47:15.258247,16.5,0.16,235.0,119.82927703857422,256.9747009277344,-1.4461822509765625,45.0,65.0,51.0,35.0,-20.0
32,80,100,60,go_to_red_up,red,true,false,joint 1 +,true,2024-03-03 17:47:15.951116,17.658,0.16,235.0,131.69407653808594,282.4188232421875,84.958251953125,45.0,65.04000091552734,51.0,0.0,-20.0
32,80,100,60,go_to_red_up,red,true,false,joint 1 +,true,2024-03-03 17:47:17.343175,22.405,0.217,235.0,-88.7640380859375,298.70501708984375,84.958251953125,86.54998779296875,107.74498748779297,51.0,0.0,-20.0
32,80,100,60,go_to_pick_up_from_red,red,true,false,joint 1 -,false,2024-03-03 17:47:18.044837,22.747,0.217,235.0,-135.4285125732422,280.6471862792969,84.958251953125,95.75999450683594,114.87999725341797,51.0,0.0,-20.0
32,80,100,60,go_to_pick_up_from_red,red,true,false,joint 1 -,false,2024-03-03 17:47:19.441168,16.88,0.203,235.0,171.9007568359375,259.9112548828125,84.958251953125,36.520042419433594,55.24004364013672,51.0,0.0,-20.0
32,80,100,60,moving_belt,red,false,true,joint 1 -,false,2024-03-03 17:47:20.135843,16.88,0.203,235.0,292.8220520019531,106.5785140991211,84.958251953125,0.0,20.0,51.0,0.0,-20.0
32,80,100,60,moving_belt,red,false,true,joint 1 -,false,2024-03-03 17:47:20.828670,16.785,0.161,235.0,292.8220520019531,106.5785140991211,84.958251953125,0.0,20.0,51.0,0.0,-20.0
32,80,100,60,moving_belt,red,false,true,joint 1 -,false,2024-03-03 17:47:22.239798,16.69,0.161,235.0,292.8220520019531,106.5785140991211,84.958251953125,0.0,20.0,51.0,0.0,-20.0
32,80,100,60,moving_belt,red,false,true,joint 1 -,false,2024-03-03 17:47:22.930479,16.272,0.158,235.0,292.8220520019531,106.5785140991211,84.958251953125,0.0,20.0,51.0,0.0,-20.0
32,80,100,60,moving_belt,red,false,true,joint 1 -,false,2024-03-03 17:47:24.312844,16.557,0.158,235.0,292.8220520019531,106.5785140991211,84.958251953125,0.0,20.0,51.0,0.0,-20.0
32,80,100,60,go_to_pick_down,red,true,false,joint 3 +,false,2024-03-03 17:47:25.002538,16.557,0.159,235.0,288.4434509277344,104.98483276367188,48.24016571044922,0.0,20.0,51.0,15.220831871032715,-20.0
32,80,100,60,go_to_pick_up_from_pick_down,red,true,false,joint 3 -,true,2024-03-03 17:47:26.384556,18.741,0.159,235.0,290.7051086425781,105.8080062866211,59.321231842041016,0.0,20.0,51.0,9.16766357421875,-20.0
32,80,100,60,go_to_color_detect_up_from_pick_up,red,true,false,joint 1 +,true,2024-03-03 17:47:27.083810,18.741,0.213,235.0,251.3321533203125,184.21693420410156,84.958251953125,16.240001678466797,37.400001525878906,51.0,0.0,-20.0
32,80,100,60,go_to_color_detect_down,red,true,false,joint 3 +,true,2024-03-03 17:47:28.463769,22.804,0.213,235.0,131.68740844726562,282.404541015625,82.8031997680664,45.0,65.0,51.0,1.1200000047683716,-20.0
32,80,100,60,go_to_color_detect_down,red,true,false,joint 3 +,true,2024-03-03 17:47:29.157458,21.912,0.206,235.0,114.63298797607422,245.8312225341797,-16.229881286621094,45.0,65.0,51.0,44.08000183105469,-20.0
32,80,100,60,go_to_color_detect_up_from_color_detect_down,red,true,false,joint 3 -,false,2024-03-03 17:47:29.854128,22.215,0.206,235.0,126.73849487304688,271.79156494140625,27.42633819580078,45.0,65.0,51.0,21.759992599487305,-20.0
32,80,100,60,detecting_color,red,false,false,detecting_color,false,2024-03-03 17:47:31.063555,22.215,0.206,235.0,131.69407653808594,282.4188232421875,84.958251953125,45.0,65.0,51.0,0.0,-20.0
32,80,100,60,detecting_color,red,false,false,detecting_color,false,2024-03-03 17:47:31.769737,17.468,0.165,235.0,131.69407653808594,282.4188232421875,84.958251953125,45.0,65.0,51.0,0.0,-20.0
32,80,100,60,detecting_color,red,false,false,detecting_color,false,2024-03-03 17:47:33.173039,16.595,0.165,235.0,131.69407653808594,282.4188232421875,84.958251953125,45.0,65.0,51.0,0.0,-20.0
32,80,100,60,detecting_color,red,false,false,detecting_color,false,2024-03-03 17:47:33.867707,16.69,0.16,235.0,131.69407653808594,282.4188232421875,84.958251953125,45.0,65.0,51.0,0.0,-20.0
32,80,100,60,go_to_color_detect_down,red,true,false,joint 3 +,false,2024-03-03 17:47:34.578339,16.69,0.16,235.0,131.64828491210938,282.3206481933594,79.31524658203125,45.0,65.0,51.0,2.640000104904175,-20.0
32,80,100,60,go_to_color_detect_down,red,true,false,joint 3 +,false,2024-03-03 17:47:35.840707,16.747,0.16,235.0,111.54015350341797,239.19862365722656,-23.421524047851562,45.0,65.0,51.0,47.68000030517578,-20.0
32,80,100,60,go_to_color_detect_up_from_color_detect_down,red,true,false,joint 3 -,true,2024-03-03 17:47:37.229681,18.798,0.16,235.0,128.65347290039062,275.89825439453125,39.53277587890625,45.0,65.0,51.0,16.819992065429688,-20.0
32,80,100,60,go_to_green_up,green,true,false,joint 1 +,true,2024-03-03 17:47:37.955964,23.412,0.216,235.0,104.32667541503906,293.6318664550781,84.958251953125,50.44000244140625,71.12000274658203,51.0,0.0,-20.0
32,80,100,60,go_to_pick_up_from_green,green,true,false,joint 1 -,false,2024-03-03 17:47:39.342240,22.348,0.216,235.0,-79.39026641845703,301.3319091796875,84.958251953125,84.75999450683594,104.59999084472656,51.0,0.0,-20.0
32,80,100,60,go_to_pick_up_from_green,green,true,false,joint 1 -,false,2024-03-03 17:47:40.081540,21.456,0.169,235.0,157.87506103515625,268.6618347167969,84.958251953125,39.560020446777344,58.28002166748047,51.0,0.0,-20.0
32,80,100,60,moving_belt,green,false,true,joint 1 -,false,2024-03-03 17:47:40.887667,21.456,0.169,235.0,292.8220520019531,106.5785140991211,84.958251953125,0.0,20.0,51.0,0.0,-20.0
32,80,100,60,moving_belt,green,false,true,joint 1 -,false,2024-03-03 17:47:42.267234,16.766,0.162,235.0,292.8220520019531,106.5785140991211,84.958251953125,0.0,20.0,51.0,0.0,-20.0
32,80,100,60,moving_belt,green,false,true,joint 1 -,false,2024-03-03 17:47:42.956927,16.766,0.162,235.0,292.8220520019531,106.5785140991211,84.958251953125,0.0,20.0,51.0,0.0,-20.0
32,80,100,60,moving_belt,green,false,true,joint 1 -,false,2024-03-03 17:47:44.341228,16.5,0.162,235.0,292.8220520019531,106.5785140991211,84.958251953125,0.0,20.0,51.0,0.0,-20.0
32,80,100,60,moving_belt,green,false,true,joint 1 -,false,2024-03-03 17:47:45.029924,16.481,0.159,235.0,292.8220520019531,106.5785140991211,84.958251953125,0.0,20.0,51.0,0.0,-20.0
32,80,100,60,go_to_pick_down,green,true,false,joint 3 +,false,2024-03-03 17:47:46.452168,16.557,0.159,235.0,288.4434509277344,104.98483276367188,48.24016571044922,0.0,20.0,51.0,15.220831871032715,-20.0
32,80,100,60,go_to_pick_up_from_pick_down,green,true,false,joint 3 -,true,2024-03-03 17:47:47.155485,16.443,0.157,235.0,291.0575866699219,105.93629455566406,61.53761291503906,0.0,20.0,51.0,8.331497192382812,-20.0
32,80,100,60,go_to_color_detect_up_from_pick_up,green,true,false,joint 1 +,true,2024-03-03 17:47:47.856278,16.443,0.157,235.0,243.53326416015625,194.4100799560547,84.958251953125,18.60000228881836,39.840003967285156,51.0,0.0,-20.0
32,80,100,60,go_to_color_detect_down,green,true,false,joint 3 +,true,2024-03-03 17:47:49.247615,22.31,0.209,235.0,131.67445373535156,282.37677001953125,81.26412963867188,45.0,65.0,51.0,1.8000000715255737,-20.0
32,80,100,60,go_to_color_detect_down,green,true,false,joint 3 +,true,2024-03-03 17:47:49.940300,22.158,0.209,235.0,113.78848266601562,244.0201873779297,-18.294776916503906,45.0,65.0,51.0,45.12000274658203,-20.0
32,80,100,60,go_to_color_detect_up_from_color_detect_down,green,true,false,joint 3 -,false,2024-03-03 17:47:51.326335,22.158,0.204,235.0,128.23133850097656,274.9929504394531,36.56641387939453,45.0,65.0,51.0,17.99999237060547,-20.0
32,80,100,60,detecting_color,green,false,false,detecting_color,false,2024-03-03 17:47:52.026609,17.26,0.204,235.0,131.69407653808594,282.4188232421875,84.958251953125,45.0,65.0,51.0,0.0,-20.0
