demetriskallis/dobot_magician_pick_and_place_and_color_sorting/Sampling/WholeSystemExperiments_training_data/payload_32g/joint_measurements__armv_100_arma_100_belts_60_cube_32g_v1_red_failed.csv
cube/weight,arm/velocity_ratio,arm/acceleration_ratio,belt/speed,dobot/operation,dobot/color,dobot/moving_arm,dobot/moving_belt,dobot/operation2,dobot/suction,meross/sample_timestamp,meross/power,meross/current,meross/voltage,dobot/pose_x,dobot/pose_y,dobot/pose_z,dobot/pose_rHead,dobot/pose_joint1Angle,dobot/pose_joint2Angle,dobot/pose_joint3Angle,dobot/pose_joint4Angle
32,100,100,60,homing,,,,homing,,,,,,110.7971802,-5.572749138,8.983757019,-2.879370689,-3.279370785,-12.71200943,56.58906174,0
32,100,100,60,homing,,,,homing,,,,,,102.8015594,-41.70025253,8.983757019,-22.07935905,-22.47935867,-12.71200943,56.58906174,0
32,100,100,60,homing,,,,homing,,,,,,83.36950684,-73.18877411,8.983757019,-41.27938461,-41.67938614,-12.71200943,56.58906174,0
32,100,100,60,homing,,,,homing,,20:14.8,16.538,0.155,236.8,50.5722847,-98.73963165,8.983757019,-62.87946701,-63.27946854,-12.71200943,56.58906174,0
32,100,100,60,homing,,,,homing,,20:15.5,16.538,0.155,236.8,15.28694725,-109.8789368,8.983757019,-82.07953644,-82.47953796,-12.71200943,56.58906174,0
32,100,100,60,homing,,,,homing,,20:16.9,16.519,0.156,236.8,-21.69902039,-108.7944183,8.983757019,-101.2796097,-101.6796112,-12.71200943,56.58906174,0
32,100,100,60,homing,,,,homing,,20:17.6,16.519,0.156,236.8,-60.22525787,-93.16645813,8.983757019,-122.8796921,-123.2796936,-12.71200943,56.58906174,0
32,100,100,60,homing,,,,homing,,20:19.0,16.652,0.156,236.8,-87.51442719,-68.17842102,8.983757019,-142.0794983,-142.4794922,-12.71200943,56.58906174,0
32,100,100,60,homing,,,,homing,,20:19.7,16.348,0.157,236.8,-92.59361267,-61.10231018,8.983757019,-146.5792694,-146.5592651,-12.71200943,56.58906174,0
32,100,100,60,homing,,,,homing,,20:21.0,16.595,0.157,236.8,-77.33340454,-80.66249084,9.22428894,-133.7929077,-133.612915,-12.37946892,56.5152092,0
32,100,100,60,homing,,,,homing,,20:21.7,16.595,0.157,236.8,-48.34348297,-116.4071732,12.92340088,-112.5529327,-111.9529343,-7.125347614,55.348423,0
32,100,100,60,homing,,,,homing,,20:23.1,16.69,0.157,236.8,17.23750687,-157.4709625,17.49680328,-83.75300598,-83.15300751,4.513530254,52.7637558,0
32,100,100,60,homing,,,,homing,,20:23.8,16.69,0.158,236.8,130.4912262,-163.1893463,14.02791595,-51.35308838,-50.7530899,23.0732975,48.64215851,0
32,100,100,60,homing,,,,homing,,20:24.5,16.709,0.158,236.8,219.4127045,-91.12219238,5.528297424,-22.5531311,-21.95313072,34.45787048,46.11397171,0
32,100,100,60,homing,,,,homing,,20:25.9,16.557,0.158,236.8,249.2830505,-5.552963734,0.32409668,-1.276094675,-1.107036591,39.45768738,45.00365067,0
32,100,100,60,homing,,,,homing,,20:26.6,16.557,0.158,236.8,249.9999847,0,-7.63E-06,0,0,39.71385956,44.94676971,0
32,100,100,60,homing,,,,homing,,20:28.0,16.481,0.158,236.8,249.9999847,0,-7.63E-06,0,0,39.71385956,44.94676971,0
32,100,100,60,homing,,,,homing,,20:28.6,16.481,0.155,236.8,249.9999847,0,-7.63E-06,0,0,39.71385956,44.94676971,0
32,100,100,60,homing,,,,homing,,20:30.0,16.386,0.155,236.8,249.9999847,0.00017966,-7.63E-06,4.12E-05,4.12E-05,39.71385956,44.94676971,0
32,100,100,60,homing,,,,homing,,20:30.7,16.329,0.154,236.8,249.9999847,0.00017966,-7.63E-06,4.12E-05,4.12E-05,39.71385956,44.94676971,0
32,100,100,60,homing,,,,homing,,20:32.1,16.443,0.154,236.8,249.9999847,0.00017966,-7.63E-06,4.12E-05,4.12E-05,39.71385956,44.94676971,0
32,100,100,60,homing,,,,homing,,20:32.8,16.443,0.156,236.8,249.9999847,0.00017966,-7.63E-06,4.12E-05,4.12E-05,39.71385956,44.94676971,0
32,100,100,60,homing,,,,homing,,20:33.5,16.31,0.156,236.8,249.9999847,0.00017966,-7.63E-06,4.12E-05,4.12E-05,39.71385956,44.94676971,0
32,100,100,60,homing,,,,homing,,20:34.9,16.424,0.155,236.8,251.1135254,4.37590313,2.830596924,4.12E-05,1.178891301,39.13766861,43.602211,-1.178850174
32,100,100,60,homing,,,,homing,,20:35.6,16.348,0.155,236.8,273.5713806,97.1013031,61.28165436,4.20E-05,19.68617249,41.48500443,15.5123415,-19.68613052
32,100,100,60,go_to_pick_up_from_homing,nothing,,,go_to_pick_up_from_homing,,20:37.0,17.127,0.158,236.8,292.5946655,106.5496368,84.62099457,-1.91E-06,20.00475502,50.92360687,0.121562302,-20.00475693
32,100,100,60,moving_belt,nothing,FALSE,TRUE,go_to_pick_up_from_homing,,20:37.6,17.127,0.158,236.8,292.822052,106.5785141,84.95825195,0,20,51,0,-20
32,100,100,60,moving_belt,nothing,FALSE,TRUE,go_to_pick_up_from_homing,,20:39.0,16.367,0.158,236.8,292.822052,106.5785141,84.95825195,0,20,51,0,-20
32,100,100,60,moving_belt,nothing,FALSE,TRUE,go_to_pick_up_from_homing,,20:39.7,16.367,0.157,236.8,292.822052,106.5785141,84.95825195,0,20,51,0,-20
32,100,100,60,moving_belt,nothing,FALSE,TRUE,go_to_pick_up_from_homing,,20:41.1,16.196,0.157,236.8,292.822052,106.5785141,84.95825195,0,20,51,0,-20
32,100,100,60,go_to_pick_down,nothing,TRUE,FALSE,joint 3 +,,20:41.8,16.215,0.156,236.8,290.6729431,105.7963104,59.12882614,0,20,51,11.03999996,-20
32,100,100,60,go_to_pick_up_from_pick_down,nothing,TRUE,FALSE,joint 3 -,TRUE,20:43.2,16.196,0.156,236.8,289.4106445,105.3368607,52.49071121,0,20,51,11.8799963,-20
32,100,100,60,go_to_color_detect_up_from_pick_up,nothing,TRUE,FALSE,joint 1 +,TRUE,20:43.9,23.564,0.212,236.8,276.1540527,144.369873,84.95825195,7.600002289,28.40000153,51,0,-20
32,100,100,60,go_to_color_detect_down,nothing,TRUE,FALSE,joint 3 +,TRUE,20:44.6,22.69,0.212,236.8,131.6935272,282.4176636,84.34249878,45,65,51,0.399999917,-20
32,100,100,60,go_to_color_detect_down,nothing,TRUE,FALSE,joint 3 +,TRUE,20:46.0,22.291,0.203,236.8,115.9743576,248.7077942,-12.77654266,45,65,51,42.36306,-20
32,100,100,60,go_to_color_detect_up_from_color_detect_down,nothing,TRUE,FALSE,joint 3 -,FALSE,20:46.7,22.272,0.203,236.8,121.09729,259.6939697,2.842002869,45,65,51,32.88000107,-20
32,100,100,60,detecting_color,nothing,FALSE,FALSE,detecting_color,FALSE,20:48.2,16.785,0.162,236.8,131.6940765,282.4188232,84.95825195,45,65,51,-4.66E-10,-20
32,100,100,60,detecting_color,nothing,FALSE,FALSE,detecting_color,FALSE,20:48.9,16.424,0.162,236.8,131.6940765,282.4188232,84.95825195,45,65,51,-4.66E-10,-20
32,100,100,60,go_to_color_detect_down,nothing,TRUE,FALSE,joint 3 +,FALSE,20:49.6,16.424,0.162,236.8,125.1656494,268.4185791,19.36129761,45,65,51,27.7938385,-20
32,100,100,60,go_to_color_detect_up_from_color_detect_down,nothing,TRUE,FALSE,joint 3 -,TRUE,20:51.0,16.177,0.155,236.8,113.2212372,242.8037109,-19.63748932,45,65,51,44.87999725,-20
32,100,100,60,go_to_color_detect_up_from_color_detect_down,nothing,TRUE,FALSE,joint 3 -,TRUE,20:51.6,16.823,0.155,236.8,131.6932831,282.4171448,84.21349335,45,65,51,0.159001812,-20
32,100,100,60,go_to_red_up,red,TRUE,FALSE,joint 1 +,TRUE,20:53.0,22.443,0.212,236.8,-49.47327423,307.6623535,84.95825195,79.13516998,100.5535583,51,-4.66E-10,-20
32,100,100,60,go_to_pick_up_from_red,red,TRUE,FALSE,joint 1 -,FALSE,20:53.7,22.443,0.212,236.8,-170.6287689,260.7480469,84.95825195,103.1999969,122.7999954,51,-4.66E-10,-20
32,100,100,60,go_to_pick_up_from_red,red,TRUE,FALSE,joint 1 -,FALSE,20:55.1,16.31,0.203,236.8,198.5469055,240.1725616,84.95825195,30.41999054,48.87998962,51,-4.66E-10,-20
32,100,100,60,moving_belt,red,FALSE,TRUE,joint 1 -,FALSE,20:55.8,16.31,0.203,236.8,292.822052,106.5785141,84.95825195,0,20,51,-4.66E-10,-20
32,100,100,60,moving_belt,red,FALSE,TRUE,joint 1 -,FALSE,20:57.2,16.348,0.156,236.8,292.822052,106.5785141,84.95825195,0,20,51,-4.66E-10,-20
32,100,100,60,moving_belt,red,FALSE,TRUE,joint 1 -,FALSE,20:57.9,16.519,0.156,236.8,292.822052,106.5785141,84.95825195,0,20,51,-4.66E-10,-20
32,100,100,60,moving_belt,red,FALSE,TRUE,joint 1 -,FALSE,20:58.6,16.329,0.155,236.8,292.822052,106.5785141,84.95825195,0,20,51,-4.66E-10,-20
32,100,100,60,moving_belt,red,FALSE,TRUE,joint 1 -,FALSE,21:00.0,16.367,0.155,236.8,292.822052,106.5785141,84.95825195,0,20,51,-4.66E-10,-20
32,100,100,60,go_to_pick_down,red,TRUE,FALSE,joint 3 +,FALSE,21:00.7,16.367,0.155,236.8,285.3606262,103.8627777,37.29911804,0,20,51,19.39399529,-20
32,100,100,60,go_to_pick_up_from_pick_down,red,TRUE,FALSE,joint 3 -,TRUE,21:02.0,15.93,0.154,236.8,292.5497437,106.4794006,75.73231506,0,20,51,3.082166433,-20
32,100,100,60,go_to_color_detect_up_from_pick_up,red,TRUE,FALSE,joint 1 +,TRUE,21:02.7,23.355,0.154,236.8,201.2184601,237.938797,84.95825195,29.77968979,50.86297226,51,0,-20
32,100,100,60,go_to_color_detect_down,red,TRUE,FALSE,joint 3 +,TRUE,21:04.1,22.405,0.205,236.8,131.3400116,281.6595459,69.2864151,45,65,51,6.839998722,-20
32,100,100,60,go_to_color_detect_down,red,TRUE,FALSE,joint 3 +,FALSE,21:04.8,22.405,0.205,236.8,111.3722153,238.8384857,-23.78430176,45,65,51,47.8409996,-20
32,100,100,60,go_to_color_detect_up_from_color_detect_down,red,TRUE,FALSE,joint 3 -,FALSE,21:06.2,19.082,0.203,236.8,130.4863892,279.828949,56.11413574,45,65,51,10.3846302,-20
32,100,100,60,detecting_color,red,FALSE,FALSE,detecting_color,FALSE,21:06.9,19.082,0.203,236.8,131.6940765,282.4188232,84.95825195,45,65,51,-4.66E-10,-20
32,100,100,60,detecting_color,red,FALSE,FALSE,detecting_color,FALSE,21:07.6,16.861,0.156,236.8,131.6940765,282.4188232,84.95825195,45,65,51,-4.66E-10,-20
32,100,100,60,detecting_color,red,FALSE,FALSE,detecting_color,FALSE,21:09.0,16.12,0.156,236.8,131.6940765,282.4188232,84.95825195,45,65,51,-4.66E-10,-20
32,100,100,60,detecting_color,red,FALSE,FALSE,detecting_color,FALSE,21:09.7,16.234,0.156,236.8,131.6940765,282.4188232,84.95825195,45,65,51,-4.66E-10,-20
32,100,100,60,detecting_color,red,FALSE,FALSE,detecting_color,FALSE,21:11.1,16.291,0.156,236.8,131.6940765,282.4188232,84.95825195,45,65,51,-4.66E-10,-20
32,100,100,60,go_to_color_detect_down,red,TRUE,FALSE,joint 3 +,FALSE,21:11.7,16.291,0.156,236.8,126.9899673,272.3308411,28.84605026,45,65,51,23.79999542,-20
32,100,100,60,go_to_color_detect_up_from_color_detect_down,red,TRUE,FALSE,joint 3 -,TRUE,21:13.1,16.234,0.156,236.8,112.0333176,240.2562103,-22.34053802,45,65,51,46.55999756,-20
32,100,100,60,go_to_color_detect_up_from_color_detect_down,red,TRUE,FALSE,joint 3 -,TRUE,21:13.8,16.842,0.213,236.8,131.5928192,282.2016907,76.56852722,45,65,51,2.780535698,-20
32,100,100,60,go_to_green_up,green,TRUE,FALSE,joint 1 +,TRUE,21:15.2,22.196,0.213,236.8,-14.94397926,311.2561951,84.95825195,72.74875641,93.71858215,51,-4.66E-10,-20
32,100,100,60,go_to_pick_up_from_green,green,TRUE,FALSE,joint 1 -,FALSE,21:15.9,22.253,0.202,236.8,-35.81607437,309.5495911,84.95825195,76.59999084,95.75999451,51,-4.66E-10,-20
32,100,100,60,go_to_pick_up_from_green,green,TRUE,FALSE,joint 1 -,FALSE,21:16.6,22.253,0.202,236.8,266.4651489,161.5551147,84.95825195,11.22800636,30.30018806,51,-4.66E-10,-20
32,100,100,60,moving_belt,green,FALSE,TRUE,joint 1 -,FALSE,21:17.9,16.443,0.202,236.8,292.822052,106.5785141,84.95825195,0,20,51,-4.66E-10,-20
32,100,100,60,moving_belt,green,FALSE,TRUE,joint 1 -,FALSE,21:18.6,16.519,0.156,236.8,292.822052,106.5785141,84.95825195,0,20,51,-4.66E-10,-20
32,100,100,60,moving_belt,green,FALSE,TRUE,joint 1 -,FALSE,21:20.0,16.367,0.156,236.8,292.822052,106.5785141,84.95825195,0,20,51,-4.66E-10,-20
32,100,100,60,moving_belt,green,FALSE,TRUE,joint 1 -,FALSE,21:20.7,16.367,0.155,236.8,292.822052,106.5785141,84.95825195,0,20,51,-4.66E-10,-20
32,100,100,60,go_to_pick_down,green,TRUE,FALSE,joint 3 +,FALSE,21:22.1,16.31,0.155,236.8,292.8208313,106.5780716,84.34249878,0,20,51,0.400000006,-20
32,100,100,60,go_to_pick_up_from_pick_down,green,TRUE,FALSE,joint 3 -,TRUE,21:22.8,16.31,0.155,236.8,282.8717041,102.9568863,30.17666245,0,20,51,21.75999832,-20
32,100,100,60,go_to_color_detect_up_from_pick_up,green,TRUE,FALSE,joint 1 +,TRUE,21:24.2,22.975,0.155,236.8,290.6828918,112.2817841,84.95825195,1.120002747,21.44000244,51,0,-20
32,100,100,60,go_to_color_detect_up_from_pick_up,green,TRUE,FALSE,joint 1 +,TRUE,21:24.9,22.975,0.203,236.8,144.7928772,275.9325256,84.95825195,42.31219482,62.75547791,51,0,-20
32,100,100,60,go_to_color_detect_down,green,TRUE,FALSE,joint 3 +,TRUE,21:25.6,22.614,0.203,236.8,126.9899673,272.3308411,28.84605026,45,65,51,23.79999542,-20
32,100,100,60,go_to_color_detect_up_from_color_detect_down,green,TRUE,FALSE,joint 3 -,FALSE,21:27.0,21.988,0.203,236.8,114.8562775,246.3100739,-15.67016602,45,65,51,42.55999756,-20
32,100,100,60,go_to_color_detect_up_from_color_detect_down,green,TRUE,FALSE,joint 3 -,FALSE,21:27.7,21.988,0.203,236.8,131.6897888,282.4096375,83.23200989,45,65,51,0.461565048,-20
32,100,100,60,detecting_color,green,FALSE,FALSE,detecting_color,FALSE,21:29.1,17.146,0.156,236.8,131.6940765,282.4188232,84.95825195,45,65,51,-4.66E-10,-20
32,100,100,60,go_to_color_detect_down,green,TRUE,FALSE,joint 3 +,FALSE,21:29.7,16.177,0.156,236.8,131.6822052,282.3934021,82.08492279,45,65,51,1.4399997,-20
32,100,100,60,go_to_color_detect_down,green,TRUE,FALSE,joint 3 +,FALSE,21:31.1,16.215,0.156,236.8,114.1095123,244.7086334,-17.51932526,45,65,51,44.72818756,-20
32,100,100,60,go_to_color_detect_up_from_color_detect_down,green,TRUE,FALSE,joint 3 -,TRUE,21:31.8,17.43,0.156,236.8,127.8706589,274.2195129,34.18457794,45,65,51,18.95487976,-20
32,100,100,60,go_to_blue_up,blue,TRUE,FALSE,joint 1 +,TRUE,21:32.5,17.43,0.156,236.8,110.6565247,291.3054504,84.95825195,49.20000458,69.80000305,51,-4.66E-10,-20
32,100,100,60,go_to_pick_up_from_blue,blue,TRUE,FALSE,joint 1 -,FALSE,21:33.9,22.348,0.203,236.8,76.65227509,302.0400085,84.95825195,55.75999451,74.87999725,51,-4.66E-10,-20
32,100,100,60,go_to_pick_up_from_blue,blue,TRUE,FALSE,joint 1 -,FALSE,21:34.6,16.956,0.203,236.8,287.9406128,119.1382675,84.95825195,2.477807999,22.05290413,51,-4.66E-10,-20
32,100,100,60,moving_belt,blue,FALSE,TRUE,joint 1 -,FALSE,21:36.0,16.462,0.155,236.8,292.822052,106.5785141,84.95825195,0,20,51,-4.66E-10,-20
32,100,100,60,moving_belt,blue,FALSE,TRUE,joint 1 -,FALSE,21:36.7,16.462,0.155,236.8,292.822052,106.5785141,84.95825195,0,20,51,-4.66E-10,-20
32,100,100,60,moving_belt,blue,FALSE,TRUE,joint 1 -,FALSE,21:38.1,16.348,0.155,236.8,292.822052,106.5785141,84.95825195,0,20,51,-4.66E-10,-20
32,100,100,60,moving_belt,blue,FALSE,TRUE,joint 1 -,FALSE,21:38.8,16.291,0.155,236.8,292.822052,106.5785141,84.95825195,0,20,51,-4.66E-10,-20
32,100,100,60,go_to_pick_down,blue,TRUE,FALSE,joint 3 +,FALSE,21:40.1,16.234,0.154,236.8,292.337616,106.4021912,72.65760803,0,20,51,5.440000057,-20
32,100,100,60,go_to_pick_up_from_pick_down,blue,TRUE,FALSE,joint 3 -,TRUE,21:40.8,16.31,0.154,236.8,286.2094727,104.17173,40.0210495,0,20,51,17.19999695,-20
32,100,100,60,go_to_color_detect_up_from_pick_up,blue,TRUE,FALSE,joint 1 +,TRUE,21:42.2,23.583,0.206,236.8,284.2300415,127.7380753,84.95825195,4.20000267,24.80000305,51,0,-20
32,100,100,60,go_to_color_detect_down,blue,TRUE,FALSE,joint 3 +,TRUE,21:42.9,22.576,0.206,236.8,131.6940765,282.4188232,84.95825195,45,65,51,0,-20
32,100,100,60,go_to_color_detect_down,blue,TRUE,FALSE,joint 3 +,TRUE,21:43.6,22.253,0.206,236.8,118.7799149,254.7243347,-4.764328003,45,65,51,38.50665283,-20
32,100,100,60,go_to_color_detect_up_from_color_detect_down,blue,TRUE,FALSE,joint 3 -,FALSE,21:45.0,22.31,0.203,236.8,118.6042709,254.3476563,-5.301177979,45,65,51,36.95999908,-20
32,100,100,60,detecting_color,blue,FALSE,FALSE,detecting_color,FALSE,21:45.7,16.899,0.203,236.8,131.6940765,282.4188232,84.95825195,45,65,51,-4.66E-10,-20
32,100,100,60,detecting_color,blue,FALSE,FALSE,detecting_color,FALSE,21:47.0,16.462,0.157,236.8,131.6940765,282.4188232,84.95825195,45,65,51,-4.66E-10,-20
32,100,100,60,detecting_color,blue,FALSE,FALSE,detecting_color,FALSE,21:47.7,16.462,0.157,236.8,131.6940765,282.4188232,84.95825195,45,65,51,-4.66E-10,-20
32,100,100,60,detecting_color,blue,FALSE,FALSE,detecting_color,FALSE,21:49.1,16.101,0.156,236.8,131.6940765,282.4188232,84.95825195,45,65,51,-4.66E-10,-20
32,100,100,60,detecting_color,blue,FALSE,FALSE,detecting_color,FALSE,21:49.8,16.158,0.156,236.8,131.6940765,282.4188232,84.95825195,45,65,51,-4.66E-10,-20
32,100,100,60,detecting_color,blue,FALSE,FALSE,detecting_color,FALSE,21:51.2,16.253,0.156,236.8,131.6940765,282.4188232,84.95825195,45,65,51,-4.66E-10,-20
32,100,100,60,go_to_color_detect_down,blue,TRUE,FALSE,joint 3 +,FALSE,21:51.9,16.234,0.156,236.8,131.6925659,282.4155884,83.93200684,45,65,51,0.599999905,-20
32,100,100,60,go_to_color_detect_down,blue,TRUE,FALSE,joint 3 +,FALSE,21:52.6,16.234,0.156,236.8,115.472641,247.6318665,-14.0941925,45,65,51,43.01434326,-20
32,100,100,60,go_to_color_detect_up_from_color_detect_down,blue,TRUE,FALSE,joint 3 -,TRUE,21:54.0,16.31,0.155,236.8,122.3915176,262.4694519,7.582984924,45,65,51,30.60000229,-20
