demetriskallis/dobot_magician_pick_and_place_and_color_sorting/Sampling/WholeSystemExperiments_training_data/payload_32g/joint_measurements__armv_90_arma_100_belts_60_cube_32g.csv
cube/weight,arm/velocity_ratio,arm/acceleration_ratio,belt/speed,dobot/operation,dobot/color,dobot/moving_arm,dobot/moving_belt,dobot/operation2,dobot/suction,meross/sample_timestamp,meross/power,meross/current,meross/voltage,dobot/pose_x,dobot/pose_y,dobot/pose_z,dobot/pose_rHead,dobot/pose_joint1Angle,dobot/pose_joint2Angle,dobot/pose_joint3Angle,dobot/pose_joint4Angle
32,90,100,60,homing,,,,homing,,,,,,173.60879516601562,86.32476806640625,77.46368408203125,6.438276290893555,26.03827667236328,-0.4615764617919922,23.04000473022461,-20.0
32,90,100,60,homing,,,,homing,,,,,,193.19564819335938,16.353130340576172,77.46368408203125,-15.161706924438477,4.438292980194092,-0.4615764617919922,23.04000473022461,-20.0
32,90,100,60,homing,,,,homing,,,,,,187.82742309570312,-48.09208297729492,77.46368408203125,-34.36170196533203,-14.761702537536621,-0.4615764617919922,23.04000473022461,-20.0
32,90,100,60,homing,,,,homing,,2024-03-03 17:54:48.598760,16.462,0.156,235.0,156.9336395263672,-113.85875701904297,77.46368408203125,-55.961700439453125,-36.36170196533203,-0.4615764617919922,23.04000473022461,-20.0
32,90,100,60,homing,,,,homing,,2024-03-03 17:54:49.289460,16.462,0.157,235.0,110.75984954833984,-159.13589477539062,77.46368408203125,-75.16177368164062,-55.56177520751953,-0.4615764617919922,23.04000473022461,-20.0
32,90,100,60,homing,,,,homing,,2024-03-03 17:54:50.678427,16.481,0.157,235.0,52.2642707824707,-186.70948791503906,77.46368408203125,-94.36184692382812,-74.76184844970703,-0.4615764617919922,23.04000473022461,-20.0
32,90,100,60,homing,,,,homing,,2024-03-03 17:54:51.372207,16.462,0.16,235.0,-20.138538360595703,-192.8378143310547,77.46368408203125,-115.96192932128906,-96.36193084716797,-0.4615764617919922,23.04000473022461,-20.0
32,90,100,60,homing,,,,homing,,2024-03-03 17:54:52.082844,16.481,0.16,235.0,-82.43653869628906,-175.4884490966797,77.46368408203125,-135.16200256347656,-115.56200408935547,-0.4615764617919922,23.04000473022461,-20.0
32,90,100,60,homing,,,,homing,,2024-03-03 17:54:53.492953,16.462,0.161,235.0,-135.56329345703125,-138.61663818359375,77.46368408203125,-154.36195373535156,-134.76194763183594,-0.4615764617919922,23.04000473022461,-20.0
32,90,100,60,homing,,,,homing,,2024-03-03 17:54:54.182351,16.462,0.161,235.0,-138.0087890625,-136.18206787109375,77.46368408203125,-155.3817138671875,-135.36170959472656,-0.4615764617919922,23.04000473022461,-20.0
32,90,100,60,homing,,,,homing,,2024-03-03 17:54:55.570711,16.424,0.157,235.0,-113.60340881347656,-160.966064453125,75.20056915283203,-144.3460235595703,-124.72090911865234,1.3668601512908936,24.03700828552246,-19.089773178100586
32,90,100,60,homing,,,,homing,,2024-03-03 17:54:56.301968,16.405,0.157,235.0,-25.233976364135742,-206.91799926757812,65.6867446899414,-112.81307983398438,-96.35297393798828,8.043519973754883,27.677640914916992,-15.766020774841309
32,90,100,60,homing,,,,homing,,2024-03-03 17:54:57.127199,16.633,0.157,235.0,98.36942291259766,-206.72824096679688,42.16509246826172,-73.84553527832031,-63.95305633544922,21.327882766723633,34.92131423950195,-9.152844429016113
32,90,100,60,homing,,,,homing,,2024-03-03 17:54:57.946045,16.633,0.16,235.0,196.99598693847656,-141.83314514160156,18.280715942382812,-39.535377502441406,-35.15312957763672,32.29475021362305,40.901302337646484,-3.6933555603027344
32,90,100,60,homing,,,,homing,,2024-03-03 17:54:59.490174,16.747,0.16,235.0,246.3521728515625,-34.760101318359375,3.5253219604492188,-8.739117622375488,-7.598313808441162,38.368797302246094,44.21334457397461,-0.6695944666862488
32,90,100,60,homing,,,,homing,,2024-03-03 17:55:00.177078,16.747,0.159,235.0,250.6505126953125,0.00018012759392149746,1.2856826782226562,4.117506250622682e-05,4.117506250622682e-05,39.55319595336914,44.47693634033203,0.0
32,90,100,60,homing,,,,homing,,2024-03-03 17:55:01.567680,16.633,0.159,235.0,249.7711639404297,0.00017949564789887518,-2.9405059814453125,4.117506250622682e-05,4.117506250622682e-05,40.520477294921875,45.864601135253906,0.0
32,90,100,60,homing,,,,homing,,2024-03-03 17:55:02.257968,16.139,0.155,235.0,249.99998474121094,0.00017966009909287095,-7.62939453125e-06,4.117506250622682e-05,4.117506250622682e-05,39.71385955810547,44.94676971435547,0.0
32,90,100,60,homing,,,,homing,,2024-03-03 17:55:03.639454,16.443,0.155,235.0,250.2469940185547,0.00017983760335482657,0.2075042724609375,4.117506250622682e-05,4.117506250622682e-05,39.72407913208008,44.84253692626953,0.0
32,90,100,60,homing,,,,homing,,2024-03-03 17:55:04.327162,16.253,0.155,235.0,249.99998474121094,0.00017966009909287095,-7.62939453125e-06,4.117506250622682e-05,4.117506250622682e-05,39.71385955810547,44.94676971435547,0.0
32,90,100,60,homing,,,,homing,,2024-03-03 17:55:05.717651,16.443,0.156,235.0,249.99998474121094,0.00017966009909287095,-7.62939453125e-06,4.117506250622682e-05,4.117506250622682e-05,39.71385955810547,44.94676971435547,0.0
32,90,100,60,homing,,,,homing,,2024-03-03 17:55:06.412887,16.443,0.156,235.0,249.99998474121094,0.00017966009909287095,-7.62939453125e-06,4.117506250622682e-05,4.117506250622682e-05,39.71385955810547,44.94676971435547,0.0
32,90,100,60,homing,,,,homing,,2024-03-03 17:55:07.101583,16.652,0.158,235.0,249.99998474121094,0.00017966009909287095,-7.62939453125e-06,4.117506250622682e-05,4.117506250622682e-05,39.71385955810547,44.94676971435547,0.0
32,90,100,60,homing,,,,homing,,2024-03-03 17:55:08.483060,16.481,0.158,235.0,249.99998474121094,0.00017966009909287095,-7.62939453125e-06,4.117506250622682e-05,4.117506250622682e-05,39.71385955810547,44.94676971435547,0.0
32,90,100,60,homing,,,,homing,,2024-03-03 17:55:09.172435,16.481,0.156,235.0,256.9620056152344,28.831090927124023,18.22100830078125,4.100799560546875e-05,6.8265275955200195,37.286808013916016,36.73975372314453,-6.826486587524414
32,90,100,60,go_to_pick_up_from_homing,nothing,,,go_to_pick_up_from_homing,,2024-03-03 17:55:10.107882,16.348,0.156,235.0,274.9835510253906,102.93234252929688,64.95733642578125,4.1961669921875e-05,20.531253814697266,42.43415451049805,13.631572723388672,-20.531211853027344
32,90,100,60,moving_belt,nothing,false,true,go_to_pick_up_from_homing,,2024-03-03 17:55:11.531809,17.393,0.159,235.0,292.8220520019531,106.5785140991211,84.958251953125,0.0,20.0,51.0,0.0,-20.0
32,90,100,60,moving_belt,nothing,false,true,go_to_pick_up_from_homing,,2024-03-03 17:55:12.223495,16.709,0.159,235.0,292.8220520019531,106.5785140991211,84.958251953125,0.0,20.0,51.0,0.0,-20.0
32,90,100,60,moving_belt,nothing,false,true,go_to_pick_up_from_homing,,2024-03-03 17:55:13.607066,16.443,0.158,235.0,292.8220520019531,106.5785140991211,84.958251953125,0.0,20.0,51.0,0.0,-20.0
32,90,100,60,moving_belt,nothing,false,true,go_to_pick_up_from_homing,,2024-03-03 17:55:14.302611,16.576,0.158,235.0,292.8220520019531,106.5785140991211,84.958251953125,0.0,20.0,51.0,0.0,-20.0
32,90,100,60,moving_belt,nothing,false,true,go_to_pick_up_from_homing,,2024-03-03 17:55:15.686409,16.576,0.158,235.0,292.8220520019531,106.5785140991211,84.958251953125,0.0,20.0,51.0,0.0,-20.0
32,90,100,60,go_to_pick_down,nothing,true,false,joint 3 +,,2024-03-03 17:55:16.379093,16.576,0.158,235.0,285.3606262207031,103.86277770996094,37.29911804199219,0.0,20.0,51.0,19.39399528503418,-20.0
32,90,100,60,go_to_pick_up_from_pick_down,nothing,true,false,joint 3 -,true,2024-03-03 17:55:17.073670,16.253,0.158,235.0,292.7965393066406,106.56922149658203,82.13280487060547,0.0,20.0,51.0,0.825168788433075,-20.0
32,90,100,60,go_to_color_detect_up_from_pick_up,nothing,true,false,joint 1 +,true,2024-03-03 17:55:18.544562,22.519,0.215,235.0,205.84426879882812,233.94842529296875,84.958251953125,28.65640640258789,49.77968978881836,51.0,0.0,-20.0
32,90,100,60,go_to_color_detect_down,nothing,true,false,joint 3 +,true,2024-03-03 17:55:19.233250,22.519,0.215,235.0,131.4761962890625,281.95159912109375,72.65760803222656,45.0,65.0,51.0,5.439999103546143,-20.0
32,90,100,60,go_to_color_detect_up_from_color_detect_down,nothing,true,false,joint 3 -,false,2024-03-03 17:55:20.692710,22.386,0.207,235.0,111.14300537109375,238.34693908691406,-24.275192260742188,45.0,65.0,51.0,48.0,-20.0
32,90,100,60,go_to_color_detect_up_from_color_detect_down,nothing,true,false,joint 3 -,false,2024-03-03 17:55:21.382403,20.07,0.207,235.0,130.48638916015625,279.8289489746094,56.1141357421875,45.0,65.0,51.0,10.38463020324707,-20.0
32,90,100,60,detecting_color,nothing,false,false,detecting_color,false,2024-03-03 17:55:22.073696,20.07,0.165,235.0,131.69407653808594,282.4188232421875,84.958251953125,45.0,65.0,51.0,-4.656612873077393e-10,-20.0
32,90,100,60,go_to_color_detect_down,nothing,true,false,joint 3 +,false,2024-03-03 17:55:23.455072,17.184,0.165,235.0,131.69406127929688,282.4187927246094,84.85562896728516,45.0,65.0,51.0,0.1199999749660492,-20.0
32,90,100,60,go_to_color_detect_down,nothing,true,false,joint 3 +,false,2024-03-03 17:55:24.145070,16.614,0.165,235.0,116.49774169921875,249.8302001953125,-11.367164611816406,45.0,65.0,51.0,41.67177963256836,-20.0
32,90,100,60,go_to_color_detect_up_from_color_detect_down,nothing,true,false,joint 3 -,true,2024-03-03 17:55:25.527076,16.519,0.158,235.0,124.34054565429688,266.6491394042969,15.583740234375,45.0,65.0,51.0,26.8800048828125,-20.0
32,90,100,60,go_to_red_up,red,true,false,joint 1 +,true,2024-03-03 17:55:26.217353,23.659,0.158,235.0,126.14859008789062,284.9390563964844,84.958251953125,46.12000274658203,66.44000244140625,51.0,-4.656612873077393e-10,-20.0
32,90,100,60,go_to_red_up,red,true,false,joint 1 +,true,2024-03-03 17:55:27.603222,23.127,0.217,235.0,-133.42953491210938,281.6030578613281,84.958251953125,95.35258483886719,116.21096801757812,51.0,-4.656612873077393e-10,-20.0
32,90,100,60,go_to_pick_up_from_red,red,true,false,joint 1 -,false,2024-03-03 17:55:28.292741,22.956,0.212,235.0,-100.21675872802734,295.0599060058594,84.958251953125,88.75999450683594,107.59999084472656,51.0,-4.656612873077393e-10,-20.0
32,90,100,60,go_to_pick_up_from_red,red,true,false,joint 1 -,false,2024-03-03 17:55:29.679630,21.494,0.212,235.0,250.1410369873047,185.83108520507812,84.958251953125,16.608848571777344,35.47625732421875,51.0,-4.656612873077393e-10,-20.0
32,90,100,60,moving_belt,red,false,true,joint 1 -,false,2024-03-03 17:55:30.376898,16.728,0.212,235.0,292.8220520019531,106.5785140991211,84.958251953125,0.0,20.0,51.0,-4.656612873077393e-10,-20.0
32,90,100,60,moving_belt,red,false,true,joint 1 -,false,2024-03-03 17:55:31.083102,16.519,0.159,235.0,292.8220520019531,106.5785140991211,84.958251953125,0.0,20.0,51.0,-4.656612873077393e-10,-20.0
32,90,100,60,moving_belt,red,false,true,joint 1 -,false,2024-03-03 17:55:32.458328,16.557,0.159,235.0,292.8220520019531,106.5785140991211,84.958251953125,0.0,20.0,51.0,-4.656612873077393e-10,-20.0
32,90,100,60,moving_belt,red,false,true,joint 1 -,false,2024-03-03 17:55:33.148806,16.557,0.157,235.0,292.8220520019531,106.5785140991211,84.958251953125,0.0,20.0,51.0,-4.656612873077393e-10,-20.0
32,90,100,60,moving_belt,red,false,true,joint 1 -,false,2024-03-03 17:55:34.536312,16.348,0.157,235.0,292.8220520019531,106.5785140991211,84.958251953125,0.0,20.0,51.0,-4.656612873077393e-10,-20.0
32,90,100,60,go_to_pick_down,red,true,false,joint 3 +,false,2024-03-03 17:55:35.237365,16.386,0.157,235.0,282.8036193847656,102.9321060180664,29.996570587158203,0.0,20.0,51.0,21.9918270111084,-20.0
32,90,100,60,go_to_color_detect_up_from_pick_up,red,true,false,joint 1 +,true,2024-03-03 17:55:36.615941,16.367,0.157,235.0,292.82086181640625,106.57808685302734,84.35104370117188,0.0,20.0,51.0,0.12050371617078781,-20.0
32,90,100,60,go_to_color_detect_up_from_pick_up,red,true,false,joint 1 +,true,2024-03-03 17:55:37.305635,23.753,0.212,235.0,164.71888732910156,264.5210876464844,84.958251953125,38.08922576904297,58.81250762939453,51.0,0.0,-20.0
32,90,100,60,go_to_color_detect_down,red,true,false,joint 3 +,true,2024-03-03 17:55:38.257275,22.595,0.212,235.0,129.83819580078125,278.4388732910156,49.296165466308594,45.0,65.0,51.0,15.119998931884766,-20.0
32,90,100,60,go_to_color_detect_up_from_color_detect_down,red,true,false,joint 3 -,false,2024-03-03 17:55:39.634676,22.329,0.206,235.0,111.23545837402344,238.54519653320312,-24.077789306640625,45.0,65.0,51.0,47.7599983215332,-20.0
32,90,100,60,go_to_color_detect_up_from_color_detect_down,red,true,false,joint 3 -,false,2024-03-03 17:55:40.324008,22.329,0.206,235.0,131.55726623535156,282.1254577636719,75.20805358886719,45.0,65.0,51.0,3.271817207336426,-20.0
32,90,100,60,detecting_color,red,false,false,detecting_color,false,2024-03-03 17:55:41.705061,16.595,0.163,235.0,131.69407653808594,282.4188232421875,84.958251953125,45.0,65.0,51.0,-4.656612873077393e-10,-20.0
32,90,100,60,detecting_color,red,false,false,detecting_color,false,2024-03-03 17:55:42.393345,16.595,0.163,235.0,131.69407653808594,282.4188232421875,84.958251953125,45.0,65.0,51.0,-4.656612873077393e-10,-20.0
32,90,100,60,detecting_color,red,false,false,detecting_color,false,2024-03-03 17:55:43.085042,16.5,0.163,235.0,131.69407653808594,282.4188232421875,84.958251953125,45.0,65.0,51.0,-4.656612873077393e-10,-20.0
32,90,100,60,detecting_color,red,false,false,detecting_color,false,2024-03-03 17:55:44.527520,16.557,0.16,235.0,131.69407653808594,282.4188232421875,84.958251953125,45.0,65.0,51.0,-4.656612873077393e-10,-20.0
32,90,100,60,go_to_color_detect_down,red,true,false,joint 3 +,false,2024-03-03 17:55:45.226184,16.557,0.16,235.0,129.5434112548828,277.8067321777344,46.61455154418945,45.0,65.0,51.0,16.23999786376953,-20.0
32,90,100,60,go_to_color_detect_up_from_color_detect_down,red,true,false,joint 3 -,true,2024-03-03 17:55:46.607562,16.595,0.159,235.0,112.28592681884766,240.7979278564453,-21.777687072753906,45.0,65.0,51.0,46.19999694824219,-20.0
32,90,100,60,go_to_color_detect_up_from_color_detect_down,red,true,false,joint 3 -,true,2024-03-03 17:55:47.298243,16.595,0.159,235.0,131.5928192138672,282.2016906738281,76.56852722167969,45.0,65.0,51.0,2.7805356979370117,-20.0
32,90,100,60,go_to_green_up,green,true,false,joint 1 +,true,2024-03-03 17:55:48.684704,22.69,0.217,235.0,21.249757766723633,310.88934326171875,84.958251953125,66.08982849121094,87.29965209960938,51.0,-4.656612873077393e-10,-20.0
32,90,100,60,go_to_pick_up_from_green,green,true,false,joint 1 -,false,2024-03-03 17:55:49.376399,22.709,0.217,235.0,-35.81607437133789,309.5495910644531,84.958251953125,76.59999084472656,95.75999450683594,51.0,-4.656612873077393e-10,-20.0
32,90,100,60,go_to_pick_up_from_green,green,true,false,joint 1 -,false,2024-03-03 17:55:50.081213,22.709,0.173,235.0,264.3226318359375,165.03721618652344,84.958251953125,11.979745864868164,31.020980834960938,51.0,-4.656612873077393e-10,-20.0
32,90,100,60,moving_belt,green,false,true,joint 1 -,false,2024-03-03 17:55:51.490479,16.766,0.173,235.0,292.8220520019531,106.5785140991211,84.958251953125,0.0,20.0,51.0,-4.656612873077393e-10,-20.0
32,90,100,60,moving_belt,green,false,true,joint 1 -,false,2024-03-03 17:55:52.180859,16.633,0.159,235.0,292.8220520019531,106.5785140991211,84.958251953125,0.0,20.0,51.0,-4.656612873077393e-10,-20.0
32,90,100,60,moving_belt,green,false,true,joint 1 -,false,2024-03-03 17:55:53.561024,16.671,0.159,235.0,292.8220520019531,106.5785140991211,84.958251953125,0.0,20.0,51.0,-4.656612873077393e-10,-20.0
32,90,100,60,moving_belt,green,false,true,joint 1 -,false,2024-03-03 17:55:54.249867,16.633,0.159,235.0,292.8220520019531,106.5785140991211,84.958251953125,0.0,20.0,51.0,-4.656612873077393e-10,-20.0
32,90,100,60,go_to_pick_down,green,true,false,joint 3 +,false,2024-03-03 17:55:55.640832,16.462,0.158,235.0,292.822021484375,106.57849884033203,84.85562896728516,0.0,20.0,51.0,0.11999999731779099,-20.0
32,90,100,60,go_to_pick_up_from_pick_down,green,true,false,joint 3 -,true,2024-03-03 17:55:56.328524,16.462,0.158,235.0,282.76361083984375,102.91754913330078,29.89107894897461,0.0,20.0,51.0,21.959999084472656,-20.0
32,90,100,60,go_to_color_detect_up_from_pick_up,green,true,false,joint 1 +,true,2024-03-03 17:55:57.721494,23.621,0.157,235.0,292.8220520019531,106.5785140991211,84.958251953125,0.0,20.040000915527344,51.0,0.0,-20.0
32,90,100,60,go_to_color_detect_up_from_pick_up,green,true,false,joint 1 +,true,2024-03-03 17:55:58.435117,23.621,0.157,235.0,147.1151580810547,274.7013854980469,84.958251953125,41.828914642333984,62.31219482421875,51.0,0.0,-20.0
32,90,100,60,go_to_color_detect_down,green,true,false,joint 3 +,true,2024-03-03 17:55:59.123411,22.576,0.208,235.0,127.52101135253906,273.4696960449219,31.990859985351562,45.0,65.0,51.0,22.43999481201172,-20.0
32,90,100,60,go_to_color_detect_up_from_color_detect_down,green,true,false,joint 3 -,false,2024-03-03 17:56:00.503311,22.31,0.208,235.0,112.28592681884766,240.7979278564453,-21.777687072753906,45.0,65.0,51.0,46.19999694824219,-20.0
32,90,100,60,go_to_color_detect_up_from_color_detect_down,green,true,false,joint 3 -,false,2024-03-03 17:56:01.190210,22.31,0.195,235.0,131.68600463867188,282.4015197753906,82.5873794555664,45.0,65.0,51.0,0.6728465557098389,-20.0
32,90,100,60,detecting_color,green,false,false,detecting_color,false,2024-03-03 17:56:02.569588,16.443,0.195,235.0,131.69407653808594,282.4188232421875,84.958251953125,45.0,65.0,51.0,-4.656612873077393e-10,-20.0
32,90,100,60,go_to_color_detect_down,green,true,false,joint 3 +,false,2024-03-03 17:56:03.258178,16.443,0.158,235.0,131.02761840820312,280.9896240234375,63.484046936035156,45.0,65.0,51.0,9.239998817443848,-20.0
32,90,100,60,go_to_color_detect_up_from_color_detect_down,green,true,false,joint 3 -,true,2024-03-03 17:56:03.947211,16.405,0.158,235.0,111.15208435058594,238.3664093017578,-24.255813598632812,45.0,65.0,51.0,47.994842529296875,-20.0
32,90,100,60,go_to_color_detect_up_from_color_detect_down,green,true,false,joint 3 -,true,2024-03-03 17:56:05.181074,16.405,0.158,235.0,130.27099609375,279.3670349121094,53.674888610839844,45.0,65.0,51.0,11.315911293029785,-20.0
32,90,100,60,go_to_blue_up,blue,true,false,joint 1 +,true,2024-03-03 17:56:06.012333,23.659,0.186,235.0,59.11566162109375,305.95599365234375,84.958251953125,59.06427764892578,79.7331314086914,51.0,-4.656612873077393e-10,-20.0
32,90,100,60,go_to_pick_up_from_blue,blue,true,false,joint 1 -,false,2024-03-03 17:56:07.654789,22.367,0.206,235.0,112.89034271240234,290.44708251953125,84.958251953125,48.75999450683594,67.59999084472656,51.0,-4.656612873077393e-10,-20.0
32,90,100,60,moving_belt,blue,false,true,joint 1 -,false,2024-03-03 17:56:07.654789,22.367,0.206,235.0,292.1778564453125,108.3320541381836,84.958251953125,0.3434867858886719,20.198583602905273,51.0,-4.656612873077393e-10,-20.0
32,90,100,60,moving_belt,blue,false,true,joint 1 -,false,2024-03-03 17:56:09.079628,18.874,0.206,235.0,292.8220520019531,106.5785140991211,84.958251953125,0.0,20.0,51.0,-4.656612873077393e-10,-20.0
32,90,100,60,moving_belt,blue,false,true,joint 1 -,false,2024-03-03 17:56:10.460821,16.424,0.161,235.0,292.8220520019531,106.5785140991211,84.958251953125,0.0,20.0,51.0,-4.656612873077393e-10,-20.0
32,90,100,60,moving_belt,blue,false,true,joint 1 -,false,2024-03-03 17:56:11.149117,16.424,0.161,235.0,292.8220520019531,106.5785140991211,84.958251953125,0.0,20.0,51.0,-4.656612873077393e-10,-20.0
32,90,100,60,moving_belt,blue,false,true,joint 1 -,false,2024-03-03 17:56:12.526121,16.443,0.158,235.0,292.8220520019531,106.5785140991211,84.958251953125,0.0,20.0,51.0,-4.656612873077393e-10,-20.0
32,90,100,60,go_to_pick_down,blue,true,false,joint 3 +,false,2024-03-03 17:56:13.233746,16.329,0.158,235.0,289.8254089355469,105.48782348632812,54.50524139404297,0.0,20.0,51.0,12.832332611083984,-20.0
32,90,100,60,go_to_pick_up_from_pick_down,blue,true,false,joint 3 -,true,2024-03-03 17:56:14.618705,16.367,0.156,235.0,290.7051086425781,105.8080062866211,59.321231842041016,0.0,20.0,51.0,9.16766357421875,-20.0
32,90,100,60,go_to_color_detect_up_from_pick_up,blue,true,false,joint 1 +,true,2024-03-03 17:56:15.312610,23.336,0.156,235.0,247.55128479003906,189.26724243164062,84.958251953125,17.39999771118164,38.599998474121094,51.0,0.0,-20.0
32,90,100,60,go_to_color_detect_down,blue,true,false,joint 3 +,true,2024-03-03 17:56:16.694186,22.424,0.208,235.0,131.6822052001953,282.3934020996094,82.08492279052734,45.0,65.0,51.0,1.4399996995925903,-20.0
32,90,100,60,go_to_color_detect_down,blue,true,false,joint 3 +,true,2024-03-03 17:56:17.382883,22.272,0.208,235.0,114.10951232910156,244.70863342285156,-17.519325256347656,45.0,65.0,51.0,44.728187561035156,-20.0
32,90,100,60,go_to_color_detect_up_from_color_detect_down,blue,true,false,joint 3 -,false,2024-03-03 17:56:18.762492,18.646,0.203,235.0,127.87065887451172,274.2195129394531,34.18457794189453,45.0,65.0,51.0,18.954879760742188,-20.0
32,90,100,60,detecting_color,blue,false,false,detecting_color,false,2024-03-03 17:56:19.470627,18.646,0.203,235.0,131.69407653808594,282.4188232421875,84.958251953125,45.0,65.0,51.0,-4.656612873077393e-10,-20.0
32,90,100,60,detecting_color,blue,false,false,detecting_color,false,2024-03-03 17:56:20.165304,16.823,0.203,235.0,131.69407653808594,282.4188232421875,84.958251953125,45.0,65.0,51.0,-4.656612873077393e-10,-20.0
32,90,100,60,go_to_color_detect_down,blue,true,false,joint 3 +,false,2024-03-03 17:56:21.607480,16.367,0.158,235.0,126.9899673461914,272.3308410644531,28.846050262451172,45.0,65.0,51.0,23.79999542236328,-20.0
32,90,100,60,go_to_color_detect_up_from_color_detect_down,blue,true,false,joint 3 -,true,2024-03-03 17:56:22.297795,16.5,0.158,235.0,112.28592681884766,240.7979278564453,-21.777687072753906,45.0,65.0,51.0,46.19999694824219,-20.0
32,90,100,60,go_to_color_detect_up_from_color_detect_down,blue,true,false,joint 3 -,true,2024-03-03 17:56:23.695072,23.355,0.156,235.0,131.68600463867188,282.4015197753906,82.5873794555664,45.0,65.0,51.0,0.6728465557098389,-20.0
32,90,100,60,go_to_red_up,red,true,false,joint 1 +,true,2024-03-03 17:56:24.384338,22.614,0.156,235.0,-25.208057403564453,310.59344482421875,84.958251953125,74.64000701904297,96.17839050292969,51.0,-4.656612873077393e-10,-20.0
32,90,100,60,go_to_pick_up_from_red,red,true,false,joint 1 -,false,2024-03-03 17:56:25.765313,22.728,0.206,235.0,-174.9734649658203,257.8526916503906,84.958251953125,104.15999603271484,123.87999725341797,51.0,-4.656612873077393e-10,-20.0
32,90,100,60,go_to_pick_up_from_red,red,true,false,joint 1 -,false,2024-03-03 17:56:26.456631,20.07,0.206,235.0,149.07212829589844,273.64434814453125,84.958251953125,41.419952392578125,59.79995346069336,51.0,-4.656612873077393e-10,-20.0
32,90,100,60,moving_belt,red,false,true,joint 1 -,false,2024-03-03 17:56:27.147177,20.07,0.158,235.0,292.8220520019531,106.5785140991211,84.958251953125,0.0,20.0,51.0,-4.656612873077393e-10,-20.0
32,90,100,60,moving_belt,red,false,true,joint 1 -,false,2024-03-03 17:56:28.529264,16.652,0.158,235.0,292.8220520019531,106.5785140991211,84.958251953125,0.0,20.0,51.0,-4.656612873077393e-10,-20.0
32,90,100,60,moving_belt,red,false,true,joint 1 -,false,2024-03-03 17:56:29.218567,16.652,0.157,235.0,292.8220520019531,106.5785140991211,84.958251953125,0.0,20.0,51.0,-4.656612873077393e-10,-20.0
32,90,100,60,moving_belt,red,false,true,joint 1 -,false,2024-03-03 17:56:30.599136,16.348,0.157,235.0,292.8220520019531,106.5785140991211,84.958251953125,0.0,20.0,51.0,-4.656612873077393e-10,-20.0
32,90,100,60,moving_belt,red,false,true,joint 1 -,false,2024-03-03 17:56:31.291828,16.576,0.157,235.0,292.8220520019531,106.5785140991211,84.958251953125,0.0,20.0,51.0,-4.656612873077393e-10,-20.0
32,90,100,60,go_to_pick_down,red,true,false,joint 3 +,false,2024-03-03 17:56:32.673170,16.462,0.156,235.0,288.4434509277344,104.98483276367188,48.24016571044922,0.0,20.0,51.0,15.220831871032715,-20.0
32,90,100,60,go_to_pick_up_from_pick_down,red,true,false,joint 3 -,true,2024-03-03 17:56:33.363912,16.462,0.156,235.0,291.0575866699219,105.93629455566406,61.53761291503906,0.0,20.0,51.0,8.331497192382812,-20.0
32,90,100,60,go_to_color_detect_up_from_pick_up,red,true,false,joint 1 +,true,2024-03-03 17:56:34.076075,16.386,0.175,235.0,264.2642517089844,165.1306610107422,84.958251953125,12.0,33.0,51.0,0.0,-20.0
32,90,100,60,go_to_color_detect_down,red,true,false,joint 3 +,true,2024-03-03 17:56:35.509281,22.576,0.175,235.0,131.6822052001953,282.3934020996094,82.08492279052734,45.0,65.0,51.0,1.4399996995925903,-20.0
32,90,100,60,go_to_color_detect_down,red,true,false,joint 3 +,true,2024-03-03 17:56:36.200968,22.026,0.205,235.0,114.10951232910156,244.70863342285156,-17.519325256347656,45.0,65.0,51.0,44.728187561035156,-20.0
32,90,100,60,go_to_color_detect_up_from_color_detect_down,red,true,false,joint 3 -,false,2024-03-03 17:56:37.580684,22.329,0.205,235.0,123.6932373046875,265.260986328125,12.795387268066406,45.0,65.0,51.0,28.160003662109375,-20.0
32,90,100,60,detecting_color,red,false,false,detecting_color,false,2024-03-03 17:56:38.269381,17.165,0.16,235.0,131.69407653808594,282.4188232421875,84.958251953125,45.0,65.0,51.0,-4.656612873077393e-10,-20.0
32,90,100,60,detecting_color,red,false,false,detecting_color,false,2024-03-03 17:56:39.648758,16.462,0.16,235.0,131.69407653808594,282.4188232421875,84.958251953125,45.0,65.0,51.0,-4.656612873077393e-10,-20.0
32,90,100,60,detecting_color,red,false,false,detecting_color,false,2024-03-03 17:56:40.337454,16.462,0.158,235.0,131.69407653808594,282.4188232421875,84.958251953125,45.0,65.0,51.0,-4.656612873077393e-10,-20.0
32,90,100,60,detecting_color,red,false,false,detecting_color,false,2024-03-03 17:56:41.721832,16.462,0.158,235.0,131.69407653808594,282.4188232421875,84.958251953125,45.0,65.0,51.0,-4.656612873077393e-10,-20.0
32,90,100,60,detecting_color,red,false,false,detecting_color,false,2024-03-03 17:56:42.412523,16.557,0.158,235.0,131.69407653808594,282.4188232421875,84.958251953125,45.0,65.0,51.0,-4.656612873077393e-10,-20.0
32,90,100,60,go_to_color_detect_down,red,true,false,joint 3 +,false,2024-03-03 17:56:43.099225,16.462,0.158,235.0,126.41095733642578,271.08917236328125,25.637104034423828,45.0,65.0,51.0,25.171276092529297,-20.0
32,90,100,60,go_to_color_detect_up_from_color_detect_down,red,true,false,joint 3 -,true,2024-03-03 17:56:44.680222,16.538,0.158,235.0,114.85627746582031,246.31007385253906,-15.670166015625,45.0,65.0,51.0,42.55999755859375,-20.0
32,90,100,60,go_to_color_detect_up_from_color_detect_down,red,true,false,joint 3 -,true,2024-03-03 17:56:45.372072,23.488,0.158,235.0,131.68978881835938,282.4096374511719,83.23200988769531,45.0,65.0,51.0,0.4615650475025177,-20.0
32,90,100,60,go_to_green_up,green,true,false,joint 1 +,true,2024-03-03 17:56:46.760040,22.728,0.158,235.0,-20.210071563720703,310.9586486816406,84.958251953125,73.71858215332031,94.64840698242188,51.0,-4.656612873077393e-10,-20.0
32,90,100,60,go_to_pick_up_from_green,green,true,false,joint 1 -,false,2024-03-03 17:56:47.447365,22.576,0.207,235.0,-5.220905780792236,311.57098388671875,84.958251953125,70.95999908447266,89.87999725341797,51.0,-4.656612873077393e-10,-20.0
32,90,100,60,go_to_pick_up_from_green,green,true,false,joint 1 -,false,2024-03-03 17:56:48.138782,16.785,0.207,235.0,278.0762634277344,140.6318817138672,84.958251953125,6.827152252197266,26.108386993408203,51.0,-4.656612873077393e-10,-20.0
32,90,100,60,moving_belt,green,false,true,joint 1 -,false,2024-03-03 17:56:49.521350,16.557,0.159,235.0,292.8220520019531,106.5785140991211,84.958251953125,0.0,20.0,51.0,-4.656612873077393e-10,-20.0
32,90,100,60,moving_belt,green,false,true,joint 1 -,false,2024-03-03 17:56:50.210910,16.557,0.159,235.0,292.8220520019531,106.5785140991211,84.958251953125,0.0,20.0,51.0,-4.656612873077393e-10,-20.0
32,90,100,60,moving_belt,green,false,true,joint 1 -,false,2024-03-03 17:56:51.626425,16.253,0.158,235.0,292.8220520019531,106.5785140991211,84.958251953125,0.0,20.0,51.0,-4.656612873077393e-10,-20.0
32,90,100,60,moving_belt,green,false,true,joint 1 -,false,2024-03-03 17:56:52.318593,16.538,0.158,235.0,292.8220520019531,106.5785140991211,84.958251953125,0.0,20.0,51.0,-4.656612873077393e-10,-20.0
32,90,100,60,go_to_pick_down,green,true,false,joint 3 +,false,2024-03-03 17:56:53.701006,16.386,0.159,235.0,292.7784423828125,106.56263732910156,81.26412963867188,0.0,20.0,51.0,1.8000000715255737,-20.0
32,90,100,60,go_to_pick_up_from_pick_down,green,true,false,joint 3 -,true,2024-03-03 17:56:54.391647,16.481,0.159,235.0,283.7506103515625,103.27677917480469,32.565711975097656,0.0,20.0,51.0,20.55999755859375,-20.0
32,90,100,60,go_to_color_detect_up_from_pick_up,green,true,false,joint 1 +,true,2024-03-03 17:56:55.783691,23.203,0.216,235.0,291.2281188964844,110.85991668701172,84.958251953125,0.8400020599365234,21.12000274658203,51.0,0.0,-20.0
32,90,100,60,go_to_color_detect_up_from_pick_up,green,true,false,joint 1 +,true,2024-03-03 17:56:56.474380,22.386,0.216,235.0,135.97390747070312,280.38336181640625,84.958251953125,44.12860107421875,64.37187957763672,51.0,0.0,-20.0
32,90,100,60,go_to_color_detect_down,green,true,false,joint 3 +,true,2024-03-03 17:56:57.161203,22.538,0.216,235.0,123.881103515625,265.66387939453125,13.590003967285156,45.0,65.0,51.0,30.25640106201172,-20.0
32,90,100,60,go_to_color_detect_up_from_color_detect_down,green,true,false,joint 3 -,false,2024-03-03 17:56:58.559002,22.196,0.205,235.0,116.87966918945312,250.6492462158203,-10.31536865234375,45.0,65.0,51.0,39.599998474121094,-20.0
32,90,100,60,go_to_color_detect_up_from_color_detect_down,green,true,false,joint 3 -,false,2024-03-03 17:56:59.250422,19.044,0.205,235.0,131.69403076171875,282.41876220703125,84.78450775146484,45.0,65.0,51.0,0.016438644379377365,-20.0
32,90,100,60,detecting_color,green,false,false,detecting_color,false,2024-03-03 17:57:00.631568,16.937,0.166,235.0,131.69407653808594,282.4188232421875,84.958251953125,45.0,65.0,51.0,-4.656612873077393e-10,-20.0
32,90,100,60,go_to_color_detect_down,green,true,false,joint 3 +,false,2024-03-03 17:57:01.327232,16.937,0.166,235.0,131.14834594726562,281.24853515625,65.51657104492188,45.0,65.0,51.0,8.399998664855957,-20.0
32,90,100,60,go_to_color_detect_down,green,true,false,joint 3 +,false,2024-03-03 17:57:02.721326,16.595,0.159,235.0,111.1933822631836,238.45497131347656,-24.167709350585938,45.0,65.0,51.0,47.98356246948242,-20.0
32,90,100,60,go_to_color_detect_up_from_color_detect_down,green,true,false,joint 3 -,true,2024-03-03 17:57:03.409785,16.595,0.159,235.0,130.0281982421875,278.8463439941406,51.144752502441406,45.0,65.0,51.0,12.287192344665527,-20.0
32,90,100,60,go_to_blue_up,blue,true,false,joint 1 +,true,2024-03-03 17:57:04.112017,23.564,0.217,235.0,66.87979125976562,304.3531188964844,84.958251953125,57.6065673828125,78.35542297363281,51.0,-4.656612873077393e-10,-20.0
32,90,100,60,go_to_pick_up_from_blue,blue,true,false,joint 1 -,false,2024-03-03 17:57:05.580542,22.329,0.217,235.0,96.29423522949219,296.36322021484375,84.958251953125,52.0,70.95999908447266,51.0,-4.656612873077393e-10,-20.0
32,90,100,60,go_to_pick_up_from_blue,blue,true,false,joint 1 -,false,2024-03-03 17:57:06.273792,22.329,0.159,235.0,290.8819274902344,111.7651138305664,84.958251953125,1.0181941986083984,20.753292083740234,51.0,-4.656612873077393e-10,-20.0
32,90,100,60,moving_belt,blue,false,true,joint 1 -,false,2024-03-03 17:57:07.657821,16.614,0.159,235.0,292.8220520019531,106.5785140991211,84.958251953125,0.0,20.0,51.0,-4.656612873077393e-10,-20.0
32,90,100,60,moving_belt,blue,false,true,joint 1 -,false,2024-03-03 17:57:08.639538,16.557,0.159,235.0,292.8220520019531,106.5785140991211,84.958251953125,0.0,20.0,51.0,-4.656612873077393e-10,-20.0
32,90,100,60,moving_belt,blue,false,true,joint 1 -,false,2024-03-03 17:57:09.329230,16.5,0.158,235.0,292.8220520019531,106.5785140991211,84.958251953125,0.0,20.0,51.0,-4.656612873077393e-10,-20.0
32,90,100,60,moving_belt,blue,false,true,joint 1 -,false,2024-03-03 17:57:10.765168,16.158,0.157,235.0,292.8220520019531,106.5785140991211,84.958251953125,0.0,20.0,51.0,-4.656612873077393e-10,-20.0
32,90,100,60,go_to_pick_down,blue,true,false,joint 3 +,false,2024-03-03 17:57:11.468033,16.158,0.157,235.0,291.8388977050781,106.2206802368164,67.45097351074219,0.0,20.0,51.0,7.599999904632568,-20.0
32,90,100,60,go_to_pick_up_from_pick_down,blue,true,false,joint 3 -,true,2024-03-03 17:57:12.155727,16.5,0.157,235.0,286.6444396972656,104.33004760742188,41.48917770385742,0.0,20.0,51.0,16.55999755859375,-20.0
32,90,100,60,go_to_color_detect_up_from_pick_up,blue,true,false,joint 1 +,true,2024-03-03 17:57:12.969661,17.601,0.175,235.0,274.1114196777344,148.21151733398438,84.958251953125,8.400001525878906,29.240001678466797,51.0,0.0,-20.0
32,90,100,60,go_to_color_detect_down,blue,true,false,joint 3 +,true,2024-03-03 17:57:14.714173,22.69,0.175,235.0,131.69407653808594,282.4188232421875,84.958251953125,45.0,65.0,51.0,0.0,-20.0
32,90,100,60,go_to_color_detect_down,blue,true,false,joint 3 +,true,2024-03-03 17:57:15.533101,22.121,0.206,235.0,119.38970947265625,256.03204345703125,-2.8599166870117188,45.0,65.0,51.0,37.61537170410156,-20.0
32,90,100,60,go_to_color_detect_up_from_color_detect_down,blue,true,false,joint 3 -,false,2024-03-03 17:57:16.352104,22.121,0.206,235.0,121.74224090576172,261.0770568847656,5.154693603515625,45.0,65.0,51.0,31.76000213623047,-20.0
32,90,100,60,detecting_color,blue,false,false,detecting_color,false,2024-03-03 17:57:17.798010,17.374,0.163,235.0,131.69407653808594,282.4188232421875,84.958251953125,45.0,65.0,51.0,-4.656612873077393e-10,-20.0
32,90,100,60,detecting_color,blue,false,false,detecting_color,false,2024-03-03 17:57:18.497670,17.374,0.163,235.0,131.69407653808594,282.4188232421875,84.958251953125,45.0,65.0,51.0,-4.656612873077393e-10,-20.0
32,90,100,60,go_to_color_detect_down,blue,true,false,joint 3 +,false,2024-03-03 17:57:19.189357,16.443,0.163,235.0,128.44918823242188,275.4601745605469,38.07123947143555,45.0,65.0,51.0,19.839996337890625,-20.0
32,90,100,60,go_to_color_detect_up_from_color_detect_down,blue,true,false,joint 3 -,true,2024-03-03 17:57:20.583845,16.462,0.158,235.0,111.62002563476562,239.36990356445312,-23.248023986816406,45.0,65.0,51.0,47.159996032714844,-20.0
32,90,100,60,go_to_color_detect_up_from_color_detect_down,blue,true,false,joint 3 -,true,2024-03-03 17:57:21.297063,19.272,0.158,235.0,131.6714324951172,282.37030029296875,80.99049377441406,45.0,65.0,51.0,1.215409517288208,-20.0
32,90,100,60,go_to_red_up,red,true,false,joint 1 +,true,2024-03-03 17:57:22.714118,23.374,0.215,235.0,-1.0877978801727295,311.6128234863281,84.958251953125,70.20000457763672,91.64000701904297,51.0,-4.656612873077393e-10,-20.0
32,90,100,60,go_to_pick_up_from_red,red,true,false,joint 1 -,false,2024-03-03 17:57:23.407097,22.462,0.215,235.0,-177.6640167236328,256.00628662109375,84.958251953125,104.75999450683594,124.59999084472656,51.0,-4.656612873077393e-10,-20.0
32,90,100,60,go_to_pick_up_from_red,red,true,false,joint 1 -,false,2024-03-03 17:57:24.798046,22.614,0.21,235.0,133.36788940429688,281.63226318359375,84.958251953125,44.659950256347656,63.03995132446289,51.0,-4.656612873077393e-10,-20.0
32,90,100,60,moving_belt,red,false,true,joint 1 -,false,2024-03-03 17:57:25.488730,16.576,0.21,235.0,292.8152160644531,106.59723663330078,84.958251953125,0.0036640167236328125,20.0,51.0,-4.656612873077393e-10,-20.0
32,90,100,60,moving_belt,red,false,true,joint 1 -,false,2024-03-03 17:57:26.182416,16.652,0.159,235.0,292.8220520019531,106.5785140991211,84.958251953125,0.0,20.0,51.0,-4.656612873077393e-10,-20.0
32,90,100,60,moving_belt,red,false,true,joint 1 -,false,2024-03-03 17:57:27.755345,16.386,0.159,235.0,292.8220520019531,106.5785140991211,84.958251953125,0.0,20.0,51.0,-4.656612873077393e-10,-20.0
32,90,100,60,moving_belt,red,false,true,joint 1 -,false,2024-03-03 17:57:28.446035,16.386,0.157,235.0,292.8220520019531,106.5785140991211,84.958251953125,0.0,20.0,51.0,-4.656612873077393e-10,-20.0
32,90,100,60,moving_belt,red,false,true,joint 1 -,false,2024-03-03 17:57:29.139331,16.5,0.157,235.0,292.8220520019531,106.5785140991211,84.958251953125,0.0,20.0,51.0,-4.656612873077393e-10,-20.0
32,90,100,60,go_to_pick_down,red,true,false,joint 3 +,false,2024-03-03 17:57:30.640097,16.519,0.158,235.0,288.4434509277344,104.98483276367188,48.24016571044922,0.0,20.0,51.0,15.220831871032715,-20.0
32,90,100,60,go_to_pick_up_from_pick_down,red,true,false,joint 3 -,true,2024-03-03 17:57:31.330336,16.405,0.158,235.0,291.0575866699219,105.93629455566406,61.53761291503906,0.0,20.0,51.0,8.331497192382812,-20.0
32,90,100,60,go_to_color_detect_up_from_pick_up,red,true,false,joint 1 +,true,2024-03-03 17:57:32.715055,23.412,0.214,235.0,264.2642517089844,165.1306610107422,84.958251953125,12.0,33.0,51.0,0.0,-20.0
32,90,100,60,go_to_color_detect_down,red,true,false,joint 3 +,true,2024-03-03 17:57:33.408126,22.367,0.214,235.0,131.67445373535156,282.37677001953125,81.26412963867188,45.0,65.0,51.0,1.7999995946884155,-20.0
32,90,100,60,go_to_color_detect_down,red,true,false,joint 3 +,true,2024-03-03 17:57:34.806010,22.158,0.205,235.0,113.70602416992188,243.8433380126953,-18.492164611816406,45.0,65.0,51.0,45.21946716308594,-20.0
32,90,100,60,go_to_color_detect_up_from_color_detect_down,red,true,false,joint 3 -,false,2024-03-03 17:57:35.500300,22.158,0.205,235.0,128.32533264160156,275.1945495605469,37.209197998046875,45.0,65.0,51.0,17.74359893798828,-20.0
32,90,100,60,detecting_color,red,false,false,detecting_color,false,2024-03-03 17:57:36.188929,18.095,0.205,235.0,131.69407653808594,282.4188232421875,84.958251953125,45.0,65.0,51.0,-4.656612873077393e-10,-20.0
32,90,100,60,detecting_color,red,false,false,detecting_color,false,2024-03-03 17:57:37.579273,16.69,0.165,235.0,131.69407653808594,282.4188232421875,84.958251953125,45.0,65.0,51.0,-4.656612873077393e-10,-20.0
32,90,100,60,detecting_color,red,false,false,detecting_color,false,2024-03-03 17:57:38.396536,16.443,0.165,235.0,131.69407653808594,282.4188232421875,84.958251953125,45.0,65.0,51.0,-4.656612873077393e-10,-20.0
32,90,100,60,detecting_color,red,false,false,detecting_color,false,2024-03-03 17:57:39.788888,16.5,0.157,235.0,131.69407653808594,282.4188232421875,84.958251953125,45.0,65.0,51.0,-4.656612873077393e-10,-20.0
32,90,100,60,go_to_color_detect_down,red,true,false,joint 3 +,false,2024-03-03 17:57:40.479569,16.5,0.157,235.0,131.69406127929688,282.4187927246094,84.85562896728516,45.0,65.0,51.0,0.1199999749660492,-20.0
32,90,100,60,go_to_color_detect_down,red,true,false,joint 3 +,false,2024-03-03 17:57:41.176930,16.329,0.158,235.0,117.04146575927734,250.9962158203125,-9.863693237304688,45.0,65.0,51.0,40.94049835205078,-20.0
32,90,100,60,go_to_color_detect_up_from_color_detect_down,red,true,false,joint 3 -,true,2024-03-03 17:57:42.688004,16.329,0.158,235.0,124.34054565429688,266.6491394042969,15.583740234375,45.0,65.0,51.0,26.8800048828125,-20.0
32,90,100,60,go_to_green_up,green,true,false,joint 1 +,true,2024-03-03 17:57:43.376846,23.26,0.214,235.0,127.53956604003906,284.31915283203125,84.958251953125,45.840003967285156,66.12000274658203,51.0,-4.656612873077393e-10,-20.0
32,90,100,60,go_to_green_up,green,true,false,joint 1 +,true,2024-03-03 17:57:44.760101,22.519,0.214,235.0,-79.83647155761719,301.2140197753906,84.958251953125,84.8448486328125,104.9346694946289,51.0,-4.656612873077393e-10,-20.0
32,90,100,60,go_to_pick_up_from_green,green,true,false,joint 1 -,false,2024-03-03 17:57:45.455380,22.519,0.204,235.0,95.2591781616211,296.6975402832031,84.958251953125,52.19999694824219,70.57999420166016,51.0,-4.656612873077393e-10,-20.0
32,90,100,60,go_to_pick_up_from_green,green,true,false,joint 1 -,false,2024-03-03 17:57:46.161362,17.184,0.204,235.0,292.0624694824219,108.64279174804688,84.958251953125,0.4044342041015625,20.245668411254883,51.0,-4.656612873077393e-10,-20.0
32,90,100,60,moving_belt,green,false,true,joint 1 -,false,2024-03-03 17:57:47.547532,16.652,0.158,235.0,292.8220520019531,106.5785140991211,84.958251953125,0.0,20.0,51.0,-4.656612873077393e-10,-20.0
32,90,100,60,moving_belt,green,false,true,joint 1 -,false,2024-03-03 17:57:48.236833,16.538,0.158,235.0,292.8220520019531,106.5785140991211,84.958251953125,0.0,20.0,51.0,-4.656612873077393e-10,-20.0
32,90,100,60,moving_belt,green,false,true,joint 1 -,false,2024-03-03 17:57:49.743698,16.443,0.157,235.0,292.8220520019531,106.5785140991211,84.958251953125,0.0,20.0,51.0,-4.656612873077393e-10,-20.0
32,90,100,60,moving_belt,green,false,true,joint 1 -,false,2024-03-03 17:57:50.472261,16.443,0.157,235.0,292.8220520019531,106.5785140991211,84.958251953125,0.0,20.0,51.0,-4.656612873077393e-10,-20.0
32,90,100,60,go_to_pick_down,green,true,false,joint 3 +,false,2024-03-03 17:57:51.162554,16.652,0.157,235.0,290.6729431152344,105.79631042480469,59.12882614135742,0.0,20.0,51.0,11.039999961853027,-20.0
32,90,100,60,go_to_pick_up_from_pick_down,green,true,false,joint 3 -,true,2024-03-03 17:57:52.550918,16.481,0.157,235.0,288.9488830566406,105.1688003540039,50.392372131347656,0.0,20.0,51.0,12.75999641418457,-20.0
32,90,100,60,go_to_color_detect_up_from_pick_up,green,true,false,joint 1 +,true,2024-03-03 17:57:53.252305,22.595,0.157,235.0,261.3420715332031,169.71754455566406,84.958251953125,13.0,34.040000915527344,51.0,0.0,-20.0
32,90,100,60,go_to_color_detect_down,green,true,false,joint 3 +,true,2024-03-03 17:57:54.636866,22.215,0.206,235.0,131.6935272216797,282.41766357421875,84.34249877929688,45.0,65.0,51.0,0.3999999165534973,-20.0
32,90,100,60,go_to_color_detect_down,green,true,false,joint 3 +,true,2024-03-03 17:57:55.325583,22.291,0.206,235.0,115.47264099121094,247.63186645507812,-14.094192504882812,45.0,65.0,51.0,43.01434326171875,-20.0
32,90,100,60,go_to_color_detect_up_from_color_detect_down,green,true,false,joint 3 -,false,2024-03-03 17:57:56.708785,19.69,0.205,235.0,126.23455047607422,270.7108459472656,24.69955062866211,45.0,65.0,51.0,22.828723907470703,-20.0
32,90,100,60,detecting_color,green,false,false,detecting_color,false,2024-03-03 17:57:57.400105,19.69,0.205,235.0,131.69407653808594,282.4188232421875,84.958251953125,45.0,65.0,51.0,-4.656612873077393e-10,-20.0
32,90,100,60,detecting_color,green,false,false,detecting_color,false,2024-03-03 17:57:58.787065,16.861,0.158,235.0,131.69407653808594,282.4188232421875,84.958251953125,45.0,65.0,51.0,-4.656612873077393e-10,-20.0
32,90,100,60,go_to_color_detect_down,green,true,false,joint 3 +,false,2024-03-03 17:57:59.475378,16.367,0.158,235.0,129.83819580078125,278.4388732910156,49.296165466308594,45.0,65.0,51.0,15.119998931884766,-20.0
32,90,100,60,go_to_color_detect_up_from_color_detect_down,green,true,false,joint 3 -,true,2024-03-03 17:58:00.168371,16.367,0.158,235.0,111.17107391357422,238.40711975097656,-24.215347290039062,45.0,65.0,51.0,47.87999725341797,-20.0
32,90,100,60,go_to_color_detect_up_from_color_detect_down,green,true,false,joint 3 -,true,2024-03-03 17:58:01.561600,22.614,0.158,235.0,131.11474609375,281.1764831542969,64.9298095703125,45.0,65.0,51.0,7.059505462646484,-20.0
32,90,100,60,go_to_blue_up,blue,true,false,joint 1 +,true,2024-03-03 17:58:02.252002,22.614,0.158,235.0,49.011329650878906,307.7362976074219,84.958251953125,60.950836181640625,81.49968719482422,51.0,-4.656612873077393e-10,-20.0
32,90,100,60,go_to_pick_up_from_blue,blue,true,false,joint 1 -,false,2024-03-03 17:58:03.641803,22.462,0.207,235.0,124.7546615600586,285.5520935058594,84.958251953125,46.399993896484375,65.15999603271484,51.0,-4.656612873077393e-10,-20.0
32,90,100,60,moving_belt,blue,false,true,joint 1 -,false,2024-03-03 17:58:04.338090,16.595,0.207,235.0,292.76849365234375,106.72557830810547,84.958251953125,0.028778076171875,20.003875732421875,51.0,-4.656612873077393e-10,-20.0
32,90,100,60,moving_belt,blue,false,true,joint 1 -,false,2024-03-03 17:58:05.730706,16.519,0.159,235.0,292.8220520019531,106.5785140991211,84.958251953125,0.0,20.0,51.0,-4.656612873077393e-10,-20.0
32,90,100,60,moving_belt,blue,false,true,joint 1 -,false,2024-03-03 17:58:06.467234,16.519,0.159,235.0,292.8220520019531,106.5785140991211,84.958251953125,0.0,20.0,51.0,-4.656612873077393e-10,-20.0
32,90,100,60,moving_belt,blue,false,true,joint 1 -,false,2024-03-03 17:58:07.157923,16.367,0.156,235.0,292.8220520019531,106.5785140991211,84.958251953125,0.0,20.0,51.0,-4.656612873077393e-10,-20.0
32,90,100,60,moving_belt,blue,false,true,joint 1 -,false,2024-03-03 17:58:08.540599,16.576,0.156,235.0,292.8220520019531,106.5785140991211,84.958251953125,0.0,20.0,51.0,-4.656612873077393e-10,-20.0
32,90,100,60,go_to_pick_down,blue,true,false,joint 3 +,false,2024-03-03 17:58:09.231134,16.348,0.158,235.0,290.2657165527344,105.64807891845703,56.80859375,0.0,20.0,51.0,11.95616626739502,-20.0
32,90,100,60,go_to_pick_up_from_pick_down,blue,true,false,joint 3 -,true,2024-03-03 17:58:10.611568,16.31,0.158,235.0,289.41064453125,105.33686065673828,52.4907112121582,0.0,20.0,51.0,11.879996299743652,-20.0
32,90,100,60,go_to_color_detect_up_from_pick_up,blue,true,false,joint 1 +,true,2024-03-03 17:58:11.300376,16.31,0.214,235.0,258.21856689453125,174.4330596923828,84.958251953125,14.040000915527344,35.119998931884766,51.0,0.0,-20.0
32,90,100,60,go_to_color_detect_down,blue,true,false,joint 3 +,true,2024-03-03 17:58:12.690886,22.519,0.214,235.0,131.69256591796875,282.41558837890625,83.9320068359375,45.0,65.0,51.0,0.5999999046325684,-20.0
32,90,100,60,go_to_color_detect_down,blue,true,false,joint 3 +,true,2024-03-03 17:58:13.381128,22.14,0.204,235.0,113.32952117919922,243.0359344482422,-19.383834838867188,45.0,65.0,51.0,45.67074966430664,-20.0
32,90,100,60,go_to_color_detect_up_from_color_detect_down,blue,true,false,joint 3 -,false,2024-03-03 17:58:14.764891,22.158,0.204,235.0,124.98181915283203,268.02435302734375,18.49610137939453,45.0,65.0,51.0,25.56000518798828,-20.0
32,90,100,60,detecting_color,blue,false,false,detecting_color,false,2024-03-03 17:58:15.459179,17.127,0.204,235.0,131.69407653808594,282.4188232421875,84.958251953125,45.0,65.0,51.0,-4.656612873077393e-10,-20.0
32,90,100,60,detecting_color,blue,false,false,detecting_color,false,2024-03-03 17:58:16.160835,17.127,0.166,235.0,131.69407653808594,282.4188232421875,84.958251953125,45.0,65.0,51.0,-4.656612873077393e-10,-20.0
32,90,100,60,go_to_color_detect_down,blue,true,false,joint 3 +,false,2024-03-03 17:58:17.543210,16.348,0.166,235.0,127.52101135253906,273.4696960449219,31.990859985351562,45.0,65.0,51.0,22.43999481201172,-20.0
32,90,100,60,go_to_color_detect_up_from_color_detect_down,blue,true,false,joint 3 -,true,2024-03-03 17:58:18.234947,16.291,0.158,235.0,112.03331756591797,240.25621032714844,-22.340538024902344,45.0,65.0,51.0,46.55999755859375,-20.0
32,90,100,60,go_to_color_detect_up_from_color_detect_down,blue,true,false,joint 3 -,true,2024-03-03 17:58:19.622906,17.222,0.158,235.0,131.68008422851562,282.38885498046875,81.8401870727539,45.0,65.0,51.0,0.9241280555725098,-20.0
32,90,100,60,go_to_red_up,red,true,false,joint 1 +,true,2024-03-03 17:58:20.314400,23.469,0.214,235.0,-16.96043586730957,311.15283203125,84.958251953125,73.12001037597656,94.64000701904297,51.0,-4.656612873077393e-10,-20.0
32,90,100,60,go_to_pick_up_from_red,red,true,false,joint 1 -,false,2024-03-03 17:58:21.722911,22.69,0.214,235.0,-170.62876892089844,260.748046875,84.958251953125,103.19999694824219,122.79999542236328,51.0,-4.656612873077393e-10,-20.0
32,90,100,60,go_to_pick_up_from_red,red,true,false,joint 1 -,false,2024-03-03 17:58:22.422650,22.69,0.2,235.0,133.36788940429688,281.63226318359375,84.958251953125,44.659950256347656,63.03995132446289,51.0,-4.656612873077393e-10,-20.0
32,90,100,60,moving_belt,red,false,true,joint 1 -,false,2024-03-03 17:58:23.812603,16.576,0.2,235.0,292.8152160644531,106.59723663330078,84.958251953125,0.0036640167236328125,20.0,51.0,-4.656612873077393e-10,-20.0
32,90,100,60,moving_belt,red,false,true,joint 1 -,false,2024-03-03 17:58:24.502925,16.424,0.158,235.0,292.8220520019531,106.5785140991211,84.958251953125,0.0,20.0,51.0,-4.656612873077393e-10,-20.0
32,90,100,60,moving_belt,red,false,true,joint 1 -,false,2024-03-03 17:58:25.192610,16.538,0.158,235.0,292.8220520019531,106.5785140991211,84.958251953125,0.0,20.0,51.0,-4.656612873077393e-10,-20.0
32,90,100,60,moving_belt,red,false,true,joint 1 -,false,2024-03-03 17:58:26.586616,16.538,0.157,235.0,292.8220520019531,106.5785140991211,84.958251953125,0.0,20.0,51.0,-4.656612873077393e-10,-20.0
32,90,100,60,moving_belt,red,false,true,joint 1 -,false,2024-03-03 17:58:27.277310,16.538,0.157,235.0,292.8220520019531,106.5785140991211,84.958251953125,0.0,20.0,51.0,-4.656612873077393e-10,-20.0
32,90,100,60,go_to_pick_down,red,true,false,joint 3 +,false,2024-03-03 17:58:28.522141,16.5,0.157,235.0,288.90997314453125,105.15463256835938,50.22156524658203,0.0,20.0,51.0,14.464665412902832,-20.0
32,90,100,60,go_to_pick_up_from_pick_down,red,true,false,joint 3 -,true,2024-03-03 17:58:29.368615,16.424,0.158,235.0,291.0575866699219,105.93629455566406,61.53761291503906,0.0,20.0,51.0,8.331497192382812,-20.0
32,90,100,60,go_to_color_detect_up_from_pick_up,red,true,false,joint 1 +,true,2024-03-03 17:58:30.183668,22.083,0.158,235.0,247.55128479003906,189.26724243164062,84.958251953125,17.39999771118164,38.599998474121094,51.0,0.0,-20.0
32,90,100,60,go_to_color_detect_down,red,true,false,joint 3 +,true,2024-03-03 17:58:31.296372,22.443,0.21,235.0,131.6822052001953,282.3934020996094,82.08492279052734,45.0,65.0,51.0,1.4399996995925903,-20.0
32,90,100,60,go_to_color_detect_down,red,true,false,joint 3 +,true,2024-03-03 17:58:32.810309,22.026,0.205,235.0,112.10877227783203,240.4180145263672,-22.173080444335938,45.0,65.0,51.0,47.07587432861328,-20.0
32,90,100,60,go_to_color_detect_up_from_color_detect_down,red,true,false,joint 3 -,false,2024-03-03 17:58:33.501588,22.026,0.205,235.0,127.87065887451172,274.2195129394531,34.18457794189453,45.0,65.0,51.0,18.954879760742188,-20.0
32,90,100,60,detecting_color,red,false,false,detecting_color,false,2024-03-03 17:58:34.202465,19.367,0.205,235.0,131.69407653808594,282.4188232421875,84.958251953125,45.0,65.0,51.0,-4.656612873077393e-10,-20.0
32,90,100,60,detecting_color,red,false,false,detecting_color,false,2024-03-03 17:58:35.628299,16.975,0.159,235.0,131.69407653808594,282.4188232421875,84.958251953125,45.0,65.0,51.0,-4.656612873077393e-10,-20.0
32,90,100,60,detecting_color,red,false,false,detecting_color,false,2024-03-03 17:58:36.317000,16.348,0.159,235.0,131.69407653808594,282.4188232421875,84.958251953125,45.0,65.0,51.0,-4.656612873077393e-10,-20.0
32,90,100,60,go_to_color_detect_down,red,true,false,joint 3 +,false,2024-03-03 17:58:37.699372,16.329,0.158,235.0,131.4142608642578,281.81878662109375,71.02216339111328,45.0,65.0,51.0,6.119998931884766,-20.0
32,90,100,60,go_to_color_detect_down,red,true,false,joint 3 +,false,2024-03-03 17:58:38.390061,16.329,0.158,235.0,111.5094223022461,239.13270568847656,-23.488121032714844,45.0,65.0,51.0,47.709716796875,-20.0
32,90,100,60,go_to_color_detect_up_from_color_detect_down,red,true,false,joint 3 -,true,2024-03-03 17:58:39.776052,22.215,0.171,235.0,130.48638916015625,279.8289489746094,56.1141357421875,45.0,65.0,51.0,10.38463020324707,-20.0
32,90,100,60,go_to_green_up,green,true,false,joint 1 +,true,2024-03-03 17:58:40.468967,23.089,0.171,235.0,84.63713073730469,299.9004821777344,84.958251953125,54.24000549316406,75.12000274658203,51.0,-4.656612873077393e-10,-20.0
32,90,100,60,go_to_pick_up_from_green,green,true,false,joint 1 -,false,2024-03-03 17:58:41.160816,23.089,0.171,235.0,-80.021240234375,301.16497802734375,84.958251953125,84.87999725341797,104.75999450683594,51.0,-4.656612873077393e-10,-20.0
32,90,100,60,go_to_pick_up_from_green,green,true,false,joint 1 -,false,2024-03-03 17:58:42.555161,18.551,0.208,235.0,214.0870819091797,226.42979431152344,84.958251953125,26.604930877685547,45.16616439819336,51.0,-4.656612873077393e-10,-20.0
32,90,100,60,moving_belt,green,false,true,joint 1 -,false,2024-03-03 17:58:43.252828,18.551,0.208,235.0,292.8220520019531,106.5785140991211,84.958251953125,0.0,20.0,51.0,-4.656612873077393e-10,-20.0
32,90,100,60,moving_belt,green,false,true,joint 1 -,false,2024-03-03 17:58:44.638642,16.5,0.158,235.0,292.8220520019531,106.5785140991211,84.958251953125,0.0,20.0,51.0,-4.656612873077393e-10,-20.0
32,90,100,60,moving_belt,green,false,true,joint 1 -,false,2024-03-03 17:58:45.327939,16.652,0.158,235.0,292.8220520019531,106.5785140991211,84.958251953125,0.0,20.0,51.0,-4.656612873077393e-10,-20.0
32,90,100,60,moving_belt,green,false,true,joint 1 -,false,2024-03-03 17:58:46.817180,16.367,0.156,235.0,292.8220520019531,106.5785140991211,84.958251953125,0.0,20.0,51.0,-4.656612873077393e-10,-20.0
32,90,100,60,moving_belt,green,false,true,joint 1 -,false,2024-03-03 17:58:47.514015,16.386,0.156,235.0,292.8220520019531,106.5785140991211,84.958251953125,0.0,20.0,51.0,-4.656612873077393e-10,-20.0
32,90,100,60,go_to_pick_down,green,true,false,joint 3 +,false,2024-03-03 17:58:48.203699,16.386,0.157,235.0,284.0044860839844,103.36918640136719,33.279571533203125,0.0,20.0,51.0,20.89866065979004,-20.0
32,90,100,60,go_to_pick_up_from_pick_down,green,true,false,joint 3 -,true,2024-03-03 17:58:49.586075,20.355,0.157,235.0,292.755859375,106.5544204711914,80.40839385986328,0.0,20.0,51.0,1.417501449584961,-20.0
32,90,100,60,go_to_color_detect_up_from_pick_up,green,true,false,joint 1 +,true,2024-03-03 17:58:50.276353,20.355,0.209,235.0,215.3290557861328,225.24905395507812,84.958251953125,26.289844512939453,47.493125915527344,51.0,0.0,-20.0
32,90,100,60,go_to_color_detect_down,green,true,false,joint 3 +,true,2024-03-03 17:58:51.665473,22.519,0.209,235.0,131.02761840820312,280.9896240234375,63.484046936035156,45.0,65.0,51.0,9.239998817443848,-20.0
32,90,100,60,go_to_color_detect_up_from_color_detect_down,green,true,false,joint 3 -,false,2024-03-03 17:58:52.358710,22.083,0.209,235.0,111.15208435058594,238.3664093017578,-24.255813598632812,45.0,65.0,51.0,47.994842529296875,-20.0
32,90,100,60,go_to_color_detect_up_from_color_detect_down,green,true,false,joint 3 -,false,2024-03-03 17:58:53.766398,20.924,0.204,235.0,130.0281982421875,278.8463439941406,51.144752502441406,45.0,65.0,51.0,12.287192344665527,-20.0
32,90,100,60,detecting_color,green,false,false,detecting_color,false,2024-03-03 17:58:54.458909,17.26,0.204,235.0,131.69407653808594,282.4188232421875,84.958251953125,45.0,65.0,51.0,-4.656612873077393e-10,-20.0
32,90,100,60,go_to_color_detect_down,green,true,false,joint 3 +,false,2024-03-03 17:58:55.840811,16.481,0.161,235.0,131.69407653808594,282.4188232421875,84.958251953125,45.0,65.0,51.0,-4.656612873077393e-10,-20.0
32,90,100,60,go_to_color_detect_down,green,true,false,joint 3 +,false,2024-03-03 17:58:56.539135,16.481,0.161,235.0,116.49774169921875,249.8302001953125,-11.367164611816406,45.0,65.0,51.0,41.67177963256836,-20.0
32,90,100,60,go_to_color_detect_up_from_color_detect_down,green,true,false,joint 3 -,true,2024-03-03 17:58:57.229468,16.272,0.157,235.0,120.45890808105469,258.324951171875,0.64251708984375,45.0,65.0,51.0,33.959999084472656,-20.0
32,90,100,60,go_to_blue_up,blue,true,false,joint 1 +,true,2024-03-03 17:58:58.615492,22.842,0.157,235.0,131.49684143066406,282.5107116699219,84.958251953125,45.040000915527344,65.12000274658203,51.0,-4.656612873077393e-10,-20.0
32,90,100,60,go_to_pick_up_from_blue,blue,true,false,joint 1 -,false,2024-03-03 17:58:59.305186,22.899,0.207,235.0,33.221588134765625,309.8387451171875,84.958251953125,63.87999725341797,83.55999755859375,51.0,-4.656612873077393e-10,-20.0
32,90,100,60,go_to_pick_up_from_blue,blue,true,false,joint 1 -,false,2024-03-03 17:59:00.692165,22.424,0.207,235.0,262.4430236816406,168.0100860595703,84.958251953125,12.626449584960938,31.64154624938965,51.0,-4.656612873077393e-10,-20.0
32,90,100,60,moving_belt,blue,false,true,joint 1 -,false,2024-03-03 17:59:01.382473,16.443,0.158,235.0,292.8220520019531,106.5785140991211,84.958251953125,0.0,20.0,51.0,-4.656612873077393e-10,-20.0
32,90,100,60,moving_belt,blue,false,true,joint 1 -,false,2024-03-03 17:59:02.769079,16.709,0.158,235.0,292.8220520019531,106.5785140991211,84.958251953125,0.0,20.0,51.0,-4.656612873077393e-10,-20.0
32,90,100,60,moving_belt,blue,false,true,joint 1 -,false,2024-03-03 17:59:03.462384,16.253,0.157,235.0,292.8220520019531,106.5785140991211,84.958251953125,0.0,20.0,51.0,-4.656612873077393e-10,-20.0
32,90,100,60,moving_belt,blue,false,true,joint 1 -,false,2024-03-03 17:59:04.844380,16.424,0.157,235.0,292.8220520019531,106.5785140991211,84.958251953125,0.0,20.0,51.0,-4.656612873077393e-10,-20.0
32,90,100,60,go_to_pick_down,blue,true,false,joint 3 +,false,2024-03-03 17:59:05.536065,16.424,0.157,235.0,292.8217468261719,106.57840728759766,84.65037536621094,0.0,20.0,51.0,0.24000000953674316,-20.0
32,90,100,60,go_to_pick_up_from_pick_down,blue,true,false,joint 3 -,true,2024-03-03 17:59:06.228170,16.557,0.157,235.0,282.76361083984375,102.91754913330078,29.89107894897461,0.0,20.0,51.0,21.959999084472656,-20.0
32,90,100,60,go_to_color_detect_up_from_pick_up,blue,true,false,joint 1 +,true,2024-03-03 17:59:07.608669,16.728,0.157,235.0,292.8220520019531,106.5785140991211,84.958251953125,0.0,20.040000915527344,51.0,0.0,-20.0
32,90,100,60,go_to_color_detect_up_from_pick_up,blue,true,false,joint 1 +,true,2024-03-03 17:59:08.315305,22.899,0.212,235.0,147.1151580810547,274.7013854980469,84.958251953125,41.828914642333984,62.31219482421875,51.0,0.0,-20.0
32,90,100,60,go_to_color_detect_down,blue,true,false,joint 3 +,true,2024-03-03 17:59:09.702664,21.836,0.212,235.0,126.9899673461914,272.3308410644531,28.846050262451172,45.0,65.0,51.0,23.79999542236328,-20.0
32,90,100,60,go_to_color_detect_up_from_color_detect_down,blue,true,false,joint 3 -,false,2024-03-03 17:59:10.392056,21.836,0.202,235.0,112.5685043334961,241.4039306640625,-21.14051055908203,45.0,65.0,51.0,45.79999542236328,-20.0
32,90,100,60,go_to_color_detect_up_from_color_detect_down,blue,true,false,joint 3 -,false,2024-03-03 17:59:11.787902,21.969,0.202,235.0,131.68978881835938,282.4096374511719,83.23200988769531,45.0,65.0,51.0,0.4615650475025177,-20.0
32,90,100,60,detecting_color,blue,false,false,detecting_color,false,2024-03-03 17:59:12.482579,17.241,0.164,235.0,131.69407653808594,282.4188232421875,84.958251953125,45.0,65.0,51.0,-4.656612873077393e-10,-20.0
32,90,100,60,go_to_color_detect_down,blue,true,false,joint 3 +,false,2024-03-03 17:59:13.183087,16.462,0.164,235.0,131.02761840820312,280.9896240234375,63.484046936035156,45.0,65.0,51.0,9.239998817443848,-20.0
32,90,100,60,go_to_color_detect_down,blue,true,false,joint 3 +,false,2024-03-03 17:59:14.565124,16.272,0.156,235.0,111.15208435058594,238.3664093017578,-24.255813598632812,45.0,65.0,51.0,47.994842529296875,-20.0
32,90,100,60,go_to_color_detect_up_from_color_detect_down,blue,true,false,joint 3 -,true,2024-03-03 17:59:15.259395,16.272,0.156,235.0,130.27099609375,279.3670349121094,53.674888610839844,45.0,65.0,51.0,11.315911293029785,-20.0
32,90,100,60,go_to_red_up,red,true,false,joint 1 +,true,2024-03-03 17:59:16.645364,23.108,0.21,235.0,89.02467346191406,298.62744140625,84.958251953125,53.40000915527344,74.24000549316406,51.0,-4.656612873077393e-10,-20.0
32,90,100,60,go_to_red_up,red,true,false,joint 1 +,true,2024-03-03 17:59:17.339326,22.31,0.21,235.0,-177.9407196044922,255.81405639648438,84.958251953125,104.82193756103516,124.92032623291016,51.0,-4.656612873077393e-10,-20.0
32,90,100,60,go_to_pick_up_from_red,red,true,false,joint 1 -,false,2024-03-03 17:59:18.731328,22.538,0.175,235.0,-11.962241172790527,311.3850402832031,84.958251953125,72.19999694824219,90.57999420166016,51.0,-4.656612873077393e-10,-20.0
32,90,100,60,go_to_pick_up_from_red,red,true,false,joint 1 -,false,2024-03-03 17:59:19.427001,16.424,0.175,235.0,280.8884582519531,134.92738342285156,84.958251953125,5.657735824584961,25.005144119262695,51.0,-4.656612873077393e-10,-20.0
32,90,100,60,moving_belt,red,false,true,joint 1 -,false,2024-03-03 17:59:20.818919,16.614,0.159,235.0,292.8220520019531,106.5785140991211,84.958251953125,0.0,20.0,51.0,-4.656612873077393e-10,-20.0
32,90,100,60,moving_belt,red,false,true,joint 1 -,false,2024-03-03 17:59:21.514266,16.614,0.159,235.0,292.8220520019531,106.5785140991211,84.958251953125,0.0,20.0,51.0,-4.656612873077393e-10,-20.0
32,90,100,60,moving_belt,red,false,true,joint 1 -,false,2024-03-03 17:59:22.528132,16.443,0.159,235.0,292.8220520019531,106.5785140991211,84.958251953125,0.0,20.0,51.0,-4.656612873077393e-10,-20.0
32,90,100,60,moving_belt,red,false,true,joint 1 -,false,2024-03-03 17:59:23.219476,16.671,0.158,235.0,292.8220520019531,106.5785140991211,84.958251953125,0.0,20.0,51.0,-4.656612873077393e-10,-20.0
32,90,100,60,go_to_pick_down,red,true,false,joint 3 +,false,2024-03-03 17:59:24.599518,16.424,0.158,235.0,292.7538757324219,106.55370330810547,80.34086608886719,0.0,20.0,51.0,2.200000047683716,-20.0
32,90,100,60,go_to_pick_up_from_pick_down,red,true,false,joint 3 -,true,2024-03-03 17:59:25.288869,16.424,0.157,235.0,284.0235595703125,103.3761215209961,33.33361053466797,0.0,20.0,51.0,20.199996948242188,-20.0
32,90,100,60,go_to_color_detect_up_from_pick_up,red,true,false,joint 1 +,true,2024-03-03 17:59:26.551245,16.291,0.157,235.0,286.58721923828125,122.35808563232422,84.958251953125,3.1200027465820312,23.640003204345703,51.0,0.0,-20.0
32,90,100,60,go_to_color_detect_up_from_pick_up,red,true,false,joint 1 +,true,2024-03-03 17:59:27.276793,23.526,0.157,235.0,135.97390747070312,280.38336181640625,84.958251953125,44.12860107421875,64.37187957763672,51.0,0.0,-20.0
32,90,100,60,go_to_color_detect_down,red,true,false,joint 3 +,true,2024-03-03 17:59:28.662220,22.253,0.206,235.0,120.01168823242188,257.3658752441406,-0.8489837646484375,45.0,65.0,51.0,36.68408966064453,-20.0
32,90,100,60,go_to_color_detect_up_from_color_detect_down,red,true,false,joint 3 -,false,2024-03-03 17:59:29.359551,22.007,0.206,235.0,116.87966918945312,250.6492462158203,-10.31536865234375,45.0,65.0,51.0,39.599998474121094,-20.0
32,90,100,60,detecting_color,red,false,false,detecting_color,false,2024-03-03 17:59:30.300000,22.007,0.204,235.0,131.69403076171875,282.41876220703125,84.78450775146484,45.0,65.0,51.0,0.016438644379377365,-20.0
32,90,100,60,detecting_color,red,false,false,detecting_color,false,2024-03-03 17:59:31.677949,16.576,0.158,235.0,131.69407653808594,282.4188232421875,84.958251953125,45.0,65.0,51.0,-4.656612873077393e-10,-20.0
32,90,100,60,detecting_color,red,false,false,detecting_color,false,2024-03-03 17:59:32.373614,16.576,0.158,235.0,131.69407653808594,282.4188232421875,84.958251953125,45.0,65.0,51.0,-4.656612873077393e-10,-20.0
32,90,100,60,detecting_color,red,false,false,detecting_color,false,2024-03-03 17:59:33.762967,16.367,0.158,235.0,131.69407653808594,282.4188232421875,84.958251953125,45.0,65.0,51.0,-4.656612873077393e-10,-20.0
32,90,100,60,detecting_color,red,false,false,detecting_color,false,2024-03-03 17:59:34.453656,16.462,0.157,235.0,131.69407653808594,282.4188232421875,84.958251953125,45.0,65.0,51.0,-4.656612873077393e-10,-20.0
32,90,100,60,go_to_color_detect_down,red,true,false,joint 3 +,false,2024-03-03 17:59:35.389526,16.462,0.157,235.0,131.64828491210938,282.3206481933594,79.31524658203125,45.0,65.0,51.0,2.6399993896484375,-20.0
32,90,100,60,go_to_color_detect_down,red,true,false,joint 3 +,false,2024-03-03 17:59:36.768200,16.291,0.155,235.0,112.98084259033203,242.28819274902344,-20.196151733398438,45.0,65.0,51.0,46.08203125,-20.0
32,90,100,60,go_to_color_detect_up_from_color_detect_down,red,true,false,joint 3 -,true,2024-03-03 17:59:37.502578,16.291,0.155,235.0,125.61415100097656,269.3804016113281,21.534198760986328,45.0,65.0,51.0,24.20000457763672,-20.0
32,90,100,60,go_to_green_up,green,true,false,joint 1 +,true,2024-03-03 17:59:38.480831,18.399,0.155,235.0,107.59998321533203,292.4482421875,84.958251953125,49.80000305175781,70.44000244140625,51.0,-4.656612873077393e-10,-20.0
32,90,100,60,go_to_pick_up_from_green,green,true,false,joint 1 -,false,2024-03-03 17:59:39.866200,22.253,0.214,235.0,-80.6219253540039,301.0047302246094,84.958251953125,84.99430847167969,105.0,51.0,-4.656612873077393e-10,-20.0
32,90,100,60,go_to_pick_up_from_green,green,true,false,joint 1 -,false,2024-03-03 17:59:40.554743,21.361,0.178,235.0,128.13485717773438,284.0513916015625,84.958251953125,45.71998596191406,64.09998321533203,51.0,-4.656612873077393e-10,-20.0
32,90,100,60,moving_belt,green,false,true,joint 1 -,false,2024-03-03 17:59:41.397162,16.576,0.178,235.0,292.8220520019531,106.5785140991211,84.958251953125,0.0,20.0,51.0,-4.656612873077393e-10,-20.0
32,90,100,60,moving_belt,green,false,true,joint 1 -,false,2024-03-03 17:59:42.779660,16.652,0.159,235.0,292.8220520019531,106.5785140991211,84.958251953125,0.0,20.0,51.0,-4.656612873077393e-10,-20.0
32,90,100,60,moving_belt,green,false,true,joint 1 -,false,2024-03-03 17:59:43.472344,16.652,0.159,235.0,292.8220520019531,106.5785140991211,84.958251953125,0.0,20.0,51.0,-4.656612873077393e-10,-20.0
32,90,100,60,moving_belt,green,false,true,joint 1 -,false,2024-03-03 17:59:44.853788,16.538,0.159,235.0,292.8220520019531,106.5785140991211,84.958251953125,0.0,20.0,51.0,-4.656612873077393e-10,-20.0
32,90,100,60,moving_belt,green,false,true,joint 1 -,false,2024-03-03 17:59:45.547566,16.481,0.157,235.0,292.8220520019531,106.5785140991211,84.958251953125,0.0,20.0,51.0,-4.656612873077393e-10,-20.0
32,90,100,60,go_to_pick_down,green,true,false,joint 3 +,false,2024-03-03 17:59:46.238875,16.481,0.157,235.0,286.6092224121094,104.31723022460938,41.36827850341797,0.0,20.0,51.0,17.845497131347656,-20.0
32,90,100,60,go_to_pick_up_from_pick_down,green,true,false,joint 3 -,true,2024-03-03 17:59:47.625941,17.449,0.158,235.0,292.2120056152344,106.35647583007812,71.15796661376953,0.0,20.0,51.0,4.750665187835693,-20.0
32,90,100,60,go_to_color_detect_up_from_pick_up,green,true,false,joint 1 +,true,2024-03-03 17:59:48.330575,17.449,0.158,235.0,247.55128479003906,189.26724243164062,84.958251953125,17.39999771118164,38.599998474121094,51.0,0.0,-20.0
32,90,100,60,go_to_color_detect_down,green,true,false,joint 3 +,true,2024-03-03 17:59:49.713916,22.519,0.207,235.0,131.56875610351562,282.15008544921875,75.62562561035156,45.0,65.0,51.0,4.1999993324279785,-20.0
32,90,100,60,go_to_color_detect_down,green,true,false,joint 3 +,true,2024-03-03 17:59:50.408174,22.007,0.207,235.0,112.10877227783203,240.4180145263672,-22.173080444335938,45.0,65.0,51.0,47.07587432861328,-20.0
32,90,100,60,go_to_color_detect_up_from_color_detect_down,green,true,false,joint 3 -,false,2024-03-03 17:59:51.821053,21.931,0.195,235.0,127.3722915649414,273.1507568359375,31.08867645263672,45.0,65.0,51.0,20.206161499023438,-20.0
32,90,100,60,detecting_color,green,false,false,detecting_color,false,2024-03-03 17:59:52.555375,17.43,0.195,235.0,131.69407653808594,282.4188232421875,84.958251953125,45.0,65.0,51.0,-4.656612873077393e-10,-20.0
32,90,100,60,detecting_color,green,false,false,detecting_color,false,2024-03-03 17:59:53.272970,17.43,0.195,235.0,131.69407653808594,282.4188232421875,84.958251953125,45.0,65.0,51.0,-4.656612873077393e-10,-20.0
32,90,100,60,go_to_color_detect_down,green,true,false,joint 3 +,false,2024-03-03 17:59:54.663647,16.443,0.159,235.0,122.58028411865234,262.8742370605469,8.309219360351562,45.0,65.0,51.0,32.558963775634766,-20.0
32,90,100,60,go_to_color_detect_up_from_color_detect_down,green,true,false,joint 3 -,true,2024-03-03 17:59:55.360482,16.424,0.159,235.0,114.85627746582031,246.31007385253906,-15.670166015625,45.0,65.0,51.0,42.55999755859375,-20.0
32,90,100,60,go_to_color_detect_up_from_color_detect_down,green,true,false,joint 3 -,true,2024-03-03 17:59:56.741699,18.532,0.159,235.0,131.68978881835938,282.4096374511719,83.23200988769531,45.0,65.0,51.0,0.4615650475025177,-20.0
32,90,100,60,go_to_blue_up,blue,true,false,joint 1 +,false,2024-03-03 17:59:57.438615,23.336,0.159,235.0,27.159029006958008,310.4289245605469,84.958251953125,65.0,85.0,51.0,-4.656612873077393e-10,-20.0
32,90,100,60,go_to_pick_up_from_blue,blue,true,false,joint 1 -,false,2024-03-03 17:59:58.834402,17.032,0.206,235.0,216.0727081298828,224.53578186035156,84.958251953125,26.100383758544922,44.675479888916016,51.0,-4.656612873077393e-10,-20.0
32,90,100,60,moving_belt,blue,false,true,joint 1 -,false,2024-03-03 17:59:59.524992,17.032,0.206,235.0,292.8220520019531,106.5785140991211,84.958251953125,0.0,20.0,51.0,-4.656612873077393e-10,-20.0
32,90,100,60,moving_belt,blue,false,true,joint 1 -,false,2024-03-03 18:00:00.232252,16.519,0.158,235.0,292.8220520019531,106.5785140991211,84.958251953125,0.0,20.0,51.0,-4.656612873077393e-10,-20.0
32,90,100,60,moving_belt,blue,false,true,joint 1 -,false,2024-03-03 18:00:01.612627,16.538,0.158,235.0,292.8220520019531,106.5785140991211,84.958251953125,0.0,20.0,51.0,-4.656612873077393e-10,-20.0
32,90,100,60,moving_belt,blue,false,true,joint 1 -,false,2024-03-03 18:00:02.302989,16.538,0.158,235.0,292.8220520019531,106.5785140991211,84.958251953125,0.0,20.0,51.0,-4.656612873077393e-10,-20.0
32,90,100,60,moving_belt,blue,false,true,joint 1 -,false,2024-03-03 18:00:03.714260,16.481,0.156,235.0,292.8220520019531,106.5785140991211,84.958251953125,0.0,20.0,51.0,-4.656612873077393e-10,-20.0
32,90,100,60,go_to_pick_down,blue,true,false,joint 3 +,false,2024-03-03 18:00:04.403962,16.481,0.156,235.0,283.73455810546875,103.27093505859375,32.52097702026367,0.0,20.0,51.0,21.174827575683594,-20.0
32,90,100,60,go_to_pick_up_from_pick_down,blue,true,false,joint 3 -,true,2024-03-03 18:00:05.791603,16.557,0.155,235.0,292.77978515625,106.56312561035156,81.32183074951172,0.0,20.0,51.0,1.1013351678848267,-20.0
32,90,100,60,go_to_color_detect_up_from_pick_up,blue,true,false,joint 1 +,true,2024-03-03 18:00:06.608525,23.526,0.155,235.0,187.9271240234375,248.57017517089844,84.958251953125,32.9095344543457,53.87281799316406,51.0,0.0,-20.0
32,90,100,60,go_to_color_detect_down,blue,true,false,joint 3 +,true,2024-03-03 18:00:07.298830,22.5,0.207,235.0,131.14834594726562,281.24853515625,65.51657104492188,45.0,65.0,51.0,8.399998664855957,-20.0
32,90,100,60,go_to_color_detect_up_from_color_detect_down,blue,true,false,joint 3 -,false,2024-03-03 18:00:08.743564,22.215,0.207,235.0,111.13883972167969,238.33799743652344,-24.284042358398438,45.0,65.0,51.0,47.959999084472656,-20.0
32,90,100,60,go_to_color_detect_up_from_color_detect_down,blue,true,false,joint 3 -,false,2024-03-03 18:00:09.567421,22.215,0.205,235.0,130.98873901367188,280.9062194824219,62.869842529296875,45.0,65.0,51.0,7.83078670501709,-20.0
32,90,100,60,detecting_color,blue,false,false,detecting_color,false,2024-03-03 18:00:10.261005,17.715,0.205,235.0,131.69407653808594,282.4188232421875,84.958251953125,45.0,65.0,51.0,-4.656612873077393e-10,-20.0
32,90,100,60,go_to_color_detect_down,blue,true,false,joint 3 +,false,2024-03-03 18:00:11.649944,16.709,0.159,235.0,131.69407653808594,282.4188232421875,84.958251953125,45.0,65.0,51.0,-4.656612873077393e-10,-20.0
32,90,100,60,go_to_color_detect_down,blue,true,false,joint 3 +,false,2024-03-03 18:00:12.359570,16.671,0.159,235.0,118.77991485595703,254.72433471679688,-4.7643280029296875,45.0,65.0,51.0,38.50665283203125,-20.0
32,90,100,60,go_to_color_detect_up_from_color_detect_down,blue,true,false,joint 3 -,true,2024-03-03 18:00:13.157440,16.671,0.159,235.0,118.01263427734375,253.07888793945312,-7.072502136230469,45.0,65.0,51.0,37.87999725341797,-20.0
32,90,100,60,go_to_red_up,red,true,false,joint 1 +,true,2024-03-03 18:00:14.646753,23.526,0.159,235.0,130.50990295410156,282.968017578125,84.958251953125,45.24000549316406,65.40000915527344,51.0,-4.656612873077393e-10,-20.0
32,90,100,60,go_to_red_up,red,true,false,joint 1 +,true,2024-03-03 18:00:15.338247,22.728,0.207,235.0,-114.30354309082031,289.8938293457031,84.958251953125,91.51904296875,112.53742980957031,51.0,-4.656612873077393e-10,-20.0
32,90,100,60,go_to_pick_up_from_red,red,true,false,joint 1 -,false,2024-03-03 18:00:16.728669,22.804,0.207,235.0,-143.40499877929688,276.6563415527344,84.958251953125,97.39999389648438,116.59999084472656,51.0,-4.656612873077393e-10,-20.0
32,90,100,60,go_to_pick_up_from_red,red,true,false,joint 1 -,false,2024-03-03 18:00:17.424140,19.329,0.207,235.0,237.8463134765625,201.32774353027344,84.958251953125,20.246627807617188,38.99403381347656,51.0,-4.656612873077393e-10,-20.0
32,90,100,60,moving_belt,red,false,true,joint 1 -,false,2024-03-03 18:00:18.811093,16.785,0.16,235.0,292.8220520019531,106.5785140991211,84.958251953125,0.0,20.0,51.0,-4.656612873077393e-10,-20.0
32,90,100,60,moving_belt,red,false,true,joint 1 -,false,2024-03-03 18:00:19.501773,16.652,0.16,235.0,292.8220520019531,106.5785140991211,84.958251953125,0.0,20.0,51.0,-4.656612873077393e-10,-20.0
32,90,100,60,moving_belt,red,false,true,joint 1 -,false,2024-03-03 18:00:20.487175,16.652,0.158,235.0,292.8220520019531,106.5785140991211,84.958251953125,0.0,20.0,51.0,-4.656612873077393e-10,-20.0
32,90,100,60,moving_belt,red,false,true,joint 1 -,false,2024-03-03 18:00:21.876528,16.5,0.158,235.0,292.8220520019531,106.5785140991211,84.958251953125,0.0,20.0,51.0,-4.656612873077393e-10,-20.0
32,90,100,60,moving_belt,red,false,true,joint 1 -,false,2024-03-03 18:00:22.569807,16.5,0.158,235.0,292.8220520019531,106.5785140991211,84.958251953125,0.0,20.0,51.0,-4.656612873077393e-10,-20.0
32,90,100,60,go_to_pick_down,red,true,false,joint 3 +,false,2024-03-03 18:00:23.255618,16.481,0.158,235.0,282.8721618652344,102.9570541381836,30.177860260009766,0.0,20.0,51.0,21.955659866333008,-20.0
32,90,100,60,go_to_pick_up_from_pick_down,red,true,false,joint 3 -,true,2024-03-03 18:00:24.688739,17.298,0.166,235.0,292.8188171386719,106.57733154296875,83.95038604736328,0.0,20.0,51.0,0.23666994273662567,-20.0
32,90,100,60,go_to_color_detect_up_from_pick_up,red,true,false,joint 1 +,true,2024-03-03 18:00:25.386500,23.412,0.166,235.0,164.71888732910156,264.5210876464844,84.958251953125,38.08922576904297,58.81250762939453,51.0,0.0,-20.0
32,90,100,60,go_to_color_detect_down,red,true,false,joint 3 +,true,2024-03-03 18:00:26.783254,23.184,0.212,235.0,129.83819580078125,278.4388732910156,49.296165466308594,45.0,65.0,51.0,15.119998931884766,-20.0
32,90,100,60,go_to_color_detect_up_from_color_detect_down,red,true,false,joint 3 -,false,2024-03-03 18:00:27.493735,22.785,0.212,235.0,111.17107391357422,238.40711975097656,-24.215347290039062,45.0,65.0,51.0,47.87999725341797,-20.0
32,90,100,60,go_to_color_detect_up_from_color_detect_down,red,true,false,joint 3 -,false,2024-03-03 18:00:28.899658,17.374,0.164,235.0,131.22311401367188,281.40887451171875,66.89193725585938,45.0,65.0,51.0,6.328224182128906,-20.0
32,90,100,60,detecting_color,red,false,false,detecting_color,false,2024-03-03 18:00:29.593338,17.374,0.164,235.0,131.69407653808594,282.4188232421875,84.958251953125,45.0,65.0,51.0,-4.656612873077393e-10,-20.0
32,90,100,60,detecting_color,red,false,false,detecting_color,false,2024-03-03 18:00:30.281845,16.462,0.164,235.0,131.69407653808594,282.4188232421875,84.958251953125,45.0,65.0,51.0,-4.656612873077393e-10,-20.0
32,90,100,60,detecting_color,red,false,false,detecting_color,false,2024-03-03 18:00:31.674175,16.5,0.159,235.0,131.69407653808594,282.4188232421875,84.958251953125,45.0,65.0,51.0,-4.656612873077393e-10,-20.0
32,90,100,60,detecting_color,red,false,false,detecting_color,false,2024-03-03 18:00:32.368861,16.5,0.159,235.0,131.69407653808594,282.4188232421875,84.958251953125,45.0,65.0,51.0,-4.656612873077393e-10,-20.0
32,90,100,60,go_to_color_detect_down,red,true,false,joint 3 +,false,2024-03-03 18:00:33.761777,16.386,0.159,235.0,131.4142608642578,281.81878662109375,71.02216339111328,45.0,65.0,51.0,6.119998931884766,-20.0
32,90,100,60,go_to_color_detect_down,red,true,false,joint 3 +,false,2024-03-03 18:00:34.664358,16.253,0.159,235.0,111.5094223022461,239.13270568847656,-23.488121032714844,45.0,65.0,51.0,47.709716796875,-20.0
32,90,100,60,go_to_color_detect_up_from_color_detect_down,red,true,false,joint 3 -,true,2024-03-03 18:00:35.364053,16.538,0.158,235.0,130.6764678955078,280.236572265625,58.460723876953125,45.0,65.0,51.0,9.493349075317383,-20.0
32,90,100,60,go_to_green_up,green,true,false,joint 1 +,true,2024-03-03 18:00:36.774290,23.924,0.158,235.0,84.63713073730469,299.9004821777344,84.958251953125,54.24000549316406,75.12000274658203,51.0,-4.656612873077393e-10,-20.0
32,90,100,60,go_to_pick_up_from_green,green,true,false,joint 1 -,false,2024-03-03 18:00:37.464148,23.032,0.212,235.0,-78.54850006103516,301.55242919921875,84.958251953125,84.59999084472656,104.39999389648438,51.0,-4.656612873077393e-10,-20.0
32,90,100,60,go_to_pick_up_from_green,green,true,false,joint 1 -,false,2024-03-03 18:00:38.872437,16.557,0.212,235.0,225.03378295898438,215.5540008544922,84.958251953125,23.767398834228516,42.408634185791016,51.0,-4.656612873077393e-10,-20.0
32,90,100,60,moving_belt,green,false,true,joint 1 -,false,2024-03-03 18:00:39.572106,16.557,0.159,235.0,292.8220520019531,106.5785140991211,84.958251953125,0.0,20.0,51.0,-4.656612873077393e-10,-20.0
32,90,100,60,moving_belt,green,false,true,joint 1 -,false,2024-03-03 18:00:40.768110,16.5,0.159,235.0,292.8220520019531,106.5785140991211,84.958251953125,0.0,20.0,51.0,-4.656612873077393e-10,-20.0
32,90,100,60,moving_belt,green,false,true,joint 1 -,false,2024-03-03 18:00:41.458796,16.424,0.159,235.0,292.8220520019531,106.5785140991211,84.958251953125,0.0,20.0,51.0,-4.656612873077393e-10,-20.0
32,90,100,60,moving_belt,green,false,true,joint 1 -,false,2024-03-03 18:00:42.864163,16.595,0.157,235.0,292.8220520019531,106.5785140991211,84.958251953125,0.0,20.0,51.0,-4.656612873077393e-10,-20.0
32,90,100,60,moving_belt,green,false,true,joint 1 -,false,2024-03-03 18:00:43.669244,16.595,0.157,235.0,292.8220520019531,106.5785140991211,84.958251953125,0.0,20.0,51.0,-4.656612873077393e-10,-20.0
32,90,100,60,go_to_pick_down,green,true,false,joint 3 +,false,2024-03-03 18:00:44.360649,16.405,0.155,235.0,283.73455810546875,103.27093505859375,32.52097702026367,0.0,20.0,51.0,21.174827575683594,-20.0
32,90,100,60,go_to_pick_up_from_pick_down,green,true,false,joint 3 -,true,2024-03-03 18:00:45.745352,16.386,0.155,235.0,292.755859375,106.5544204711914,80.40839385986328,0.0,20.0,51.0,1.417501449584961,-20.0
32,90,100,60,go_to_color_detect_up_from_pick_up,green,true,false,joint 1 +,true,2024-03-03 18:00:46.453982,23.374,0.213,235.0,187.9271240234375,248.57017517089844,84.958251953125,32.9095344543457,53.87281799316406,51.0,0.0,-20.0
32,90,100,60,go_to_color_detect_down,green,true,false,joint 3 +,true,2024-03-03 18:00:47.838351,22.234,0.213,235.0,131.02761840820312,280.9896240234375,63.484046936035156,45.0,65.0,51.0,9.239998817443848,-20.0
32,90,100,60,go_to_color_detect_up_from_color_detect_down,green,true,false,joint 3 -,false,2024-03-03 18:00:48.536806,22.234,0.202,235.0,111.14300537109375,238.34693908691406,-24.275192260742188,45.0,65.0,51.0,48.0,-20.0
32,90,100,60,go_to_color_detect_up_from_color_detect_down,green,true,false,joint 3 -,false,2024-03-03 18:00:49.518141,22.064,0.202,235.0,130.27099609375,279.3670349121094,53.674888610839844,45.0,65.0,51.0,11.315911293029785,-20.0
32,90,100,60,detecting_color,green,false,false,detecting_color,false,2024-03-03 18:00:50.212885,16.937,0.202,235.0,131.69407653808594,282.4188232421875,84.958251953125,45.0,65.0,51.0,-4.656612873077393e-10,-20.0
32,90,100,60,go_to_color_detect_down,green,true,false,joint 3 +,false,2024-03-03 18:00:51.858381,16.595,0.164,235.0,131.69406127929688,282.4187927246094,84.85562896728516,45.0,65.0,51.0,0.1199999749660492,-20.0
32,90,100,60,go_to_color_detect_down,green,true,false,joint 3 +,false,2024-03-03 18:00:52.549842,16.538,0.164,235.0,117.04146575927734,250.9962158203125,-9.863693237304688,45.0,65.0,51.0,40.94049835205078,-20.0
32,90,100,60,go_to_color_detect_up_from_color_detect_down,green,true,false,joint 3 -,true,2024-03-03 18:00:53.251495,16.538,0.157,235.0,119.82927703857422,256.9747009277344,-1.4461822509765625,45.0,65.0,51.0,35.0,-20.0
32,90,100,60,go_to_blue_up,blue,true,false,joint 1 +,true,2024-03-03 18:00:54.688680,23.26,0.157,235.0,128.72940063476562,283.7824401855469,84.958251953125,45.600006103515625,65.84000396728516,51.0,-4.656612873077393e-10,-20.0
32,90,100,60,go_to_pick_up_from_blue,blue,true,false,joint 1 -,false,2024-03-03 18:00:55.382794,22.329,0.212,235.0,31.70705795288086,309.9974060058594,84.958251953125,64.15999603271484,83.87999725341797,51.0,-4.656612873077393e-10,-20.0
32,90,100,60,go_to_pick_up_from_blue,blue,true,false,joint 1 -,false,2024-03-03 18:00:56.762766,20.526,0.212,235.0,262.4430236816406,168.0100860595703,84.958251953125,12.626449584960938,31.64154624938965,51.0,-4.656612873077393e-10,-20.0
32,90,100,60,moving_belt,blue,false,true,joint 1 -,false,2024-03-03 18:00:57.460432,16.804,0.159,235.0,292.8220520019531,106.5785140991211,84.958251953125,0.0,20.0,51.0,-4.656612873077393e-10,-20.0
32,90,100,60,moving_belt,blue,false,true,joint 1 -,false,2024-03-03 18:00:58.841812,16.576,0.159,235.0,292.8220520019531,106.5785140991211,84.958251953125,0.0,20.0,51.0,-4.656612873077393e-10,-20.0
32,90,100,60,moving_belt,blue,false,true,joint 1 -,false,2024-03-03 18:00:59.650300,16.576,0.158,235.0,292.8220520019531,106.5785140991211,84.958251953125,0.0,20.0,51.0,-4.656612873077393e-10,-20.0
32,90,100,60,moving_belt,blue,false,true,joint 1 -,false,2024-03-03 18:01:00.352409,16.31,0.158,235.0,292.8220520019531,106.5785140991211,84.958251953125,0.0,20.0,51.0,-4.656612873077393e-10,-20.0
32,90,100,60,go_to_pick_down,blue,true,false,joint 3 +,false,2024-03-03 18:01:01.345686,16.31,0.158,235.0,292.822021484375,106.57849884033203,84.85562896728516,0.0,20.0,51.0,0.11999999731779099,-20.0
32,90,100,60,go_to_pick_up_from_pick_down,blue,true,false,joint 3 -,true,2024-03-03 18:01:02.742338,16.5,0.157,235.0,282.76361083984375,102.91754913330078,29.89107894897461,0.0,20.0,51.0,22.0,-20.0
32,90,100,60,go_to_color_detect_up_from_pick_up,blue,true,false,joint 1 +,true,2024-03-03 18:01:03.441555,21.152,0.157,235.0,292.8220520019531,106.5785140991211,84.958251953125,0.0,20.0,51.0,0.0,-20.0
32,90,100,60,go_to_color_detect_up_from_pick_up,blue,true,false,joint 1 +,true,2024-03-03 18:01:04.837973,22.462,0.213,235.0,152.29783630371094,271.8622741699219,84.958251953125,40.74235153198242,61.305633544921875,51.0,0.0,-20.0
32,90,100,60,go_to_color_detect_down,blue,true,false,joint 3 +,true,2024-03-03 18:01:05.531892,22.519,0.208,235.0,128.006591796875,274.5110168457031,35.067237854003906,45.0,65.0,51.0,21.1199951171875,-20.0
32,90,100,60,go_to_color_detect_up_from_color_detect_down,blue,true,false,joint 3 -,false,2024-03-03 18:01:06.225348,22.121,0.208,235.0,111.81121826171875,239.7799072265625,-22.83026885986328,45.0,65.0,51.0,46.87999725341797,-20.0
32,90,100,60,go_to_color_detect_up_from_color_detect_down,blue,true,false,joint 3 -,false,2024-03-03 18:01:07.724887,21.228,0.163,235.0,131.6714324951172,282.37030029296875,80.99049377441406,45.0,65.0,51.0,1.215409517288208,-20.0
32,90,100,60,detecting_color,blue,false,false,detecting_color,false,2024-03-03 18:01:08.414580,17.374,0.163,235.0,131.69407653808594,282.4188232421875,84.958251953125,45.0,65.0,51.0,-4.656612873077393e-10,-20.0
32,90,100,60,go_to_color_detect_down,blue,true,false,joint 3 +,false,2024-03-03 18:01:09.852414,16.519,0.163,235.0,131.66342163085938,282.35308837890625,80.34087371826172,45.0,65.0,51.0,2.1999995708465576,-20.0
32,90,100,60,go_to_color_detect_down,blue,true,false,joint 3 +,false,2024-03-03 18:01:10.800094,16.519,0.158,235.0,113.32952117919922,243.0359344482422,-19.383834838867188,45.0,65.0,51.0,45.67074966430664,-20.0
32,90,100,60,go_to_color_detect_up_from_color_detect_down,blue,true,false,joint 3 -,true,2024-03-03 18:01:11.615367,16.386,0.158,235.0,124.98181915283203,268.02435302734375,18.49610137939453,45.0,65.0,51.0,25.56000518798828,-20.0
32,90,100,60,go_to_red_up,red,true,false,joint 1 +,true,2024-03-03 18:01:12.307610,21.57,0.214,235.0,110.65652465820312,291.3054504394531,84.958251953125,49.20000457763672,69.80000305175781,51.0,-4.656612873077393e-10,-20.0
32,90,100,60,go_to_red_up,red,true,false,joint 1 +,true,2024-03-03 18:01:12.996501,23.165,0.214,235.0,-158.2562255859375,268.4375,84.958251953125,100.52129364013672,121.09967803955078,51.0,-4.656612873077393e-10,-20.0
32,90,100,60,go_to_pick_up_from_red,red,true,false,joint 1 -,false,2024-03-03 18:01:14.277609,22.424,0.214,235.0,-87.98173522949219,298.9363708496094,84.958251953125,86.39999389648438,105.15999603271484,51.0,-4.656612873077393e-10,-20.0
32,90,100,60,go_to_pick_up_from_red,red,true,false,joint 1 -,false,2024-03-03 18:01:15.664206,16.538,0.208,235.0,273.4149169921875,149.49253845214844,84.958251953125,8.668106079101562,27.855512619018555,51.0,-4.656612873077393e-10,-20.0
32,90,100,60,moving_belt,red,false,true,joint 1 -,false,2024-03-03 18:01:16.358541,16.538,0.208,235.0,292.8220520019531,106.5785140991211,84.958251953125,0.0,20.0,51.0,-4.656612873077393e-10,-20.0
32,90,100,60,moving_belt,red,false,true,joint 1 -,false,2024-03-03 18:01:17.775610,16.728,0.158,235.0,292.8220520019531,106.5785140991211,84.958251953125,0.0,20.0,51.0,-4.656612873077393e-10,-20.0
32,90,100,60,moving_belt,red,false,true,joint 1 -,false,2024-03-03 18:01:18.482240,16.253,0.158,235.0,292.8220520019531,106.5785140991211,84.958251953125,0.0,20.0,51.0,-4.656612873077393e-10,-20.0
32,90,100,60,moving_belt,red,false,true,joint 1 -,false,2024-03-03 18:01:19.863471,16.557,0.157,235.0,292.8220520019531,106.5785140991211,84.958251953125,0.0,20.0,51.0,-4.656612873077393e-10,-20.0
32,90,100,60,go_to_pick_down,red,true,false,joint 3 +,false,2024-03-03 18:01:20.555565,16.367,0.157,235.0,292.8220520019531,106.5785140991211,84.958251953125,0.0,20.0,51.0,-4.656612873077393e-10,-20.0
32,90,100,60,go_to_pick_up_from_pick_down,red,true,false,joint 3 -,true,2024-03-03 18:01:21.244860,16.367,0.158,235.0,282.8717041015625,102.9568862915039,30.17666244506836,0.0,20.0,51.0,21.759998321533203,-20.0
32,90,100,60,go_to_color_detect_up_from_pick_up,red,true,false,joint 1 +,true,2024-03-03 18:01:22.664508,16.538,0.158,235.0,292.8220520019531,106.5785140991211,84.958251953125,0.0,20.040000915527344,51.0,0.0,-20.0
32,90,100,60,go_to_color_detect_up_from_pick_up,red,true,false,joint 1 +,true,2024-03-03 18:01:23.357182,23.488,0.213,235.0,161.3666229248047,266.5793151855469,84.958251953125,38.81250762939453,59.49578857421875,51.0,0.0,-20.0
32,90,100,60,go_to_color_detect_down,red,true,false,joint 3 +,true,2024-03-03 18:01:24.748807,22.348,0.213,235.0,126.9899673461914,272.3308410644531,28.846050262451172,45.0,65.0,51.0,23.79999542236328,-20.0
32,90,100,60,go_to_color_detect_up_from_color_detect_down,red,true,false,joint 3 -,false,2024-03-03 18:01:25.438151,22.348,0.204,235.0,112.28592681884766,240.7979278564453,-21.777687072753906,45.0,65.0,51.0,46.19999694824219,-20.0
32,90,100,60,go_to_color_detect_up_from_color_detect_down,red,true,false,joint 3 -,false,2024-03-03 18:01:26.849051,17.336,0.204,235.0,131.5928192138672,282.2016906738281,76.56852722167969,45.0,65.0,51.0,2.7805356979370117,-20.0
32,90,100,60,detecting_color,red,false,false,detecting_color,false,2024-03-03 18:01:27.558691,17.336,0.164,235.0,131.69407653808594,282.4188232421875,84.958251953125,45.0,65.0,51.0,-4.656612873077393e-10,-20.0
32,90,100,60,detecting_color,red,false,false,detecting_color,false,2024-03-03 18:01:28.938087,16.557,0.164,235.0,131.69407653808594,282.4188232421875,84.958251953125,45.0,65.0,51.0,-4.656612873077393e-10,-20.0
32,90,100,60,detecting_color,red,false,false,detecting_color,false,2024-03-03 18:01:29.629764,16.557,0.16,235.0,131.69407653808594,282.4188232421875,84.958251953125,45.0,65.0,51.0,-4.656612873077393e-10,-20.0
32,90,100,60,detecting_color,red,false,false,detecting_color,false,2024-03-03 18:01:30.322446,16.519,0.16,235.0,131.69407653808594,282.4188232421875,84.958251953125,45.0,65.0,51.0,-4.656612873077393e-10,-20.0
32,90,100,60,go_to_color_detect_down,red,true,false,joint 3 +,false,2024-03-03 18:01:31.699840,16.614,0.159,235.0,131.64828491210938,282.3206481933594,79.31524658203125,45.0,65.0,51.0,2.6399993896484375,-20.0
32,90,100,60,go_to_color_detect_down,red,true,false,joint 3 +,false,2024-03-03 18:01:32.395812,16.614,0.159,235.0,112.98084259033203,242.28819274902344,-20.196151733398438,45.0,65.0,51.0,46.08203125,-20.0
32,90,100,60,go_to_color_detect_up_from_color_detect_down,red,true,false,joint 3 -,true,2024-03-03 18:01:33.790781,20.791,0.214,235.0,125.61415100097656,269.3804016113281,21.534198760986328,45.0,65.0,51.0,24.20000457763672,-20.0
32,90,100,60,go_to_green_up,green,true,false,joint 1 +,true,2024-03-03 18:01:34.481073,20.791,0.214,235.0,104.32667541503906,293.6318664550781,84.958251953125,50.44000244140625,71.12000274658203,51.0,-4.656612873077393e-10,-20.0
32,90,100,60,go_to_pick_up_from_green,green,true,false,joint 1 -,false,2024-03-03 18:01:35.888960,22.576,0.209,235.0,-80.65180969238281,300.9967041015625,84.958251953125,85.0,105.0,51.0,-4.656612873077393e-10,-20.0
32,90,100,60,go_to_pick_up_from_green,green,true,false,joint 1 -,false,2024-03-03 18:01:36.587614,19.785,0.209,235.0,136.1139373779297,280.3153991699219,84.958251953125,44.09998321533203,62.479984283447266,51.0,-4.656612873077393e-10,-20.0
32,90,100,60,moving_belt,green,false,true,joint 1 -,false,2024-03-03 18:01:37.329143,19.785,0.209,235.0,292.8220520019531,106.5785140991211,84.958251953125,0.0,20.0,51.0,-4.656612873077393e-10,-20.0
32,90,100,60,moving_belt,green,false,true,joint 1 -,false,2024-03-03 18:01:38.725729,16.728,0.16,235.0,292.8220520019531,106.5785140991211,84.958251953125,0.0,20.0,51.0,-4.656612873077393e-10,-20.0
32,90,100,60,moving_belt,green,false,true,joint 1 -,false,2024-03-03 18:01:39.420397,16.614,0.16,235.0,292.8220520019531,106.5785140991211,84.958251953125,0.0,20.0,51.0,-4.656612873077393e-10,-20.0
32,90,100,60,moving_belt,green,false,true,joint 1 -,false,2024-03-03 18:01:40.801871,16.405,0.158,235.0,292.8220520019531,106.5785140991211,84.958251953125,0.0,20.0,51.0,-4.656612873077393e-10,-20.0
32,90,100,60,moving_belt,green,false,true,joint 1 -,false,2024-03-03 18:01:41.498124,16.234,0.158,235.0,292.8220520019531,106.5785140991211,84.958251953125,0.0,20.0,51.0,-4.656612873077393e-10,-20.0
32,90,100,60,go_to_pick_down,green,true,false,joint 3 +,false,2024-03-03 18:01:42.895830,16.519,0.158,235.0,287.9764404296875,104.81485748291016,46.364864349365234,0.0,20.0,51.0,15.93699836730957,-20.0
32,90,100,60,go_to_pick_up_from_pick_down,green,true,false,joint 3 -,true,2024-03-03 18:01:43.590969,16.519,0.158,235.0,292.4590759277344,106.44640350341797,74.30866241455078,0.0,20.0,51.0,3.598332643508911,-20.0
32,90,100,60,go_to_color_detect_up_from_pick_up,green,true,false,joint 1 +,true,2024-03-03 18:01:44.282585,19.272,0.158,235.0,239.26913452148438,199.6346893310547,84.958251953125,19.84000015258789,41.119998931884766,51.0,0.0,-20.0
32,90,100,60,go_to_color_detect_down,green,true,false,joint 3 +,true,2024-03-03 18:01:45.818449,22.519,0.206,235.0,131.66342163085938,282.35308837890625,80.34087371826172,45.0,65.0,51.0,2.1999995708465576,-20.0
32,90,100,60,go_to_color_detect_down,green,true,false,joint 3 +,true,2024-03-03 18:01:46.507707,22.083,0.206,235.0,111.5094223022461,239.13270568847656,-23.488121032714844,45.0,65.0,51.0,47.709716796875,-20.0
32,90,100,60,go_to_color_detect_up_from_color_detect_down,green,true,false,joint 3 -,false,2024-03-03 18:01:47.907259,22.026,0.205,235.0,128.73878479003906,276.0812072753906,40.15884017944336,45.0,65.0,51.0,16.572317123413086,-20.0
32,90,100,60,detecting_color,green,false,false,detecting_color,false,2024-03-03 18:01:48.599941,17.544,0.205,235.0,131.69407653808594,282.4188232421875,84.958251953125,45.0,65.0,51.0,-4.656612873077393e-10,-20.0
32,90,100,60,detecting_color,green,false,false,detecting_color,false,2024-03-03 18:01:49.292626,17.544,0.162,235.0,131.69407653808594,282.4188232421875,84.958251953125,45.0,65.0,51.0,-4.656612873077393e-10,-20.0
32,90,100,60,go_to_color_detect_down,green,true,false,joint 3 +,false,2024-03-03 18:01:50.682974,16.557,0.162,235.0,121.2841567993164,260.0946960449219,3.502349853515625,45.0,65.0,51.0,34.7015266418457,-20.0
32,90,100,60,go_to_color_detect_up_from_color_detect_down,green,true,false,joint 3 -,true,2024-03-03 18:01:51.375836,16.595,0.158,235.0,119.82927703857422,256.9747009277344,-1.4461822509765625,45.0,65.0,51.0,35.0,-20.0
32,90,100,60,go_to_blue_up,blue,true,false,joint 1 +,true,2024-03-03 18:01:52.763524,21.247,0.158,235.0,131.69407653808594,282.4188232421875,84.958251953125,45.0,65.04000091552734,51.0,-4.656612873077393e-10,-20.0
32,90,100,60,go_to_pick_up_from_blue,blue,true,false,joint 1 -,false,2024-03-03 18:01:53.458187,23.146,0.207,235.0,27.159029006958008,310.4289245605469,84.958251953125,65.0,84.95999908447266,51.0,-4.656612873077393e-10,-20.0
32,90,100,60,go_to_pick_up_from_blue,blue,true,false,joint 1 -,false,2024-03-03 18:01:54.843458,16.633,0.207,235.0,236.4557647705078,202.95912170410156,84.958251953125,20.640769958496094,39.3758659362793,51.0,-4.656612873077393e-10,-20.0
32,90,100,60,moving_belt,blue,false,true,joint 1 -,false,2024-03-03 18:01:55.535703,16.633,0.159,235.0,292.8220520019531,106.5785140991211,84.958251953125,0.0,20.0,51.0,-4.656612873077393e-10,-20.0
32,90,100,60,moving_belt,blue,false,true,joint 1 -,false,2024-03-03 18:01:56.917790,16.69,0.159,235.0,292.8220520019531,106.5785140991211,84.958251953125,0.0,20.0,51.0,-4.656612873077393e-10,-20.0
32,90,100,60,moving_belt,blue,false,true,joint 1 -,false,2024-03-03 18:01:57.610082,16.386,0.159,235.0,292.8220520019531,106.5785140991211,84.958251953125,0.0,20.0,51.0,-4.656612873077393e-10,-20.0
32,90,100,60,moving_belt,blue,false,true,joint 1 -,false,2024-03-03 18:01:58.311623,16.386,0.158,235.0,292.8220520019531,106.5785140991211,84.958251953125,0.0,20.0,51.0,-4.656612873077393e-10,-20.0
32,90,100,60,moving_belt,blue,false,true,joint 1 -,false,2024-03-03 18:01:59.697643,16.31,0.158,235.0,292.8220520019531,106.5785140991211,84.958251953125,0.0,20.0,51.0,-4.656612873077393e-10,-20.0
32,90,100,60,go_to_pick_down,blue,true,false,joint 3 +,false,2024-03-03 18:02:00.392310,16.462,0.158,235.0,282.77099609375,102.92022705078125,29.9105224609375,0.0,20.0,51.0,22.0,-20.0
32,90,100,60,go_to_pick_up_from_pick_down,blue,true,false,joint 3 -,true,2024-03-03 18:02:01.774594,16.291,0.158,235.0,292.8217468261719,106.57840728759766,84.64908599853516,0.0,20.0,51.0,0.04433741420507431,-20.0
32,90,100,60,go_to_color_detect_up_from_pick_up,blue,true,false,joint 1 +,true,2024-03-03 18:02:02.498185,23.298,0.213,235.0,183.7216796875,251.6944122314453,84.958251953125,33.87281799316406,54.79610061645508,51.0,0.0,-20.0
32,90,100,60,go_to_color_detect_down,blue,true,false,joint 3 +,true,2024-03-03 18:02:03.893084,21.988,0.213,235.0,129.5434112548828,277.8067321777344,46.61455154418945,45.0,65.0,51.0,16.23999786376953,-20.0
32,90,100,60,go_to_color_detect_up_from_color_detect_down,blue,true,false,joint 3 -,false,2024-03-03 18:02:04.582130,21.988,0.202,235.0,111.33187866210938,238.75196838378906,-23.871063232421875,45.0,65.0,51.0,47.599998474121094,-20.0
32,90,100,60,go_to_color_detect_up_from_color_detect_down,blue,true,false,joint 3 -,false,2024-03-03 18:02:05.966049,16.918,0.202,235.0,131.31553649902344,281.6070556640625,68.75533294677734,45.0,65.0,51.0,5.6369428634643555,-20.0
32,90,100,60,detecting_color,blue,false,false,detecting_color,false,2024-03-03 18:02:06.656741,16.918,0.164,235.0,131.69407653808594,282.4188232421875,84.958251953125,45.0,65.0,51.0,-4.656612873077393e-10,-20.0
32,90,100,60,go_to_color_detect_down,blue,true,false,joint 3 +,false,2024-03-03 18:02:07.348425,16.329,0.164,235.0,131.6935272216797,282.41766357421875,84.34249877929688,45.0,65.0,51.0,0.3999999165534973,-20.0
32,90,100,60,go_to_color_detect_down,blue,true,false,joint 3 +,false,2024-03-03 18:02:08.045094,16.329,0.164,235.0,115.97435760498047,248.70779418945312,-12.776542663574219,45.0,65.0,51.0,42.363059997558594,-20.0
32,90,100,60,go_to_color_detect_up_from_color_detect_down,blue,true,false,joint 3 -,true,2024-03-03 18:02:09.736258,16.652,0.156,235.0,125.61415100097656,269.3804016113281,21.534198760986328,45.0,65.0,51.0,24.20000457763672,-20.0
32,90,100,60,go_to_red_up,red,true,false,joint 1 +,true,2024-03-03 18:02:10.539215,23.336,0.156,235.0,122.75809478759766,286.4161071777344,84.958251953125,46.80000305175781,67.20000457763672,51.0,-4.656612873077393e-10,-20.0
32,90,100,60,go_to_red_up,red,true,false,joint 1 +,true,2024-03-03 18:02:11.290347,23.336,0.213,235.0,-141.61239624023438,277.57818603515625,84.958251953125,97.02935791015625,117.80774688720703,51.0,-4.656612873077393e-10,-20.0
32,90,100,60,go_to_pick_up_from_red,red,true,false,joint 1 -,false,2024-03-03 18:02:12.108620,22.102,0.213,235.0,-81.49203491210938,300.77032470703125,84.958251953125,85.15999603271484,103.87999725341797,51.0,-4.656612873077393e-10,-20.0
32,90,100,60,go_to_pick_up_from_red,red,true,false,joint 1 -,false,2024-03-03 18:02:13.726536,16.386,0.189,235.0,257.1676940917969,175.9787139892578,84.958251953125,14.383663177490234,33.33106994628906,51.0,-4.656612873077393e-10,-20.0
32,90,100,60,moving_belt,red,false,true,joint 1 -,false,2024-03-03 18:02:14.414851,16.386,0.189,235.0,292.8220520019531,106.5785140991211,84.958251953125,0.0,20.0,51.0,-4.656612873077393e-10,-20.0
32,90,100,60,moving_belt,red,false,true,joint 1 -,false,2024-03-03 18:02:15.796157,16.386,0.158,235.0,292.8220520019531,106.5785140991211,84.958251953125,0.0,20.0,51.0,-4.656612873077393e-10,-20.0
32,90,100,60,moving_belt,red,false,true,joint 1 -,false,2024-03-03 18:02:15.796157,16.386,0.158,235.0,292.8220520019531,106.5785140991211,84.958251953125,0.0,20.0,51.0,-4.656612873077393e-10,-20.0
32,90,100,60,moving_belt,red,false,true,joint 1 -,false,2024-03-03 18:02:17.747236,16.614,0.157,235.0,292.8220520019531,106.5785140991211,84.958251953125,0.0,20.0,51.0,-4.656612873077393e-10,-20.0
32,90,100,60,go_to_pick_down,red,true,false,joint 3 +,false,2024-03-03 18:02:18.443438,16.424,0.157,235.0,292.8220520019531,106.5785140991211,84.958251953125,0.0,20.0,51.0,-4.656612873077393e-10,-20.0
32,90,100,60,go_to_pick_up_from_pick_down,red,true,false,joint 3 -,true,2024-03-03 18:02:19.259061,16.424,0.157,235.0,282.77099609375,102.92022705078125,29.9105224609375,0.0,20.0,51.0,22.0,-20.0
32,90,100,60,go_to_color_detect_up_from_pick_up,red,true,false,joint 1 +,true,2024-03-03 18:02:20.542563,16.31,0.156,235.0,292.74755859375,106.78292846679688,84.958251953125,0.04000091552734375,20.1200008392334,51.0,0.0,-20.0
32,90,100,60,go_to_color_detect_up_from_pick_up,red,true,false,joint 1 +,true,2024-03-03 18:02:21.924079,22.367,0.206,235.0,161.3666229248047,266.5793151855469,84.958251953125,38.81250762939453,59.49578857421875,51.0,0.0,-20.0
32,90,100,60,go_to_color_detect_down,red,true,false,joint 3 +,true,2024-03-03 18:02:22.633952,22.424,0.206,235.0,129.5434112548828,277.8067321777344,46.61455154418945,45.0,65.0,51.0,16.23999786376953,-20.0
32,90,100,60,go_to_color_detect_up_from_color_detect_down,red,true,false,joint 3 -,false,2024-03-03 18:02:23.334599,21.874,0.206,235.0,112.5685043334961,241.4039306640625,-21.14051055908203,45.0,65.0,51.0,45.79999542236328,-20.0
32,90,100,60,go_to_color_detect_up_from_color_detect_down,red,true,false,joint 3 -,false,2024-03-03 18:02:24.749608,19.842,0.203,235.0,131.6209259033203,282.2619934082031,77.82721710205078,45.0,65.0,51.0,2.329254150390625,-20.0
32,90,100,60,detecting_color,red,false,false,detecting_color,false,2024-03-03 18:02:25.455247,17.013,0.203,235.0,131.69407653808594,282.4188232421875,84.958251953125,45.0,65.0,51.0,-4.656612873077393e-10,-20.0
32,90,100,60,detecting_color,red,false,false,detecting_color,false,2024-03-03 18:02:26.846595,16.367,0.156,235.0,131.69407653808594,282.4188232421875,84.958251953125,45.0,65.0,51.0,-4.656612873077393e-10,-20.0
32,90,100,60,detecting_color,red,false,false,detecting_color,false,2024-03-03 18:02:27.538271,16.367,0.156,235.0,131.69407653808594,282.4188232421875,84.958251953125,45.0,65.0,51.0,-4.656612873077393e-10,-20.0
32,90,100,60,detecting_color,red,false,false,detecting_color,false,2024-03-03 18:02:28.922650,16.177,0.156,235.0,131.69407653808594,282.4188232421875,84.958251953125,45.0,65.0,51.0,-4.656612873077393e-10,-20.0
