demetriskallis/dobot_magician_pick_and_place_and_color_sorting/Sampling/WholeSystemExperiments_training_data/payload_32g/TOO_SLOW_joint_measurements__armv_100_arma_10_belts_60_cube_32g.csv
cube/weight,arm/velocity_ratio,arm/acceleration_ratio,belt/speed,dobot/operation,dobot/color,dobot/moving_arm,dobot/moving_belt,dobot/operation2,dobot/suction,meross/sample_timestamp,meross/power,meross/current,meross/voltage,dobot/pose_x,dobot/pose_y,dobot/pose_z,dobot/pose_rHead,dobot/pose_joint1Angle,dobot/pose_joint2Angle,dobot/pose_joint3Angle,dobot/pose_joint4Angle
32,100,10,60,homing,,,,homing,,,,,,159.5322265625,-3.7103073596954346,59.98925018310547,-1.3323116302490234,-1.7323116064071655,-12.089995384216309,29.334508895874023,0.0
32,100,10,60,homing,,,,homing,,,,,,146.96347045898438,-62.177452087402344,59.98925018310547,-22.93229866027832,-23.332298278808594,-12.089995384216309,29.334508895874023,0.0
32,100,10,60,homing,,,,homing,,,,,,118.3406753540039,-107.05036163330078,59.98925018310547,-42.132328033447266,-42.53232955932617,-12.089995384216309,29.334508895874023,0.0
32,100,10,60,homing,,,,homing,,2024-03-04 11:50:39.418629,16.329,0.15,236.8,76.55267333984375,-140.01422119140625,59.98925018310547,-61.332401275634766,-61.73240280151367,-12.089995384216309,29.334508895874023,0.0
32,100,10,60,homing,,,,homing,,2024-03-04 11:50:40.106727,16.424,0.15,236.8,19.63396644592285,-158.36289978027344,59.98925018310547,-82.93247985839844,-83.33248138427734,-12.089995384216309,29.334508895874023,0.0
32,100,10,60,homing,,,,homing,,2024-03-04 11:50:41.494405,16.291,0.15,236.8,-33.538612365722656,-156.01109313964844,59.98925018310547,-102.13255310058594,-102.53255462646484,-12.089995384216309,29.334508895874023,0.0
32,100,10,60,homing,,,,homing,,2024-03-04 11:50:42.184914,16.215,0.15,236.8,-82.98008728027344,-136.3033447265625,59.98925018310547,-121.33262634277344,-121.73262786865234,-12.089995384216309,29.334508895874023,0.0
32,100,10,60,homing,,,,homing,,2024-03-04 11:50:43.563730,16.405,0.151,236.8,-110.23262786865234,-115.38226318359375,59.98925018310547,-133.6924591064453,-133.67245483398438,-12.089995384216309,29.334508895874023,0.0
32,100,10,60,homing,,,,homing,,2024-03-04 11:50:44.254177,16.405,0.151,236.8,-112.92108917236328,-112.75994873046875,59.98876190185547,-135.04090881347656,-135.01690673828125,-12.081780433654785,29.336984634399414,0.0
32,100,10,60,homing,,,,homing,,2024-03-04 11:50:45.639422,16.367,0.151,236.8,-83.91281127929688,-143.29556274414062,59.16777038574219,-120.35291290283203,-119.75291442871094,-8.598685264587402,30.38669776916504,0.0
32,100,10,60,homing,,,,homing,,2024-03-04 11:50:46.332729,16.405,0.151,236.8,6.714779853820801,-187.86769104003906,53.18507385253906,-87.95299530029297,-87.35299682617188,2.8610262870788574,33.840354919433594,0.0
32,100,10,60,homing,,,,homing,,2024-03-04 11:50:47.022458,16.405,0.151,236.8,111.78951263427734,-187.17990112304688,35.99763488769531,-59.15306854248047,-58.553070068359375,19.138261795043945,38.745880126953125,0.0
32,100,10,60,homing,,,,homing,,2024-03-04 11:50:48.437697,16.538,0.155,236.8,206.4518585205078,-120.89771270751953,15.142280578613281,-30.35313606262207,-29.753135681152344,32.09645080566406,42.651123046875,0.0
32,100,10,60,homing,,,,homing,,2024-03-04 11:50:49.144116,16.538,0.155,236.8,248.8890838623047,-12.153118133544922,1.3046035766601562,-2.795501232147217,-2.54244327545166,39.13318634033203,44.771793365478516,0.0
32,100,10,60,homing,,,,homing,,2024-03-04 11:50:50.064654,16.424,0.155,236.8,249.99998474121094,0.0,-7.62939453125e-06,0.0,0.0,39.71385955810547,44.94676971435547,0.0
32,100,10,60,homing,,,,homing,,2024-03-04 11:50:51.444997,16.272,0.154,236.8,249.99998474121094,0.0,-7.62939453125e-06,0.0,0.0,39.71385955810547,44.94676971435547,0.0
32,100,10,60,homing,,,,homing,,2024-03-04 11:50:52.131490,16.215,0.154,236.8,249.99998474121094,0.00017966009909287095,-7.62939453125e-06,4.117506250622682e-05,4.117506250622682e-05,39.71385955810547,44.94676971435547,0.0
32,100,10,60,homing,,,,homing,,2024-03-04 11:50:53.544261,16.12,0.15,236.8,249.99998474121094,0.00017966009909287095,-7.62939453125e-06,4.117506250622682e-05,4.117506250622682e-05,39.71385955810547,44.94676971435547,0.0
32,100,10,60,homing,,,,homing,,2024-03-04 11:50:54.241823,16.12,0.15,236.8,249.99998474121094,0.00017966009909287095,-7.62939453125e-06,4.117506250622682e-05,4.117506250622682e-05,39.71385955810547,44.94676971435547,0.0
32,100,10,60,homing,,,,homing,,2024-03-04 11:50:55.631384,16.177,0.149,236.8,249.99998474121094,0.00017966009909287095,-7.62939453125e-06,4.117506250622682e-05,4.117506250622682e-05,39.71385955810547,44.94676971435547,0.0
32,100,10,60,homing,,,,homing,,2024-03-04 11:50:56.320285,16.158,0.149,236.8,249.99998474121094,0.00017966009909287095,-7.62939453125e-06,4.117506250622682e-05,4.117506250622682e-05,39.71385955810547,44.94676971435547,0.0
32,100,10,60,homing,,,,homing,,2024-03-04 11:50:57.016511,16.158,0.152,236.8,249.99998474121094,0.00017966009909287095,-7.62939453125e-06,4.117506250622682e-05,4.117506250622682e-05,39.71385955810547,44.94676971435547,0.0
32,100,10,60,homing,,,,homing,,2024-03-04 11:50:58.403682,16.139,0.152,236.8,249.99998474121094,0.00017966009909287095,-7.62939453125e-06,4.117506250622682e-05,4.117506250622682e-05,39.71385955810547,44.94676971435547,0.0
32,100,10,60,homing,,,,homing,,2024-03-04 11:50:59.107307,16.139,0.152,236.8,250.04022216796875,0.09961347281932831,0.11489105224609375,4.1175633668899536e-05,0.03193877264857292,39.68679428100586,44.892147064208984,-0.03189759701490402
32,100,10,60,homing,,,,homing,,2024-03-04 11:51:00.484269,16.139,0.149,236.8,252.31703186035156,9.486166000366211,6.0336761474609375,4.124641418457031e-05,2.2334885597229004,38.67279815673828,42.40861511230469,-2.233447313308716
32,100,10,60,homing,,,,homing,,2024-03-04 11:51:01.174219,16.31,0.149,236.8,258.4625244140625,34.821895599365234,22.00946044921875,4.100799560546875e-05,7.816748142242432,37.15311813354492,35.40190505981445,-7.816707134246826
32,100,10,60,homing,,,,homing,,2024-03-04 11:51:02.589166,16.69,0.151,236.8,267.1515808105469,70.64371490478516,44.59733200073242,4.100799560546875e-05,14.933974266052246,38.10492706298828,24.611812591552734,-14.93393325805664
32,100,10,60,homing,,,,homing,,2024-03-04 11:51:03.310924,16.5,0.151,236.8,273.313232421875,96.04598999023438,60.61505889892578,4.1961669921875e-05,19.41339874267578,41.204803466796875,16.099550247192383,-19.41335678100586
32,100,10,60,go_to_pick_up_from_homing,nothing,,,go_to_pick_up_from_homing,,2024-03-04 11:51:04.022354,16.5,0.151,236.8,275.0007019042969,103.00016021728516,65.00059509277344,4.1961669921875e-05,20.533161163330078,42.437286376953125,13.62588119506836,-20.533119201660156
32,100,10,60,go_to_pick_up_from_homing,nothing,,,go_to_pick_up_from_homing,,2024-03-04 11:51:05.558025,16.367,0.151,236.8,275.77520751953125,103.18934631347656,65.70274353027344,4.1961669921875e-05,20.514036178588867,42.74445724487305,13.13708209991455,-20.513994216918945
32,100,10,60,go_to_pick_up_from_homing,nothing,,,go_to_pick_up_from_homing,,2024-03-04 11:51:06.249447,16.196,0.149,236.8,278.3758850097656,103.80917358398438,68.13565063476562,3.62396240234375e-05,20.44938087463379,43.7828483581543,11.484682083129883,-20.449344635009766
32,100,10,60,go_to_pick_up_from_homing,nothing,,,go_to_pick_up_from_homing,,2024-03-04 11:51:07.650913,16.12,0.149,236.8,281.9972839355469,104.62718963623047,71.74449157714844,3.0517578125e-05,20.353595733642578,45.32120895385742,9.036680221557617,-20.353565216064453
32,100,10,60,go_to_pick_up_from_homing,nothing,,,go_to_pick_up_from_homing,,2024-03-04 11:51:08.351734,16.272,0.149,236.8,286.3940734863281,105.5308609008789,76.565185546875,2.288818359375e-05,20.225236892700195,47.38272476196289,5.756187915802002,-20.2252140045166
32,100,10,60,go_to_pick_up_from_homing,nothing,,,go_to_pick_up_from_homing,,2024-03-04 11:51:09.046017,16.272,0.149,236.8,290.04290771484375,106.17788696289062,81.07190704345703,9.5367431640625e-06,20.104671478271484,49.319007873535156,2.674974203109741,-20.10466194152832
32,100,10,60,go_to_pick_up_from_homing,nothing,,,go_to_pick_up_from_homing,,2024-03-04 11:51:10.433422,16.234,0.149,236.8,291.904296875,106.45734405517578,83.62010955810547,5.7220458984375e-06,20.03582000732422,50.424800872802734,0.9153178334236145,-20.03581428527832
32,100,10,60,go_to_pick_up_from_homing,nothing,,,go_to_pick_up_from_homing,,2024-03-04 11:51:11.133054,16.158,0.149,236.8,292.78125,106.57340240478516,84.89744567871094,3.814697265625e-06,20.001462936401367,50.976558685302734,0.037304431200027466,-20.0014591217041
32,100,10,60,moving_belt,nothing,false,true,go_to_pick_up_from_homing,,2024-03-04 11:51:12.518660,16.082,0.149,236.8,292.8220520019531,106.5785140991211,84.958251953125,0.0,20.0,51.0,0.0,-20.0
32,100,10,60,moving_belt,nothing,false,true,go_to_pick_up_from_homing,,2024-03-04 11:51:13.231492,17.089,0.158,236.8,292.8220520019531,106.5785140991211,84.958251953125,0.0,20.0,51.0,0.0,-20.0
32,100,10,60,moving_belt,nothing,false,true,go_to_pick_up_from_homing,,2024-03-04 11:51:14.615513,16.823,0.158,236.8,292.8220520019531,106.5785140991211,84.958251953125,0.0,20.0,51.0,0.0,-20.0
32,100,10,60,moving_belt,nothing,false,true,go_to_pick_up_from_homing,,2024-03-04 11:51:15.306341,16.823,0.153,236.8,292.8220520019531,106.5785140991211,84.958251953125,0.0,20.0,51.0,0.0,-20.0
32,100,10,60,go_to_pick_down,nothing,true,false,joint 3 +,,2024-03-04 11:51:16.105912,16.576,0.153,236.8,292.8220520019531,106.5785140991211,84.94799041748047,0.0,20.0,51.0,0.005999999586492777,-20.0
32,100,10,60,go_to_pick_down,nothing,true,false,joint 3 +,,2024-03-04 11:51:16.796454,16.576,0.153,236.8,292.8122253417969,106.57493591308594,83.20237731933594,0.0,20.0,51.0,0.7080000042915344,-20.0
32,100,10,60,go_to_pick_down,nothing,true,false,joint 3 +,,2024-03-04 11:51:18.417853,16.291,0.15,236.8,292.71380615234375,106.53912353515625,79.13988494873047,0.0,20.0,51.0,2.311199903488159,-20.0
32,100,10,60,go_to_pick_down,nothing,true,false,joint 3 +,,2024-03-04 11:51:19.164604,16.291,0.15,236.8,292.34283447265625,106.40409088134766,72.72408294677734,0.0,20.0,51.0,4.835999965667725,-20.0
32,100,10,60,go_to_pick_down,nothing,true,false,joint 3 +,,2024-03-04 11:51:20.543999,16.025,0.149,236.8,291.264892578125,106.01174926757812,62.948143005371094,0.0,20.0,51.0,8.694400787353516,-20.0
32,100,10,60,go_to_pick_down,nothing,true,false,joint 3 +,,2024-03-04 11:51:20.543999,16.025,0.149,236.8,289.34649658203125,105.31351470947266,52.19062805175781,0.0,20.0,51.0,12.965167045593262,-20.0
32,100,10,60,go_to_pick_down,nothing,true,false,joint 3 +,,2024-03-04 11:51:22.624444,16.101,0.148,236.8,287.1205139160156,104.50332641601562,43.16089630126953,0.0,20.0,51.0,16.58516502380371,-20.0
32,100,10,60,go_to_pick_down,nothing,true,false,joint 3 +,,2024-03-04 11:51:23.311574,16.215,0.148,236.8,284.8894958496094,103.69129943847656,35.860477447509766,0.0,20.0,51.0,19.55606460571289,-20.0
32,100,10,60,go_to_pick_down,nothing,true,false,joint 3 +,,2024-03-04 11:51:24.009268,16.215,0.149,236.8,283.4801940917969,103.17835235595703,31.81749725341797,0.0,20.0,51.0,21.217668533325195,-20.0
32,100,10,60,go_to_pick_down,nothing,true,false,joint 3 +,,2024-03-04 11:51:25.512632,16.158,0.149,236.8,282.78009033203125,102.92353820800781,29.93450927734375,0.0,20.0,51.0,21.985363006591797,-20.0
32,100,10,60,go_to_pick_up_from_pick_down,nothing,true,false,joint 3 -,true,2024-03-04 11:51:26.202558,16.215,0.15,236.8,282.9774475097656,102.99536895751953,30.457706451416016,0.0,20.0,51.0,21.748001098632812,-20.0
32,100,10,60,go_to_pick_up_from_pick_down,nothing,true,false,joint 3 -,true,2024-03-04 11:51:27.582428,22.899,0.15,236.8,283.9566955566406,103.35179138183594,33.14435577392578,0.0,20.0,51.0,20.60560417175293,-20.0
32,100,10,60,go_to_pick_up_from_pick_down,nothing,true,false,joint 3 -,true,2024-03-04 11:51:28.275571,22.899,0.196,236.8,285.85589599609375,104.04304504394531,38.86567687988281,0.0,20.0,51.0,18.218799591064453,-20.0
32,100,10,60,go_to_pick_up_from_pick_down,nothing,true,false,joint 3 -,true,2024-03-04 11:51:29.656026,22.728,0.196,236.8,287.99468994140625,104.82149505615234,46.43624496459961,0.0,20.0,51.0,15.118000030517578,-20.0
32,100,10,60,go_to_pick_up_from_pick_down,nothing,true,false,joint 3 -,true,2024-03-04 11:51:30.345710,22.652,0.196,236.8,290.196533203125,105.62290954589844,56.433990478515625,0.0,20.0,51.0,11.095600128173828,-20.0
32,100,10,60,go_to_pick_up_from_pick_down,nothing,true,false,joint 3 -,true,2024-03-04 11:51:31.035991,22.652,0.206,236.8,291.8887023925781,106.23880004882812,67.8985366821289,0.0,20.0,51.0,6.591518402099609,-20.0
32,100,10,60,go_to_pick_up_from_pick_down,nothing,true,false,joint 3 -,true,2024-03-04 11:51:32.586634,22.671,0.2,236.8,292.5464172363281,106.47818756103516,75.67597198486328,0.0,20.0,51.0,3.5667195320129395,-20.0
32,100,10,60,go_to_pick_up_from_pick_down,nothing,true,false,joint 3 -,true,2024-03-04 11:51:33.474098,22.728,0.2,236.8,292.77484130859375,106.56133270263672,81.11553192138672,0.0,20.0,51.0,1.4635210037231445,-20.0
32,100,10,60,go_to_pick_up_from_pick_down,nothing,true,false,joint 3 -,true,2024-03-04 11:51:34.240525,22.519,0.2,236.8,292.82110595703125,106.57817077636719,84.41474914550781,0.0,20.0,51.0,0.1990227848291397,-20.0
32,100,10,60,go_to_color_detect_up_from_pick_up,nothing,true,false,joint 1 +,true,2024-03-04 11:51:34.957390,22.538,0.195,236.8,292.76397705078125,106.73796081542969,84.958251953125,0.031200408935546875,20.036399841308594,51.0,0.0,-20.0
32,100,10,60,go_to_color_detect_up_from_pick_up,nothing,true,false,joint 1 +,true,2024-03-04 11:51:35.877975,22.633,0.195,236.8,291.43658447265625,110.31073760986328,84.958251953125,0.7319965362548828,20.756397247314453,51.0,0.0,-20.0
32,100,10,60,go_to_color_detect_up_from_pick_up,nothing,true,false,joint 1 +,true,2024-03-04 11:51:37.311597,22.538,0.195,236.8,287.639892578125,119.86254119873047,84.958251953125,2.621999740600586,22.667999267578125,51.0,0.0,-20.0
32,100,10,60,go_to_color_detect_up_from_pick_up,nothing,true,false,joint 1 +,true,2024-03-04 11:51:38.003919,22.462,0.195,236.8,281.76910400390625,133.0785675048828,84.958251953125,5.281200408935547,25.34640121459961,51.0,0.0,-20.0
32,100,10,60,go_to_color_detect_up_from_pick_up,nothing,true,false,joint 1 +,true,2024-03-04 11:51:39.382622,22.443,0.199,236.8,272.9074401855469,150.41693115234375,84.958251953125,8.861997604370117,28.94639778137207,51.0,0.0,-20.0
32,100,10,60,go_to_color_detect_up_from_pick_up,nothing,true,false,joint 1 +,true,2024-03-04 11:51:40.071139,22.443,0.199,236.8,258.3646240234375,174.21665954589844,84.958251953125,13.992000579833984,34.097999572753906,51.0,0.0,-20.0
32,100,10,60,go_to_color_detect_up_from_pick_up,nothing,true,false,joint 1 +,true,2024-03-04 11:51:41.601478,22.462,0.195,236.8,240.34158325195312,198.34226989746094,84.958251953125,19.531204223632812,39.656402587890625,51.0,0.0,-20.0
32,100,10,60,go_to_color_detect_up_from_pick_up,nothing,true,false,joint 1 +,true,2024-03-04 11:51:42.309652,22.462,0.195,236.8,217.47991943359375,223.1730499267578,84.958251953125,25.740203857421875,45.864131927490234,51.0,0.0,-20.0
32,100,10,60,go_to_color_detect_up_from_pick_up,nothing,true,false,joint 1 +,true,2024-03-04 11:51:43.692018,22.31,0.194,236.8,194.6552734375,243.3373260498047,84.958251953125,31.342281341552734,51.44660949707031,51.0,0.0,-20.0
32,100,10,60,go_to_color_detect_up_from_pick_up,nothing,true,false,joint 1 +,true,2024-03-04 11:51:44.378606,22.291,0.194,236.8,172.42861938476562,259.5613708496094,84.958251953125,36.403602600097656,56.486331939697266,51.0,0.0,-20.0
32,100,10,60,go_to_color_detect_up_from_pick_up,nothing,true,false,joint 1 +,true,2024-03-04 11:51:45.072677,22.329,0.194,236.8,156.16818237304688,269.6575927734375,84.958251953125,39.92335891723633,59.98688888549805,51.0,0.0,-20.0
32,100,10,60,go_to_color_detect_up_from_pick_up,nothing,true,false,joint 1 +,true,2024-03-04 11:51:46.446514,22.329,0.194,236.8,142.7326202392578,277.0038146972656,84.958251953125,42.739166259765625,62.781494140625,51.0,0.0,-20.0
32,100,10,60,go_to_color_detect_up_from_pick_up,nothing,true,false,joint 1 +,true,2024-03-04 11:51:47.135827,22.253,0.194,236.8,135.03790283203125,280.8353576660156,84.958251953125,44.31971740722656,64.34284210205078,51.0,0.0,-20.0
32,100,10,60,go_to_color_detect_up_from_pick_up,nothing,true,false,joint 1 +,true,2024-03-04 11:51:48.566463,22.31,0.194,236.8,131.7992401123047,282.3697814941406,84.958251953125,44.978660583496094,64.98258972167969,51.0,0.0,-20.0
32,100,10,60,go_to_color_detect_down,nothing,true,false,joint 3 +,true,2024-03-04 11:51:49.261978,22.14,0.193,236.8,131.69305419921875,282.4166564941406,84.11672973632812,45.0,65.0,51.0,0.344400018453598,-20.0
32,100,10,60,go_to_color_detect_down,nothing,true,false,joint 3 +,true,2024-03-04 11:51:50.644056,22.31,0.193,236.8,131.6708526611328,282.3690490722656,80.93994140625,45.0,65.0,51.0,1.6019999980926514,-20.0
32,100,10,60,go_to_color_detect_down,nothing,true,false,joint 3 +,true,2024-03-04 11:51:51.330288,22.215,0.204,236.8,131.5665283203125,282.14532470703125,75.54368591308594,45.0,65.0,51.0,3.726400375366211,-20.0
32,100,10,60,go_to_color_detect_down,nothing,true,false,joint 3 +,true,2024-03-04 11:51:52.023446,22.348,0.204,236.8,131.20664978027344,281.37353515625,66.580078125,45.0,65.0,51.0,7.25800085067749,-20.0
32,100,10,60,go_to_color_detect_down,nothing,true,false,joint 3 +,true,2024-03-04 11:51:53.440849,22.291,0.192,236.8,130.49375915527344,279.8447570800781,56.20146179199219,45.0,65.0,51.0,11.376401901245117,-20.0
32,100,10,60,go_to_color_detect_down,nothing,true,false,joint 3 +,true,2024-03-04 11:51:54.127114,22.215,0.192,236.8,129.1963653564453,277.0625,43.6953125,45.0,65.0,51.0,16.41640281677246,-20.0
32,100,10,60,go_to_color_detect_down,nothing,true,false,joint 3 +,true,2024-03-04 11:51:55.505030,22.045,0.192,236.8,126.73339080810547,271.7806091308594,27.397991180419922,45.0,65.0,51.0,23.18800163269043,-20.0
32,100,10,60,go_to_color_detect_down,nothing,true,false,joint 3 +,true,2024-03-04 11:51:56.195041,22.234,0.192,236.8,123.65178680419922,265.1720886230469,12.621604919433594,45.0,65.0,51.0,29.599308013916016,-20.0
32,100,10,60,go_to_color_detect_down,nothing,true,false,joint 3 +,true,2024-03-04 11:51:57.575310,22.31,0.192,236.8,120.60945892333984,258.6477966308594,1.1535491943359375,45.0,65.0,51.0,34.859928131103516,-20.0
32,100,10,60,go_to_color_detect_down,nothing,true,false,joint 3 +,true,2024-03-04 11:51:58.271199,22.31,0.203,236.8,117.28952026367188,251.52816772460938,-9.163993835449219,45.0,65.0,51.0,39.893978118896484,-20.0
32,100,10,60,go_to_color_detect_down,nothing,true,false,joint 3 +,true,2024-03-04 11:51:59.654209,22.348,0.203,236.8,114.82879638671875,246.25112915039062,-15.7393798828125,45.0,65.0,51.0,43.29853820800781,-20.0
32,100,10,60,go_to_color_detect_down,nothing,true,false,joint 3 +,true,2024-03-04 11:52:00.345218,22.215,0.202,236.8,112.92774963378906,242.17431640625,-20.318748474121094,45.0,65.0,51.0,45.781497955322266,-20.0
32,100,10,60,go_to_color_detect_down,nothing,true,false,joint 3 +,true,2024-03-04 11:52:01.035430,22.215,0.202,236.8,111.578125,239.28004455566406,-23.339111328125,45.0,65.0,51.0,47.47320556640625,-20.0
32,100,10,60,go_to_color_detect_down,nothing,true,false,joint 3 +,true,2024-03-04 11:52:02.515453,22.196,0.202,236.8,111.14189910888672,238.3445587158203,-24.277557373046875,45.0,65.0,51.0,47.99774932861328,-20.0
32,100,10,60,go_to_color_detect_up_from_color_detect_down,nothing,true,false,joint 3 -,false,2024-03-04 11:52:03.203998,22.177,0.202,236.8,111.4024658203125,238.90333557128906,-23.719161987304688,45.0,65.0,51.0,47.655601501464844,-20.0
32,100,10,60,go_to_color_detect_up_from_color_detect_down,nothing,true,false,joint 3 -,false,2024-03-04 11:52:04.579997,16.253,0.149,236.8,112.58727264404297,241.4441680908203,-21.09789276123047,45.0,65.0,51.0,46.13760757446289,-20.0
32,100,10,60,go_to_color_detect_up_from_color_detect_down,nothing,true,false,joint 3 -,false,2024-03-04 11:52:05.267400,16.253,0.149,236.8,114.34716033935547,245.21826171875,-16.937828063964844,45.0,65.0,51.0,43.82401657104492,-20.0
32,100,10,60,go_to_color_detect_up_from_color_detect_down,nothing,true,false,joint 3 -,false,2024-03-04 11:52:06.667318,16.348,0.149,236.8,116.6925048828125,250.24786376953125,-10.833297729492188,45.0,65.0,51.0,40.58880615234375,-20.0
32,100,10,60,go_to_color_detect_up_from_color_detect_down,nothing,true,false,joint 3 -,false,2024-03-04 11:52:07.354771,16.348,0.149,236.8,119.86366271972656,257.0484313964844,-1.3340606689453125,45.0,65.0,51.0,35.847599029541016,-20.0
32,100,10,60,go_to_color_detect_up_from_color_detect_down,nothing,true,false,joint 3 -,false,2024-03-04 11:52:08.042494,16.31,0.149,236.8,122.94773864746094,263.6622619628906,9.75054931640625,45.0,65.0,51.0,30.653995513916016,-20.0
32,100,10,60,go_to_color_detect_up_from_color_detect_down,nothing,true,false,joint 3 -,false,2024-03-04 11:52:09.423384,16.31,0.15,236.8,125.95930480957031,270.12060546875,23.270854949951172,45.0,65.0,51.0,24.675596237182617,-20.0
32,100,10,60,go_to_color_detect_up_from_color_detect_down,nothing,true,false,joint 3 -,false,2024-03-04 11:52:10.109716,16.31,0.15,236.8,128.72042846679688,276.0418395996094,40.02336502075195,45.0,65.0,51.0,17.679922103881836,-20.0
32,100,10,60,go_to_color_detect_up_from_color_detect_down,nothing,true,false,joint 3 -,false,2024-03-04 11:52:11.491618,16.31,0.149,236.8,130.21392822265625,279.2446594238281,53.06122970581055,45.0,65.0,51.0,12.432171821594238,-20.0
32,100,10,60,go_to_color_detect_up_from_color_detect_down,nothing,true,false,joint 3 -,false,2024-03-04 11:52:12.179606,16.367,0.149,236.8,131.06097412109375,281.0611572265625,64.02545166015625,45.0,65.0,51.0,8.106019973754883,-20.0
32,100,10,60,go_to_color_detect_up_from_color_detect_down,nothing,true,false,joint 3 -,false,2024-03-04 11:52:13.691844,16.272,0.15,236.8,131.51100158691406,282.0262145996094,73.68099212646484,45.0,65.0,51.0,4.340700149536133,-20.0
32,100,10,60,go_to_color_detect_up_from_color_detect_down,nothing,true,false,joint 3 -,false,2024-03-04 11:52:14.382218,16.177,0.15,236.8,131.65574645996094,282.3366394042969,79.79500579833984,45.0,65.0,51.0,1.9729499816894531,-20.0
32,100,10,60,go_to_color_detect_up_from_color_detect_down,nothing,true,false,joint 3 -,false,2024-03-04 11:52:15.079263,16.177,0.15,236.8,131.6912384033203,282.4127502441406,83.55352020263672,45.0,65.0,51.0,0.5267993211746216,-20.0
32,100,10,60,detecting_color,nothing,false,false,detecting_color,false,2024-03-04 11:52:16.550296,16.291,0.149,236.8,131.69407653808594,282.4188232421875,84.958251953125,45.0,65.0,51.0,0.0,-20.0
32,100,10,60,detecting_color,nothing,false,false,detecting_color,false,2024-03-04 11:52:17.241987,16.234,0.149,236.8,131.69407653808594,282.4188232421875,84.958251953125,45.0,65.0,51.0,0.0,-20.0
32,100,10,60,detecting_color,nothing,false,false,detecting_color,false,2024-03-04 11:52:18.621244,16.234,0.149,236.8,131.69407653808594,282.4188232421875,84.958251953125,45.0,65.0,51.0,0.0,-20.0
32,100,10,60,detecting_color,nothing,false,false,detecting_color,false,2024-03-04 11:52:19.311243,16.101,0.149,236.8,131.69407653808594,282.4188232421875,84.958251953125,45.0,65.0,51.0,0.0,-20.0
32,100,10,60,detecting_color,nothing,false,false,detecting_color,false,2024-03-04 11:52:20.718772,16.177,0.149,236.8,131.69407653808594,282.4188232421875,84.958251953125,45.0,65.0,51.0,0.0,-20.0
32,100,10,60,detecting_color,nothing,false,false,detecting_color,false,2024-03-04 11:52:21.406636,16.177,0.149,236.8,131.69407653808594,282.4188232421875,84.958251953125,45.0,65.0,51.0,0.0,-20.0
32,100,10,60,detecting_color,nothing,false,false,detecting_color,false,2024-03-04 11:52:22.097883,16.272,0.149,236.8,131.69407653808594,282.4188232421875,84.958251953125,45.0,65.0,51.0,0.0,-20.0
32,100,10,60,detecting_color,nothing,false,false,detecting_color,false,2024-03-04 11:52:23.485320,16.253,0.149,236.8,131.69407653808594,282.4188232421875,84.958251953125,45.0,65.0,51.0,0.0,-20.0
32,100,10,60,detecting_color,nothing,false,false,detecting_color,false,2024-03-04 11:52:24.176538,16.329,0.149,236.8,131.69407653808594,282.4188232421875,84.958251953125,45.0,65.0,51.0,0.0,-20.0
32,100,10,60,detecting_color,nothing,false,false,detecting_color,false,2024-03-04 11:52:25.558727,16.101,0.149,236.8,131.69407653808594,282.4188232421875,84.958251953125,45.0,65.0,51.0,0.0,-20.0
32,100,10,60,detecting_color,nothing,false,false,detecting_color,false,2024-03-04 11:52:26.250641,16.101,0.149,236.8,131.69407653808594,282.4188232421875,84.958251953125,45.0,65.0,51.0,0.0,-20.0
32,100,10,60,detecting_color,nothing,false,false,detecting_color,false,2024-03-04 11:52:27.633401,16.234,0.15,236.8,131.69407653808594,282.4188232421875,84.958251953125,45.0,65.0,51.0,0.0,-20.0
32,100,10,60,detecting_color,nothing,false,false,detecting_color,false,2024-03-04 11:52:28.338759,16.158,0.15,236.8,131.69407653808594,282.4188232421875,84.958251953125,45.0,65.0,51.0,0.0,-20.0
32,100,10,60,detecting_color,nothing,false,false,detecting_color,false,2024-03-04 11:52:29.717760,16.31,0.149,236.8,131.69407653808594,282.4188232421875,84.958251953125,45.0,65.0,51.0,0.0,-20.0
32,100,10,60,detecting_color,nothing,false,false,detecting_color,false,2024-03-04 11:52:30.405863,16.31,0.149,236.8,131.69407653808594,282.4188232421875,84.958251953125,45.0,65.0,51.0,0.0,-20.0
32,100,10,60,detecting_color,nothing,false,false,detecting_color,false,2024-03-04 11:52:31.097780,16.31,0.149,236.8,131.69407653808594,282.4188232421875,84.958251953125,45.0,65.0,51.0,0.0,-20.0
32,100,10,60,detecting_color,nothing,false,false,detecting_color,false,2024-03-04 11:52:32.473812,16.177,0.153,236.8,131.69407653808594,282.4188232421875,84.958251953125,45.0,65.0,51.0,0.0,-20.0
32,100,10,60,detecting_color,nothing,false,false,detecting_color,false,2024-03-04 11:52:33.161134,16.215,0.153,236.8,131.69407653808594,282.4188232421875,84.958251953125,45.0,65.0,51.0,0.0,-20.0
32,100,10,60,detecting_color,nothing,false,false,detecting_color,false,2024-03-04 11:52:34.541474,16.234,0.153,236.8,131.69407653808594,282.4188232421875,84.958251953125,45.0,65.0,51.0,0.0,-20.0
32,100,10,60,detecting_color,nothing,false,false,detecting_color,false,2024-03-04 11:52:35.229502,16.234,0.153,236.8,131.69407653808594,282.4188232421875,84.958251953125,45.0,65.0,51.0,0.0,-20.0
32,100,10,60,detecting_color,nothing,false,false,detecting_color,false,2024-03-04 11:52:36.608959,16.253,0.154,236.8,131.69407653808594,282.4188232421875,84.958251953125,45.0,65.0,51.0,0.0,-20.0
32,100,10,60,detecting_color,nothing,false,false,detecting_color,false,2024-03-04 11:52:37.295736,16.253,0.154,236.8,131.69407653808594,282.4188232421875,84.958251953125,45.0,65.0,51.0,0.0,-20.0
32,100,10,60,detecting_color,nothing,false,false,detecting_color,false,2024-03-04 11:52:38.671109,16.405,0.153,236.8,131.69407653808594,282.4188232421875,84.958251953125,45.0,65.0,51.0,0.0,-20.0
32,100,10,60,detecting_color,nothing,false,false,detecting_color,false,2024-03-04 11:52:39.358275,16.234,0.153,236.8,131.69407653808594,282.4188232421875,84.958251953125,45.0,65.0,51.0,0.0,-20.0
32,100,10,60,detecting_color,nothing,false,false,detecting_color,false,2024-03-04 11:52:40.049983,16.234,0.153,236.8,131.69407653808594,282.4188232421875,84.958251953125,45.0,65.0,51.0,0.0,-20.0
32,100,10,60,detecting_color,nothing,false,false,detecting_color,false,2024-03-04 11:52:41.430366,16.291,0.149,236.8,131.69407653808594,282.4188232421875,84.958251953125,45.0,65.0,51.0,0.0,-20.0
32,100,10,60,detecting_color,nothing,false,false,detecting_color,false,2024-03-04 11:52:42.140223,16.234,0.149,236.8,131.69407653808594,282.4188232421875,84.958251953125,45.0,65.0,51.0,0.0,-20.0
32,100,10,60,detecting_color,nothing,false,false,detecting_color,false,2024-03-04 11:52:43.519940,16.31,0.149,236.8,131.69407653808594,282.4188232421875,84.958251953125,45.0,65.0,51.0,0.0,-20.0
32,100,10,60,detecting_color,nothing,false,false,detecting_color,false,2024-03-04 11:52:44.210318,16.31,0.149,236.8,131.69407653808594,282.4188232421875,84.958251953125,45.0,65.0,51.0,0.0,-20.0
32,100,10,60,detecting_color,nothing,false,false,detecting_color,false,2024-03-04 11:52:45.607878,16.253,0.149,236.8,131.69407653808594,282.4188232421875,84.958251953125,45.0,65.0,51.0,0.0,-20.0
32,100,10,60,detecting_color,nothing,false,false,detecting_color,false,2024-03-04 11:52:46.296285,16.253,0.149,236.8,131.69407653808594,282.4188232421875,84.958251953125,45.0,65.0,51.0,0.0,-20.0
32,100,10,60,detecting_color,nothing,false,false,detecting_color,false,2024-03-04 11:52:47.672733,16.291,0.149,236.8,131.69407653808594,282.4188232421875,84.958251953125,45.0,65.0,51.0,0.0,-20.0
32,100,10,60,detecting_color,nothing,false,false,detecting_color,false,2024-03-04 11:52:48.384924,16.348,0.149,236.8,131.69407653808594,282.4188232421875,84.958251953125,45.0,65.0,51.0,0.0,-20.0
32,100,10,60,detecting_color,nothing,false,false,detecting_color,false,2024-03-04 11:52:49.085476,16.424,0.149,236.8,131.69407653808594,282.4188232421875,84.958251953125,45.0,65.0,51.0,0.0,-20.0
32,100,10,60,detecting_color,nothing,false,false,detecting_color,false,2024-03-04 11:52:50.613552,16.348,0.149,236.8,131.69407653808594,282.4188232421875,84.958251953125,45.0,65.0,51.0,0.0,-20.0
32,100,10,60,detecting_color,nothing,false,false,detecting_color,false,2024-03-04 11:52:51.302279,16.348,0.149,236.8,131.69407653808594,282.4188232421875,84.958251953125,45.0,65.0,51.0,0.0,-20.0
32,100,10,60,detecting_color,nothing,false,false,detecting_color,false,2024-03-04 11:52:52.676733,16.082,0.149,236.8,131.69407653808594,282.4188232421875,84.958251953125,45.0,65.0,51.0,0.0,-20.0
32,100,10,60,detecting_color,nothing,false,false,detecting_color,false,2024-03-04 11:52:53.365025,16.253,0.149,236.8,131.69407653808594,282.4188232421875,84.958251953125,45.0,65.0,51.0,0.0,-20.0
32,100,10,60,detecting_color,nothing,false,false,detecting_color,false,2024-03-04 11:52:54.059028,16.291,0.15,236.8,131.69407653808594,282.4188232421875,84.958251953125,45.0,65.0,51.0,0.0,-20.0
32,100,10,60,detecting_color,nothing,false,false,detecting_color,false,2024-03-04 11:52:54.827041,16.291,0.15,236.8,131.69407653808594,282.4188232421875,84.958251953125,45.0,65.0,51.0,0.0,-20.0
32,100,10,60,detecting_color,nothing,false,false,detecting_color,false,2024-03-04 11:52:56.156841,15.892,0.15,236.8,131.69407653808594,282.4188232421875,84.958251953125,45.0,65.0,51.0,0.0,-20.0
32,100,10,60,detecting_color,nothing,false,false,detecting_color,false,2024-03-04 11:52:57.238659,15.949,0.147,236.8,131.69407653808594,282.4188232421875,84.958251953125,45.0,65.0,51.0,0.0,-20.0
32,100,10,60,detecting_color,nothing,false,false,detecting_color,false,2024-03-04 11:52:58.541565,16.063,0.147,236.8,131.69407653808594,282.4188232421875,84.958251953125,45.0,65.0,51.0,0.0,-20.0
32,100,10,60,detecting_color,nothing,false,false,detecting_color,false,2024-03-04 11:52:59.233344,16.025,0.152,236.8,131.69407653808594,282.4188232421875,84.958251953125,45.0,65.0,51.0,0.0,-20.0
32,100,10,60,detecting_color,nothing,false,false,detecting_color,false,2024-03-04 11:53:00.615075,16.101,0.152,236.8,131.69407653808594,282.4188232421875,84.958251953125,45.0,65.0,51.0,0.0,-20.0
32,100,10,60,detecting_color,nothing,false,false,detecting_color,false,2024-03-04 11:53:01.304023,16.101,0.152,236.8,131.69407653808594,282.4188232421875,84.958251953125,45.0,65.0,51.0,0.0,-20.0
32,100,10,60,detecting_color,nothing,false,false,detecting_color,false,2024-03-04 11:53:02.696527,16.177,0.152,236.8,131.69407653808594,282.4188232421875,84.958251953125,45.0,65.0,51.0,0.0,-20.0
32,100,10,60,detecting_color,nothing,false,false,detecting_color,false,2024-03-04 11:53:03.386377,16.424,0.149,236.8,131.69407653808594,282.4188232421875,84.958251953125,45.0,65.0,51.0,0.0,-20.0
32,100,10,60,detecting_color,nothing,false,false,detecting_color,false,2024-03-04 11:53:04.081645,16.234,0.149,236.8,131.69407653808594,282.4188232421875,84.958251953125,45.0,65.0,51.0,0.0,-20.0
32,100,10,60,detecting_color,nothing,false,false,detecting_color,false,2024-03-04 11:53:05.464234,16.025,0.149,236.8,131.69407653808594,282.4188232421875,84.958251953125,45.0,65.0,51.0,0.0,-20.0
32,100,10,60,detecting_color,nothing,false,false,detecting_color,false,2024-03-04 11:53:06.151186,16.025,0.149,236.8,131.69407653808594,282.4188232421875,84.958251953125,45.0,65.0,51.0,0.0,-20.0
32,100,10,60,detecting_color,nothing,false,false,detecting_color,false,2024-03-04 11:53:07.633717,16.006,0.148,236.8,131.69407653808594,282.4188232421875,84.958251953125,45.0,65.0,51.0,0.0,-20.0
32,100,10,60,detecting_color,nothing,false,false,detecting_color,false,2024-03-04 11:53:08.328426,16.139,0.148,236.8,131.69407653808594,282.4188232421875,84.958251953125,45.0,65.0,51.0,0.0,-20.0
32,100,10,60,detecting_color,nothing,false,false,detecting_color,false,2024-03-04 11:53:09.130819,16.139,0.148,236.8,131.69407653808594,282.4188232421875,84.958251953125,45.0,65.0,51.0,0.0,-20.0
32,100,10,60,detecting_color,nothing,false,false,detecting_color,false,2024-03-04 11:53:10.181405,15.911,0.147,236.8,131.69407653808594,282.4188232421875,84.958251953125,45.0,65.0,51.0,0.0,-20.0
32,100,10,60,detecting_color,nothing,false,false,detecting_color,false,2024-03-04 11:53:10.894950,15.817,0.147,236.8,131.69407653808594,282.4188232421875,84.958251953125,45.0,65.0,51.0,0.0,-20.0
32,100,10,60,detecting_color,nothing,false,false,detecting_color,false,2024-03-04 11:53:12.574397,15.817,0.093,236.8,131.69407653808594,282.4188232421875,84.958251953125,45.0,65.0,51.0,0.0,-20.0
32,100,10,60,detecting_color,nothing,false,false,detecting_color,false,2024-03-04 11:53:13.700835,15.817,0.093,236.8,131.69407653808594,282.4188232421875,84.958251953125,45.0,65.0,51.0,0.0,-20.0
32,100,10,60,detecting_color,nothing,false,false,detecting_color,false,2024-03-04 11:53:13.700835,15.817,0.093,236.8,131.69407653808594,282.4188232421875,84.958251953125,45.0,65.0,51.0,0.0,-20.0
32,100,10,60,detecting_color,nothing,false,false,detecting_color,false,2024-03-04 11:53:15.537466,15.817,0.062,236.8,131.69407653808594,282.4188232421875,84.958251953125,45.0,65.0,51.0,0.0,-20.0
32,100,10,60,detecting_color,nothing,false,false,detecting_color,false,2024-03-04 11:53:16.343287,15.817,0.041,236.8,131.69407653808594,282.4188232421875,84.958251953125,45.0,65.0,51.0,0.0,-20.0
32,100,10,60,detecting_color,nothing,false,false,detecting_color,false,2024-03-04 11:53:17.716404,15.817,0.041,236.8,131.69407653808594,282.4188232421875,84.958251953125,45.0,65.0,51.0,0.0,-20.0
32,100,10,60,detecting_color,nothing,false,false,detecting_color,false,2024-03-04 11:53:18.419744,15.817,0.041,236.8,131.69407653808594,282.4188232421875,84.958251953125,45.0,65.0,51.0,0.0,-20.0
32,100,10,60,detecting_color,nothing,false,false,detecting_color,false,2024-03-04 11:53:19.108813,15.817,0.07,236.8,131.69407653808594,282.4188232421875,84.958251953125,45.0,65.0,51.0,0.0,-20.0
32,100,10,60,detecting_color,nothing,false,false,detecting_color,false,2024-03-04 11:53:20.489810,15.817,0.07,236.8,131.69407653808594,282.4188232421875,84.958251953125,45.0,65.0,51.0,0.0,-20.0
32,100,10,60,detecting_color,nothing,false,false,detecting_color,false,2024-03-04 11:53:21.179710,15.817,0.07,236.8,131.69407653808594,282.4188232421875,84.958251953125,45.0,65.0,51.0,0.0,-20.0
32,100,10,60,detecting_color,nothing,false,false,detecting_color,false,2024-03-04 11:53:22.557058,0.911,0.071,236.8,131.69407653808594,282.4188232421875,84.958251953125,45.0,65.0,51.0,0.0,-20.0
32,100,10,60,detecting_color,nothing,false,false,detecting_color,false,2024-03-04 11:53:23.243515,0.911,0.071,236.8,131.69407653808594,282.4188232421875,84.958251953125,45.0,65.0,51.0,0.0,-20.0
32,100,10,60,detecting_color,nothing,false,false,detecting_color,false,2024-03-04 11:53:24.623862,0.911,0.071,236.8,131.69407653808594,282.4188232421875,84.958251953125,45.0,65.0,51.0,0.0,-20.0
32,100,10,60,detecting_color,nothing,false,false,detecting_color,false,2024-03-04 11:53:25.312263,0.911,0.058,236.8,131.69407653808594,282.4188232421875,84.958251953125,45.0,65.0,51.0,0.0,-20.0
32,100,10,60,detecting_color,nothing,false,false,detecting_color,false,2024-03-04 11:53:26.691305,0.911,0.058,236.8,131.69407653808594,282.4188232421875,84.958251953125,45.0,65.0,51.0,0.0,-20.0
32,100,10,60,detecting_color,nothing,false,false,detecting_color,false,2024-03-04 11:53:27.424116,0.911,0.055,236.8,131.69407653808594,282.4188232421875,84.958251953125,45.0,65.0,51.0,0.0,-20.0
32,100,10,60,detecting_color,nothing,false,false,detecting_color,false,2024-03-04 11:53:28.113282,0.911,0.055,236.8,131.69407653808594,282.4188232421875,84.958251953125,45.0,65.0,51.0,0.0,-20.0
32,100,10,60,detecting_color,nothing,false,false,detecting_color,false,2024-03-04 11:53:29.568143,0.911,0.055,236.8,131.69407653808594,282.4188232421875,84.958251953125,45.0,65.0,51.0,0.0,-20.0
32,100,10,60,detecting_color,nothing,false,false,detecting_color,false,2024-03-04 11:53:30.258570,0.911,0.068,236.8,131.69407653808594,282.4188232421875,84.958251953125,45.0,65.0,51.0,0.0,-20.0
32,100,10,60,detecting_color,nothing,false,false,detecting_color,false,2024-03-04 11:53:31.309590,0.911,0.068,236.8,131.69407653808594,282.4188232421875,84.958251953125,45.0,65.0,51.0,0.0,-20.0
32,100,10,60,detecting_color,nothing,false,false,detecting_color,false,2024-03-04 11:53:32.399183,0.911,0.068,236.8,131.69407653808594,282.4188232421875,84.958251953125,45.0,65.0,51.0,0.0,-20.0
32,100,10,60,detecting_color,nothing,false,false,detecting_color,false,2024-03-04 11:53:33.137399,0.911,0.07,236.8,131.69407653808594,282.4188232421875,84.958251953125,45.0,65.0,51.0,0.0,-20.0
32,100,10,60,detecting_color,nothing,false,false,detecting_color,false,2024-03-04 11:53:34.594396,0.911,0.07,236.8,131.69407653808594,282.4188232421875,84.958251953125,45.0,65.0,51.0,0.0,-20.0
32,100,10,60,detecting_color,nothing,false,false,detecting_color,false,2024-03-04 11:53:35.312709,0.911,0.07,236.8,131.69407653808594,282.4188232421875,84.958251953125,45.0,65.0,51.0,0.0,-20.0
32,100,10,60,detecting_color,nothing,false,false,detecting_color,false,2024-03-04 11:53:36.029161,0.911,0.072,236.8,131.69407653808594,282.4188232421875,84.958251953125,45.0,65.0,51.0,0.0,-20.0
32,100,10,60,detecting_color,nothing,false,false,detecting_color,false,2024-03-04 11:53:37.644506,0.911,0.072,236.8,131.69407653808594,282.4188232421875,84.958251953125,45.0,65.0,51.0,0.0,-20.0
32,100,10,60,detecting_color,nothing,false,false,detecting_color,false,2024-03-04 11:53:38.470970,0.911,0.072,236.8,131.69407653808594,282.4188232421875,84.958251953125,45.0,65.0,51.0,0.0,-20.0
32,100,10,60,detecting_color,nothing,false,false,detecting_color,false,2024-03-04 11:53:39.160279,0.0,0.0,236.8,131.69407653808594,282.4188232421875,84.958251953125,45.0,65.0,51.0,0.0,-20.0
32,100,10,60,detecting_color,nothing,false,false,detecting_color,false,2024-03-04 11:53:40.577847,0.0,0.0,236.8,131.69407653808594,282.4188232421875,84.958251953125,45.0,65.0,51.0,0.0,-20.0
32,100,10,60,detecting_color,nothing,false,false,detecting_color,false,2024-03-04 11:53:41.265889,0.0,0.0,236.8,131.69407653808594,282.4188232421875,84.958251953125,45.0,65.0,51.0,0.0,-20.0
32,100,10,60,detecting_color,nothing,false,false,detecting_color,false,2024-03-04 11:53:42.662119,0.0,0.0,236.8,131.69407653808594,282.4188232421875,84.958251953125,45.0,65.0,51.0,0.0,-20.0
32,100,10,60,detecting_color,nothing,false,false,detecting_color,false,2024-03-04 11:53:43.356354,0.0,0.0,236.8,131.69407653808594,282.4188232421875,84.958251953125,45.0,65.0,51.0,0.0,-20.0
32,100,10,60,detecting_color,nothing,false,false,detecting_color,false,2024-03-04 11:53:44.735983,0.0,0.0,236.8,131.69407653808594,282.4188232421875,84.958251953125,45.0,65.0,51.0,0.0,-20.0
32,100,10,60,detecting_color,nothing,false,false,detecting_color,false,2024-03-04 11:53:45.425779,0.0,0.0,236.8,131.69407653808594,282.4188232421875,84.958251953125,45.0,65.0,51.0,0.0,-20.0
32,100,10,60,detecting_color,nothing,false,false,detecting_color,false,2024-03-04 11:53:46.123948,0.0,0.0,236.8,131.69407653808594,282.4188232421875,84.958251953125,45.0,65.0,51.0,0.0,-20.0
32,100,10,60,detecting_color,nothing,false,false,detecting_color,false,2024-03-04 11:53:47.501746,0.0,0.0,236.8,131.69407653808594,282.4188232421875,84.958251953125,45.0,65.0,51.0,0.0,-20.0
32,100,10,60,detecting_color,nothing,false,false,detecting_color,false,2024-03-04 11:53:48.186957,0.0,0.0,236.8,131.69407653808594,282.4188232421875,84.958251953125,45.0,65.0,51.0,0.0,-20.0
32,100,10,60,detecting_color,nothing,false,false,detecting_color,false,2024-03-04 11:53:48.873734,0.0,0.0,236.8,131.69407653808594,282.4188232421875,84.958251953125,45.0,65.0,51.0,0.0,-20.0
32,100,10,60,detecting_color,nothing,false,false,detecting_color,false,2024-03-04 11:53:50.472911,0.0,0.0,236.8,131.69407653808594,282.4188232421875,84.958251953125,45.0,65.0,51.0,0.0,-20.0
32,100,10,60,detecting_color,nothing,false,false,detecting_color,false,2024-03-04 11:53:51.159837,0.0,0.0,236.8,131.69407653808594,282.4188232421875,84.958251953125,45.0,65.0,51.0,0.0,-20.0
32,100,10,60,detecting_color,nothing,false,false,detecting_color,false,2024-03-04 11:53:52.540417,0.0,0.0,236.8,131.69407653808594,282.4188232421875,84.958251953125,45.0,65.0,51.0,0.0,-20.0
32,100,10,60,detecting_color,nothing,false,false,detecting_color,false,2024-03-04 11:53:53.227045,0.0,0.0,236.8,131.69407653808594,282.4188232421875,84.958251953125,45.0,65.0,51.0,0.0,-20.0
32,100,10,60,detecting_color,nothing,false,false,detecting_color,false,2024-03-04 11:53:54.606840,0.0,0.0,236.8,131.69407653808594,282.4188232421875,84.958251953125,45.0,65.0,51.0,0.0,-20.0
32,100,10,60,detecting_color,nothing,false,false,detecting_color,false,2024-03-04 11:53:55.307776,0.0,0.0,236.8,131.69407653808594,282.4188232421875,84.958251953125,45.0,65.0,51.0,0.0,-20.0
32,100,10,60,detecting_color,nothing,false,false,detecting_color,false,2024-03-04 11:53:56.696355,0.0,0.0,236.8,131.69407653808594,282.4188232421875,84.958251953125,45.0,65.0,51.0,0.0,-20.0
32,100,10,60,detecting_color,nothing,false,false,detecting_color,false,2024-03-04 11:53:57.421822,0.0,0.0,236.8,131.69407653808594,282.4188232421875,84.958251953125,45.0,65.0,51.0,0.0,-20.0
32,100,10,60,detecting_color,nothing,false,false,detecting_color,false,2024-03-04 11:53:58.116617,0.0,0.0,236.8,131.69407653808594,282.4188232421875,84.958251953125,45.0,65.0,51.0,0.0,-20.0
32,100,10,60,detecting_color,nothing,false,false,detecting_color,false,2024-03-04 11:53:59.508454,0.0,0.0,236.8,131.69407653808594,282.4188232421875,84.958251953125,45.0,65.0,51.0,0.0,-20.0
32,100,10,60,detecting_color,nothing,false,false,detecting_color,false,2024-03-04 11:54:00.199535,0.0,0.0,236.8,131.69407653808594,282.4188232421875,84.958251953125,45.0,65.0,51.0,0.0,-20.0
32,100,10,60,detecting_color,nothing,false,false,detecting_color,false,2024-03-04 11:54:01.588556,0.0,0.0,236.8,131.69407653808594,282.4188232421875,84.958251953125,45.0,65.0,51.0,0.0,-20.0
32,100,10,60,detecting_color,nothing,false,false,detecting_color,false,2024-03-04 11:54:02.280947,0.0,0.0,236.8,131.69407653808594,282.4188232421875,84.958251953125,45.0,65.0,51.0,0.0,-20.0
32,100,10,60,detecting_color,nothing,false,false,detecting_color,false,2024-03-04 11:54:03.785660,0.0,0.0,236.8,131.69407653808594,282.4188232421875,84.958251953125,45.0,65.0,51.0,0.0,-20.0
32,100,10,60,detecting_color,nothing,false,false,detecting_color,false,2024-03-04 11:54:04.488899,0.0,0.0,236.8,131.69407653808594,282.4188232421875,84.958251953125,45.0,65.0,51.0,0.0,-20.0
32,100,10,60,detecting_color,nothing,false,false,detecting_color,false,2024-03-04 11:54:05.207816,0.0,0.0,236.8,131.69407653808594,282.4188232421875,84.958251953125,45.0,65.0,51.0,0.0,-20.0
32,100,10,60,detecting_color,nothing,false,false,detecting_color,false,2024-03-04 11:54:06.044949,0.0,0.0,236.8,131.69407653808594,282.4188232421875,84.958251953125,45.0,65.0,51.0,0.0,-20.0
32,100,10,60,detecting_color,nothing,false,false,detecting_color,false,2024-03-04 11:54:07.684131,0.0,0.0,236.8,131.69407653808594,282.4188232421875,84.958251953125,45.0,65.0,51.0,0.0,-20.0
32,100,10,60,detecting_color,nothing,false,false,detecting_color,false,2024-03-04 11:54:08.504250,0.0,0.0,236.8,131.69407653808594,282.4188232421875,84.958251953125,45.0,65.0,51.0,0.0,-20.0
32,100,10,60,detecting_color,nothing,false,false,detecting_color,false,2024-03-04 11:54:09.253370,0.0,0.0,236.8,131.69407653808594,282.4188232421875,84.958251953125,45.0,65.0,51.0,0.0,-20.0
32,100,10,60,detecting_color,nothing,false,false,detecting_color,false,2024-03-04 11:54:10.110891,0.0,0.0,236.8,131.69407653808594,282.4188232421875,84.958251953125,45.0,65.0,51.0,0.0,-20.0
32,100,10,60,detecting_color,nothing,false,false,detecting_color,false,2024-03-04 11:54:11.788396,0.0,0.0,236.8,131.69407653808594,282.4188232421875,84.958251953125,45.0,65.0,51.0,0.0,-20.0
32,100,10,60,detecting_color,nothing,false,false,detecting_color,false,2024-03-04 11:54:12.510151,0.0,0.0,236.8,131.69407653808594,282.4188232421875,84.958251953125,45.0,65.0,51.0,0.0,-20.0
32,100,10,60,detecting_color,nothing,false,false,detecting_color,false,2024-03-04 11:54:13.289485,0.0,0.0,236.8,131.69407653808594,282.4188232421875,84.958251953125,45.0,65.0,51.0,0.0,-20.0
32,100,10,60,detecting_color,nothing,false,false,detecting_color,false,2024-03-04 11:54:14.180734,0.0,0.0,236.8,131.69407653808594,282.4188232421875,84.958251953125,45.0,65.0,51.0,0.0,-20.0
32,100,10,60,detecting_color,nothing,false,false,detecting_color,false,2024-03-04 11:54:15.618961,0.0,0.0,236.8,131.69407653808594,282.4188232421875,84.958251953125,45.0,65.0,51.0,0.0,-20.0
32,100,10,60,detecting_color,nothing,false,false,detecting_color,false,2024-03-04 11:54:16.618630,0.0,0.0,236.8,131.69407653808594,282.4188232421875,84.958251953125,45.0,65.0,51.0,0.0,-20.0
32,100,10,60,detecting_color,nothing,false,false,detecting_color,false,2024-03-04 11:54:17.435822,0.0,0.0,236.8,131.69407653808594,282.4188232421875,84.958251953125,45.0,65.0,51.0,0.0,-20.0
32,100,10,60,detecting_color,nothing,false,false,detecting_color,false,2024-03-04 11:54:18.358393,0.0,0.0,236.8,131.69407653808594,282.4188232421875,84.958251953125,45.0,65.0,51.0,0.0,-20.0
32,100,10,60,detecting_color,nothing,false,false,detecting_color,false,2024-03-04 11:54:19.177637,0.0,0.0,236.8,131.69407653808594,282.4188232421875,84.958251953125,45.0,65.0,51.0,0.0,-20.0
32,100,10,60,detecting_color,nothing,false,false,detecting_color,false,2024-03-04 11:54:20.096659,0.835,0.073,236.8,131.69407653808594,282.4188232421875,84.958251953125,45.0,65.0,51.0,0.0,-20.0
32,100,10,60,detecting_color,nothing,false,false,detecting_color,false,2024-03-04 11:54:21.784445,16.177,0.117,236.8,131.69407653808594,282.4188232421875,84.958251953125,45.0,65.0,51.0,0.0,-20.0
32,100,10,60,detecting_color,nothing,false,false,detecting_color,false,2024-03-04 11:54:22.563997,16.234,0.149,236.8,131.69407653808594,282.4188232421875,84.958251953125,45.0,65.0,51.0,0.0,-20.0
32,100,10,60,detecting_color,nothing,false,false,detecting_color,false,2024-03-04 11:54:23.382546,16.234,0.149,236.8,131.69407653808594,282.4188232421875,84.958251953125,45.0,65.0,51.0,0.0,-20.0
32,100,10,60,detecting_color,nothing,false,false,detecting_color,false,2024-03-04 11:54:24.205166,16.272,0.149,236.8,131.69407653808594,282.4188232421875,84.958251953125,45.0,65.0,51.0,0.0,-20.0
32,100,10,60,detecting_color,nothing,false,false,detecting_color,false,2024-03-04 11:54:25.004634,16.158,0.148,236.8,131.69407653808594,282.4188232421875,84.958251953125,45.0,65.0,51.0,0.0,-20.0
32,100,10,60,detecting_color,nothing,false,false,detecting_color,false,2024-03-04 11:54:26.531870,16.804,0.148,236.8,131.69407653808594,282.4188232421875,84.958251953125,45.0,65.0,51.0,0.0,-20.0
32,100,10,60,detecting_color,nothing,false,false,detecting_color,false,2024-03-04 11:54:27.220475,16.253,0.149,236.8,131.69407653808594,282.4188232421875,84.958251953125,45.0,65.0,51.0,0.0,-20.0
32,100,10,60,detecting_color,nothing,false,false,detecting_color,false,2024-03-04 11:54:28.632158,16.082,0.149,236.8,131.69407653808594,282.4188232421875,84.958251953125,45.0,65.0,51.0,0.0,-20.0
32,100,10,60,detecting_color,nothing,false,false,detecting_color,false,2024-03-04 11:54:29.323379,16.082,0.148,236.8,131.69407653808594,282.4188232421875,84.958251953125,45.0,65.0,51.0,0.0,-20.0
32,100,10,60,detecting_color,nothing,false,false,detecting_color,false,2024-03-04 11:54:30.729970,16.101,0.148,236.8,131.69407653808594,282.4188232421875,84.958251953125,45.0,65.0,51.0,0.0,-20.0
32,100,10,60,detecting_color,nothing,false,false,detecting_color,false,2024-03-04 11:54:31.422258,16.177,0.149,236.8,131.69407653808594,282.4188232421875,84.958251953125,45.0,65.0,51.0,0.0,-20.0
32,100,10,60,detecting_color,nothing,false,false,detecting_color,false,2024-03-04 11:54:32.804489,16.177,0.149,236.8,131.69407653808594,282.4188232421875,84.958251953125,45.0,65.0,51.0,0.0,-20.0
32,100,10,60,detecting_color,nothing,false,false,detecting_color,false,2024-03-04 11:54:33.499910,16.101,0.149,236.8,131.69407653808594,282.4188232421875,84.958251953125,45.0,65.0,51.0,0.0,-20.0
32,100,10,60,detecting_color,nothing,false,false,detecting_color,false,2024-03-04 11:54:34.192941,16.101,0.148,236.8,131.69407653808594,282.4188232421875,84.958251953125,45.0,65.0,51.0,0.0,-20.0
32,100,10,60,detecting_color,nothing,false,false,detecting_color,false,2024-03-04 11:54:35.589732,16.234,0.148,236.8,131.69407653808594,282.4188232421875,84.958251953125,45.0,65.0,51.0,0.0,-20.0
32,100,10,60,detecting_color,nothing,false,false,detecting_color,false,2024-03-04 11:54:36.305147,16.196,0.15,236.8,131.69407653808594,282.4188232421875,84.958251953125,45.0,65.0,51.0,0.0,-20.0
32,100,10,60,detecting_color,nothing,false,false,detecting_color,false,2024-03-04 11:54:37.681392,16.139,0.15,236.8,131.69407653808594,282.4188232421875,84.958251953125,45.0,65.0,51.0,0.0,-20.0
32,100,10,60,detecting_color,nothing,false,false,detecting_color,false,2024-03-04 11:54:38.375703,16.139,0.153,236.8,131.69407653808594,282.4188232421875,84.958251953125,45.0,65.0,51.0,0.0,-20.0
32,100,10,60,detecting_color,nothing,false,false,detecting_color,false,2024-03-04 11:54:39.797709,16.367,0.153,236.8,131.69407653808594,282.4188232421875,84.958251953125,45.0,65.0,51.0,0.0,-20.0
32,100,10,60,detecting_color,nothing,false,false,detecting_color,false,2024-03-04 11:54:40.486442,16.367,0.153,236.8,131.69407653808594,282.4188232421875,84.958251953125,45.0,65.0,51.0,0.0,-20.0
32,100,10,60,detecting_color,nothing,false,false,detecting_color,false,2024-03-04 11:54:41.174853,16.082,0.149,236.8,131.69407653808594,282.4188232421875,84.958251953125,45.0,65.0,51.0,0.0,-20.0
32,100,10,60,detecting_color,nothing,false,false,detecting_color,false,2024-03-04 11:54:42.551736,16.272,0.149,236.8,131.69407653808594,282.4188232421875,84.958251953125,45.0,65.0,51.0,0.0,-20.0
32,100,10,60,detecting_color,nothing,false,false,detecting_color,false,2024-03-04 11:54:43.250503,16.272,0.149,236.8,131.69407653808594,282.4188232421875,84.958251953125,45.0,65.0,51.0,0.0,-20.0
32,100,10,60,detecting_color,nothing,false,false,detecting_color,false,2024-03-04 11:54:44.673624,16.12,0.149,236.8,131.69407653808594,282.4188232421875,84.958251953125,45.0,65.0,51.0,0.0,-20.0
