demetriskallis/dobot_magician_pick_and_place_and_color_sorting/Sampling/WholeSystemExperiments_training_data/all_data.csv
cube/weight,arm/velocity_ratio,arm/acceleration_ratio,belt/speed,dobot/operation,dobot/color,dobot/moving_arm,dobot/moving_belt,dobot/operation2,dobot/suction,meross/sample_timestamp,meross/power,meross/current,meross/voltage,dobot/pose_x,dobot/pose_y,dobot/pose_z,dobot/pose_rHead,dobot/pose_joint1Angle,dobot/pose_joint2Angle,dobot/pose_joint3Angle,dobot/pose_joint4Angle
1.2,60,60,60,homing,,,,homing,,,,,,134.3997345,-3.06366539,1.281204224,-1.305841088,-1.705841064,5.284522533,64.924263,0
1.2,60,60,60,homing,,,,homing,,,,,,123.8339081,-52.32434082,1.281204224,-22.90582848,-23.30582809,5.284522533,64.924263,0
1.2,60,60,60,homing,,,,homing,,,,,,99.73804474,-90.13876343,1.281204224,-42.10585785,-42.50585938,5.284522533,64.924263,0
1.2,60,60,60,homing,,,,homing,,19:36.1,16.69,0.159,235,64.54646301,-117.9255219,1.281204224,-61.30593109,-61.70593262,5.284522533,64.924263,0
1.2,60,60,60,homing,,,,homing,,19:36.8,16.576,0.159,235,16.60230827,-133.4055328,1.281204224,-82.90601349,-83.30601501,5.284522533,64.924263,0
1.2,60,60,60,homing,,,,homing,,19:38.2,16.652,0.158,235,-28.19396591,-131.4449463,1.281204224,-102.1060867,-102.5060883,5.284522533,64.924263,0
1.2,60,60,60,homing,,,,homing,,19:38.9,16.652,0.158,235,-69.05015564,-115.3462143,1.281204224,-120.9061584,-121.30616,5.284522533,64.924263,0
1.2,60,60,60,homing,,,,homing,,19:40.3,16.823,0.159,235,-96.35472107,-93.74668121,1.281204224,-135.7859955,-135.7659912,5.284522533,64.924263,0
1.2,60,60,60,homing,,,,homing,,19:40.9,16.823,0.159,235,-95.13223267,-94.99648285,1.281936646,-135.0409088,-135.0169067,5.289982319,64.9210968,0
1.2,60,60,60,homing,,,,homing,,19:42.4,16.747,0.158,235,-72.08171844,-123.0919342,2.136184692,-120.3529129,-119.7529144,7.604879856,63.57788467,0
1.2,60,60,60,homing,,,,homing,,19:43.1,16.709,0.158,235,6.066291332,-169.7241364,4.023658752,-87.9529953,-87.35299683,15.2211132,59.15859604,0
1.2,60,60,60,homing,,,,homing,,19:44.4,16.709,0.158,235,106.1033783,-177.6590576,4.110404968,-59.15306854,-58.55307007,26.03911972,52.8814888,0
1.2,60,60,60,homing,,,,homing,,19:45.1,16.804,0.16,235,211.6564026,-106.6981277,1.782539368,-26.75313377,-26.15313339,35.43294907,47.43075562,0
1.2,60,60,60,homing,,,,homing,,19:45.8,16.804,0.16,235,248.485321,-12.13340187,0.189804077,-2.795501232,-2.542443275,39.32793808,45.1707077,0
1.2,60,60,60,homing,,,,homing,,19:47.2,16.709,0.159,235,249.9999847,0,-7.63E-06,0,0,39.71385956,44.94676971,0
1.2,60,60,60,homing,,,,homing,,19:47.9,16.614,0.159,235,249.9999847,0,-7.63E-06,0,0,39.71385956,44.94676971,0
1.2,60,60,60,homing,,,,homing,,19:49.3,16.538,0.157,235,249.9999847,0.00017966,-7.63E-06,4.12E-05,4.12E-05,39.71385956,44.94676971,0
1.2,60,60,60,homing,,,,homing,,19:50.0,16.424,0.157,235,249.9999847,0.00017966,-7.63E-06,4.12E-05,4.12E-05,39.71385956,44.94676971,0
1.2,60,60,60,homing,,,,homing,,19:51.3,16.5,0.158,235,249.9999847,0.00017966,-7.63E-06,4.12E-05,4.12E-05,39.71385956,44.94676971,0
1.2,60,60,60,homing,,,,homing,,19:52.1,16.5,0.158,235,249.9999847,0.00017966,-7.63E-06,4.12E-05,4.12E-05,39.71385956,44.94676971,0
1.2,60,60,60,homing,,,,homing,,19:53.4,16.253,0.157,235,249.9999847,0.00017966,-7.63E-06,4.12E-05,4.12E-05,39.71385956,44.94676971,0
1.2,60,60,60,homing,,,,homing,,19:54.1,16.576,0.157,235,249.9999847,0.00017966,-7.63E-06,4.12E-05,4.12E-05,39.71385956,44.94676971,0
1.2,60,60,60,homing,,,,homing,,19:54.8,16.576,0.157,235,249.9999847,0.00017966,-7.63E-06,4.12E-05,4.12E-05,39.71385956,44.94676971,0
1.2,60,60,60,homing,,,,homing,,19:56.2,16.5,0.157,235,249.9999847,0.00017966,-7.63E-06,4.12E-05,4.12E-05,39.71385956,44.94676971,0
1.2,60,60,60,homing,,,,homing,,19:56.9,16.5,0.157,235,249.9999847,0.00017966,-7.63E-06,4.12E-05,4.12E-05,39.71385956,44.94676971,0
1.2,60,60,60,homing,,,,homing,,19:58.2,16.443,0.158,235,249.9999847,0.00017966,-7.63E-06,4.12E-05,4.12E-05,39.71385956,44.94676971,0
1.2,60,60,60,homing,,,,homing,,19:58.9,16.709,0.158,235,249.9999847,0.00017966,-7.63E-06,4.12E-05,4.12E-05,39.71385956,44.94676971,0
1.2,60,60,60,homing,,,,homing,,20:00.3,16.5,0.156,235,250.1300812,0.000179754,-0.010688782,4.12E-05,4.12E-05,39.75632477,44.91743851,0
1.2,60,60,60,homing,,,,homing,,20:01.0,16.633,0.156,235,260.9620056,44.86110306,28.30432129,4.10E-05,10.14323616,37.0799675,32.13566589,-10.14319515
1.2,60,60,60,homing,,,,homing,,20:01.7,16.633,0.156,235,274.9923706,102.9683075,64.97998047,4.20E-05,20.53320694,42.43653107,13.62708092,-20.53316498
1.2,60,60,60,go_to_pick_up_from_homing,nothing,,,go_to_pick_up_from_homing,,20:03.3,16.614,0.164,235,290.7254333,106.2850723,81.98300934,9.54E-06,20.07237816,49.83760452,1.849730015,-20.07237053
1.2,60,60,60,moving_belt,nothing,FALSE,TRUE,go_to_pick_up_from_homing,,20:04.0,16.614,0.164,235,292.822052,106.5785141,84.95825195,0,20,51,0,-20
1.2,60,60,60,moving_belt,nothing,FALSE,TRUE,go_to_pick_up_from_homing,,20:05.4,16.899,0.161,235,292.822052,106.5785141,84.95825195,0,20,51,0,-20
1.2,60,60,60,moving_belt,nothing,FALSE,TRUE,go_to_pick_up_from_homing,,20:06.1,16.424,0.161,235,292.822052,106.5785141,84.95825195,0,20,51,0,-20
1.2,60,60,60,moving_belt,nothing,FALSE,TRUE,go_to_pick_up_from_homing,,20:06.8,16.424,0.158,235,292.822052,106.5785141,84.95825195,0,20,51,0,-20
1.2,60,60,60,go_to_pick_down,nothing,TRUE,FALSE,joint 3 +,,20:08.2,16.443,0.158,235,292.8132019,106.5752945,83.29575348,0,20,51,0.791999996,-20
1.2,60,60,60,go_to_pick_down,nothing,TRUE,FALSE,joint 3 +,,20:08.9,16.443,0.157,235,283.2010193,103.0767441,31.05747223,0,20,51,21.96775436,-20
1.2,60,60,60,go_to_pick_up_from_pick_down,nothing,TRUE,FALSE,joint 3 -,TRUE,20:10.3,16.367,0.157,235,276.7922058,100.744133,16.22517395,0,20,51,27.6896019,-20
1.2,60,60,60,go_to_pick_up_from_pick_down,nothing,TRUE,FALSE,joint 3 -,TRUE,20:11.0,18.152,0.215,235,292.4449158,106.441246,74.10325623,0,20,51,3.892734528,-20
1.2,60,60,60,go_to_color_detect_up_from_pick_up,nothing,TRUE,FALSE,joint 1 +,TRUE,20:12.4,22.956,0.215,235,285.4579773,124.9698868,84.95825195,3.643196106,23.97439575,51,0,-20
1.2,60,60,60,go_to_color_detect_up_from_pick_up,nothing,TRUE,FALSE,joint 1 +,TRUE,20:13.1,22.956,0.215,235,175.7430878,257.3287659,84.95825195,35.6688118,56.18001175,51,0,-20
1.2,60,60,60,go_to_color_detect_down,nothing,TRUE,FALSE,joint 3 +,TRUE,20:14.4,22.918,0.211,235,131.690094,282.4103088,83.29575348,45,65,51,0.791999996,-20
1.2,60,60,60,go_to_color_detect_down,nothing,TRUE,FALSE,joint 3 +,TRUE,20:15.1,22.595,0.211,235,126.5845947,271.4615173,26.57751465,45,65,51,24.11999702,-20
1.2,60,60,60,go_to_color_detect_down,nothing,TRUE,FALSE,joint 3 +,TRUE,20:15.8,22.576,0.208,235,104.5867767,224.2870483,-36.46430206,45,65,51,55.99199677,-20
1.2,60,60,60,go_to_color_detect_up_from_color_detect_down,nothing,TRUE,FALSE,joint 3 -,FALSE,20:17.2,22.538,0.208,235,105.1798096,225.5588226,-35.49476624,45,65,51,54.68000412,-20
1.2,60,60,60,go_to_color_detect_up_from_color_detect_down,nothing,TRUE,FALSE,joint 3 -,FALSE,20:17.9,17.734,0.2,235,125.6328659,269.4205322,21.62681961,45,65,51,24.79999733,-20
1.2,60,60,60,go_to_color_detect_up_from_color_detect_down,nothing,TRUE,FALSE,joint 3 -,FALSE,20:19.3,17.184,0.2,235,131.6932373,282.4170227,84.19470215,45,65,51,0.212006703,-20
1.2,60,60,60,detecting_color,nothing,FALSE,FALSE,detecting_color,FALSE,20:19.9,17.184,0.162,235,131.6940765,282.4188232,84.95825195,45,65,51,0,-20
1.2,60,60,60,detecting_color,nothing,FALSE,FALSE,detecting_color,FALSE,20:21.3,16.538,0.162,235,131.6940765,282.4188232,84.95825195,45,65,51,0,-20
1.2,60,60,60,detecting_color,nothing,FALSE,FALSE,detecting_color,FALSE,20:22.0,16.538,0.156,235,131.6940765,282.4188232,84.95825195,45,65,51,0,-20
1.2,60,60,60,detecting_color,nothing,FALSE,FALSE,detecting_color,FALSE,20:23.0,16.234,0.156,235,131.6940765,282.4188232,84.95825195,45,65,51,0,-20
1.2,60,60,60,go_to_color_detect_down,nothing,TRUE,FALSE,joint 3 +,FALSE,20:24.3,16.253,0.157,235,131.6940765,282.4188232,84.95825195,45,65,51,0,-20
1.2,60,60,60,go_to_color_detect_down,nothing,TRUE,FALSE,joint 3 +,FALSE,20:25.0,16.481,0.157,235,128.2811279,275.099762,36.9057045,45,65,51,19.80000114,-20
1.2,60,60,60,go_to_color_detect_down,nothing,TRUE,FALSE,joint 3 +,FALSE,20:26.4,16.329,0.157,235,108.3086472,232.268631,-29.96110535,45,65,51,51.88240051,-20
1.2,60,60,60,go_to_color_detect_up_from_color_detect_down,nothing,TRUE,FALSE,joint 3 -,TRUE,20:27.4,16.329,0.157,235,103.589386,222.1481323,-38.04160309,45,65,51,56.53760147,-20
1.2,60,60,60,go_to_color_detect_up_from_color_detect_down,nothing,TRUE,FALSE,joint 3 -,TRUE,20:28.0,17.07,0.157,235,123.4574509,264.7553406,11.8140564,45,65,51,29.11999321,-20
1.2,60,60,60,go_to_color_detect_up_from_color_detect_down,nothing,TRUE,FALSE,joint 3 -,TRUE,20:29.4,23.279,0.213,235,131.6373749,282.2972412,78.67947388,45,65,51,2.189606667,-20
1.2,60,60,60,go_to_red_up,red,TRUE,FALSE,joint 1 +,TRUE,20:30.1,22.747,0.213,235,88.14872742,298.8871765,84.95825195,53.56799316,74.07199097,51,0,-20
1.2,60,60,60,go_to_red_up,red,TRUE,FALSE,joint 1 +,TRUE,20:30.8,22.747,0.209,235,-87.98194885,298.9363098,84.95825195,86.40003204,107.1200333,51,0,-20
1.2,60,60,60,go_to_pick_up_from_red,red,TRUE,FALSE,joint 1 -,FALSE,20:32.2,22.918,0.209,235,-178.4783173,255.4392548,84.95825195,104.9424362,124.9760361,51,0,-20
1.2,60,60,60,go_to_pick_up_from_red,red,TRUE,FALSE,joint 1 -,FALSE,20:32.9,22.671,0.21,235,-96.63349152,296.2527771,84.95825195,88.06560516,107.3600082,51,0,-20
1.2,60,60,60,go_to_pick_up_from_red,red,TRUE,FALSE,joint 1 -,FALSE,20:34.3,16.424,0.21,235,80.86219025,300.9402771,84.95825195,54.95995331,74.23995209,51,0,-20
1.2,60,60,60,go_to_pick_up_from_red,red,TRUE,FALSE,joint 1 -,FALSE,20:35.0,16.576,0.158,235,251.6844635,183.735321,84.95825195,16.13028717,35.45588684,51,0,-20
1.2,60,60,60,moving_belt,red,FALSE,TRUE,joint 1 -,FALSE,20:36.4,16.519,0.158,235,292.822052,106.5785141,84.95825195,0,20,51,0,-20
1.2,60,60,60,moving_belt,red,FALSE,TRUE,joint 1 -,FALSE,20:37.1,16.519,0.158,235,292.822052,106.5785141,84.95825195,0,20,51,0,-20
1.2,60,60,60,moving_belt,red,FALSE,TRUE,joint 1 -,FALSE,20:38.5,16.747,0.158,235,292.822052,106.5785141,84.95825195,0,20,51,0,-20
1.2,60,60,60,moving_belt,red,FALSE,TRUE,joint 1 -,FALSE,20:39.1,16.329,0.158,235,292.822052,106.5785141,84.95825195,0,20,51,0,-20
1.2,60,60,60,moving_belt,red,FALSE,TRUE,joint 1 -,FALSE,20:39.8,16.329,0.158,235,292.822052,106.5785141,84.95825195,0,20,51,0,-20
1.2,60,60,60,go_to_pick_down,red,TRUE,FALSE,joint 3 +,FALSE,20:41.2,16.424,0.158,235,292.1991882,106.3518066,71.01399231,0,20,51,5.846400738,-20
1.2,60,60,60,go_to_pick_down,red,TRUE,FALSE,joint 3 +,FALSE,20:41.9,16.424,0.158,235,277.1723938,100.8824997,16.99559021,0,20,51,27.73566818,-20
1.2,60,60,60,go_to_pick_up_from_pick_down,red,TRUE,FALSE,joint 3 -,TRUE,20:43.3,16.481,0.197,235,282.4872437,102.8169479,29.16868973,0,20,51,21.85760498,-20
1.2,60,60,60,go_to_pick_up_from_pick_down,red,TRUE,FALSE,joint 3 -,TRUE,20:44.0,23.184,0.197,235,292.821228,106.5782089,84.44917297,0,20,51,0.129982561,-20
1.2,60,60,60,go_to_color_detect_up_from_pick_up,red,TRUE,FALSE,joint 1 +,TRUE,20:44.7,23.241,0.197,235,266.4538879,161.5736694,84.95825195,11.23199463,31.80799484,51,0,-20
1.2,60,60,60,go_to_color_detect_up_from_pick_up,red,TRUE,FALSE,joint 1 +,TRUE,20:45.9,22.557,0.209,235,153.4463654,271.2156677,84.95825195,40.50001144,60.85280991,51,0,-20
1.2,60,60,60,go_to_color_detect_down,red,TRUE,FALSE,joint 3 +,TRUE,20:47.2,22.462,0.209,235,131.4524994,281.9007874,72.00732422,45,65,51,5.443200588,-20
1.2,60,60,60,go_to_color_detect_down,red,TRUE,FALSE,joint 3 +,TRUE,20:47.9,22.557,0.208,235,120.057724,257.4645996,-0.697242737,45,65,51,36.3599968,-20
1.2,60,60,60,go_to_color_detect_down,red,TRUE,FALSE,joint 3 +,TRUE,20:49.3,22.386,0.208,235,102.0404282,218.8264008,-40.3637619,45,65,51,58.60239792,-20
1.2,60,60,60,go_to_color_detect_up_from_color_detect_down,red,TRUE,FALSE,joint 3 -,FALSE,20:50.0,22.576,0.207,235,112.7272491,241.744339,-20.77900696,45,65,51,45.37760162,-20
1.2,60,60,60,go_to_color_detect_up_from_color_detect_down,red,TRUE,FALSE,joint 3 -,FALSE,20:51.4,16.709,0.207,235,130.3865356,279.6148071,54.95759583,45,65,51,11.20080566,-20
1.2,60,60,60,detecting_color,red,FALSE,FALSE,detecting_color,FALSE,20:52.1,17.127,0.163,235,131.6940765,282.4188232,84.95825195,45,65,51,0,-20
1.2,60,60,60,detecting_color,red,FALSE,FALSE,detecting_color,FALSE,20:53.5,16.443,0.163,235,131.6940765,282.4188232,84.95825195,45,65,51,0,-20
1.2,60,60,60,go_to_color_detect_down,red,TRUE,FALSE,joint 3 +,FALSE,20:54.2,16.443,0.156,235,131.6658325,282.3582764,80.5255127,45,65,51,1.958399773,-20
1.2,60,60,60,go_to_color_detect_down,red,TRUE,FALSE,joint 3 +,FALSE,20:54.9,16.462,0.156,235,124.5640793,267.1285095,16.58105469,45,65,51,28.4399929,-20
1.2,60,60,60,go_to_color_detect_down,red,TRUE,FALSE,joint 3 +,FALSE,20:55.8,16.462,0.156,235,104.3161697,223.7067413,-36.89878845,45,65,51,56.27919769,-20
1.2,60,60,60,go_to_color_detect_up_from_color_detect_down,red,TRUE,FALSE,joint 3 -,TRUE,20:57.2,16.462,0.157,235,107.1850815,229.8591309,-32.03231049,45,65,51,52.30400467,-20
1.2,60,60,60,go_to_color_detect_up_from_color_detect_down,red,TRUE,FALSE,joint 3 -,TRUE,20:57.9,23.431,0.157,235,127.4897003,273.4025269,31.79943848,45,65,51,20.48000145,-20
1.2,60,60,60,go_to_color_detect_up_from_color_detect_down,red,TRUE,FALSE,joint 3 -,TRUE,20:59.3,23.146,0.212,235,131.6932373,282.4170227,84.19470215,45,65,51,0.212006703,-20
1.2,60,60,60,go_to_green_up,green,TRUE,FALSE,joint 1 +,TRUE,21:00.0,22.918,0.212,235,51.07509613,307.4004822,84.95825195,60.56639099,81.24319458,51,0,-20
1.2,60,60,60,go_to_green_up,green,TRUE,FALSE,joint 1 +,TRUE,21:01.4,22.842,0.208,235,-75.14157867,302.4193726,84.95825195,83.95360565,104.1200027,51,0,-20
1.2,60,60,60,go_to_pick_up_from_green,green,TRUE,FALSE,joint 1 -,FALSE,21:02.1,22.842,0.208,235,-23.52503014,310.7254333,84.95825195,74.3296051,93.76800537,51,0,-20
1.2,60,60,60,go_to_pick_up_from_green,green,TRUE,FALSE,joint 1 -,FALSE,21:03.5,16.557,0.159,235,152.404068,271.8027344,84.95825195,40.71996307,59.99996185,51,0,-20
1.2,60,60,60,go_to_pick_up_from_green,green,TRUE,FALSE,joint 1 -,FALSE,21:04.2,16.557,0.159,235,274.8695679,146.8007202,84.95825195,8.105522156,27.62952232,51,0,-20
1.2,60,60,60,moving_belt,green,FALSE,TRUE,joint 1 -,FALSE,21:05.5,16.5,0.158,235,292.822052,106.5785141,84.95825195,0,20,51,0,-20
1.2,60,60,60,moving_belt,green,FALSE,TRUE,joint 1 -,FALSE,21:06.2,16.557,0.158,235,292.822052,106.5785141,84.95825195,0,20,51,0,-20
1.2,60,60,60,moving_belt,green,FALSE,TRUE,joint 1 -,FALSE,21:06.9,16.557,0.158,235,292.822052,106.5785141,84.95825195,0,20,51,0,-20
1.2,60,60,60,moving_belt,green,FALSE,TRUE,joint 1 -,FALSE,21:08.3,16.386,0.158,235,292.822052,106.5785141,84.95825195,0,20,51,0,-20
1.2,60,60,60,moving_belt,green,FALSE,TRUE,joint 1 -,FALSE,21:09.1,16.386,0.158,235,292.822052,106.5785141,84.95825195,0,20,51,0,-20
1.2,60,60,60,go_to_pick_down,green,TRUE,FALSE,joint 3 +,FALSE,21:10.5,16.557,0.156,235,288.5682373,105.0302505,48.75879288,0,20,51,14.90044117,-20
1.2,60,60,60,go_to_pick_up_from_pick_down,green,TRUE,FALSE,joint 3 -,TRUE,21:11.1,16.443,0.156,235,275.502655,100.2747726,13.69123077,0,20,51,28.98559952,-20
1.2,60,60,60,go_to_pick_up_from_pick_down,green,TRUE,FALSE,joint 3 -,TRUE,21:12.5,19.937,0.158,235,291.1410828,105.9666901,62.09515381,0,20,51,8.447170258,-20
1.2,60,60,60,go_to_color_detect_up_from_pick_up,green,TRUE,FALSE,joint 1 +,TRUE,21:13.2,23.07,0.158,235,291.5979614,109.8833694,84.95825195,0.64799881,20.79199791,51,0,-20
1.2,60,60,60,go_to_color_detect_up_from_pick_up,green,TRUE,FALSE,joint 1 +,TRUE,21:13.9,22.671,0.209,235,212.5206757,227.9006348,84.95825195,27.00001144,47.71281052,51,0,-20
1.2,60,60,60,go_to_color_detect_up_from_pick_up,green,TRUE,FALSE,joint 1 +,TRUE,21:15.3,22.804,0.209,235,131.8359222,282.3526611,84.95825195,44.97121429,64.99281311,51,0,-20
1.2,60,60,60,go_to_color_detect_down,green,TRUE,FALSE,joint 3 +,TRUE,21:16.0,22.576,0.208,235,130.1010437,279.0025635,51.88244247,45,65,51,13.62240124,-20
1.2,60,60,60,go_to_color_detect_down,green,TRUE,FALSE,joint 3 +,TRUE,21:17.4,22.291,0.208,235,109.5388336,234.9067688,-27.57769775,45,65,51,50.45920181,-20
1.2,60,60,60,go_to_color_detect_up_from_color_detect_down,green,TRUE,FALSE,joint 3 -,FALSE,21:18.1,22.291,0.207,235,102.2988663,219.3806152,-39.98679352,45,65,51,58.04959869,-20
1.2,60,60,60,go_to_color_detect_up_from_color_detect_down,green,TRUE,FALSE,joint 3 -,FALSE,21:19.6,16.785,0.207,235,120.533432,258.4847717,0.89490509,45,65,51,34.15999222,-20
1.2,60,60,60,go_to_color_detect_up_from_color_detect_down,green,TRUE,FALSE,joint 3 -,FALSE,21:20.2,16.785,0.162,235,131.6240387,282.2686462,77.98027802,45,65,51,2.44800663,-20
1.2,60,60,60,detecting_color,green,FALSE,FALSE,detecting_color,FALSE,21:20.9,17.241,0.162,235,131.6940765,282.4188232,84.95825195,45,65,51,0,-20
1.2,60,60,60,go_to_color_detect_down,green,TRUE,FALSE,joint 3 +,FALSE,21:22.3,16.576,0.158,235,131.6940765,282.4188232,84.95825195,45,65,51,0.014399999,-20
1.2,60,60,60,go_to_color_detect_down,green,TRUE,FALSE,joint 3 +,FALSE,21:23.0,16.557,0.158,235,129.0002747,276.6419373,42.14058304,45,65,51,17.6400032,-20
1.2,60,60,60,go_to_color_detect_down,green,TRUE,FALSE,joint 3 +,FALSE,21:24.4,16.595,0.158,235,109.5388336,234.9067688,-27.57769775,45,65,51,50.45920181,-20
1.2,60,60,60,go_to_color_detect_up_from_color_detect_down,green,TRUE,FALSE,joint 3 -,TRUE,21:25.1,16.595,0.158,235,103.1570892,221.2210846,-38.70500946,45,65,51,57.04160309,-20
1.2,60,60,60,go_to_color_detect_up_from_color_detect_down,green,TRUE,FALSE,joint 3 -,TRUE,21:26.5,23.336,0.213,235,122.6636124,263.052948,8.632804871,45,65,51,30.55999184,-20
1.2,60,60,60,go_to_color_detect_up_from_color_detect_down,green,TRUE,FALSE,joint 3 -,TRUE,21:27.3,23.127,0.213,235,131.60849,282.2352905,77.24435425,45,65,51,2.720806599,-20
1.2,60,60,60,go_to_blue_up,blue,TRUE,FALSE,joint 1 +,TRUE,21:28.0,22.88,0.213,235,93.16892242,297.3605347,84.95825195,52.60319519,73.07839203,51,0,-20
1.2,60,60,60,go_to_pick_up_from_blue,blue,TRUE,FALSE,joint 1 -,FALSE,21:29.4,22.443,0.207,235,27.6270504,310.3876343,84.95825195,64.91360474,84.85600281,51,0,-20
1.2,60,60,60,go_to_pick_up_from_blue,blue,TRUE,FALSE,joint 1 -,FALSE,21:30.1,21.703,0.207,235,127.1424484,284.4969788,84.95825195,45.9200058,65.20000458,51,0,-20
1.2,60,60,60,go_to_pick_up_from_blue,blue,TRUE,FALSE,joint 1 -,FALSE,21:31.5,16.519,0.159,235,273.3108521,149.682663,84.95825195,8.707956314,28.21435547,51,0,-20
1.2,60,60,60,moving_belt,blue,FALSE,TRUE,joint 1 -,FALSE,21:32.2,16.633,0.159,235,292.822052,106.5785141,84.95825195,0,20,51,0,-20
1.2,60,60,60,moving_belt,blue,FALSE,TRUE,joint 1 -,FALSE,21:32.9,16.633,0.159,235,292.822052,106.5785141,84.95825195,0,20,51,0,-20
1.2,60,60,60,moving_belt,blue,FALSE,TRUE,joint 1 -,FALSE,21:34.3,16.5,0.159,235,292.822052,106.5785141,84.95825195,0,20,51,0,-20
1.2,60,60,60,moving_belt,blue,FALSE,TRUE,joint 1 -,FALSE,21:35.0,16.424,0.157,235,292.822052,106.5785141,84.95825195,0,20,51,0,-20
1.2,60,60,60,moving_belt,blue,FALSE,TRUE,joint 1 -,FALSE,21:36.4,16.291,0.157,235,292.822052,106.5785141,84.95825195,0,20,51,0,-20
1.2,60,60,60,go_to_pick_down,blue,TRUE,FALSE,joint 3 +,FALSE,21:37.3,16.424,0.156,235,289.8989563,105.514595,54.87723541,0,20,51,12.39840126,-20
1.2,60,60,60,go_to_pick_up_from_pick_down,blue,TRUE,FALSE,joint 3 -,TRUE,21:38.0,16.424,0.156,235,275.5155945,100.27948,13.71604156,0,20,51,28.99978447,-20
1.2,60,60,60,go_to_pick_up_from_pick_down,blue,TRUE,FALSE,joint 3 -,TRUE,21:39.4,23.374,0.214,235,289.968689,105.539978,55.23442841,0,20,51,11.09336758,-20
1.2,60,60,60,go_to_color_detect_up_from_pick_up,blue,TRUE,FALSE,joint 1 +,TRUE,21:40.1,23.051,0.214,235,292.5532532,107.3141022,84.95825195,0.1439991,20.2159996,51,0,-20
1.2,60,60,60,go_to_color_detect_up_from_pick_up,blue,TRUE,FALSE,joint 1 +,TRUE,21:41.6,22.538,0.208,235,239.4084625,199.4676056,84.95825195,19.79999924,40.52000046,51,0,-20
1.2,60,60,60,go_to_color_detect_up_from_pick_up,blue,TRUE,FALSE,joint 1 +,TRUE,21:42.2,22.652,0.208,235,132.9702759,281.8202209,84.95825195,44.74081421,64.82001495,51,0,-20
1.2,60,60,60,go_to_color_detect_down,blue,TRUE,FALSE,joint 3 +,TRUE,21:42.9,22.462,0.208,235,130.5041656,279.8670654,56.32526398,45,65,51,11.80800152,-20
1.2,60,60,60,go_to_color_detect_down,blue,TRUE,FALSE,joint 3 +,TRUE,21:44.3,22.348,0.207,235,113.6670685,243.7598114,-18.5851059,45,65,51,45.41200256,-20
1.2,60,60,60,go_to_color_detect_up_from_color_detect_down,blue,TRUE,FALSE,joint 3 -,FALSE,21:45.0,22.405,0.207,235,101.8464661,218.4104462,-40.64399719,45,65,51,58.59680176,-20
1.2,60,60,60,go_to_color_detect_up_from_color_detect_down,blue,TRUE,FALSE,joint 3 -,FALSE,21:46.4,22.424,0.207,235,118.6840515,254.5187531,-5.057975769,45,65,51,37.0399971,-20
1.2,60,60,60,go_to_color_detect_up_from_color_detect_down,blue,TRUE,FALSE,joint 3 -,FALSE,21:47.1,16.842,0.207,235,131.3259125,281.629303,68.97827148,45,65,51,5.824006557,-20
1.2,60,60,60,detecting_color,blue,FALSE,FALSE,detecting_color,FALSE,21:48.5,17.051,0.162,235,131.6940765,282.4188232,84.95825195,45,65,51,0,-20
1.2,60,60,60,go_to_color_detect_down,blue,TRUE,FALSE,joint 3 +,FALSE,21:49.2,16.5,0.162,235,131.6940765,282.4188232,84.95825195,45,65,51,0,-20
1.2,60,60,60,go_to_color_detect_down,blue,TRUE,FALSE,joint 3 +,FALSE,21:50.6,16.519,0.156,235,128.0213013,274.5425415,35.1637764,45,65,51,20.52000046,-20
1.2,60,60,60,go_to_color_detect_down,blue,TRUE,FALSE,joint 3 +,FALSE,21:51.3,16.519,0.156,235,107.9174805,231.4297638,-30.69332886,45,65,51,52.32799911,-20
1.2,60,60,60,go_to_color_detect_up_from_color_detect_down,blue,TRUE,FALSE,joint 3 -,TRUE,21:52.0,16.481,0.156,235,102.9598312,220.7980499,-39.00374603,45,65,51,57.27200317,-20
1.2,60,60,60,go_to_color_detect_up_from_color_detect_down,blue,TRUE,FALSE,joint 3 -,TRUE,21:52.7,18.969,0.157,235,124.5842514,267.1717834,16.67192078,45,65,51,26.95999527,-20
1.2,60,60,60,go_to_color_detect_up_from_color_detect_down,blue,TRUE,FALSE,joint 3 -,TRUE,21:54.4,23.032,0.212,235,131.666214,282.3591003,80.55626678,45,65,51,1.500806689,-20
1.2,60,60,60,go_to_red_up,red,TRUE,FALSE,joint 1 +,TRUE,21:55.1,23.032,0.212,235,97.86534882,295.848114,84.95825195,51.69599152,72.14239502,51,0,-20
1.2,60,60,60,go_to_red_up,red,TRUE,FALSE,joint 1 +,TRUE,21:56.5,22.652,0.208,235,-95.41674805,296.6468811,84.95825195,87.83043671,108.5264359,51,0,-20
1.2,60,60,60,go_to_pick_up_from_red,red,TRUE,FALSE,joint 1 -,FALSE,21:57.2,22.823,0.208,235,-178.6280975,255.3345337,84.95825195,104.9760361,124.9952393,51,0,-20
1.2,60,60,60,go_to_pick_up_from_red,red,TRUE,FALSE,joint 1 -,FALSE,21:58.0,22.823,0.208,235,-113.5876083,290.1751099,84.95825195,91.37760925,110.7440109,51,0,-20
1.2,60,60,60,go_to_pick_up_from_red,red,TRUE,FALSE,joint 1 -,FALSE,21:59.3,16.538,0.161,235,88.39931488,298.8131409,84.95825195,53.51995087,72.79994965,51,0,-20
1.2,60,60,60,go_to_pick_up_from_red,red,TRUE,FALSE,joint 1 -,FALSE,22:00.1,16.538,0.161,235,242.3073273,195.9359283,84.95825195,18.95989227,38.23989105,51,0,-20
1.2,60,60,60,moving_belt,red,FALSE,TRUE,joint 1 -,FALSE,22:01.5,16.443,0.158,235,292.822052,106.5785141,84.95825195,0,20,51,0,-20
1.2,60,60,60,moving_belt,red,FALSE,TRUE,joint 1 -,FALSE,22:01.5,16.443,0.158,235,292.822052,106.5785141,84.95825195,0,20,51,0,-20
1.2,60,60,60,moving_belt,red,FALSE,TRUE,joint 1 -,FALSE,22:03.4,16.443,0.157,235,292.822052,106.5785141,84.95825195,0,20,51,0,-20
1.2,60,60,60,moving_belt,red,FALSE,TRUE,joint 1 -,FALSE,22:04.1,16.348,0.157,235,292.822052,106.5785141,84.95825195,0,20,51,0,-20
1.2,60,60,60,moving_belt,red,FALSE,TRUE,joint 1 -,FALSE,22:05.4,16.367,0.155,235,292.822052,106.5785141,84.95825195,0,20,51,0,-20
1.2,60,60,60,go_to_pick_down,red,TRUE,FALSE,joint 3 +,FALSE,22:06.1,16.367,0.155,235,292.589325,106.4938126,76.42871857,0,20,51,3.643200397,-20
1.2,60,60,60,go_to_pick_down,red,TRUE,FALSE,joint 3 +,FALSE,22:06.8,16.386,0.155,235,277.1723938,100.8824997,16.99559021,0,20,51,27.73566818,-20
1.2,60,60,60,go_to_pick_up_from_pick_down,red,TRUE,FALSE,joint 3 -,TRUE,22:08.3,16.462,0.157,235,282.0883484,102.6717606,28.1448555,0,20,51,22.30400467,-20
1.2,60,60,60,go_to_pick_up_from_pick_down,red,TRUE,FALSE,joint 3 -,TRUE,22:09.0,23.355,0.157,235,292.7974854,106.5695801,82.18573761,0,20,51,0.911459625,-20
1.2,60,60,60,go_to_color_detect_up_from_pick_up,red,TRUE,FALSE,joint 1 +,TRUE,22:10.4,22.842,0.21,235,264.8161316,164.2441406,84.95825195,11.80799484,32.39839554,51,0,-20
1.2,60,60,60,go_to_color_detect_up_from_pick_up,red,TRUE,FALSE,joint 1 +,TRUE,22:11.1,22.215,0.21,235,151.7734528,272.155365,84.95825195,40.85280991,61.1912117,51,0,-20
1.2,60,60,60,go_to_color_detect_down,red,TRUE,FALSE,joint 3 +,TRUE,22:12.5,22.443,0.208,235,131.4139404,281.8180847,71.01399231,45,65,51,5.846400738,-20
1.2,60,60,60,go_to_color_detect_down,red,TRUE,FALSE,joint 3 +,TRUE,22:13.2,22.443,0.208,235,120.057724,257.4645996,-0.697242737,45,65,51,36.3599968,-20
1.2,60,60,60,go_to_color_detect_down,red,TRUE,FALSE,joint 3 +,TRUE,22:14.5,22.291,0.205,235,102.1594238,219.0815735,-40.1907196,45,65,51,58.48799896,-20
1.2,60,60,60,go_to_color_detect_up_from_color_detect_down,red,TRUE,FALSE,joint 3 -,FALSE,22:15.2,21.665,0.205,235,112.2531509,240.7276611,-21.85105896,45,65,51,45.99680328,-20
1.2,60,60,60,go_to_color_detect_up_from_color_detect_down,red,TRUE,FALSE,joint 3 -,FALSE,22:16.6,16.709,0.158,235,130.2528381,279.3280945,53.47834778,45,65,51,11.77600574,-20
1.2,60,60,60,detecting_color,red,FALSE,FALSE,detecting_color,FALSE,22:17.3,16.709,0.158,235,131.6940765,282.4188232,84.95825195,45,65,51,0,-20
1.2,60,60,60,detecting_color,red,FALSE,FALSE,detecting_color,FALSE,22:18.0,16.861,0.157,235,131.6940765,282.4188232,84.95825195,45,65,51,0,-20
1.2,60,60,60,go_to_color_detect_down,red,TRUE,FALSE,joint 3 +,FALSE,22:19.4,16.386,0.157,235,131.6724396,282.3724365,81.07946777,45,65,51,1.727999806,-20
1.2,60,60,60,go_to_color_detect_down,red,TRUE,FALSE,joint 3 +,FALSE,22:20.1,16.405,0.157,235,122.6410828,263.0046387,8.545120239,45,65,51,32.03998947,-20
1.2,60,60,60,go_to_color_detect_down,red,TRUE,FALSE,joint 3 +,FALSE,22:21.5,16.519,0.157,235,103.1461487,221.1976166,-38.72164917,45,65,51,57.4991951,-20
1.2,60,60,60,go_to_color_detect_up_from_color_detect_down,red,TRUE,FALSE,joint 3 -,TRUE,22:22.1,16.519,0.157,235,107.5567932,230.6562805,-31.35788727,45,65,51,51.85760498,-20
1.2,60,60,60,go_to_color_detect_up_from_color_detect_down,red,TRUE,FALSE,joint 3 -,TRUE,22:23.5,22.956,0.168,235,129.2256317,277.1252441,43.93274689,45,65,51,15.52960491,-20
1.2,60,60,60,go_to_green_up,green,TRUE,FALSE,joint 1 +,TRUE,22:24.2,22.88,0.168,235,131.6940765,282.4188232,84.95825195,45,65,51,0,-20
1.2,60,60,60,go_to_green_up,green,TRUE,FALSE,joint 1 +,TRUE,22:24.9,22.88,0.21,235,51.07509613,307.4004822,84.95825195,60.56639099,81.24319458,51,0,-20
1.2,60,60,60,go_to_green_up,green,TRUE,FALSE,joint 1 +,TRUE,22:26.3,22.519,0.21,235,-79.68482208,301.2541504,84.95825195,84.81600952,104.8816071,51,0,-20
1.2,60,60,60,go_to_pick_up_from_green,green,TRUE,FALSE,joint 1 -,FALSE,22:27.1,22.253,0.206,235,-20.47833443,310.9411011,84.95825195,73.76800537,93.19200897,51,0,-20
1.2,60,60,60,go_to_pick_up_from_green,green,TRUE,FALSE,joint 1 -,FALSE,22:28.4,16.462,0.206,235,155.8075104,269.8661499,84.95825195,39.99996185,59.27996063,51,0,-20
1.2,60,60,60,go_to_pick_up_from_green,green,TRUE,FALSE,joint 1 -,FALSE,22:29.2,16.538,0.158,235,282.2440796,132.0681763,84.95825195,5.075922012,24.70072174,51,0,-20
1.2,60,60,60,moving_belt,green,FALSE,TRUE,joint 1 -,FALSE,22:30.0,16.538,0.158,235,292.822052,106.5785141,84.95825195,0,20,51,0,-20
1.2,60,60,60,moving_belt,green,FALSE,TRUE,joint 1 -,FALSE,22:31.5,16.823,0.159,235,292.822052,106.5785141,84.95825195,0,20,51,0,-20
1.2,60,60,60,moving_belt,green,FALSE,TRUE,joint 1 -,FALSE,22:32.2,16.823,0.159,235,292.822052,106.5785141,84.95825195,0,20,51,0,-20
1.2,60,60,60,moving_belt,green,FALSE,TRUE,joint 1 -,FALSE,22:33.3,16.348,0.156,235,292.822052,106.5785141,84.95825195,0,20,51,0,-20
1.2,60,60,60,go_to_pick_down,green,TRUE,FALSE,joint 3 +,FALSE,22:34.0,16.557,0.156,235,292.822052,106.5785141,84.95825195,0,20,51,0,-20
1.2,60,60,60,go_to_pick_down,green,TRUE,FALSE,joint 3 +,FALSE,22:35.4,16.291,0.157,235,287.3734131,104.5953751,44.079319,0,20,51,16.74736023,-20
1.2,60,60,60,go_to_pick_up_from_pick_down,green,TRUE,FALSE,joint 3 -,TRUE,22:36.1,16.291,0.157,235,275.5531311,100.2931442,13.78819275,0,20,51,28.91360092,-20
1.2,60,60,60,go_to_pick_up_from_pick_down,green,TRUE,FALSE,joint 3 -,TRUE,22:37.5,23.127,0.214,235,290.2409973,105.6390839,56.67421722,0,20,51,10.53532791,-20
1.2,60,60,60,go_to_color_detect_up_from_pick_up,green,TRUE,FALSE,joint 1 +,TRUE,22:38.2,23.127,0.214,235,290.6766052,112.2980042,84.95825195,1.123197556,21.3103981,51,0,-20
1.2,60,60,60,go_to_color_detect_up_from_pick_up,green,TRUE,FALSE,joint 1 +,TRUE,22:39.5,22.367,0.207,235,218.1807251,222.4879608,84.95825195,25.560009,46.28001022,51,0,-20
1.2,60,60,60,go_to_color_detect_up_from_pick_up,green,TRUE,FALSE,joint 1 +,TRUE,22:40.2,22.595,0.207,235,132.2615662,282.1535034,84.95825195,44.8848114,64.93521118,51,0,-20
1.2,60,60,60,go_to_color_detect_down,green,TRUE,FALSE,joint 3 +,TRUE,22:41.0,22.595,0.207,235,129.4153442,277.532074,45.5100708,45,65,51,16.24320221,-20
1.2,60,60,60,go_to_color_detect_down,green,TRUE,FALSE,joint 3 +,TRUE,22:42.4,22.234,0.205,235,110.4033203,236.7606812,-25.82636261,45,65,51,49.43840027,-20
1.2,60,60,60,go_to_color_detect_up_from_color_detect_down,green,TRUE,FALSE,joint 3 -,FALSE,22:43.1,22.196,0.205,235,102.7752914,220.4023132,-39.28096771,45,65,51,57.48800278,-20
1.2,60,60,60,go_to_color_detect_up_from_color_detect_down,green,TRUE,FALSE,joint 3 -,FALSE,22:44.5,21.228,0.206,235,121.836235,261.278656,5.499771118,45,65,51,31.99999046,-20
1.2,60,60,60,go_to_color_detect_up_from_color_detect_down,green,TRUE,FALSE,joint 3 -,FALSE,22:45.2,16.994,0.206,235,131.5697479,282.1522217,75.66247559,45,65,51,3.309606552,-20
1.2,60,60,60,detecting_color,green,FALSE,FALSE,detecting_color,FALSE,22:46.6,17.032,0.162,235,131.6940765,282.4188232,84.95825195,45,65,51,0,-20
1.2,60,60,60,go_to_color_detect_down,green,TRUE,FALSE,joint 3 +,FALSE,22:47.3,16.519,0.162,235,131.6940765,282.4188232,84.95825195,45,65,51,0,-20
1.2,60,60,60,go_to_color_detect_down,green,TRUE,FALSE,joint 3 +,FALSE,22:48.0,16.519,0.157,235,127.7522507,273.9655762,33.42970657,45,65,51,21.23999977,-20
1.2,60,60,60,go_to_color_detect_down,green,TRUE,FALSE,joint 3 +,FALSE,22:49.4,16.424,0.157,235,107.5362015,230.6121063,-31.3955307,45,65,51,52.75919724,-20
1.2,60,60,60,go_to_color_detect_up_from_color_detect_down,green,TRUE,FALSE,joint 3 -,TRUE,22:50.3,16.443,0.157,235,102.9598312,220.7980499,-39.00374603,45,65,51,57.27200317,-20
1.2,60,60,60,go_to_color_detect_up_from_color_detect_down,green,TRUE,FALSE,joint 3 -,TRUE,22:51.0,21.361,0.158,235,124.5842514,267.1717834,16.67192078,45,65,51,26.95999527,-20
1.2,60,60,60,go_to_color_detect_up_from_color_detect_down,green,TRUE,FALSE,joint 3 -,TRUE,22:52.4,22.804,0.21,235,131.666214,282.3591003,80.55626678,45,65,51,1.500806689,-20
1.2,60,60,60,go_to_blue_up,blue,TRUE,FALSE,joint 1 +,TRUE,22:53.1,22.747,0.21,235,100.0931931,295.1018066,84.95825195,51.26399231,71.69599152,51,0,-20
1.2,60,60,60,go_to_pick_up_from_blue,blue,TRUE,FALSE,joint 1 -,FALSE,22:54.5,22.367,0.206,235,28.79701233,310.2812805,84.95825195,64.69760132,84.59680176,51,0,-20
1.2,60,60,60,go_to_pick_up_from_blue,blue,TRUE,FALSE,joint 1 -,FALSE,22:55.2,22.367,0.206,235,137.7748566,279.5028076,84.95825195,43.76000214,63.04000092,51,0,-20
1.2,60,60,60,go_to_pick_up_from_blue,blue,TRUE,FALSE,joint 1 -,FALSE,22:55.9,16.652,0.206,235,269.1148987,157.1015472,84.95825195,10.27515602,29.73835564,51,0,-20
1.2,60,60,60,moving_belt,blue,FALSE,TRUE,joint 1 -,FALSE,22:57.3,16.424,0.158,235,292.822052,106.5785141,84.95825195,0,20,51,0,-20
1.2,60,60,60,moving_belt,blue,FALSE,TRUE,joint 1 -,FALSE,22:58.0,16.633,0.158,235,292.822052,106.5785141,84.95825195,0,20,51,0,-20
1.2,60,60,60,moving_belt,blue,FALSE,TRUE,joint 1 -,FALSE,22:59.5,16.519,0.158,235,292.822052,106.5785141,84.95825195,0,20,51,0,-20
1.2,60,60,60,moving_belt,blue,FALSE,TRUE,joint 1 -,FALSE,23:00.3,16.424,0.158,235,292.822052,106.5785141,84.95825195,0,20,51,0,-20
1.2,60,60,60,moving_belt,blue,FALSE,TRUE,joint 1 -,FALSE,23:01.2,16.424,0.158,235,292.822052,106.5785141,84.95825195,0,20,51,0,-20
1.2,60,60,60,go_to_pick_down,blue,TRUE,FALSE,joint 3 +,FALSE,23:02.6,16.196,0.158,235,291.280426,106.0174103,63.05773163,0,20,51,9.072001457,-20
1.2,60,60,60,go_to_pick_down,blue,TRUE,FALSE,joint 3 +,FALSE,23:03.3,16.519,0.157,235,275.5155945,100.27948,13.71604156,0,20,51,28.99978447,-20
1.2,60,60,60,go_to_pick_up_from_pick_down,blue,TRUE,FALSE,joint 3 -,TRUE,23:04.0,17.051,0.157,235,287.4730835,104.6316452,44.4474411,0,20,51,15.37760448,-20
1.2,60,60,60,go_to_color_detect_up_from_pick_up,blue,TRUE,FALSE,joint 1 +,TRUE,23:05.4,22.994,0.21,235,292.5532532,107.3141022,84.95825195,0.1439991,20.2159996,51,0,-20
1.2,60,60,60,go_to_color_detect_up_from_pick_up,blue,TRUE,FALSE,joint 1 +,TRUE,23:06.1,22.481,0.21,235,239.4084625,199.4676056,84.95825195,19.79999924,40.52000046,51,0,-20
1.2,60,60,60,go_to_color_detect_up_from_pick_up,blue,TRUE,FALSE,joint 1 +,TRUE,23:07.5,22.386,0.207,235,136.7826996,279.9896851,84.95825195,43.96321487,64.1288147,51,0,-20
1.2,60,60,60,go_to_color_detect_down,blue,TRUE,FALSE,joint 3 +,TRUE,23:08.2,22.386,0.207,235,130.5041656,279.8670654,56.32526398,45,65,51,11.80800152,-20
1.2,60,60,60,go_to_color_detect_down,blue,TRUE,FALSE,joint 3 +,TRUE,23:09.6,22.196,0.205,235,113.6670685,243.7598114,-18.5851059,45,65,51,45.41200256,-20
1.2,60,60,60,go_to_color_detect_up_from_color_detect_down,blue,TRUE,FALSE,joint 3 -,FALSE,23:10.3,22.196,0.205,235,101.5658646,217.8086853,-41.04534149,45,65,51,58.98559952,-20
1.2,60,60,60,go_to_color_detect_up_from_color_detect_down,blue,TRUE,FALSE,joint 3 -,FALSE,23:11.0,22.196,0.205,235,118.2021332,253.4852753,-6.511238098,45,65,51,37.75999832,-20
1.2,60,60,60,go_to_color_detect_up_from_color_detect_down,blue,TRUE,FALSE,joint 3 -,FALSE,23:12.4,17.487,0.159,235,131.2733307,281.516571,67.87898254,45,65,51,6.24080658,-20
1.2,60,60,60,detecting_color,blue,FALSE,FALSE,detecting_color,FALSE,23:13.1,17.108,0.159,235,131.6940765,282.4188232,84.95825195,45,65,51,0,-20
1.2,60,60,60,detecting_color,blue,FALSE,FALSE,detecting_color,FALSE,23:14.5,16.462,0.158,235,131.6940765,282.4188232,84.95825195,45,65,51,0,-20
1.2,60,60,60,go_to_color_detect_down,blue,TRUE,FALSE,joint 3 +,FALSE,23:15.2,16.31,0.158,235,129.9464417,278.6710205,50.33649826,45,65,51,14.25600147,-20
1.2,60,60,60,go_to_color_detect_down,blue,TRUE,FALSE,joint 3 +,FALSE,23:16.1,16.31,0.157,235,111.7602997,239.6707153,-22.94187164,45,65,51,47.79920197,-20
1.2,60,60,60,go_to_color_detect_up_from_color_detect_down,blue,TRUE,FALSE,joint 3 -,TRUE,23:17.5,16.5,0.157,235,101.6995926,218.0954742,-40.85466003,45,65,51,58.7840004,-20
1.2,60,60,60,go_to_color_detect_up_from_color_detect_down,blue,TRUE,FALSE,joint 3 -,TRUE,23:18.2,16.5,0.195,235,120.533432,258.4847717,0.89490509,45,65,51,34.15999222,-20
1.2,60,60,60,go_to_color_detect_up_from_color_detect_down,blue,TRUE,FALSE,joint 3 -,TRUE,23:19.1,23.089,0.195,235,131.454483,281.9050293,72.06046295,45,65,51,4.660006523,-20
1.2,60,60,60,go_to_red_up,red,TRUE,FALSE,joint 1 +,TRUE,23:20.5,22.652,0.208,235,108.2123108,292.222229,84.95825195,49.67999268,70.05438995,51,0,-20
1.2,60,60,60,go_to_red_up,red,TRUE,FALSE,joint 1 +,TRUE,23:21.3,22.158,0.208,235,-53.68292618,306.9558105,84.95825195,79.92002106,100.6400223,51,0,-20
1.2,60,60,60,go_to_red_up,red,TRUE,FALSE,joint 1 +,TRUE,23:22.5,22.386,0.208,235,-174.2168121,258.3645325,84.95825195,103.9920349,124.1552353,51,0,-20
1.2,60,60,60,go_to_pick_up_from_red,red,TRUE,FALSE,joint 1 -,FALSE,23:23.2,22.595,0.208,235,-128.3807068,283.9403381,84.95825195,94.3296051,113.7680054,51,0,-20
1.2,60,60,60,go_to_pick_up_from_red,red,TRUE,FALSE,joint 1 -,FALSE,23:24.6,16.595,0.158,235,50.25095367,307.5363159,84.95825195,60.71996307,79.99996185,51,0,-20
1.2,60,60,60,go_to_pick_up_from_red,red,TRUE,FALSE,joint 1 -,FALSE,23:25.2,16.633,0.158,235,215.839325,224.7601318,84.95825195,26.15990448,45.43990326,51,0,-20
1.2,60,60,60,go_to_pick_up_from_red,red,TRUE,FALSE,joint 1 -,FALSE,23:26.6,16.481,0.159,235,292.0968628,108.5502853,84.95825195,0.386289597,20.28788948,51,0,-20
1.2,60,60,60,moving_belt,red,FALSE,TRUE,joint 1 -,FALSE,23:27.4,16.481,0.159,235,292.822052,106.5785141,84.95825195,0,20,51,0,-20
1.2,60,60,60,moving_belt,red,FALSE,TRUE,joint 1 -,FALSE,23:28.1,16.69,0.159,235,292.822052,106.5785141,84.95825195,0,20,51,0,-20
1.2,60,60,60,moving_belt,red,FALSE,TRUE,joint 1 -,FALSE,23:29.4,16.386,0.156,235,292.822052,106.5785141,84.95825195,0,20,51,0,-20
1.2,60,60,60,moving_belt,red,FALSE,TRUE,joint 1 -,FALSE,23:30.1,16.538,0.156,235,292.822052,106.5785141,84.95825195,0,20,51,0,-20
1.2,60,60,60,go_to_pick_down,red,TRUE,FALSE,joint 3 +,FALSE,23:31.6,16.5,0.157,235,292.7199707,106.5413513,79.30703735,0,20,51,2.46239996,-20
1.2,60,60,60,go_to_pick_down,red,TRUE,FALSE,joint 3 +,FALSE,23:32.3,16.5,0.157,235,280.118042,101.9546356,23.37978363,0,20,51,25.10726929,-20
1.2,60,60,60,go_to_pick_up_from_pick_down,red,TRUE,FALSE,joint 3 -,TRUE,23:33.0,16.31,0.157,235,281.3104858,102.388649,26.20851517,0,20,51,23.15360451,-20
1.2,60,60,60,go_to_pick_up_from_pick_down,red,TRUE,FALSE,joint 3 -,TRUE,23:34.5,22.69,0.157,235,292.7770386,106.5621338,81.2067337,0,20,51,1.264338851,-20
1.2,60,60,60,go_to_color_detect_up_from_pick_up,red,TRUE,FALSE,joint 1 +,TRUE,23:35.2,22.69,0.157,235,276.1460266,144.3852692,84.95825195,7.60319519,28.07839584,51,0,-20
1.2,60,60,60,go_to_color_detect_up_from_pick_up,red,TRUE,FALSE,joint 1 +,TRUE,23:36.5,22.424,0.205,235,166.8465576,263.1842651,84.95825195,37.62720871,58.08081055,51,0,-20
1.2,60,60,60,go_to_color_detect_down,red,TRUE,FALSE,joint 3 +,TRUE,23:37.2,22.121,0.205,235,131.6232605,282.2669678,77.94134521,45,65,51,3.024000168,-20
1.2,60,60,60,go_to_color_detect_down,red,TRUE,FALSE,joint 3 +,TRUE,23:38.6,22.007,0.205,235,123.0426865,263.8658752,10.12918091,45,65,51,31.31999016,-20
1.2,60,60,60,go_to_color_detect_down,red,TRUE,FALSE,joint 3 +,TRUE,23:39.3,22.14,0.205,235,102.2915039,219.3648224,-39.99760437,45,65,51,58.35919952,-20
1.2,60,60,60,go_to_color_detect_up_from_color_detect_down,red,TRUE,FALSE,joint 3 -,FALSE,23:40.0,21.874,0.204,235,109.1423264,234.0564728,-28.35952759,45,65,51,49.9280014,-20
1.2,60,60,60,go_to_color_detect_up_from_color_detect_down,red,TRUE,FALSE,joint 3 -,FALSE,23:41.4,16.728,0.204,235,128.7857819,276.1820068,40.5079155,45,65,51,16.89600372,-20
1.2,60,60,60,detecting_color,red,FALSE,FALSE,detecting_color,FALSE,23:42.2,16.728,0.162,235,131.6940765,282.4188232,84.95825195,45,65,51,0,-20
1.2,60,60,60,detecting_color,red,FALSE,FALSE,detecting_color,FALSE,23:42.9,17.127,0.162,235,131.6940765,282.4188232,84.95825195,45,65,51,0,-20
1.2,60,60,60,go_to_color_detect_down,red,TRUE,FALSE,joint 3 +,FALSE,23:44.5,16.386,0.157,235,131.6778259,282.3839722,81.59653473,45,65,51,1.511999846,-20
1.2,60,60,60,go_to_color_detect_down,red,TRUE,FALSE,joint 3 +,FALSE,23:45.4,16.5,0.157,235,125.6141586,269.3804321,21.53422546,45,65,51,26.27999496,-20
1.2,60,60,60,go_to_color_detect_down,red,TRUE,FALSE,joint 3 +,FALSE,23:46.1,16.329,0.157,235,103.5770416,222.1216736,-38.06071472,45,65,51,57.05439758,-20
1.2,60,60,60,go_to_color_detect_up_from_color_detect_down,red,TRUE,FALSE,joint 3 -,TRUE,23:47.5,16.481,0.157,235,106.4729538,228.3319702,-33.29533386,45,65,51,53.1536026,-20
1.2,60,60,60,go_to_color_detect_up_from_color_detect_down,red,TRUE,FALSE,joint 3 -,TRUE,23:48.5,22.994,0.21,235,128.5453339,275.6663208,38.75263214,45,65,51,17.60080338,-20
1.2,60,60,60,go_to_color_detect_up_from_color_detect_down,red,TRUE,FALSE,joint 3 -,TRUE,23:49.2,22.842,0.21,235,131.6940613,282.4187927,84.85150146,45,65,51,0.013606679,-20
1.2,60,60,60,go_to_green_up,green,TRUE,FALSE,joint 1 +,TRUE,23:50.6,22.291,0.205,235,61.473526,305.4909973,84.95825195,58.62239075,79.25598907,51,0,-20
1.2,60,60,60,go_to_green_up,green,TRUE,FALSE,joint 1 +,TRUE,23:51.3,22.234,0.205,235,-77.54605865,301.8117676,84.95825195,84.40960693,104.5328064,51,0,-20
1.2,60,60,60,go_to_pick_up_from_green,green,TRUE,FALSE,joint 1 -,FALSE,23:52.7,17.468,0.182,235,-29.37755775,310.2268372,84.95825195,75.40960693,94.87680817,51,0,-20
1.2,60,60,60,go_to_pick_up_from_green,green,TRUE,FALSE,joint 1 -,FALSE,23:53.4,17.468,0.182,235,145.5254974,275.5468445,84.95825195,42.15996552,61.43996429,51,0,-20
1.2,60,60,60,go_to_pick_up_from_green,green,TRUE,FALSE,joint 1 -,FALSE,23:54.0,16.557,0.182,235,279.3874512,138.0086212,84.95825195,6.287921906,25.86952209,51,0,-20
1.2,60,60,60,moving_belt,green,FALSE,TRUE,joint 1 -,FALSE,23:55.4,16.538,0.158,235,292.822052,106.5785141,84.95825195,0,20,51,0,-20
1.2,60,60,60,moving_belt,green,FALSE,TRUE,joint 1 -,FALSE,23:56.1,16.538,0.158,235,292.822052,106.5785141,84.95825195,0,20,51,0,-20
1.2,60,60,60,moving_belt,green,FALSE,TRUE,joint 1 -,FALSE,23:57.5,16.367,0.157,235,292.822052,106.5785141,84.95825195,0,20,51,0,-20
1.2,60,60,60,moving_belt,green,FALSE,TRUE,joint 1 -,FALSE,23:58.2,16.367,0.157,235,292.822052,106.5785141,84.95825195,0,20,51,0,-20
1.2,60,60,60,moving_belt,green,FALSE,TRUE,joint 1 -,FALSE,23:59.6,16.405,0.157,235,292.822052,106.5785141,84.95825195,0,20,51,0,-20
1.2,60,60,60,go_to_pick_down,green,TRUE,FALSE,joint 3 +,FALSE,24:00.5,16.557,0.157,235,288.5682373,105.0302505,48.75879288,0,20,51,14.90044117,-20
1.2,60,60,60,go_to_pick_up_from_pick_down,green,TRUE,FALSE,joint 3 -,TRUE,24:01.2,16.481,0.157,235,275.502655,100.2747726,13.69123077,0,20,51,28.98559952,-20
1.2,60,60,60,go_to_pick_up_from_pick_down,green,TRUE,FALSE,joint 3 -,TRUE,24:02.6,22.785,0.158,235,291.1410828,105.9666901,62.09515381,0,20,51,8.447170258,-20
1.2,60,60,60,go_to_color_detect_up_from_pick_up,green,TRUE,FALSE,joint 1 +,TRUE,24:03.2,22.69,0.158,235,291.3208923,110.6158676,84.95825195,0.79199791,20.95039749,51,0,-20
1.2,60,60,60,go_to_color_detect_up_from_pick_up,green,TRUE,FALSE,joint 1 +,TRUE,24:04.6,22.196,0.209,235,226.4113617,214.1066132,84.95825195,23.40000534,44.12000656,51,0,-20
1.2,60,60,60,go_to_color_detect_up_from_pick_up,green,TRUE,FALSE,joint 1 +,TRUE,24:05.4,22.367,0.209,235,131.7294769,282.4023132,84.95825195,44.99281311,65.00001526,51,0,-20
1.2,60,60,60,go_to_color_detect_down,green,TRUE,FALSE,joint 3 +,TRUE,24:06.1,22.253,0.207,235,129.9464417,278.6710205,50.33649826,45,65,51,14.25600147,-20
1.2,60,60,60,go_to_color_detect_down,green,TRUE,FALSE,joint 3 +,TRUE,24:07.5,22.045,0.204,235,109.1195908,234.0077057,-28.40396118,45,65,51,50.94800186,-20
1.2,60,60,60,go_to_color_detect_up_from_color_detect_down,green,TRUE,FALSE,joint 3 -,FALSE,24:08.3,22.121,0.204,235,102.2988663,219.3806152,-39.98679352,45,65,51,58.04959869,-20
1.2,60,60,60,go_to_color_detect_up_from_color_detect_down,green,TRUE,FALSE,joint 3 -,FALSE,24:09.0,22.14,0.204,235,120.533432,258.4847717,0.89490509,45,65,51,34.15999222,-20
1.2,60,60,60,go_to_color_detect_up_from_color_detect_down,green,TRUE,FALSE,joint 3 -,FALSE,24:10.4,16.747,0.161,235,131.6240387,282.2686462,77.98027802,45,65,51,2.44800663,-20
1.2,60,60,60,detecting_color,green,FALSE,FALSE,detecting_color,FALSE,24:11.1,17.07,0.161,235,131.6940765,282.4188232,84.95825195,45,65,51,0,-20
1.2,60,60,60,go_to_color_detect_down,green,TRUE,FALSE,joint 3 +,FALSE,24:12.5,16.329,0.157,235,131.6940765,282.4188232,84.95825195,45,65,51,0,-20
1.2,60,60,60,go_to_color_detect_down,green,TRUE,FALSE,joint 3 +,FALSE,24:13.2,16.329,0.157,235,129.6040802,277.9368286,47.14980698,45,65,51,15.56640148,-20
1.2,60,60,60,go_to_color_detect_down,green,TRUE,FALSE,joint 3 +,FALSE,24:14.7,16.538,0.157,235,110.8479462,237.7141724,-24.8999176,45,65,51,48.90639877,-20
1.2,60,60,60,go_to_color_detect_up_from_color_detect_down,green,TRUE,FALSE,joint 3 -,TRUE,24:15.4,16.538,0.157,235,102.7752914,220.4023132,-39.28096771,45,65,51,57.48800278,-20
1.2,60,60,60,go_to_color_detect_up_from_color_detect_down,green,TRUE,FALSE,joint 3 -,TRUE,24:16.1,17.506,0.157,235,121.836235,261.278656,5.499771118,45,65,51,31.99999046,-20
1.2,60,60,60,go_to_color_detect_up_from_color_detect_down,green,TRUE,FALSE,joint 3 -,TRUE,24:17.4,22.614,0.214,235,131.5697479,282.1522217,75.66247559,45,65,51,3.309606552,-20
1.2,60,60,60,go_to_blue_up,blue,TRUE,FALSE,joint 1 +,TRUE,24:18.1,22.804,0.207,235,100.0931931,295.1018066,84.95825195,51.26399231,71.69599152,51,0,-20
1.2,60,60,60,go_to_pick_up_from_blue,blue,TRUE,FALSE,joint 1 -,FALSE,24:19.5,22.31,0.207,235,27.15902901,310.4289246,84.95825195,65,84.98560333,51,0,-20
1.2,60,60,60,go_to_pick_up_from_blue,blue,TRUE,FALSE,joint 1 -,FALSE,24:19.5,22.31,0.207,235,116.4020538,289.0576172,84.95825195,48.06560516,67.36000824,51,0,-20
1.2,60,60,60,go_to_pick_up_from_blue,blue,TRUE,FALSE,joint 1 -,FALSE,24:21.4,18.076,0.162,235,269.1148987,157.1015472,84.95825195,10.27515602,29.73835564,51,0,-20
1.2,60,60,60,moving_belt,blue,FALSE,TRUE,joint 1 -,FALSE,24:22.1,16.386,0.162,235,292.822052,106.5785141,84.95825195,0,20,51,0,-20
1.2,60,60,60,moving_belt,blue,FALSE,TRUE,joint 1 -,FALSE,24:23.5,16.538,0.158,235,292.822052,106.5785141,84.95825195,0,20,51,0,-20
1.2,60,60,60,moving_belt,blue,FALSE,TRUE,joint 1 -,FALSE,24:24.2,16.576,0.158,235,292.822052,106.5785141,84.95825195,0,20,51,0,-20
1.2,60,60,60,moving_belt,blue,FALSE,TRUE,joint 1 -,FALSE,24:25.6,16.671,0.157,235,292.822052,106.5785141,84.95825195,0,20,51,0,-20
1.2,60,60,60,moving_belt,blue,FALSE,TRUE,joint 1 -,FALSE,24:26.3,16.671,0.157,235,292.822052,106.5785141,84.95825195,0,20,51,0,-20
1.2,60,60,60,go_to_pick_down,blue,TRUE,FALSE,joint 3 +,FALSE,24:27.6,16.424,0.158,235,291.4512939,106.0796051,64.30062866,0,20,51,8.568001747,-20
1.2,60,60,60,go_to_pick_down,blue,TRUE,FALSE,joint 3 +,FALSE,24:28.3,16.424,0.158,235,276.0711365,100.4816742,14.79366302,0,20,51,28.62150574,-20
1.2,60,60,60,go_to_pick_up_from_pick_down,blue,TRUE,FALSE,joint 3 -,TRUE,24:29.0,16.481,0.158,235,287.4730835,104.6316452,44.4474411,0,20,51,15.37760448,-20
1.2,60,60,60,go_to_color_detect_up_from_pick_up,blue,TRUE,FALSE,joint 1 +,TRUE,24:30.4,23.07,0.176,235,292.822052,106.5785141,84.95825195,0,20,51,0,-20
1.2,60,60,60,go_to_color_detect_up_from_pick_up,blue,TRUE,FALSE,joint 1 +,TRUE,24:31.1,22.538,0.176,235,241.8960724,196.4434357,84.95825195,19.07999802,39.79999924,51,0,-20
1.2,60,60,60,go_to_color_detect_up_from_pick_up,blue,TRUE,FALSE,joint 1 +,TRUE,24:32.5,22.386,0.205,235,137.6616211,279.5585938,84.95825195,43.78321457,63.96321487,51,0,-20
1.2,60,60,60,go_to_color_detect_down,blue,TRUE,FALSE,joint 3 +,TRUE,24:33.2,22.386,0.205,235,131.1478882,281.2475281,65.50842285,45,65,51,8.078401566,-20
1.2,60,60,60,go_to_color_detect_down,blue,TRUE,FALSE,joint 3 +,TRUE,24:34.6,22.14,0.205,235,114.1585464,244.8137817,-17.39987946,45,65,51,44.77920151,-20
1.2,60,60,60,go_to_color_detect_up_from_color_detect_down,blue,TRUE,FALSE,joint 3 -,FALSE,24:35.2,22.234,0.205,235,101.5658646,217.8086853,-41.04534149,45,65,51,59,-20
1.2,60,60,60,go_to_color_detect_up_from_color_detect_down,blue,TRUE,FALSE,joint 3 -,FALSE,24:36.6,19.481,0.204,235,115.1838837,247.012619,-14.83827972,45,65,51,42.06560516,-20
1.2,60,60,60,go_to_color_detect_up_from_color_detect_down,blue,TRUE,FALSE,joint 3 -,FALSE,24:37.3,17.013,0.204,235,131.2733307,281.516571,67.87898254,45,65,51,6.24080658,-20
1.2,60,60,60,detecting_color,blue,FALSE,FALSE,detecting_color,FALSE,24:38.0,17.013,0.164,235,131.6940765,282.4188232,84.95825195,45,65,51,0,-20
1.2,60,60,60,detecting_color,blue,FALSE,FALSE,detecting_color,FALSE,24:39.4,16.519,0.164,235,131.6940765,282.4188232,84.95825195,45,65,51,0,-20
1.2,60,60,60,go_to_color_detect_down,blue,TRUE,FALSE,joint 3 +,FALSE,24:40.1,16.367,0.157,235,129.9464417,278.6710205,50.33649826,45,65,51,14.25600147,-20
1.2,60,60,60,go_to_color_detect_down,blue,TRUE,FALSE,joint 3 +,FALSE,24:41.5,16.386,0.157,235,111.7602997,239.6707153,-22.94187164,45,65,51,47.79920197,-20
1.2,60,60,60,go_to_color_detect_up_from_color_detect_down,blue,TRUE,FALSE,joint 3 -,TRUE,24:42.2,16.386,0.158,235,102.1660614,219.0958252,-40.18102264,45,65,51,58.20800018,-20
1.2,60,60,60,go_to_color_detect_up_from_color_detect_down,blue,TRUE,FALSE,joint 3 -,TRUE,24:43.6,23.032,0.158,235,120.0829773,257.5187683,-0.613807678,45,65,51,34.87999344,-20
1.2,60,60,60,go_to_color_detect_up_from_color_detect_down,blue,TRUE,FALSE,joint 3 -,TRUE,24:44.3,22.861,0.21,235,131.454483,281.9050293,72.06046295,45,65,51,4.660006523,-20
1.2,60,60,60,go_to_red_up,red,TRUE,FALSE,joint 1 +,TRUE,24:45.7,22.576,0.21,235,108.2123108,292.222229,84.95825195,49.67999268,70.05438995,51,0,-20
1.2,60,60,60,go_to_red_up,red,TRUE,FALSE,joint 1 +,TRUE,24:46.4,22.272,0.207,235,-53.68292618,306.9558105,84.95825195,79.92002106,100.6400223,51,0,-20
1.2,60,60,60,go_to_red_up,red,TRUE,FALSE,joint 1 +,TRUE,24:47.0,22.31,0.207,235,-177.6427917,256.0210266,84.95825195,104.7552414,124.8320389,51,0,-20
1.2,60,60,60,go_to_pick_up_from_red,red,TRUE,FALSE,joint 1 -,FALSE,24:48.5,22.462,0.19,235,-125.5914383,285.1850586,84.95825195,93.76800537,113.192009,51,0,-20
1.2,60,60,60,go_to_pick_up_from_red,red,TRUE,FALSE,joint 1 -,FALSE,24:49.2,16.728,0.19,235,54.11152267,306.8805542,84.95825195,59.99996185,79.27996063,51,0,-20
1.2,60,60,60,go_to_pick_up_from_red,red,TRUE,FALSE,joint 1 -,FALSE,24:50.6,16.519,0.159,235,234.7502899,204.9293365,84.95825195,21.11989594,40.39989471,51,0,-20
1.2,60,60,60,go_to_pick_up_from_red,red,TRUE,FALSE,joint 1 -,FALSE,24:51.2,16.633,0.159,235,292.4409485,107.6198578,84.95825195,0.203889847,20.1342907,51,0,-20
1.2,60,60,60,moving_belt,red,FALSE,TRUE,joint 1 -,FALSE,24:52.6,16.728,0.16,235,292.822052,106.5785141,84.95825195,0,20,51,0,-20
1.2,60,60,60,moving_belt,red,FALSE,TRUE,joint 1 -,FALSE,24:53.3,16.728,0.16,235,292.822052,106.5785141,84.95825195,0,20,51,0,-20
1.2,60,60,60,moving_belt,red,FALSE,TRUE,joint 1 -,FALSE,24:54.7,16.291,0.16,235,292.822052,106.5785141,84.95825195,0,20,51,0,-20
1.2,60,60,60,moving_belt,red,FALSE,TRUE,joint 1 -,FALSE,24:55.4,16.329,0.157,235,292.822052,106.5785141,84.95825195,0,20,51,0,-20
1.2,60,60,60,go_to_pick_down,red,TRUE,FALSE,joint 3 +,FALSE,24:56.1,16.728,0.157,235,292.6296997,106.5085068,77.20337677,0,20,51,3.32640028,-20
1.2,60,60,60,go_to_pick_down,red,TRUE,FALSE,joint 3 +,FALSE,24:57.6,16.272,0.157,235,279.1069336,101.5866241,21.09907532,0,20,51,26.04698944,-20
1.2,60,60,60,go_to_pick_up_from_pick_down,red,TRUE,FALSE,joint 3 -,TRUE,24:58.3,16.272,0.157,235,279.8537903,101.8584518,22.77383423,0,20,51,24.68000412,-20
1.2,60,60,60,go_to_pick_up_from_pick_down,red,TRUE,FALSE,joint 3 -,TRUE,24:59.0,17.962,0.157,235,292.7974854,106.5695801,82.18573761,0,20,51,0.911459625,-20
1.2,60,60,60,go_to_color_detect_up_from_pick_up,red,TRUE,FALSE,joint 1 +,TRUE,25:00.2,22.804,0.211,235,274.9390259,146.670578,84.95825195,8.078395844,28.56799507,51,0,-20
1.2,60,60,60,go_to_color_detect_up_from_pick_up,red,TRUE,FALSE,joint 1 +,TRUE,25:01.6,22.177,0.206,235,155.181366,270.2266846,84.95825195,40.1328125,60.50001144,51,0,-20
1.2,60,60,60,go_to_color_detect_down,red,TRUE,FALSE,joint 3 +,TRUE,25:02.3,22.386,0.206,235,131.6232605,282.2669678,77.94134521,45,65,51,3.024000168,-20
1.2,60,60,60,go_to_color_detect_down,red,TRUE,FALSE,joint 3 +,TRUE,25:03.1,22.026,0.206,235,123.0426865,263.8658752,10.12918091,45,65,51,31.31999016,-20
1.2,60,60,60,go_to_color_detect_down,red,TRUE,FALSE,joint 3 +,TRUE,25:04.5,21.988,0.204,235,102.2915039,219.3648224,-39.99760437,45,65,51,58.35919952,-20
1.2,60,60,60,go_to_color_detect_up_from_color_detect_down,red,TRUE,FALSE,joint 3 -,FALSE,25:05.2,22.196,0.204,235,109.1423264,234.0564728,-28.35952759,45,65,51,49.9280014,-20
1.2,60,60,60,go_to_color_detect_up_from_color_detect_down,red,TRUE,FALSE,joint 3 -,FALSE,25:06.5,16.747,0.186,235,128.7857819,276.1820068,40.5079155,45,65,51,16.89600372,-20
1.2,60,60,60,detecting_color,red,FALSE,FALSE,detecting_color,FALSE,25:07.3,17.051,0.186,235,131.6940765,282.4188232,84.95825195,45,65,51,0,-20
1.2,60,60,60,detecting_color,red,FALSE,FALSE,detecting_color,FALSE,25:08.6,16.443,0.161,235,131.6940765,282.4188232,84.95825195,45,65,51,0,-20
1.2,60,60,60,go_to_color_detect_down,red,TRUE,FALSE,joint 3 +,FALSE,25:09.3,16.443,0.161,235,131.6940002,282.4187012,84.7365799,45,65,51,0.143999994,-20
1.2,60,60,60,go_to_color_detect_down,red,TRUE,FALSE,joint 3 +,FALSE,25:10.7,16.348,0.157,235,128.2811279,275.099762,36.9057045,45,65,51,19.80000114,-20
1.2,60,60,60,go_to_color_detect_down,red,TRUE,FALSE,joint 3 +,FALSE,25:11.4,16.348,0.157,235,106.1147461,227.5637817,-33.91655731,45,65,51,54.34000015,-20
1.2,60,60,60,go_to_color_detect_up_from_color_detect_down,red,TRUE,FALSE,joint 3 -,TRUE,25:12.1,16.424,0.158,235,103.8241959,222.6517029,-37.67618561,45,65,51,56.26399994,-20
1.2,60,60,60,go_to_color_detect_up_from_color_detect_down,red,TRUE,FALSE,joint 3 -,TRUE,25:13.5,23.013,0.158,235,123.4574509,264.7553406,11.8140564,45,65,51,29.11999321,-20
1.2,60,60,60,go_to_color_detect_up_from_color_detect_down,red,TRUE,FALSE,joint 3 -,TRUE,25:14.2,22.671,0.21,235,131.6823425,282.3936768,82.10132599,45,65,51,0.941606522,-20
1.2,60,60,60,go_to_green_up,green,TRUE,FALSE,joint 1 +,TRUE,25:15.6,22.538,0.21,235,93.16892242,297.3605347,84.95825195,52.60319519,73.07839203,51,0,-20
1.2,60,60,60,go_to_green_up,green,TRUE,FALSE,joint 1 +,TRUE,25:16.3,22.102,0.206,235,-66.83824158,304.3622742,84.95825195,82.38560486,102.6528015,51,0,-20
1.2,60,60,60,go_to_pick_up_from_green,green,TRUE,FALSE,joint 1 -,FALSE,25:17.7,21.247,0.206,235,-55.82446671,306.5736084,84.95825195,80.32000732,99.94561005,51,0,-20
1.2,60,60,60,go_to_pick_up_from_green,green,TRUE,FALSE,joint 1 -,FALSE,25:18.4,21.247,0.158,235,106.1696472,292.9705505,84.95825195,50.07997894,69.35997772,51,0,-20
1.2,60,60,60,go_to_pick_up_from_green,green,TRUE,FALSE,joint 1 -,FALSE,25:19.0,16.576,0.158,235,263.0119019,167.1180878,84.95825195,12.43192291,31.84072304,51,0,-20
1.2,60,60,60,moving_belt,green,FALSE,TRUE,joint 1 -,FALSE,25:20.5,16.557,0.158,235,292.822052,106.5785141,84.95825195,0,20,51,0,-20
1.2,60,60,60,moving_belt,green,FALSE,TRUE,joint 1 -,FALSE,25:21.3,16.633,0.158,235,292.822052,106.5785141,84.95825195,0,20,51,0,-20
1.2,60,60,60,moving_belt,green,FALSE,TRUE,joint 1 -,FALSE,25:22.0,16.633,0.158,235,292.822052,106.5785141,84.95825195,0,20,51,0,-20
1.2,60,60,60,moving_belt,green,FALSE,TRUE,joint 1 -,FALSE,25:23.5,16.5,0.159,235,292.822052,106.5785141,84.95825195,0,20,51,0,-20
1.2,60,60,60,moving_belt,green,FALSE,TRUE,joint 1 -,FALSE,25:24.3,16.386,0.159,235,292.822052,106.5785141,84.95825195,0,20,51,0,-20
1.2,60,60,60,go_to_pick_down,green,TRUE,FALSE,joint 3 +,FALSE,25:25.1,16.386,0.157,235,291.4512939,106.0796051,64.30062866,0,20,51,8.568001747,-20
1.2,60,60,60,go_to_pick_down,green,TRUE,FALSE,joint 3 +,FALSE,25:26.0,16.386,0.157,235,276.0711365,100.4816742,14.79366302,0,20,51,28.62150574,-20
1.2,60,60,60,go_to_pick_up_from_pick_down,green,TRUE,FALSE,joint 3 -,TRUE,25:27.6,17.886,0.167,235,287.4730835,104.6316452,44.4474411,0,20,51,15.37760448,-20
1.2,60,60,60,go_to_color_detect_up_from_pick_up,green,TRUE,FALSE,joint 1 +,TRUE,25:28.3,22.785,0.167,235,292.822052,106.5785141,84.95825195,0,20,51,0,-20
1.2,60,60,60,go_to_color_detect_up_from_pick_up,green,TRUE,FALSE,joint 1 +,TRUE,25:29.7,22.272,0.206,235,253.4804993,181.2494354,84.95825195,15.56639481,36.24319458,51,0,-20
1.2,60,60,60,go_to_color_detect_up_from_pick_up,green,TRUE,FALSE,joint 1 +,TRUE,25:30.4,22.272,0.206,235,136.7826996,279.9896851,84.95825195,43.96321487,64.1288147,51,0,-20
1.2,60,60,60,go_to_color_detect_down,green,TRUE,FALSE,joint 3 +,TRUE,25:31.1,22.234,0.206,235,131.0775909,281.0968018,64.30062866,45,65,51,8.568001747,-20
1.2,60,60,60,go_to_color_detect_down,green,TRUE,FALSE,joint 3 +,TRUE,25:32.4,22.045,0.205,235,113.6670685,243.7598114,-18.5851059,45,65,51,45.41200256,-20
1.2,60,60,60,go_to_color_detect_up_from_color_detect_down,green,TRUE,FALSE,joint 3 -,FALSE,25:33.1,21.912,0.205,235,101.5658646,217.8086853,-41.04534149,45,65,51,58.98559952,-20
1.2,60,60,60,go_to_color_detect_up_from_color_detect_down,green,TRUE,FALSE,joint 3 -,FALSE,25:34.5,22.158,0.205,235,115.6893539,248.0966034,-13.52897644,45,65,51,41.36000443,-20
1.2,60,60,60,go_to_color_detect_up_from_color_detect_down,green,TRUE,FALSE,joint 3 -,FALSE,25:35.2,16.785,0.205,235,131.3259125,281.629303,68.97827148,45,65,51,5.824006557,-20
1.2,60,60,60,detecting_color,green,FALSE,FALSE,detecting_color,FALSE,25:36.6,17.203,0.164,235,131.6940765,282.4188232,84.95825195,45,65,51,0,-20
1.2,60,60,60,detecting_color,green,FALSE,FALSE,detecting_color,FALSE,25:37.3,16.557,0.164,235,131.6940765,282.4188232,84.95825195,45,65,51,0,-20
1.2,60,60,60,go_to_color_detect_down,green,TRUE,FALSE,joint 3 +,FALSE,25:38.7,16.462,0.158,235,130.1010437,279.0025635,51.88244247,45,65,51,13.62240124,-20
1.2,60,60,60,go_to_color_detect_down,green,TRUE,FALSE,joint 3 +,FALSE,25:39.4,16.462,0.158,235,112.2273102,240.672226,-21.90885162,45,65,51,47.22400284,-20
1.2,60,60,60,go_to_color_detect_up_from_color_detect_down,green,TRUE,FALSE,joint 3 -,TRUE,25:40.1,16.576,0.158,235,102.0463486,218.8390961,-40.35517883,45,65,51,58.35200119,-20
1.2,60,60,60,go_to_color_detect_up_from_color_detect_down,green,TRUE,FALSE,joint 3 -,TRUE,25:41.5,16.557,0.158,235,119.6245499,256.5356445,-2.109031677,45,65,51,35.59999466,-20
1.2,60,60,60,go_to_color_detect_up_from_color_detect_down,green,TRUE,FALSE,joint 3 -,TRUE,25:42.2,22.804,0.21,235,131.5904541,282.1966248,76.47173309,45,65,51,3.008006573,-20
1.2,60,60,60,go_to_blue_up,blue,TRUE,FALSE,joint 1 +,TRUE,25:43.5,22.481,0.21,235,111.8027039,290.8674927,84.95825195,48.97439575,69.31999207,51,0,-20
1.2,60,60,60,go_to_pick_up_from_blue,blue,TRUE,FALSE,joint 1 -,FALSE,25:44.3,22.272,0.207,235,27.52400208,310.3967896,84.95825195,64.93262482,84.9691391,51,0,-20
1.2,60,60,60,go_to_pick_up_from_blue,blue,TRUE,FALSE,joint 1 -,FALSE,25:45.7,20.905,0.207,235,109.4679031,291.7542114,84.95825195,49.43360901,68.75680542,51,0,-20
1.2,60,60,60,go_to_pick_up_from_blue,blue,TRUE,FALSE,joint 1 -,FALSE,25:46.4,16.538,0.207,235,254.9851532,179.1265106,84.95825195,15.08795547,34.43595505,51,0,-20
1.2,60,60,60,moving_belt,blue,FALSE,TRUE,joint 1 -,FALSE,25:47.1,16.538,0.159,235,292.822052,106.5785141,84.95825195,0,20,51,0,-20
1.2,60,60,60,moving_belt,blue,FALSE,TRUE,joint 1 -,FALSE,25:48.5,16.652,0.159,235,292.822052,106.5785141,84.95825195,0,20,51,0,-20
1.2,60,60,60,moving_belt,blue,FALSE,TRUE,joint 1 -,FALSE,25:49.2,16.614,0.159,235,292.822052,106.5785141,84.95825195,0,20,51,0,-20
1.2,60,60,60,moving_belt,blue,FALSE,TRUE,joint 1 -,FALSE,25:50.7,16.348,0.159,235,292.822052,106.5785141,84.95825195,0,20,51,0,-20
1.2,60,60,60,moving_belt,blue,FALSE,TRUE,joint 1 -,FALSE,25:51.5,16.462,0.157,235,292.822052,106.5785141,84.95825195,0,20,51,0,-20
1.2,60,60,60,go_to_pick_down,blue,TRUE,FALSE,joint 3 +,FALSE,25:52.3,16.462,0.157,235,291.607605,106.1364899,65.50842285,0,20,51,8.078401566,-20
1.2,60,60,60,go_to_pick_down,blue,TRUE,FALSE,joint 3 +,FALSE,25:53.0,16.424,0.16,235,276.3764648,100.592804,15.39520264,0,20,51,28.38382721,-20
1.2,60,60,60,go_to_pick_up_from_pick_down,blue,TRUE,FALSE,joint 3 -,TRUE,25:53.8,16.576,0.16,235,283.7148132,103.2637558,32.46598434,0,20,51,20.43200493,-20
1.2,60,60,60,go_to_pick_up_from_pick_down,blue,TRUE,FALSE,joint 3 -,TRUE,25:55.7,22.785,0.211,235,292.8220215,106.5784988,84.8651123,0,20,51,0.011063838,-20
1.2,60,60,60,go_to_color_detect_up_from_pick_up,blue,TRUE,FALSE,joint 1 +,TRUE,25:56.6,22.785,0.211,235,259.4830627,172.546402,84.95825195,13.62239838,34.2559967,51,0,-20
1.2,60,60,60,go_to_color_detect_up_from_pick_up,blue,TRUE,FALSE,joint 1 +,TRUE,25:57.5,22.31,0.208,235,147.1348114,274.6908569,84.95825195,41.82481384,62.12001419,51,0,-20
1.2,60,60,60,go_to_color_detect_down,blue,TRUE,FALSE,joint 3 +,TRUE,25:58.1,22.557,0.208,235,131.2703094,281.5100708,67.81784058,45,65,51,7.142401218,-20
1.2,60,60,60,go_to_color_detect_down,blue,TRUE,FALSE,joint 3 +,TRUE,25:59.6,22.291,0.206,235,118.1751251,253.4273529,-6.591560364,45,65,51,39.24000168,-20
1.2,60,60,60,go_to_color_detect_down,blue,TRUE,FALSE,joint 3 +,TRUE,26:00.2,22.177,0.206,235,101.7626801,218.2307587,-40.76433563,45,65,51,58.85919952,-20
1.2,60,60,60,go_to_color_detect_up_from_color_detect_down,blue,TRUE,FALSE,joint 3 -,FALSE,26:01.0,22.196,0.206,235,114.6825104,245.9374237,-16.10624695,45,65,51,42.75680542,-20
1.2,60,60,60,go_to_color_detect_up_from_color_detect_down,blue,TRUE,FALSE,joint 3 -,FALSE,26:02.6,16.956,0.178,235,130.625946,280.1282349,57.81652069,45,65,51,10.093606,-20
1.2,60,60,60,detecting_color,blue,FALSE,FALSE,detecting_color,FALSE,26:03.3,16.956,0.178,235,131.6940765,282.4188232,84.95825195,45,65,51,0,-20
1.2,60,60,60,detecting_color,blue,FALSE,FALSE,detecting_color,FALSE,26:04.6,16.5,0.162,235,131.6940765,282.4188232,84.95825195,45,65,51,0,-20
1.2,60,60,60,go_to_color_detect_down,blue,TRUE,FALSE,joint 3 +,FALSE,26:05.3,16.5,0.162,235,129.9464417,278.6710205,50.33649826,45,65,51,14.25600147,-20
1.2,60,60,60,go_to_color_detect_down,blue,TRUE,FALSE,joint 3 +,FALSE,26:06.1,16.481,0.159,235,111.7602997,239.6707153,-22.94187164,45,65,51,47.79920197,-20
1.2,60,60,60,go_to_color_detect_up_from_color_detect_down,blue,TRUE,FALSE,joint 3 -,TRUE,26:07.0,16.481,0.159,235,101.6995926,218.0954742,-40.85466003,45,65,51,58.7840004,-20
1.2,60,60,60,go_to_color_detect_up_from_color_detect_down,blue,TRUE,FALSE,joint 3 -,TRUE,26:08.7,20.165,0.173,235,120.533432,258.4847717,0.89490509,45,65,51,34.15999222,-20
1.2,60,60,60,go_to_color_detect_up_from_color_detect_down,blue,TRUE,FALSE,joint 3 -,TRUE,26:09.4,22.804,0.173,233.1,131.5191345,282.0436707,73.93431091,45,65,51,3.956006527,-20
1.2,60,60,60,go_to_red_up,red,TRUE,FALSE,joint 1 +,TRUE,26:10.3,22.595,0.211,233.1,115.0851212,289.5844421,84.95825195,48.32639313,68.64319611,51,0,-20
1.2,60,60,60,go_to_red_up,red,TRUE,FALSE,joint 1 +,TRUE,26:11.1,22.253,0.211,235,-38.19227982,309.2653809,84.95825195,77.04001617,97.7600174,51,0,-20
1.2,60,60,60,go_to_red_up,red,TRUE,FALSE,joint 1 +,TRUE,26:12.5,22.557,0.209,235,-175.6211853,257.4119568,84.95825195,104.304039,124.4384384,51,0,-20
1.2,60,60,60,go_to_pick_up_from_red,red,TRUE,FALSE,joint 1 -,FALSE,26:13.2,22.728,0.209,235,-133.7097015,281.4701538,84.95825195,95.40960693,114.8768082,51,0,-20
1.2,60,60,60,go_to_pick_up_from_red,red,TRUE,FALSE,joint 1 -,FALSE,26:14.6,19.557,0.159,235,42.50665665,308.7019958,84.95825195,62.15996552,81.43996429,51,0,-20
1.2,60,60,60,go_to_pick_up_from_red,red,TRUE,FALSE,joint 1 -,FALSE,26:15.3,16.481,0.159,235,226.8596497,213.6315155,84.95825195,23.2798996,42.55989838,51,0,-20
1.2,60,60,60,go_to_pick_up_from_red,red,TRUE,FALSE,joint 1 -,FALSE,26:16.8,16.69,0.165,235,291.6395874,109.7728729,84.95825195,0.626289368,20.49909019,51,0,-20
1.2,60,60,60,moving_belt,red,FALSE,TRUE,joint 1 -,FALSE,26:17.4,16.785,0.165,235,292.822052,106.5785141,84.95825195,0,20,51,0,-20
1.2,60,60,60,moving_belt,red,FALSE,TRUE,joint 1 -,FALSE,26:18.1,16.785,0.165,235,292.822052,106.5785141,84.95825195,0,20,51,0,-20
1.2,60,60,60,moving_belt,red,FALSE,TRUE,joint 1 -,FALSE,26:19.5,16.462,0.163,235,292.822052,106.5785141,84.95825195,0,20,51,0,-20
1.2,60,60,60,moving_belt,red,FALSE,TRUE,joint 1 -,FALSE,26:20.2,16.424,0.163,235,292.822052,106.5785141,84.95825195,0,20,51,0,-20
1.2,60,60,60,go_to_pick_down,red,TRUE,FALSE,joint 3 +,FALSE,26:21.7,16.462,0.157,235,292.6944885,106.5320892,78.64257813,0,20,51,2.736000061,-20
1.2,60,60,60,go_to_pick_down,red,TRUE,FALSE,joint 3 +,FALSE,26:22.3,16.614,0.157,235,279.4331665,101.7053604,21.82388687,0,20,51,25.74814987,-20
1.2,60,60,60,go_to_pick_up_from_pick_down,red,TRUE,FALSE,joint 3 -,TRUE,26:23.0,16.614,0.158,235,279.5139465,101.7347565,22.00491333,0,20,51,25.02560425,-20
1.2,60,60,60,go_to_pick_up_from_pick_down,red,TRUE,FALSE,joint 3 -,TRUE,26:24.6,22.975,0.158,235,292.7884216,106.5662689,81.71468353,0,20,51,2.398536682,-20
1.2,60,60,60,go_to_color_detect_up_from_pick_up,red,TRUE,FALSE,joint 1 +,TRUE,26:25.3,22.443,0.208,235,276.1460266,144.3852692,84.95825195,7.60319519,28.07839584,51,0,-20
1.2,60,60,60,go_to_color_detect_up_from_pick_up,red,TRUE,FALSE,joint 1 +,TRUE,26:26.7,22.348,0.208,235,166.8465576,263.1842651,84.95825195,37.62720871,58.08081055,51,0,-20
1.2,60,60,60,go_to_color_detect_down,red,TRUE,FALSE,joint 3 +,TRUE,26:27.5,22.424,0.207,235,131.6232605,282.2669678,77.94134521,45,65,51,3.024000168,-20
1.2,60,60,60,go_to_color_detect_down,red,TRUE,FALSE,joint 3 +,TRUE,26:28.2,22.121,0.207,235,123.4358597,264.7090454,11.72505951,45,65,51,30.59999084,-20
1.2,60,60,60,go_to_color_detect_down,red,TRUE,FALSE,joint 3 +,TRUE,26:29.4,22.083,0.207,235,103.5770416,222.1216736,-38.06071472,45,65,51,57.05439758,-20
1.2,60,60,60,go_to_color_detect_up_from_color_detect_down,red,TRUE,FALSE,joint 3 -,FALSE,26:30.8,19.424,0.206,235,109.1423264,234.0564728,-28.35952759,45,65,51,49.9280014,-20
1.2,60,60,60,go_to_color_detect_up_from_color_detect_down,red,TRUE,FALSE,joint 3 -,FALSE,26:31.5,19.424,0.206,235,128.7857819,276.1820068,40.5079155,45,65,51,16.89600372,-20
1.2,60,60,60,detecting_color,red,FALSE,FALSE,detecting_color,FALSE,26:32.1,16.994,0.161,235,131.6940765,282.4188232,84.92333984,45,65,51,6.67E-06,-20
1.2,60,60,60,detecting_color,red,FALSE,FALSE,detecting_color,FALSE,26:33.7,16.728,0.158,235,131.6940765,282.4188232,84.95825195,45,65,51,0,-20
1.2,60,60,60,go_to_color_detect_down,red,TRUE,FALSE,joint 3 +,FALSE,26:34.4,16.576,0.158,235,131.6075745,282.2333374,77.20337677,45,65,51,3.32640028,-20
1.2,60,60,60,go_to_color_detect_down,red,TRUE,FALSE,joint 3 +,FALSE,26:35.8,16.443,0.158,235,122.2310867,262.1253967,6.973129272,45,65,51,32.75999069,-20
1.2,60,60,60,go_to_color_detect_down,red,TRUE,FALSE,joint 3 +,FALSE,26:36.5,16.443,0.158,235,102.0404282,218.8264008,-40.3637619,45,65,51,58.60239792,-20
1.2,60,60,60,go_to_color_detect_up_from_color_detect_down,red,TRUE,FALSE,joint 3 -,TRUE,26:37.2,16.633,0.158,235,109.9905548,235.8755035,-26.67067719,45,65,51,48.87680435,-20
1.2,60,60,60,go_to_color_detect_up_from_color_detect_down,red,TRUE,FALSE,joint 3 -,TRUE,26:38.6,22.557,0.212,235,129.2256317,277.1252441,43.93274689,45,65,51,15.52960491,-20
1.2,60,60,60,go_to_green_up,green,TRUE,FALSE,joint 1 +,TRUE,26:39.3,22.557,0.212,235,130.9838867,282.7489319,84.95825195,45.14399719,65.21599579,51,0,-20
1.2,60,60,60,go_to_green_up,green,TRUE,FALSE,joint 1 +,TRUE,26:40.7,22.158,0.206,235,28.24247169,310.3322449,84.95825195,64.79999542,85.51999664,51,0,-20
1.2,60,60,60,go_to_green_up,green,TRUE,FALSE,joint 1 +,TRUE,26:41.4,22.576,0.206,235,-79.68482208,301.2541504,84.95825195,84.81600952,104.8816071,51,0,-20
1.2,60,60,60,go_to_pick_up_from_green,green,TRUE,FALSE,joint 1 -,FALSE,26:42.8,21.817,0.204,235,-0.522193968,311.6142578,84.95825195,70.0960083,89.43360901,51,0,-20
1.2,60,60,60,go_to_pick_up_from_green,green,TRUE,FALSE,joint 1 -,FALSE,26:43.5,16.595,0.204,235,175.6930389,257.3629456,84.95825195,35.67995453,54.95995331,51,0,-20
1.2,60,60,60,go_to_pick_up_from_green,green,TRUE,FALSE,joint 1 -,FALSE,26:44.4,16.595,0.204,235,282.2440796,132.0681763,84.95825195,5.075922012,24.70072174,51,0,-20
1.2,60,60,60,moving_belt,green,FALSE,TRUE,joint 1 -,FALSE,26:45.8,16.652,0.159,235,292.822052,106.5785141,84.95825195,0,20,51,0,-20
1.2,60,60,60,moving_belt,green,FALSE,TRUE,joint 1 -,FALSE,26:46.5,16.462,0.159,235,292.822052,106.5785141,84.95825195,0,20,51,0,-20
1.2,60,60,60,moving_belt,green,FALSE,TRUE,joint 1 -,FALSE,26:47.2,16.481,0.16,235,292.822052,106.5785141,84.95825195,0,20,51,0,-20
1.2,60,60,60,moving_belt,green,FALSE,TRUE,joint 1 -,FALSE,26:48.5,16.272,0.16,235,292.822052,106.5785141,84.95825195,0,20,51,0,-20
1.2,60,60,60,go_to_pick_down,green,TRUE,FALSE,joint 3 +,FALSE,26:49.2,16.272,0.158,235,292.822052,106.5785141,84.95825195,0,20,51,0,-20
1.2,60,60,60,go_to_pick_down,green,TRUE,FALSE,joint 3 +,FALSE,26:50.6,16.5,0.158,235,287.7785034,104.7428131,45.59885788,0,20,51,16.14612007,-20
1.2,60,60,60,go_to_pick_up_from_pick_down,green,TRUE,FALSE,joint 3 -,TRUE,26:51.3,16.405,0.158,235,275.8544312,100.4028091,14.3707962,0,20,51,28.59680176,-20
1.2,60,60,60,go_to_pick_up_from_pick_down,green,TRUE,FALSE,joint 3 -,TRUE,26:52.7,16.937,0.158,235,291.1410828,105.9666901,62.09515381,0,20,51,8.447170258,-20
1.2,60,60,60,go_to_color_detect_up_from_pick_up,green,TRUE,FALSE,joint 1 +,TRUE,26:53.4,22.861,0.21,235,291.3208923,110.6158676,84.95825195,0.79199791,20.95039749,51,0,-20
1.2,60,60,60,go_to_color_detect_up_from_pick_up,green,TRUE,FALSE,joint 1 +,TRUE,26:54.8,22.272,0.21,235,206.8435822,233.0653839,84.95825195,28.41120911,49.09520721,51,0,-20
1.2,60,60,60,go_to_color_detect_down,green,TRUE,FALSE,joint 3 +,TRUE,26:54.8,22.272,0.21,235,131.6940002,282.4188843,84.95825195,45.00001526,65,51,0,-20
1.2,60,60,60,go_to_color_detect_down,green,TRUE,FALSE,joint 3 +,TRUE,26:56.6,22.14,0.207,235,128.2811279,275.099762,36.9057045,45,65,51,19.80000114,-20
1.2,60,60,60,go_to_color_detect_down,green,TRUE,FALSE,joint 3 +,TRUE,26:57.3,21.874,0.204,235,108.3086472,232.268631,-29.96110535,45,65,51,51.88240051,-20
1.2,60,60,60,go_to_color_detect_up_from_color_detect_down,green,TRUE,FALSE,joint 3 -,FALSE,26:58.5,21.874,0.204,235,102.4447327,219.6934357,-39.77220154,45,65,51,57.87680054,-20
1.2,60,60,60,go_to_color_detect_up_from_color_detect_down,green,TRUE,FALSE,joint 3 -,FALSE,26:59.2,22.064,0.204,235,123.4574509,264.7553406,11.8140564,45,65,51,29.11999321,-20
1.2,60,60,60,go_to_color_detect_up_from_color_detect_down,green,TRUE,FALSE,joint 3 -,FALSE,27:00.6,17.108,0.16,235,131.6373749,282.2972412,78.67947388,45,65,51,2.189606667,-20
1.2,60,60,60,detecting_color,green,FALSE,FALSE,detecting_color,FALSE,27:01.3,17.108,0.16,235,131.6940765,282.4188232,84.95825195,45,65,51,0,-20
1.2,60,60,60,go_to_color_detect_down,green,TRUE,FALSE,joint 3 +,FALSE,27:02.7,16.519,0.159,235,131.6940613,282.4187927,84.84741974,45,65,51,0.086399995,-20
1.2,60,60,60,go_to_color_detect_down,green,TRUE,FALSE,joint 3 +,FALSE,27:03.4,16.348,0.159,235,128.5316772,275.6370544,38.65522766,45,65,51,19.08000183,-20
1.2,60,60,60,go_to_color_detect_down,green,TRUE,FALSE,joint 3 +,FALSE,27:04.8,16.386,0.157,235,106.4541092,228.2915649,-33.3282547,45,65,51,53.96640015,-20
1.2,60,60,60,go_to_color_detect_up_from_color_detect_down,green,TRUE,FALSE,joint 3 -,TRUE,27:05.5,16.519,0.157,235,103.8241959,222.6517029,-37.67618561,45,65,51,56.26399994,-20
1.2,60,60,60,go_to_color_detect_up_from_color_detect_down,green,TRUE,FALSE,joint 3 -,TRUE,27:06.2,16.519,0.194,235,123.4574509,264.7553406,11.8140564,45,65,51,29.11999321,-20
1.2,60,60,60,go_to_color_detect_up_from_color_detect_down,green,TRUE,FALSE,joint 3 -,TRUE,27:07.7,22.785,0.194,235,131.6823425,282.3936768,82.10132599,45,65,51,0.941606522,-20
1.2,60,60,60,go_to_blue_up,blue,TRUE,FALSE,joint 1 +,TRUE,27:08.4,22.443,0.208,235,90.6995163,298.1230164,84.95825195,53.07839203,73.56799316,51,0,-20
1.2,60,60,60,go_to_pick_up_from_blue,blue,TRUE,FALSE,joint 1 -,FALSE,27:09.1,22.158,0.208,235,29.96648788,310.1705017,84.95825195,64.48160553,84.352005,51,0,-20
1.2,60,60,60,go_to_pick_up_from_blue,blue,TRUE,FALSE,joint 1 -,FALSE,27:10.7,21.779,0.192,235,144.7553253,275.9522095,84.95825195,42.31999969,61.59999847,51,0,-20
1.2,60,60,60,go_to_pick_up_from_blue,blue,TRUE,FALSE,joint 1 -,FALSE,27:11.4,16.443,0.192,235,271.9730225,152.0999908,84.95825195,9.215955734,28.70795631,51,0,-20
1.2,60,60,60,moving_belt,blue,FALSE,TRUE,joint 1 -,FALSE,27:12.8,16.443,0.159,235,292.822052,106.5785141,84.95825195,0,20,51,0,-20
1.2,60,60,60,moving_belt,blue,FALSE,TRUE,joint 1 -,FALSE,27:13.5,16.443,0.159,235,292.822052,106.5785141,84.95825195,0,20,51,0,-20
1.2,60,60,60,moving_belt,blue,FALSE,TRUE,joint 1 -,FALSE,27:14.8,16.614,0.157,235,292.822052,106.5785141,84.95825195,0,20,51,0,-20
1.2,60,60,60,moving_belt,blue,FALSE,TRUE,joint 1 -,FALSE,27:15.5,16.291,0.157,235,292.822052,106.5785141,84.95825195,0,20,51,0,-20
1.2,60,60,60,moving_belt,blue,FALSE,TRUE,joint 1 -,FALSE,27:16.2,16.386,0.157,235,292.822052,106.5785141,84.95825195,0,20,51,0,-20
1.2,60,60,60,go_to_pick_down,blue,TRUE,FALSE,joint 3 +,FALSE,27:17.7,16.481,0.156,235,288.9361877,105.1641693,50.33649826,0,20,51,14.25600147,-20
1.2,60,60,60,go_to_pick_up_from_pick_down,blue,TRUE,FALSE,joint 3 -,TRUE,27:18.4,16.481,0.156,235,275.502655,100.2747726,13.69123077,0,20,51,29,-20
1.2,60,60,60,go_to_pick_up_from_pick_down,blue,TRUE,FALSE,joint 3 -,TRUE,27:19.8,22.937,0.158,235,289.022522,105.1956024,50.71781158,0,20,51,12.85388565,-20
1.2,60,60,60,go_to_color_detect_up_from_pick_up,blue,TRUE,FALSE,joint 1 +,TRUE,27:20.5,22.804,0.158,235,291.8457642,109.2234955,84.95825195,0.518398285,20.64799881,51,0,-20
1.2,60,60,60,go_to_color_detect_up_from_pick_up,blue,TRUE,FALSE,joint 1 +,TRUE,27:21.2,22.804,0.207,235,229.0839386,211.2445984,84.95825195,22.68000412,43.40000534,51,0,-20
1.2,60,60,60,go_to_color_detect_up_from_pick_up,blue,TRUE,FALSE,joint 1 +,TRUE,27:22.5,22.272,0.207,235,133.9610596,281.3506165,84.95825195,44.53921509,64.6472168,51,0,-20
1.2,60,60,60,go_to_color_detect_down,blue,TRUE,FALSE,joint 3 +,TRUE,27:23.3,22.102,0.206,235,130.1010437,279.0025635,51.88244247,45,65,51,13.62240124,-20
1.2,60,60,60,go_to_color_detect_down,blue,TRUE,FALSE,joint 3 +,TRUE,27:24.8,22.102,0.206,235,112.2273102,240.672226,-21.90885162,45,65,51,47.22400284,-20
1.2,60,60,60,go_to_color_detect_up_from_color_detect_down,blue,TRUE,FALSE,joint 3 -,FALSE,27:25.5,22.064,0.206,235,101.6461334,217.9808197,-40.93102264,45,65,51,58.85599899,-20
1.2,60,60,60,go_to_color_detect_up_from_color_detect_down,blue,TRUE,FALSE,joint 3 -,FALSE,27:26.8,21.931,0.206,235,119.6245499,256.5356445,-2.109031677,45,65,51,35.59999466,-20
1.2,60,60,60,go_to_color_detect_up_from_color_detect_down,blue,TRUE,FALSE,joint 3 -,FALSE,27:27.6,16.766,0.163,235,131.4161682,281.8228455,71.0691452,45,65,51,5.033606529,-20
1.2,60,60,60,detecting_color,blue,FALSE,FALSE,detecting_color,FALSE,27:28.3,17.013,0.163,235,131.6940765,282.4188232,84.95825195,45,65,51,0,-20
1.2,60,60,60,go_to_color_detect_down,blue,TRUE,FALSE,joint 3 +,FALSE,27:29.6,16.519,0.157,235,131.6940765,282.4188232,84.95825195,45,65,51,0,-20
1.2,60,60,60,go_to_color_detect_down,blue,TRUE,FALSE,joint 3 +,FALSE,27:30.4,16.519,0.157,235,127.7522507,273.9655762,33.42970657,45,65,51,21.23999977,-20
1.2,60,60,60,go_to_color_detect_down,blue,TRUE,FALSE,joint 3 +,FALSE,27:31.8,16.462,0.161,235,107.5362015,230.6121063,-31.3955307,45,65,51,52.75919724,-20
1.2,60,60,60,go_to_color_detect_up_from_color_detect_down,blue,TRUE,FALSE,joint 3 -,TRUE,27:32.4,16.652,0.161,235,102.9598312,220.7980499,-39.00374603,45,65,51,57.27200317,-20
1.2,60,60,60,go_to_color_detect_up_from_color_detect_down,blue,TRUE,FALSE,joint 3 -,TRUE,27:33.8,19.766,0.21,235,124.5842514,267.1717834,16.67192078,45,65,51,26.95999527,-20
1.2,60,60,60,go_to_color_detect_up_from_color_detect_down,blue,TRUE,FALSE,joint 3 -,TRUE,27:34.5,22.804,0.21,235,131.666214,282.3591003,80.55626678,45,65,51,1.500806689,-20
1.2,60,60,60,go_to_red_up,red,TRUE,FALSE,joint 1 +,TRUE,27:35.2,22.842,0.21,235,97.86534882,295.848114,84.95825195,51.69599152,72.14239502,51,0,-20
1.2,60,60,60,go_to_red_up,red,TRUE,FALSE,joint 1 +,TRUE,27:36.6,22.481,0.206,235,-95.41674805,296.6468811,84.95825195,87.83043671,108.5264359,51,0,-20
1.2,60,60,60,go_to_pick_up_from_red,red,TRUE,FALSE,joint 1 -,FALSE,27:37.3,22.481,0.206,235,-178.7136841,255.2746429,84.95825195,104.9952393,125.0000381,51,0,-20
1.2,60,60,60,go_to_pick_up_from_red,red,TRUE,FALSE,joint 1 -,FALSE,27:38.5,22.576,0.208,235,-110.3718719,291.4134216,84.95825195,90.74401093,110.0960083,51,0,-20
1.2,60,60,60,go_to_pick_up_from_red,red,TRUE,FALSE,joint 1 -,FALSE,27:39.2,19.709,0.208,235,95.88061523,296.4972839,84.95825195,52.07994843,71.3599472,51,0,-20
1.2,60,60,60,go_to_pick_up_from_red,red,TRUE,FALSE,joint 1 -,FALSE,27:40.4,16.671,0.208,235,247.146759,189.7951813,84.95825195,17.52228928,36.81908798,51,0,-20
1.2,60,60,60,moving_belt,red,FALSE,TRUE,joint 1 -,FALSE,27:41.7,16.538,0.16,235,292.7999268,106.6392746,84.95825195,0.011890411,19.99989128,51,0,-20
1.2,60,60,60,moving_belt,red,FALSE,TRUE,joint 1 -,FALSE,27:42.4,16.633,0.16,235,292.822052,106.5785141,84.95825195,0,20,51,0,-20
1.2,60,60,60,moving_belt,red,FALSE,TRUE,joint 1 -,FALSE,27:43.8,16.291,0.16,235,292.822052,106.5785141,84.95825195,0,20,51,0,-20
1.2,60,60,60,moving_belt,red,FALSE,TRUE,joint 1 -,FALSE,27:44.5,16.69,0.159,235,292.822052,106.5785141,84.95825195,0,20,51,0,-20
1.2,60,60,60,moving_belt,red,FALSE,TRUE,joint 1 -,FALSE,27:45.2,16.69,0.159,235,292.822052,106.5785141,84.95825195,0,20,51,0,-20
1.2,60,60,60,go_to_pick_down,red,TRUE,FALSE,joint 3 +,FALSE,27:46.6,16.291,0.159,235,292.4295959,106.4356766,73.88520813,0,20,51,4.680000305,-20
1.2,60,60,60,go_to_pick_down,red,TRUE,FALSE,joint 3 +,FALSE,27:47.3,16.443,0.159,235,277.9222717,101.1554337,18.54850006,0,20,51,27.09834862,-20
1.2,60,60,60,go_to_pick_up_from_pick_down,red,TRUE,FALSE,joint 3 -,TRUE,27:48.6,16.367,0.159,235,283.7148132,103.2637558,32.46598434,0,20,51,20.43200493,-20
1.2,60,60,60,go_to_pick_up_from_pick_down,red,TRUE,FALSE,joint 3 -,TRUE,27:49.4,23.089,0.215,235,292.8169861,106.5766754,83.70074463,0,20,51,0.378501326,-20
1.2,60,60,60,go_to_color_detect_up_from_pick_up,red,TRUE,FALSE,joint 1 +,TRUE,27:50.7,22.69,0.215,235,269.5306091,156.3872681,84.95825195,10.12319565,30.6703949,51,0,-20
1.2,60,60,60,go_to_color_detect_up_from_pick_up,red,TRUE,FALSE,joint 1 +,TRUE,27:51.4,22.14,0.206,235,147.1348114,274.6908569,84.95825195,41.82481384,62.12001419,51,0,-20
1.2,60,60,60,go_to_color_detect_down,red,TRUE,FALSE,joint 3 +,TRUE,27:52.8,22.253,0.206,235,131.5175781,282.0403442,73.88520813,45,65,51,4.680000305,-20
1.2,60,60,60,go_to_color_detect_down,red,TRUE,FALSE,joint 3 +,TRUE,27:53.5,22.253,0.205,235,118.1751251,253.4273529,-6.591560364,45,65,51,39.24000168,-20
1.2,60,60,60,go_to_color_detect_down,red,TRUE,FALSE,joint 3 +,TRUE,27:54.9,22.158,0.205,235,101.7626801,218.2307587,-40.76433563,45,65,51,58.85919952,-20
1.2,60,60,60,go_to_color_detect_up_from_color_detect_down,red,TRUE,FALSE,joint 3 -,FALSE,27:55.6,20.317,0.204,235,111.3254395,238.7381592,-23.8848877,45,65,51,47.19200516,-20
1.2,60,60,60,go_to_color_detect_up_from_color_detect_down,red,TRUE,FALSE,joint 3 -,FALSE,27:56.3,20.317,0.204,235,130.625946,280.1282349,57.81652069,45,65,51,10.093606,-20
1.2,60,60,60,detecting_color,red,FALSE,FALSE,detecting_color,FALSE,27:57.9,16.937,0.163,235,131.6940765,282.4188232,84.95825195,45,65,51,0,-20
1.2,60,60,60,detecting_color,red,FALSE,FALSE,detecting_color,FALSE,27:58.5,16.937,0.163,235,131.6940765,282.4188232,84.95825195,45,65,51,0,-20
1.2,60,60,60,go_to_color_detect_down,red,TRUE,FALSE,joint 3 +,FALSE,27:59.2,16.614,0.163,235,131.6577911,282.3410339,79.93469238,45,65,51,2.203199863,-20
1.2,60,60,60,go_to_color_detect_down,red,TRUE,FALSE,joint 3 +,FALSE,28:00.7,16.633,0.159,235,124.1966248,266.3405151,14.95124817,45,65,51,29.15999222,-20
1.2,60,60,60,go_to_color_detect_down,red,TRUE,FALSE,joint 3 +,FALSE,28:01.4,16.633,0.159,235,102.7657623,220.3818817,-39.29523468,45,65,51,57.88639832,-20
1.2,60,60,60,go_to_color_detect_up_from_color_detect_down,red,TRUE,FALSE,joint 3 -,TRUE,28:02.8,18.627,0.159,235,107.9386292,231.4751282,-30.65405273,45,65,51,51.39680481,-20
1.2,60,60,60,go_to_color_detect_up_from_color_detect_down,red,TRUE,FALSE,joint 3 -,TRUE,28:03.5,22.747,0.159,235,128.0359802,274.5740356,35.26034164,45,65,51,19.04000282,-20
1.2,60,60,60,go_to_green_up,green,TRUE,FALSE,joint 1 +,TRUE,28:04.2,22.747,0.209,235,131.6940765,282.4188232,84.95825195,45,65,51,0,-20
1.2,60,60,60,go_to_green_up,green,TRUE,FALSE,joint 1 +,TRUE,28:05.7,22.215,0.209,235,54.62547684,306.7894897,84.95825195,59.9039917,80.56639099,51,0,-20
1.2,60,60,60,go_to_green_up,green,TRUE,FALSE,joint 1 +,TRUE,28:06.4,22.177,0.207,235,-79.26410675,301.3651123,84.95825195,84.73600769,104.8160095,51,0,-20
1.2,60,60,60,go_to_pick_up_from_green,green,TRUE,FALSE,joint 1 -,FALSE,28:07.8,22.31,0.207,235,-23.52503014,310.7254333,84.95825195,74.3296051,93.76800537,51,0,-20
1.2,60,60,60,go_to_pick_up_from_green,green,TRUE,FALSE,joint 1 -,FALSE,28:08.5,16.633,0.159,235,152.404068,271.8027344,84.95825195,40.71996307,59.99996185,51,0,-20
1.2,60,60,60,go_to_pick_up_from_green,green,TRUE,FALSE,joint 1 -,FALSE,28:09.9,16.671,0.159,235,281.3395386,133.9843292,84.95825195,5.465522766,25.07592201,51,0,-20
1.2,60,60,60,moving_belt,green,FALSE,TRUE,joint 1 -,FALSE,28:10.5,16.614,0.159,235,292.822052,106.5785141,84.95825195,0,20,51,0,-20
1.2,60,60,60,moving_belt,green,FALSE,TRUE,joint 1 -,FALSE,28:11.2,16.614,0.159,233.1,292.822052,106.5785141,84.95825195,0,20,51,0,-20
1.2,60,60,60,moving_belt,green,FALSE,TRUE,joint 1 -,FALSE,28:12.6,16.424,0.156,233.1,292.822052,106.5785141,84.95825195,0,20,51,0,-20
1.2,60,60,60,moving_belt,green,FALSE,TRUE,joint 1 -,FALSE,28:13.3,16.519,0.156,235,292.822052,106.5785141,84.95825195,0,20,51,0,-20
1.2,60,60,60,moving_belt,green,FALSE,TRUE,joint 1 -,FALSE,28:14.7,16.329,0.157,235,292.822052,106.5785141,84.95825195,0,20,51,0,-20
1.2,60,60,60,go_to_pick_down,green,TRUE,FALSE,joint 3 +,FALSE,28:15.3,16.329,0.157,233.1,288.5682373,105.0302505,48.75879288,0,20,51,14.90044117,-20
1.2,60,60,60,go_to_pick_up_from_pick_down,green,TRUE,FALSE,joint 3 -,TRUE,28:16.1,16.595,0.157,233.1,275.502655,100.2747726,13.69123077,0,20,51,29,-20
1.2,60,60,60,go_to_pick_up_from_pick_down,green,TRUE,FALSE,joint 3 -,TRUE,28:17.7,23.317,0.158,233.1,289.3604736,105.3186111,52.25582123,0,20,51,12.25264645,-20
1.2,60,60,60,go_to_color_detect_up_from_pick_up,green,TRUE,FALSE,joint 1 +,TRUE,28:18.4,23.317,0.158,233.1,291.3208923,110.6158676,84.95825195,0.79199791,20.95039749,51,0,-20
1.2,60,60,60,go_to_color_detect_up_from_pick_up,green,TRUE,FALSE,joint 1 +,TRUE,28:19.8,22.196,0.208,235,223.7029724,216.9347992,84.95825195,24.12000656,44.84000778,51,0,-20
1.2,60,60,60,go_to_color_detect_up_from_pick_up,green,TRUE,FALSE,joint 1 +,TRUE,28:20.5,22.367,0.208,235,131.6940002,282.4188843,84.95825195,45.00001526,65,51,0,-20
1.2,60,60,60,go_to_color_detect_down,green,TRUE,FALSE,joint 3 +,TRUE,28:21.9,22.215,0.207,233.1,129.6040802,277.9368286,47.14980698,45,65,51,15.56640148,-20
1.2,60,60,60,go_to_color_detect_down,green,TRUE,FALSE,joint 3 +,TRUE,28:22.6,22.064,0.207,233.1,110.8479462,237.7141724,-24.8999176,45,65,51,48.90639877,-20
1.2,60,60,60,go_to_color_detect_up_from_color_detect_down,green,TRUE,FALSE,joint 3 -,FALSE,28:23.3,22.064,0.205,233.1,102.603569,220.0340424,-39.53702545,45,65,51,57.6896019,-20
1.2,60,60,60,go_to_color_detect_up_from_color_detect_down,green,TRUE,FALSE,joint 3 -,FALSE,28:24.7,20.772,0.205,233.1,121.410141,260.3648682,3.951950073,45,65,51,32.71998978,-20
1.2,60,60,60,go_to_color_detect_up_from_color_detect_down,green,TRUE,FALSE,joint 3 -,FALSE,28:25.4,16.975,0.163,233.1,131.546051,282.1014099,74.81665039,45,65,51,3.625606537,-20
1.2,60,60,60,detecting_color,green,FALSE,FALSE,detecting_color,FALSE,28:26.8,16.88,0.163,233.1,131.6940765,282.4188232,84.95825195,45,65,51,0,-20
1.2,60,60,60,go_to_color_detect_down,green,TRUE,FALSE,joint 3 +,FALSE,28:27.5,16.88,0.159,233.1,131.6940613,282.4187927,84.84741974,45,65,51,0.086399995,-20
1.2,60,60,60,go_to_color_detect_down,green,TRUE,FALSE,joint 3 +,FALSE,28:28.4,16.462,0.159,233.1,128.5316772,275.6370544,38.65522766,45,65,51,19.08000183,-20
1.2,60,60,60,go_to_color_detect_down,green,TRUE,FALSE,joint 3 +,FALSE,28:29.8,16.519,0.159,233.1,109.1195908,234.0077057,-28.40396118,45,65,51,50.94800186,-20
1.2,60,60,60,go_to_color_detect_up_from_color_detect_down,green,TRUE,FALSE,joint 3 -,TRUE,28:30.4,16.576,0.159,233.1,103.8241959,222.6517029,-37.67618561,45,65,51,56.26399994,-20
1.2,60,60,60,go_to_color_detect_up_from_color_detect_down,green,TRUE,FALSE,joint 3 -,TRUE,28:31.8,21.912,0.211,233.1,123.8416367,265.5792236,13.4221344,45,65,51,28.3999939,-20
1.2,60,60,60,go_to_color_detect_up_from_color_detect_down,green,TRUE,FALSE,joint 3 -,TRUE,28:32.5,22.69,0.211,233.1,131.6487122,282.3215637,79.34188843,45,65,51,1.945606709,-20
1.2,60,60,60,go_to_blue_up,blue,TRUE,FALSE,joint 1 +,TRUE,28:33.7,22.728,0.211,233.1,88.14872742,298.8871765,84.95825195,53.56799316,74.07199097,51,0,-20
1.2,60,60,60,go_to_pick_up_from_blue,blue,TRUE,FALSE,joint 1 -,FALSE,28:34.4,22.234,0.206,233.1,28.32907486,310.3243408,84.95825195,64.78400421,84.69760132,51,0,-20
1.2,60,60,60,go_to_pick_up_from_blue,blue,TRUE,FALSE,joint 1 -,FALSE,28:35.8,22.196,0.206,233.1,134.2517395,281.2120056,84.95825195,44.48000336,63.76000214,51,0,-20
1.2,60,60,60,go_to_pick_up_from_blue,blue,TRUE,FALSE,joint 1 -,FALSE,28:36.5,16.633,0.16,233.1,275.8127441,145.020874,84.95825195,7.735155106,27.27035522,51,0,-20
1.2,60,60,60,moving_belt,blue,FALSE,TRUE,joint 1 -,FALSE,28:37.9,16.671,0.16,233.1,292.822052,106.5785141,84.95825195,0,20,51,0,-20
1.2,60,60,60,moving_belt,blue,FALSE,TRUE,joint 1 -,FALSE,28:38.5,16.462,0.159,233.1,292.822052,106.5785141,84.95825195,0,20,51,0,-20
1.2,60,60,60,moving_belt,blue,FALSE,TRUE,joint 1 -,FALSE,28:39.2,16.462,0.159,233.1,292.822052,106.5785141,84.95825195,0,20,51,0,-20
1.2,60,60,60,moving_belt,blue,FALSE,TRUE,joint 1 -,FALSE,28:40.6,16.253,0.157,233.1,292.822052,106.5785141,84.95825195,0,20,51,0,-20
1.2,60,60,60,moving_belt,blue,FALSE,TRUE,joint 1 -,FALSE,28:41.4,16.253,0.157,233.1,292.822052,106.5785141,84.95825195,0,20,51,0,-20
1.2,60,60,60,go_to_pick_down,blue,TRUE,FALSE,joint 3 +,FALSE,28:42.8,16.481,0.158,233.1,290.1763,105.6155396,56.32526398,0,20,51,11.80800152,-20
1.2,60,60,60,go_to_pick_up_from_pick_down,blue,TRUE,FALSE,joint 3 -,TRUE,28:43.5,16.405,0.158,233.1,275.5450745,100.2902069,13.77268982,0,20,51,28.98894501,-20
1.2,60,60,60,go_to_pick_up_from_pick_down,blue,TRUE,FALSE,joint 3 -,TRUE,28:44.9,18.361,0.213,233.1,289.3604736,105.3186111,52.25582123,0,20,51,12.25264645,-20
1.2,60,60,60,go_to_color_detect_up_from_pick_up,blue,TRUE,FALSE,joint 1 +,TRUE,28:45.7,22.766,0.213,233.1,292.6610107,107.0199509,84.95825195,0.086399078,20.1439991,51,0,-20
1.2,60,60,60,go_to_color_detect_up_from_pick_up,blue,TRUE,FALSE,joint 1 +,TRUE,28:46.4,22.045,0.213,233.1,229.0839386,211.2445984,84.95825195,22.68000412,43.40000534,51,0,-20
1.2,60,60,60,go_to_color_detect_up_from_pick_up,blue,TRUE,FALSE,joint 1 +,TRUE,28:47.8,22.158,0.206,233.1,133.9610596,281.3506165,84.95825195,44.53921509,64.6472168,51,0,-20
1.2,60,60,60,go_to_color_detect_down,blue,TRUE,FALSE,joint 3 +,TRUE,28:48.6,22.177,0.206,233.1,130.7269135,280.3447571,59.1207428,45,65,51,10.67040157,-20
1.2,60,60,60,go_to_color_detect_down,blue,TRUE,FALSE,joint 3 +,TRUE,28:49.4,22.026,0.204,233.1,111.7602997,239.6707153,-22.94187164,45,65,51,47.79920197,-20
1.2,60,60,60,go_to_color_detect_up_from_color_detect_down,blue,TRUE,FALSE,joint 3 -,FALSE,28:50.8,22.064,0.204,233.1,101.6995926,218.0954742,-40.85466003,45,65,51,58.7840004,-20
1.2,60,60,60,go_to_color_detect_up_from_color_detect_down,blue,TRUE,FALSE,joint 3 -,FALSE,28:51.5,22.064,0.203,233.1,120.533432,258.4847717,0.89490509,45,65,51,34.15999222,-20
1.2,60,60,60,go_to_color_detect_up_from_color_detect_down,blue,TRUE,FALSE,joint 3 -,FALSE,28:52.9,17.127,0.203,233.1,131.454483,281.9050293,72.06046295,45,65,51,4.660006523,-20
1.2,60,60,60,detecting_color,blue,FALSE,FALSE,detecting_color,FALSE,28:53.6,17.127,0.163,233.1,131.6940765,282.4188232,84.95825195,45,65,51,0,-20
1.2,60,60,60,go_to_color_detect_down,blue,TRUE,FALSE,joint 3 +,FALSE,28:54.3,16.519,0.163,235,131.6940765,282.4188232,84.95825195,45,65,51,0,-20
1.2,60,60,60,go_to_color_detect_down,blue,TRUE,FALSE,joint 3 +,FALSE,28:55.7,16.481,0.157,235,129.0002747,276.6419373,42.14058304,45,65,51,17.6400032,-20
1.2,60,60,60,go_to_color_detect_down,blue,TRUE,FALSE,joint 3 +,FALSE,28:56.4,16.481,0.157,233.1,109.5388336,234.9067688,-27.57769775,45,65,51,50.45920181,-20
1.2,60,60,60,go_to_color_detect_up_from_color_detect_down,blue,TRUE,FALSE,joint 3 -,TRUE,28:57.8,16.272,0.159,233.1,102.2988663,219.3806152,-39.98679352,45,65,51,58.04959869,-20
1.2,60,60,60,go_to_color_detect_up_from_color_detect_down,blue,TRUE,FALSE,joint 3 -,TRUE,28:58.5,16.272,0.159,233.1,122.6636124,263.052948,8.632804871,45,65,51,30.55999184,-20
1.2,60,60,60,go_to_color_detect_up_from_color_detect_down,blue,TRUE,FALSE,joint 3 -,TRUE,28:59.9,22.728,0.212,233.1,131.60849,282.2352905,77.24435425,45,65,51,2.720806599,-20
1.2,60,60,60,go_to_red_up,red,TRUE,FALSE,joint 1 +,TRUE,29:00.5,22.348,0.212,233.1,95.55739594,296.6016235,84.95825195,52.14239502,72.60319519,51,0,-20
1.2,60,60,60,go_to_red_up,red,TRUE,FALSE,joint 1 +,TRUE,29:01.9,22.177,0.207,233.1,-76.65244293,302.0399475,84.95825195,84.24002838,104.9600296,51,0,-20
1.2,60,60,60,go_to_red_up,red,TRUE,FALSE,joint 1 +,TRUE,29:02.6,22.196,0.207,233.1,-177.6427917,256.0210266,84.95825195,104.7552414,124.8320389,51,0,-20
1.2,60,60,60,go_to_pick_up_from_red,red,TRUE,FALSE,joint 1 -,FALSE,29:03.3,22.253,0.207,233.1,-107.0690689,292.6430359,84.95825195,90.0960083,109.433609,51,0,-20
1.2,60,60,60,go_to_pick_up_from_red,red,TRUE,FALSE,joint 1 -,FALSE,29:04.9,16.5,0.159,233.1,77.07415009,301.9326172,84.95825195,55.67995453,74.95995331,51,0,-20
1.2,60,60,60,go_to_pick_up_from_red,red,TRUE,FALSE,joint 1 -,FALSE,29:05.6,16.519,0.159,233.1,234.7502899,204.9293365,84.95825195,21.11989594,40.39989471,51,0,-20
1.2,60,60,60,moving_belt,red,FALSE,TRUE,joint 1 -,FALSE,29:06.4,16.519,0.158,233.1,292.8222656,106.5779572,84.95825195,-0.000108719,20,51,0,-20
1.2,60,60,60,moving_belt,red,FALSE,TRUE,joint 1 -,FALSE,29:07.8,16.557,0.158,235,292.822052,106.5785141,84.95825195,0,20,51,0,-20
1.2,60,60,60,moving_belt,red,FALSE,TRUE,joint 1 -,FALSE,29:08.5,16.709,0.158,235,292.822052,106.5785141,84.95825195,0,20,51,0,-20
1.2,60,60,60,moving_belt,red,FALSE,TRUE,joint 1 -,FALSE,29:09.5,16.709,0.158,235,292.822052,106.5785141,84.95825195,0,20,51,0,-20
1.2,60,60,60,moving_belt,red,FALSE,TRUE,joint 1 -,FALSE,29:10.2,16.348,0.158,235,292.822052,106.5785141,84.95825195,0,20,51,0,-20
1.2,60,60,60,go_to_pick_down,red,TRUE,FALSE,joint 3 +,FALSE,29:11.7,16.367,0.158,233.1,292.5429077,106.4769135,75.61743164,0,20,51,3.974400282,-20
1.2,60,60,60,go_to_pick_down,red,TRUE,FALSE,joint 3 +,FALSE,29:12.4,16.367,0.158,233.1,276.9508972,100.8018951,16.54545593,0,20,51,27.91930771,-20
1.2,60,60,60,go_to_pick_up_from_pick_down,red,TRUE,FALSE,joint 3 -,TRUE,29:13.8,16.443,0.158,233.1,283.3012695,103.1132278,31.32899857,0,20,51,20.92160416,-20
1.2,60,60,60,go_to_pick_up_from_pick_down,red,TRUE,FALSE,joint 3 -,TRUE,29:14.5,22.861,0.158,233.1,292.8140869,106.5756149,83.377388,0,20,51,0.490140885,-20
1.2,60,60,60,go_to_color_detect_up_from_pick_up,red,TRUE,FALSE,joint 1 +,TRUE,29:15.8,22.121,0.209,233.1,263.1096802,166.9641418,84.95825195,12.39839554,33.00319672,51,0,-20
1.2,60,60,60,go_to_color_detect_up_from_pick_up,red,TRUE,FALSE,joint 1 +,TRUE,29:16.6,22.121,0.209,233.1,150.1634064,273.0470276,84.95825195,41.1912117,61.51521301,51,0,-20
1.2,60,60,60,go_to_color_detect_down,red,TRUE,FALSE,joint 3 +,TRUE,29:17.9,22.14,0.206,233.1,131.3709259,281.7258606,69.98454285,45,65,51,6.264000893,-20
1.2,60,60,60,go_to_color_detect_down,red,TRUE,FALSE,joint 3 +,TRUE,29:18.6,21.817,0.206,233.1,119.1320801,255.4795532,-3.672386169,45,65,51,37.79999924,-20
1.2,60,60,60,go_to_color_detect_down,red,TRUE,FALSE,joint 3 +,TRUE,29:19.3,21.817,0.204,233.1,101.9346237,218.5994873,-40.516922,45,65,51,58.70239639,-20
1.2,60,60,60,go_to_color_detect_up_from_color_detect_down,red,TRUE,FALSE,joint 3 -,FALSE,29:20.7,21.817,0.204,233.1,113.2076569,242.7745972,-19.66921234,45,65,51,44.7440033,-20
1.2,60,60,60,go_to_color_detect_up_from_color_detect_down,red,TRUE,FALSE,joint 3 -,FALSE,29:21.4,21.817,0.16,233.1,130.3865356,279.6148071,54.95759583,45,65,51,11.20080566,-20
1.2,60,60,60,detecting_color,red,FALSE,FALSE,detecting_color,FALSE,29:22.8,16.823,0.16,233.1,131.6940765,282.4188232,84.95825195,45,65,51,0,-20
1.2,60,60,60,detecting_color,red,FALSE,FALSE,detecting_color,FALSE,29:23.5,16.823,0.157,233.1,131.6940765,282.4188232,84.95825195,45,65,51,0,-20
1.2,60,60,60,go_to_color_detect_down,red,TRUE,FALSE,joint 3 +,FALSE,29:24.9,16.348,0.157,233.1,131.6577911,282.3410339,79.93469238,45,65,51,2.203199863,-20
1.2,60,60,60,go_to_color_detect_down,red,TRUE,FALSE,joint 3 +,FALSE,29:25.6,16.386,0.157,233.1,124.1966248,266.3405151,14.95124817,45,65,51,29.15999222,-20
1.2,60,60,60,go_to_color_detect_down,red,TRUE,FALSE,joint 3 +,FALSE,29:26.3,16.386,0.157,233.1,104.3161697,223.7067413,-36.89878845,45,65,51,56.27919769,-20
1.2,60,60,60,go_to_color_detect_up_from_color_detect_down,red,TRUE,FALSE,joint 3 -,TRUE,29:27.7,17.203,0.157,233.1,107.5567932,230.6562805,-31.35788727,45,65,51,51.85760498,-20
1.2,60,60,60,go_to_color_detect_up_from_color_detect_down,red,TRUE,FALSE,joint 3 -,TRUE,29:28.5,17.203,0.196,233.1,127.7674255,273.9981079,33.5258255,45,65,51,19.76000214,-20
1.2,60,60,60,go_to_color_detect_up_from_color_detect_down,red,TRUE,FALSE,joint 3 -,TRUE,29:29.9,22.633,0.208,233.1,131.6936493,282.4179077,84.4143219,45,65,51,0.140806764,-20
1.2,60,60,60,go_to_green_up,green,TRUE,FALSE,joint 1 +,TRUE,29:30.6,22.102,0.208,233.1,54.62547684,306.7894897,84.95825195,59.9039917,80.56639099,51,0,-20
1.2,60,60,60,go_to_green_up,green,TRUE,FALSE,joint 1 +,TRUE,29:31.3,22.158,0.208,233.1,-75.14157867,302.4193726,84.95825195,83.95360565,104.1200027,51,0,-20
1.2,60,60,60,go_to_pick_up_from_green,green,TRUE,FALSE,joint 1 -,FALSE,29:32.7,22.102,0.206,233.1,-23.52503014,310.7254333,84.95825195,74.3296051,93.76800537,51,0,-20
1.2,60,60,60,go_to_pick_up_from_green,green,TRUE,FALSE,joint 1 -,FALSE,29:33.4,16.576,0.206,233.1,152.404068,271.8027344,84.95825195,40.71996307,59.99996185,51,0,-20
1.2,60,60,60,go_to_pick_up_from_green,green,TRUE,FALSE,joint 1 -,FALSE,29:34.7,16.538,0.158,233.1,274.8695679,146.8007202,84.95825195,8.105522156,27.62952232,51,0,-20
1.2,60,60,60,moving_belt,green,FALSE,TRUE,joint 1 -,FALSE,29:35.4,16.538,0.158,233.1,292.822052,106.5785141,84.95825195,0,20,51,0,-20
1.2,60,60,60,moving_belt,green,FALSE,TRUE,joint 1 -,FALSE,29:36.8,16.481,0.16,233.1,292.822052,106.5785141,84.95825195,0,20,51,0,-20
1.2,60,60,60,moving_belt,green,FALSE,TRUE,joint 1 -,FALSE,29:37.5,16.5,0.16,233.1,292.822052,106.5785141,84.95825195,0,20,51,0,-20
1.2,60,60,60,moving_belt,green,FALSE,TRUE,joint 1 -,FALSE,29:38.9,16.481,0.158,233.1,292.822052,106.5785141,84.95825195,0,20,51,0,-20
1.2,60,60,60,moving_belt,green,FALSE,TRUE,joint 1 -,FALSE,29:39.6,16.614,0.158,233.1,292.822052,106.5785141,84.95825195,0,20,51,0,-20
1.2,60,60,60,go_to_pick_down,green,TRUE,FALSE,joint 3 +,FALSE,29:41.0,16.405,0.157,233.1,290.1763,105.6155396,56.32526398,0,20,51,11.80800152,-20
1.2,60,60,60,go_to_pick_up_from_pick_down,green,TRUE,FALSE,joint 3 -,TRUE,29:41.6,16.405,0.157,233.1,275.502655,100.2747726,13.69123077,0,20,51,28.98559952,-20
1.2,60,60,60,go_to_pick_up_from_pick_down,green,TRUE,FALSE,joint 3 -,TRUE,29:42.3,16.519,0.157,233.1,289.6755371,105.4332733,53.7614975,0,20,51,11.66580677,-20
1.2,60,60,60,go_to_color_detect_up_from_pick_up,green,TRUE,FALSE,joint 1 +,TRUE,29:43.7,22.709,0.213,233.1,292.5532532,107.3141022,84.95825195,0.1439991,20.2159996,51,0,-20
1.2,60,60,60,go_to_color_detect_up_from_pick_up,green,TRUE,FALSE,joint 1 +,TRUE,29:44.4,22.709,0.213,233.1,223.7029724,216.9347992,84.95825195,24.12000656,44.84000778,51,0,-20
1.2,60,60,60,go_to_color_detect_up_from_pick_up,green,TRUE,FALSE,joint 1 +,TRUE,29:45.8,22.291,0.207,233.1,132.9702759,281.8202209,84.95825195,44.74081421,64.82001495,51,0,-20
1.2,60,60,60,go_to_color_detect_down,green,TRUE,FALSE,joint 3 +,TRUE,29:46.5,21.988,0.207,233.1,130.3794403,279.5995789,54.87723541,45,65,51,12.39840126,-20
1.2,60,60,60,go_to_color_detect_down,green,TRUE,FALSE,joint 3 +,TRUE,29:47.9,21.855,0.205,233.1,110.4033203,236.7606812,-25.82636261,45,65,51,49.43840027,-20
1.2,60,60,60,go_to_color_detect_up_from_color_detect_down,green,TRUE,FALSE,joint 3 -,FALSE,29:48.6,22.064,0.205,233.1,101.9398041,218.6105957,-40.50943756,45,65,51,58.48160172,-20
1.2,60,60,60,go_to_color_detect_up_from_color_detect_down,green,TRUE,FALSE,joint 3 -,FALSE,29:49.3,20.658,0.192,233.1,119.1582031,255.5355835,-3.590492249,45,65,51,36.31999588,-20
1.2,60,60,60,go_to_color_detect_up_from_color_detect_down,green,TRUE,FALSE,joint 3 -,FALSE,29:50.7,17.089,0.192,233.1,131.5904541,282.1966248,76.47173309,45,65,51,3.008006573,-20
1.2,60,60,60,detecting_color,green,FALSE,FALSE,detecting_color,FALSE,29:51.4,17.089,0.162,233.1,131.6940765,282.4188232,84.95825195,45,65,51,0,-20
1.2,60,60,60,go_to_color_detect_down,green,TRUE,FALSE,joint 3 +,FALSE,29:52.8,16.538,0.162,233.1,131.6940765,282.4188232,84.95825195,45,65,51,0.014399999,-20
1.2,60,60,60,go_to_color_detect_down,green,TRUE,FALSE,joint 3 +,FALSE,29:53.5,16.538,0.158,233.1,129.0002747,276.6419373,42.14058304,45,65,51,17.6400032,-20
1.2,60,60,60,go_to_color_detect_down,green,TRUE,FALSE,joint 3 +,FALSE,29:54.9,16.386,0.158,233.1,107.165062,229.8162079,-32.06832886,45,65,51,53.17599869,-20
1.2,60,60,60,go_to_color_detect_up_from_color_detect_down,green,TRUE,FALSE,joint 3 -,TRUE,29:54.9,16.386,0.158,233.1,103.1570892,221.2210846,-38.70500946,45,65,51,57.04160309,-20
1.2,60,60,60,go_to_color_detect_up_from_color_detect_down,green,TRUE,FALSE,joint 3 -,TRUE,29:56.8,22.31,0.159,233.1,122.2540817,262.1747131,7.060142517,45,65,51,31.27999115,-20
1.2,60,60,60,go_to_color_detect_up_from_color_detect_down,green,TRUE,FALSE,joint 3 -,TRUE,29:57.5,22.481,0.159,233.1,131.666214,282.3591003,80.55626678,45,65,51,1.500806689,-20
1.2,60,60,60,go_to_blue_up,blue,TRUE,FALSE,joint 1 +,TRUE,29:58.9,22.709,0.21,233.1,97.86534882,295.848114,84.95825195,51.69599152,72.14239502,51,0,-20
1.2,60,60,60,go_to_pick_up_from_blue,blue,TRUE,FALSE,joint 1 -,FALSE,29:59.6,22.121,0.21,233.1,27.15902901,310.4289246,84.95825195,65,84.98560333,51,0,-20
1.2,60,60,60,go_to_pick_up_from_blue,blue,TRUE,FALSE,joint 1 -,FALSE,30:01.0,16.576,0.207,233.1,137.7748566,279.5028076,84.95825195,43.76000214,63.04000092,51,0,-20
1.2,60,60,60,go_to_pick_up_from_blue,blue,TRUE,FALSE,joint 1 -,FALSE,30:01.7,16.576,0.207,233.1,269.1148987,157.1015472,84.95825195,10.27515602,29.73835564,51,0,-20
1.2,60,60,60,moving_belt,blue,FALSE,TRUE,joint 1 -,FALSE,30:02.4,16.69,0.159,233.1,292.822052,106.5785141,84.95825195,0,20,51,0,-20
1.2,60,60,60,moving_belt,blue,FALSE,TRUE,joint 1 -,FALSE,30:03.8,16.766,0.159,233.1,292.822052,106.5785141,84.95825195,0,20,51,0,-20
1.2,60,60,60,moving_belt,blue,FALSE,TRUE,joint 1 -,FALSE,30:04.5,16.766,0.158,233.1,292.822052,106.5785141,84.95825195,0,20,51,0,-20
1.2,60,60,60,moving_belt,blue,FALSE,TRUE,joint 1 -,FALSE,30:05.9,16.462,0.158,233.1,292.822052,106.5785141,84.95825195,0,20,51,0,-20
1.2,60,60,60,moving_belt,blue,FALSE,TRUE,joint 1 -,FALSE,30:06.6,16.462,0.157,233.1,292.822052,106.5785141,84.95825195,0,20,51,0,-20
1.2,60,60,60,go_to_pick_down,blue,TRUE,FALSE,joint 3 +,FALSE,30:08.0,16.405,0.157,233.1,291.280426,106.0174103,63.05773163,0,20,51,9.072001457,-20
1.2,60,60,60,go_to_pick_down,blue,TRUE,FALSE,joint 3 +,FALSE,30:08.7,16.519,0.157,233.1,275.5155945,100.27948,13.71604156,0,20,51,28.99978447,-20
1.2,60,60,60,go_to_pick_up_from_pick_down,blue,TRUE,FALSE,joint 3 -,TRUE,30:09.6,18.171,0.158,233.1,288.2736206,104.9230194,47.54663849,0,20,51,14.09956455,-20
1.2,60,60,60,go_to_color_detect_up_from_pick_up,blue,TRUE,FALSE,joint 1 +,TRUE,30:10.5,22.937,0.158,233.1,292.822052,106.5785141,84.95825195,0,20.01440048,51,0,-20
1.2,60,60,60,go_to_color_detect_up_from_pick_up,blue,TRUE,FALSE,joint 1 +,TRUE,30:11.3,22.5,0.209,233.1,234.3201904,205.4209747,84.95825195,21.24000168,41.9600029,51,0,-20
1.2,60,60,60,go_to_color_detect_up_from_pick_up,blue,TRUE,FALSE,joint 1 +,TRUE,30:12.7,22.405,0.209,233.1,135.9728699,280.3838501,84.95825195,44.1288147,64.28001404,51,0,-20
1.2,60,60,60,go_to_color_detect_down,blue,TRUE,FALSE,joint 3 +,TRUE,30:13.4,22.386,0.208,233.1,131.0007324,280.9319763,63.05773163,45,65,51,9.072001457,-20
1.2,60,60,60,go_to_color_detect_down,blue,TRUE,FALSE,joint 3 +,TRUE,30:14.8,22.064,0.208,233.1,113.1810989,242.7176361,-19.73119354,45,65,51,46.03040314,-20
