demetriskallis/dobot_magician_pick_and_place_and_color_sorting/Sampling/OLD_DATA/sampling_joint_movement_extra/joint_measurements__armv_60_arma_60_belts_60_cube_1.2g - Copy.csv
cube/weight,arm/velocity_ratio,arm/acceleration_ratio,belt/speed,dobot/operation,dobot/color,dobot/moving_arm,dobot/moving_belt,dobot/operation2,dobot/suction,meross/sample_timestamp,meross/power,meross/current,meross/voltage,dobot/pose_x,dobot/pose_y,dobot/pose_z,dobot/pose_rHead,dobot/pose_joint1Angle,dobot/pose_joint2Angle,dobot/pose_joint3Angle,dobot/pose_joint4Angle
1.2,60,60,60,homing,,,,homing,,,,,,134.3997344970703,-3.0636653900146484,1.2812042236328125,-1.305841088294983,-1.705841064453125,5.284522533416748,64.92426300048828,0.0
1.2,60,60,60,homing,,,,homing,,,,,,123.83390808105469,-52.3243408203125,1.2812042236328125,-22.90582847595215,-23.305828094482422,5.284522533416748,64.92426300048828,0.0
1.2,60,60,60,homing,,,,homing,,,,,,99.73804473876953,-90.13876342773438,1.2812042236328125,-42.105857849121094,-42.505859375,5.284522533416748,64.92426300048828,0.0
1.2,60,60,60,homing,,,,homing,,2023-12-11 21:19:36.102144,16.69,0.159,235.0,64.54646301269531,-117.92552185058594,1.2812042236328125,-61.305931091308594,-61.7059326171875,5.284522533416748,64.92426300048828,0.0
1.2,60,60,60,homing,,,,homing,,2023-12-11 21:19:36.787729,16.576,0.159,235.0,16.60230827331543,-133.40553283691406,1.2812042236328125,-82.90601348876953,-83.30601501464844,5.284522533416748,64.92426300048828,0.0
1.2,60,60,60,homing,,,,homing,,2023-12-11 21:19:38.191728,16.652,0.158,235.0,-28.193965911865234,-131.4449462890625,1.2812042236328125,-102.10608673095703,-102.50608825683594,5.284522533416748,64.92426300048828,0.0
1.2,60,60,60,homing,,,,homing,,2023-12-11 21:19:38.881834,16.652,0.158,235.0,-69.05015563964844,-115.3462142944336,1.2812042236328125,-120.90615844726562,-121.30615997314453,5.284522533416748,64.92426300048828,0.0
1.2,60,60,60,homing,,,,homing,,2023-12-11 21:19:40.258281,16.823,0.159,235.0,-96.35472106933594,-93.7466812133789,1.2812042236328125,-135.78599548339844,-135.7659912109375,5.284522533416748,64.92426300048828,0.0
1.2,60,60,60,homing,,,,homing,,2023-12-11 21:19:40.941922,16.823,0.159,235.0,-95.13223266601562,-94.9964828491211,1.2819366455078125,-135.04090881347656,-135.01690673828125,5.289982318878174,64.92109680175781,0.0
1.2,60,60,60,homing,,,,homing,,2023-12-11 21:19:42.371474,16.747,0.158,235.0,-72.08171844482422,-123.09193420410156,2.1361846923828125,-120.35291290283203,-119.75291442871094,7.604879856109619,63.577884674072266,0.0
1.2,60,60,60,homing,,,,homing,,2023-12-11 21:19:43.057072,16.709,0.158,235.0,6.066291332244873,-169.72413635253906,4.023658752441406,-87.95299530029297,-87.35299682617188,15.221113204956055,59.15859603881836,0.0
1.2,60,60,60,homing,,,,homing,,2023-12-11 21:19:44.444623,16.709,0.158,235.0,106.10337829589844,-177.6590576171875,4.110404968261719,-59.15306854248047,-58.553070068359375,26.039119720458984,52.88148880004883,0.0
1.2,60,60,60,homing,,,,homing,,2023-12-11 21:19:45.130622,16.804,0.16,235.0,211.65640258789062,-106.69812774658203,1.7825393676757812,-26.75313377380371,-26.153133392333984,35.43294906616211,47.430755615234375,0.0
1.2,60,60,60,homing,,,,homing,,2023-12-11 21:19:45.822622,16.804,0.16,235.0,248.48532104492188,-12.133401870727539,0.1898040771484375,-2.795501232147217,-2.54244327545166,39.327938079833984,45.17070770263672,0.0
1.2,60,60,60,homing,,,,homing,,2023-12-11 21:19:47.221225,16.709,0.159,235.0,249.99998474121094,0.0,-7.62939453125e-06,0.0,0.0,39.71385955810547,44.94676971435547,0.0
1.2,60,60,60,homing,,,,homing,,2023-12-11 21:19:47.905816,16.614,0.159,235.0,249.99998474121094,0.0,-7.62939453125e-06,0.0,0.0,39.71385955810547,44.94676971435547,0.0
1.2,60,60,60,homing,,,,homing,,2023-12-11 21:19:49.283100,16.538,0.157,235.0,249.99998474121094,0.00017966009909287095,-7.62939453125e-06,4.117506250622682e-05,4.117506250622682e-05,39.71385955810547,44.94676971435547,0.0
1.2,60,60,60,homing,,,,homing,,2023-12-11 21:19:49.968203,16.424,0.157,235.0,249.99998474121094,0.00017966009909287095,-7.62939453125e-06,4.117506250622682e-05,4.117506250622682e-05,39.71385955810547,44.94676971435547,0.0
1.2,60,60,60,homing,,,,homing,,2023-12-11 21:19:51.350417,16.5,0.158,235.0,249.99998474121094,0.00017966009909287095,-7.62939453125e-06,4.117506250622682e-05,4.117506250622682e-05,39.71385955810547,44.94676971435547,0.0
1.2,60,60,60,homing,,,,homing,,2023-12-11 21:19:52.051492,16.5,0.158,235.0,249.99998474121094,0.00017966009909287095,-7.62939453125e-06,4.117506250622682e-05,4.117506250622682e-05,39.71385955810547,44.94676971435547,0.0
1.2,60,60,60,homing,,,,homing,,2023-12-11 21:19:53.427110,16.253,0.157,235.0,249.99998474121094,0.00017966009909287095,-7.62939453125e-06,4.117506250622682e-05,4.117506250622682e-05,39.71385955810547,44.94676971435547,0.0
1.2,60,60,60,homing,,,,homing,,2023-12-11 21:19:54.111276,16.576,0.157,235.0,249.99998474121094,0.00017966009909287095,-7.62939453125e-06,4.117506250622682e-05,4.117506250622682e-05,39.71385955810547,44.94676971435547,0.0
1.2,60,60,60,homing,,,,homing,,2023-12-11 21:19:54.794285,16.576,0.157,235.0,249.99998474121094,0.00017966009909287095,-7.62939453125e-06,4.117506250622682e-05,4.117506250622682e-05,39.71385955810547,44.94676971435547,0.0
1.2,60,60,60,homing,,,,homing,,2023-12-11 21:19:56.187044,16.5,0.157,235.0,249.99998474121094,0.00017966009909287095,-7.62939453125e-06,4.117506250622682e-05,4.117506250622682e-05,39.71385955810547,44.94676971435547,0.0
1.2,60,60,60,homing,,,,homing,,2023-12-11 21:19:56.874034,16.5,0.157,235.0,249.99998474121094,0.00017966009909287095,-7.62939453125e-06,4.117506250622682e-05,4.117506250622682e-05,39.71385955810547,44.94676971435547,0.0
1.2,60,60,60,homing,,,,homing,,2023-12-11 21:19:58.246672,16.443,0.158,235.0,249.99998474121094,0.00017966009909287095,-7.62939453125e-06,4.117506250622682e-05,4.117506250622682e-05,39.71385955810547,44.94676971435547,0.0
1.2,60,60,60,homing,,,,homing,,2023-12-11 21:19:58.935621,16.709,0.158,235.0,249.99998474121094,0.00017966009909287095,-7.62939453125e-06,4.117506250622682e-05,4.117506250622682e-05,39.71385955810547,44.94676971435547,0.0
1.2,60,60,60,homing,,,,homing,,2023-12-11 21:20:00.316611,16.5,0.156,235.0,250.1300811767578,0.00017975358059629798,-0.01068878173828125,4.117506250622682e-05,4.117506250622682e-05,39.756324768066406,44.91743850708008,0.0
1.2,60,60,60,homing,,,,homing,,2023-12-11 21:20:01.031611,16.633,0.156,235.0,260.9620056152344,44.86110305786133,28.3043212890625,4.100799560546875e-05,10.14323616027832,37.0799674987793,32.13566589355469,-10.143195152282715
1.2,60,60,60,homing,,,,homing,,2023-12-11 21:20:01.721613,16.633,0.156,235.0,274.99237060546875,102.96830749511719,64.97998046875,4.1961669921875e-05,20.533206939697266,42.43653106689453,13.627080917358398,-20.533164978027344
1.2,60,60,60,go_to_pick_up_from_homing,nothing,,,go_to_pick_up_from_homing,,2023-12-11 21:20:03.327609,16.614,0.164,235.0,290.7254333496094,106.28507232666016,81.9830093383789,9.5367431640625e-06,20.072378158569336,49.83760452270508,1.8497300148010254,-20.072370529174805
1.2,60,60,60,moving_belt,nothing,false,true,go_to_pick_up_from_homing,,2023-12-11 21:20:04.013618,16.614,0.164,235.0,292.8220520019531,106.5785140991211,84.958251953125,0.0,20.0,51.0,0.0,-20.0
1.2,60,60,60,moving_belt,nothing,false,true,go_to_pick_up_from_homing,,2023-12-11 21:20:05.415196,16.899,0.161,235.0,292.8220520019531,106.5785140991211,84.958251953125,0.0,20.0,51.0,0.0,-20.0
1.2,60,60,60,moving_belt,nothing,false,true,go_to_pick_up_from_homing,,2023-12-11 21:20:06.104196,16.424,0.161,235.0,292.8220520019531,106.5785140991211,84.958251953125,0.0,20.0,51.0,0.0,-20.0
1.2,60,60,60,moving_belt,nothing,false,true,go_to_pick_up_from_homing,,2023-12-11 21:20:06.793195,16.424,0.158,235.0,292.8220520019531,106.5785140991211,84.958251953125,0.0,20.0,51.0,0.0,-20.0
1.2,60,60,60,go_to_pick_down,nothing,true,false,joint 3 +,,2023-12-11 21:20:08.203185,16.443,0.158,235.0,292.8132019042969,106.5752944946289,83.2957534790039,0.0,20.0,51.0,0.7919999957084656,-20.0
1.2,60,60,60,go_to_pick_down,nothing,true,false,joint 3 +,,2023-12-11 21:20:08.889194,16.443,0.157,235.0,283.2010192871094,103.07674407958984,31.057472229003906,0.0,20.0,51.0,21.967754364013672,-20.0
1.2,60,60,60,go_to_pick_up_from_pick_down,nothing,true,false,joint 3 -,true,2023-12-11 21:20:10.304194,16.367,0.157,235.0,276.7922058105469,100.74413299560547,16.225173950195312,0.0,20.0,51.0,27.68960189819336,-20.0
1.2,60,60,60,go_to_pick_up_from_pick_down,nothing,true,false,joint 3 -,true,2023-12-11 21:20:10.993184,18.152,0.215,235.0,292.4449157714844,106.44124603271484,74.10325622558594,0.0,20.0,51.0,3.8927345275878906,-20.0
1.2,60,60,60,go_to_color_detect_up,nothing,true,false,joint 1 +,true,2023-12-11 21:20:12.362183,22.956,0.215,235.0,285.4579772949219,124.96988677978516,84.958251953125,3.6431961059570312,23.974395751953125,51.0,0.0,-20.0
1.2,60,60,60,go_to_color_detect_up,nothing,true,false,joint 1 +,true,2023-12-11 21:20:13.051261,22.956,0.215,235.0,175.7430877685547,257.3287658691406,84.958251953125,35.6688117980957,56.18001174926758,51.0,0.0,-20.0
1.2,60,60,60,go_to_color_detect_up,nothing,true,false,joint 3 +,true,2023-12-11 21:20:14.438779,22.918,0.211,235.0,131.69009399414062,282.4103088378906,83.2957534790039,45.0,65.0,51.0,0.7919999957084656,-20.0
1.2,60,60,60,go_to_color_detect_up,nothing,true,false,joint 3 +,true,2023-12-11 21:20:15.125372,22.595,0.211,235.0,126.5845947265625,271.4615173339844,26.5775146484375,45.0,65.0,51.0,24.119997024536133,-20.0
1.2,60,60,60,go_to_color_detect_up,nothing,true,false,joint 3 +,true,2023-12-11 21:20:15.822960,22.576,0.208,235.0,104.58677673339844,224.28704833984375,-36.46430206298828,45.0,65.0,51.0,55.99199676513672,-20.0
1.2,60,60,60,go_to_color_detect_up,nothing,true,false,joint 3 -,false,2023-12-11 21:20:17.191864,22.538,0.208,235.0,105.1798095703125,225.55882263183594,-35.49476623535156,45.0,65.0,51.0,54.68000411987305,-20.0
1.2,60,60,60,go_to_color_detect_up,nothing,true,false,joint 3 -,false,2023-12-11 21:20:17.880597,17.734,0.2,235.0,125.63286590576172,269.4205322265625,21.626819610595703,45.0,65.0,51.0,24.799997329711914,-20.0
1.2,60,60,60,go_to_color_detect_up,nothing,true,false,joint 3 -,false,2023-12-11 21:20:19.255770,17.184,0.2,235.0,131.6932373046875,282.4170227050781,84.1947021484375,45.0,65.0,51.0,0.21200670301914215,-20.0
1.2,60,60,60,detecting_color,nothing,false,false,detecting_color,false,2023-12-11 21:20:19.944678,17.184,0.162,235.0,131.69407653808594,282.4188232421875,84.958251953125,45.0,65.0,51.0,0.0,-20.0
1.2,60,60,60,detecting_color,nothing,false,false,detecting_color,false,2023-12-11 21:20:21.325824,16.538,0.162,235.0,131.69407653808594,282.4188232421875,84.958251953125,45.0,65.0,51.0,0.0,-20.0
1.2,60,60,60,detecting_color,nothing,false,false,detecting_color,false,2023-12-11 21:20:22.012824,16.538,0.156,235.0,131.69407653808594,282.4188232421875,84.958251953125,45.0,65.0,51.0,0.0,-20.0
1.2,60,60,60,detecting_color,nothing,false,false,detecting_color,false,2023-12-11 21:20:22.957905,16.234,0.156,235.0,131.69407653808594,282.4188232421875,84.958251953125,45.0,65.0,51.0,0.0,-20.0
1.2,60,60,60,go_to_color_detect_down,nothing,true,false,joint 3 +,false,2023-12-11 21:20:24.344831,16.253,0.157,235.0,131.69407653808594,282.4188232421875,84.958251953125,45.0,65.0,51.0,0.0,-20.0
1.2,60,60,60,go_to_color_detect_down,nothing,true,false,joint 3 +,false,2023-12-11 21:20:25.034869,16.481,0.157,235.0,128.2811279296875,275.0997619628906,36.905704498291016,45.0,65.0,51.0,19.80000114440918,-20.0
1.2,60,60,60,go_to_color_detect_down,nothing,true,false,joint 3 +,false,2023-12-11 21:20:26.427952,16.329,0.157,235.0,108.30864715576172,232.2686309814453,-29.961105346679688,45.0,65.0,51.0,51.88240051269531,-20.0
1.2,60,60,60,go_to_color_detect_up,nothing,true,false,joint 3 -,true,2023-12-11 21:20:27.353975,16.329,0.157,235.0,103.58938598632812,222.14813232421875,-38.041603088378906,45.0,65.0,51.0,56.537601470947266,-20.0
1.2,60,60,60,go_to_color_detect_up,nothing,true,false,joint 3 -,true,2023-12-11 21:20:28.041614,17.07,0.157,235.0,123.45745086669922,264.7553405761719,11.814056396484375,45.0,65.0,51.0,29.119993209838867,-20.0
1.2,60,60,60,go_to_color_detect_up,nothing,true,false,joint 3 -,true,2023-12-11 21:20:29.434200,23.279,0.213,235.0,131.6373748779297,282.2972412109375,78.67947387695312,45.0,65.0,51.0,2.1896066665649414,-20.0
1.2,60,60,60,go_to_red_up,red,true,false,joint 1 +,true,2023-12-11 21:20:30.126397,22.747,0.213,235.0,88.14872741699219,298.8871765136719,84.958251953125,53.5679931640625,74.07199096679688,51.0,0.0,-20.0
1.2,60,60,60,go_to_red_up,red,true,false,joint 1 +,true,2023-12-11 21:20:30.844406,22.747,0.209,235.0,-87.98194885253906,298.9363098144531,84.958251953125,86.40003204345703,107.12003326416016,51.0,0.0,-20.0
1.2,60,60,60,go_to_pick_up_from_red,red,true,false,joint 1 -,false,2023-12-11 21:20:32.234968,22.918,0.209,235.0,-178.4783172607422,255.4392547607422,84.958251953125,104.94243621826172,124.97603607177734,51.0,0.0,-20.0
1.2,60,60,60,go_to_pick_up_from_red,red,true,false,joint 1 -,false,2023-12-11 21:20:32.922958,22.671,0.21,235.0,-96.63349151611328,296.2527770996094,84.958251953125,88.06560516357422,107.3600082397461,51.0,0.0,-20.0
1.2,60,60,60,go_to_pick_up_from_red,red,true,false,joint 1 -,false,2023-12-11 21:20:34.313967,16.424,0.21,235.0,80.86219024658203,300.9402770996094,84.958251953125,54.95995330810547,74.23995208740234,51.0,0.0,-20.0
1.2,60,60,60,go_to_pick_up_from_red,red,true,false,joint 1 -,false,2023-12-11 21:20:35.001966,16.576,0.158,235.0,251.68446350097656,183.73532104492188,84.958251953125,16.130287170410156,35.45588684082031,51.0,0.0,-20.0
1.2,60,60,60,moving_belt,red,false,true,joint 1 -,false,2023-12-11 21:20:36.376583,16.519,0.158,235.0,292.8220520019531,106.5785140991211,84.958251953125,0.0,20.0,51.0,0.0,-20.0
1.2,60,60,60,moving_belt,red,false,true,joint 1 -,false,2023-12-11 21:20:37.078182,16.519,0.158,235.0,292.8220520019531,106.5785140991211,84.958251953125,0.0,20.0,51.0,0.0,-20.0
1.2,60,60,60,moving_belt,red,false,true,joint 1 -,false,2023-12-11 21:20:38.451770,16.747,0.158,235.0,292.8220520019531,106.5785140991211,84.958251953125,0.0,20.0,51.0,0.0,-20.0
1.2,60,60,60,moving_belt,red,false,true,joint 1 -,false,2023-12-11 21:20:39.138770,16.329,0.158,235.0,292.8220520019531,106.5785140991211,84.958251953125,0.0,20.0,51.0,0.0,-20.0
1.2,60,60,60,moving_belt,red,false,true,joint 1 -,false,2023-12-11 21:20:39.828769,16.329,0.158,235.0,292.8220520019531,106.5785140991211,84.958251953125,0.0,20.0,51.0,0.0,-20.0
1.2,60,60,60,go_to_pick_down,red,true,false,joint 3 +,false,2023-12-11 21:20:41.219066,16.424,0.158,235.0,292.1991882324219,106.351806640625,71.01399230957031,0.0,20.0,51.0,5.846400737762451,-20.0
1.2,60,60,60,go_to_pick_down,red,true,false,joint 3 +,false,2023-12-11 21:20:41.905057,16.424,0.158,235.0,277.1723937988281,100.88249969482422,16.995590209960938,0.0,20.0,51.0,27.735668182373047,-20.0
1.2,60,60,60,go_to_pick_up_from_pick_down,red,true,false,joint 3 -,true,2023-12-11 21:20:43.327607,16.481,0.197,235.0,282.48724365234375,102.81694793701172,29.168689727783203,0.0,20.0,51.0,21.85760498046875,-20.0
1.2,60,60,60,go_to_pick_up_from_pick_down,red,true,false,joint 3 -,true,2023-12-11 21:20:44.014283,23.184,0.197,235.0,292.82122802734375,106.57820892333984,84.44917297363281,0.0,20.0,51.0,0.12998256087303162,-20.0
1.2,60,60,60,go_to_color_detect_up,red,true,false,joint 1 +,true,2023-12-11 21:20:44.699033,23.241,0.197,235.0,266.4538879394531,161.57366943359375,84.958251953125,11.23199462890625,31.807994842529297,51.0,0.0,-20.0
1.2,60,60,60,go_to_color_detect_up,red,true,false,joint 1 +,true,2023-12-11 21:20:45.869609,22.557,0.209,235.0,153.4463653564453,271.2156677246094,84.958251953125,40.5000114440918,60.85280990600586,51.0,0.0,-20.0
1.2,60,60,60,go_to_color_detect_up,red,true,false,joint 3 +,true,2023-12-11 21:20:47.245193,22.462,0.209,235.0,131.45249938964844,281.9007873535156,72.00732421875,45.0,65.0,51.0,5.443200588226318,-20.0
1.2,60,60,60,go_to_color_detect_up,red,true,false,joint 3 +,true,2023-12-11 21:20:47.933761,22.557,0.208,235.0,120.05772399902344,257.464599609375,-0.6972427368164062,45.0,65.0,51.0,36.3599967956543,-20.0
1.2,60,60,60,go_to_color_detect_up,red,true,false,joint 3 +,true,2023-12-11 21:20:49.309512,22.386,0.208,235.0,102.0404281616211,218.82640075683594,-40.36376190185547,45.0,65.0,51.0,58.60239791870117,-20.0
1.2,60,60,60,go_to_color_detect_up,red,true,false,joint 3 -,false,2023-12-11 21:20:50.006380,22.576,0.207,235.0,112.72724914550781,241.7443389892578,-20.779006958007812,45.0,65.0,51.0,45.377601623535156,-20.0
1.2,60,60,60,go_to_color_detect_up,red,true,false,joint 3 -,false,2023-12-11 21:20:51.386955,16.709,0.207,235.0,130.38653564453125,279.61480712890625,54.95759582519531,45.0,65.0,51.0,11.2008056640625,-20.0
1.2,60,60,60,detecting_color,red,false,false,detecting_color,false,2023-12-11 21:20:52.082963,17.127,0.163,235.0,131.69407653808594,282.4188232421875,84.958251953125,45.0,65.0,51.0,0.0,-20.0
1.2,60,60,60,detecting_color,red,false,false,detecting_color,false,2023-12-11 21:20:53.473954,16.443,0.163,235.0,131.69407653808594,282.4188232421875,84.958251953125,45.0,65.0,51.0,0.0,-20.0
1.2,60,60,60,go_to_color_detect_down,red,true,false,joint 3 +,false,2023-12-11 21:20:54.162984,16.443,0.156,235.0,131.66583251953125,282.3582763671875,80.5255126953125,45.0,65.0,51.0,1.958399772644043,-20.0
1.2,60,60,60,go_to_color_detect_down,red,true,false,joint 3 +,false,2023-12-11 21:20:54.866146,16.462,0.156,235.0,124.56407928466797,267.1285095214844,16.5810546875,45.0,65.0,51.0,28.439992904663086,-20.0
1.2,60,60,60,go_to_color_detect_down,red,true,false,joint 3 +,false,2023-12-11 21:20:55.802027,16.462,0.156,235.0,104.31616973876953,223.7067413330078,-36.89878845214844,45.0,65.0,51.0,56.279197692871094,-20.0
1.2,60,60,60,go_to_color_detect_up,red,true,false,joint 3 -,true,2023-12-11 21:20:57.237253,16.462,0.157,235.0,107.1850814819336,229.859130859375,-32.032310485839844,45.0,65.0,51.0,52.30400466918945,-20.0
1.2,60,60,60,go_to_color_detect_up,red,true,false,joint 3 -,true,2023-12-11 21:20:57.931253,23.431,0.157,235.0,127.48970031738281,273.40252685546875,31.7994384765625,45.0,65.0,51.0,20.48000144958496,-20.0
1.2,60,60,60,go_to_color_detect_up,red,true,false,joint 3 -,true,2023-12-11 21:20:59.303255,23.146,0.212,235.0,131.6932373046875,282.4170227050781,84.1947021484375,45.0,65.0,51.0,0.21200670301914215,-20.0
1.2,60,60,60,go_to_green_up,green,true,false,joint 1 +,true,2023-12-11 21:20:59.997369,22.918,0.212,235.0,51.075096130371094,307.4004821777344,84.958251953125,60.56639099121094,81.24319458007812,51.0,0.0,-20.0
1.2,60,60,60,go_to_green_up,green,true,false,joint 1 +,true,2023-12-11 21:21:01.386358,22.842,0.208,235.0,-75.1415786743164,302.41937255859375,84.958251953125,83.95360565185547,104.12000274658203,51.0,0.0,-20.0
1.2,60,60,60,go_to_pick_up_from_green,green,true,false,joint 1 -,false,2023-12-11 21:21:02.078017,22.842,0.208,235.0,-23.5250301361084,310.7254333496094,84.958251953125,74.32960510253906,93.76800537109375,51.0,0.0,-20.0
1.2,60,60,60,go_to_pick_up_from_green,green,true,false,joint 1 -,false,2023-12-11 21:21:03.464426,16.557,0.159,235.0,152.40406799316406,271.802734375,84.958251953125,40.71996307373047,59.999961853027344,51.0,0.0,-20.0
1.2,60,60,60,go_to_pick_up_from_green,green,true,false,joint 1 -,false,2023-12-11 21:21:04.156160,16.557,0.159,235.0,274.86956787109375,146.80072021484375,84.958251953125,8.105522155761719,27.6295223236084,51.0,0.0,-20.0
1.2,60,60,60,moving_belt,green,false,true,joint 1 -,false,2023-12-11 21:21:05.532711,16.5,0.158,235.0,292.8220520019531,106.5785140991211,84.958251953125,0.0,20.0,51.0,0.0,-20.0
1.2,60,60,60,moving_belt,green,false,true,joint 1 -,false,2023-12-11 21:21:06.232702,16.557,0.158,235.0,292.8220520019531,106.5785140991211,84.958251953125,0.0,20.0,51.0,0.0,-20.0
1.2,60,60,60,moving_belt,green,false,true,joint 1 -,false,2023-12-11 21:21:06.932795,16.557,0.158,235.0,292.8220520019531,106.5785140991211,84.958251953125,0.0,20.0,51.0,0.0,-20.0
1.2,60,60,60,moving_belt,green,false,true,joint 1 -,false,2023-12-11 21:21:08.348418,16.386,0.158,235.0,292.8220520019531,106.5785140991211,84.958251953125,0.0,20.0,51.0,0.0,-20.0
1.2,60,60,60,moving_belt,green,false,true,joint 1 -,false,2023-12-11 21:21:09.090409,16.386,0.158,235.0,292.8220520019531,106.5785140991211,84.958251953125,0.0,20.0,51.0,0.0,-20.0
1.2,60,60,60,go_to_pick_down,green,true,false,joint 3 +,false,2023-12-11 21:21:10.461733,16.557,0.156,235.0,288.5682373046875,105.0302505493164,48.758792877197266,0.0,20.0,51.0,14.90044116973877,-20.0
1.2,60,60,60,go_to_pick_up_from_pick_down,green,true,false,joint 3 -,true,2023-12-11 21:21:11.149733,16.443,0.156,235.0,275.5026550292969,100.27477264404297,13.691230773925781,0.0,20.0,51.0,28.985599517822266,-20.0
1.2,60,60,60,go_to_pick_up_from_pick_down,green,true,false,joint 3 -,true,2023-12-11 21:21:12.522961,19.937,0.158,235.0,291.1410827636719,105.96669006347656,62.09515380859375,0.0,20.0,51.0,8.44717025756836,-20.0
1.2,60,60,60,go_to_color_detect_up,green,true,false,joint 1 +,true,2023-12-11 21:21:13.208937,23.07,0.158,235.0,291.59796142578125,109.88336944580078,84.958251953125,0.6479988098144531,20.7919979095459,51.0,0.0,-20.0
1.2,60,60,60,go_to_color_detect_up,green,true,false,joint 1 +,true,2023-12-11 21:21:13.897522,22.671,0.209,235.0,212.5206756591797,227.900634765625,84.958251953125,27.000011444091797,47.71281051635742,51.0,0.0,-20.0
1.2,60,60,60,go_to_color_detect_up,green,true,false,joint 1 +,true,2023-12-11 21:21:15.300562,22.804,0.209,235.0,131.83592224121094,282.3526611328125,84.958251953125,44.971214294433594,64.99281311035156,51.0,0.0,-20.0
1.2,60,60,60,go_to_color_detect_up,green,true,false,joint 3 +,true,2023-12-11 21:21:15.986062,22.576,0.208,235.0,130.10104370117188,279.0025634765625,51.882442474365234,45.0,65.0,51.0,13.622401237487793,-20.0
1.2,60,60,60,go_to_color_detect_up,green,true,false,joint 3 +,true,2023-12-11 21:21:17.377920,22.291,0.208,235.0,109.53883361816406,234.90676879882812,-27.57769775390625,45.0,65.0,51.0,50.45920181274414,-20.0
1.2,60,60,60,go_to_color_detect_up,green,true,false,joint 3 -,false,2023-12-11 21:21:18.077552,22.291,0.207,235.0,102.29886627197266,219.380615234375,-39.986793518066406,45.0,65.0,51.0,58.049598693847656,-20.0
1.2,60,60,60,go_to_color_detect_up,green,true,false,joint 3 -,false,2023-12-11 21:21:19.550554,16.785,0.207,235.0,120.53343200683594,258.4847717285156,0.8949050903320312,45.0,65.0,51.0,34.15999221801758,-20.0
1.2,60,60,60,go_to_color_detect_up,green,true,false,joint 3 -,false,2023-12-11 21:21:20.244646,16.785,0.162,235.0,131.62403869628906,282.2686462402344,77.98027801513672,45.0,65.0,51.0,2.4480066299438477,-20.0
1.2,60,60,60,detecting_color,green,false,false,detecting_color,false,2023-12-11 21:21:20.943645,17.241,0.162,235.0,131.69407653808594,282.4188232421875,84.958251953125,45.0,65.0,51.0,0.0,-20.0
1.2,60,60,60,go_to_color_detect_down,green,true,false,joint 3 +,false,2023-12-11 21:21:22.319654,16.576,0.158,235.0,131.69407653808594,282.4188232421875,84.958251953125,45.0,65.0,51.0,0.01439999882131815,-20.0
1.2,60,60,60,go_to_color_detect_down,green,true,false,joint 3 +,false,2023-12-11 21:21:23.011644,16.557,0.158,235.0,129.00027465820312,276.6419372558594,42.14058303833008,45.0,65.0,51.0,17.640003204345703,-20.0
1.2,60,60,60,go_to_color_detect_down,green,true,false,joint 3 +,false,2023-12-11 21:21:24.424643,16.595,0.158,235.0,109.53883361816406,234.90676879882812,-27.57769775390625,45.0,65.0,51.0,50.45920181274414,-20.0
1.2,60,60,60,go_to_color_detect_up,green,true,false,joint 3 -,true,2023-12-11 21:21:25.114652,16.595,0.158,235.0,103.15708923339844,221.22108459472656,-38.70500946044922,45.0,65.0,51.0,57.041603088378906,-20.0
1.2,60,60,60,go_to_color_detect_up,green,true,false,joint 3 -,true,2023-12-11 21:21:26.517259,23.336,0.213,235.0,122.66361236572266,263.0529479980469,8.632804870605469,45.0,65.0,51.0,30.55999183654785,-20.0
1.2,60,60,60,go_to_color_detect_up,green,true,false,joint 3 -,true,2023-12-11 21:21:27.267041,23.127,0.213,235.0,131.60848999023438,282.23529052734375,77.24435424804688,45.0,65.0,51.0,2.72080659866333,-20.0
1.2,60,60,60,go_to_blue_up,blue,true,false,joint 1 +,true,2023-12-11 21:21:27.953377,22.88,0.213,235.0,93.1689224243164,297.36053466796875,84.958251953125,52.60319519042969,73.0783920288086,51.0,0.0,-20.0
1.2,60,60,60,go_to_pick_up_from_blue,blue,true,false,joint 1 -,false,2023-12-11 21:21:29.356388,22.443,0.207,235.0,27.627050399780273,310.38763427734375,84.958251953125,64.91360473632812,84.85600280761719,51.0,0.0,-20.0
1.2,60,60,60,go_to_pick_up_from_blue,blue,true,false,joint 1 -,false,2023-12-11 21:21:30.061235,21.703,0.207,235.0,127.14244842529297,284.4969787597656,84.958251953125,45.920005798339844,65.20000457763672,51.0,0.0,-20.0
1.2,60,60,60,go_to_pick_up_from_blue,blue,true,false,joint 1 -,false,2023-12-11 21:21:31.486234,16.519,0.159,235.0,273.31085205078125,149.6826629638672,84.958251953125,8.707956314086914,28.21435546875,51.0,0.0,-20.0
1.2,60,60,60,moving_belt,blue,false,true,joint 1 -,false,2023-12-11 21:21:32.177822,16.633,0.159,235.0,292.8220520019531,106.5785140991211,84.958251953125,0.0,20.0,51.0,0.0,-20.0
1.2,60,60,60,moving_belt,blue,false,true,joint 1 -,false,2023-12-11 21:21:32.943400,16.633,0.159,235.0,292.8220520019531,106.5785140991211,84.958251953125,0.0,20.0,51.0,0.0,-20.0
1.2,60,60,60,moving_belt,blue,false,true,joint 1 -,false,2023-12-11 21:21:34.323410,16.5,0.159,235.0,292.8220520019531,106.5785140991211,84.958251953125,0.0,20.0,51.0,0.0,-20.0
1.2,60,60,60,moving_belt,blue,false,true,joint 1 -,false,2023-12-11 21:21:35.008399,16.424,0.157,235.0,292.8220520019531,106.5785140991211,84.958251953125,0.0,20.0,51.0,0.0,-20.0
1.2,60,60,60,moving_belt,blue,false,true,joint 1 -,false,2023-12-11 21:21:36.396004,16.291,0.157,235.0,292.8220520019531,106.5785140991211,84.958251953125,0.0,20.0,51.0,0.0,-20.0
1.2,60,60,60,go_to_pick_down,blue,true,false,joint 3 +,false,2023-12-11 21:21:37.318327,16.424,0.156,235.0,289.8989562988281,105.51459503173828,54.877235412597656,0.0,20.0,51.0,12.398401260375977,-20.0
1.2,60,60,60,go_to_pick_up_from_pick_down,blue,true,false,joint 3 -,true,2023-12-11 21:21:38.008328,16.424,0.156,235.0,275.5155944824219,100.27947998046875,13.716041564941406,0.0,20.0,51.0,28.999784469604492,-20.0
1.2,60,60,60,go_to_pick_up_from_pick_down,blue,true,false,joint 3 -,true,2023-12-11 21:21:39.419326,23.374,0.214,235.0,289.96868896484375,105.53997802734375,55.23442840576172,0.0,20.0,51.0,11.093367576599121,-20.0
1.2,60,60,60,go_to_color_detect_up,blue,true,false,joint 1 +,true,2023-12-11 21:21:40.128327,23.051,0.214,235.0,292.5532531738281,107.31410217285156,84.958251953125,0.1439990997314453,20.215999603271484,51.0,0.0,-20.0
1.2,60,60,60,go_to_color_detect_up,blue,true,false,joint 1 +,true,2023-12-11 21:21:41.559331,22.538,0.208,235.0,239.40846252441406,199.4676055908203,84.958251953125,19.799999237060547,40.52000045776367,51.0,0.0,-20.0
1.2,60,60,60,go_to_color_detect_up,blue,true,false,joint 1 +,true,2023-12-11 21:21:42.247334,22.652,0.208,235.0,132.97027587890625,281.8202209472656,84.958251953125,44.740814208984375,64.82001495361328,51.0,0.0,-20.0
1.2,60,60,60,go_to_color_detect_up,blue,true,false,joint 3 +,true,2023-12-11 21:21:42.950334,22.462,0.208,235.0,130.50416564941406,279.8670654296875,56.32526397705078,45.0,65.0,51.0,11.808001518249512,-20.0
1.2,60,60,60,go_to_color_detect_up,blue,true,false,joint 3 +,true,2023-12-11 21:21:44.329324,22.348,0.207,235.0,113.66706848144531,243.7598114013672,-18.585105895996094,45.0,65.0,51.0,45.41200256347656,-20.0
1.2,60,60,60,go_to_color_detect_up,blue,true,false,joint 3 -,false,2023-12-11 21:21:45.022324,22.405,0.207,235.0,101.84646606445312,218.4104461669922,-40.64399719238281,45.0,65.0,51.0,58.5968017578125,-20.0
1.2,60,60,60,go_to_color_detect_up,blue,true,false,joint 3 -,false,2023-12-11 21:21:46.407323,22.424,0.207,235.0,118.68405151367188,254.5187530517578,-5.057975769042969,45.0,65.0,51.0,37.03999710083008,-20.0
1.2,60,60,60,go_to_color_detect_up,blue,true,false,joint 3 -,false,2023-12-11 21:21:47.102331,16.842,0.207,235.0,131.32591247558594,281.6293029785156,68.978271484375,45.0,65.0,51.0,5.8240065574646,-20.0
1.2,60,60,60,detecting_color,blue,false,false,detecting_color,false,2023-12-11 21:21:48.489322,17.051,0.162,235.0,131.69407653808594,282.4188232421875,84.958251953125,45.0,65.0,51.0,0.0,-20.0
1.2,60,60,60,go_to_color_detect_down,blue,true,false,joint 3 +,false,2023-12-11 21:21:49.179363,16.5,0.162,235.0,131.69407653808594,282.4188232421875,84.958251953125,45.0,65.0,51.0,0.0,-20.0
1.2,60,60,60,go_to_color_detect_down,blue,true,false,joint 3 +,false,2023-12-11 21:21:50.556578,16.519,0.156,235.0,128.02130126953125,274.54254150390625,35.16377639770508,45.0,65.0,51.0,20.520000457763672,-20.0
1.2,60,60,60,go_to_color_detect_down,blue,true,false,joint 3 +,false,2023-12-11 21:21:51.257108,16.519,0.156,235.0,107.91748046875,231.4297637939453,-30.693328857421875,45.0,65.0,51.0,52.327999114990234,-20.0
1.2,60,60,60,go_to_color_detect_up,blue,true,false,joint 3 -,true,2023-12-11 21:21:51.959114,16.481,0.156,235.0,102.95983123779297,220.7980499267578,-39.003746032714844,45.0,65.0,51.0,57.272003173828125,-20.0
1.2,60,60,60,go_to_color_detect_up,blue,true,false,joint 3 -,true,2023-12-11 21:21:52.656111,18.969,0.157,235.0,124.5842514038086,267.1717834472656,16.671920776367188,45.0,65.0,51.0,26.95999526977539,-20.0
1.2,60,60,60,go_to_color_detect_up,blue,true,false,joint 3 -,true,2023-12-11 21:21:54.379109,23.032,0.212,235.0,131.6662139892578,282.3591003417969,80.55626678466797,45.0,65.0,51.0,1.5008066892623901,-20.0
1.2,60,60,60,go_to_red_up,red,true,false,joint 1 +,true,2023-12-11 21:21:55.076189,23.032,0.212,235.0,97.86534881591797,295.8481140136719,84.958251953125,51.69599151611328,72.14239501953125,51.0,0.0,-20.0
1.2,60,60,60,go_to_red_up,red,true,false,joint 1 +,true,2023-12-11 21:21:56.535117,22.652,0.208,235.0,-95.416748046875,296.6468811035156,84.958251953125,87.83043670654297,108.52643585205078,51.0,0.0,-20.0
1.2,60,60,60,go_to_pick_up_from_red,red,true,false,joint 1 -,false,2023-12-11 21:21:57.225115,22.823,0.208,235.0,-178.6280975341797,255.33453369140625,84.958251953125,104.97603607177734,124.9952392578125,51.0,0.0,-20.0
1.2,60,60,60,go_to_pick_up_from_red,red,true,false,joint 1 -,false,2023-12-11 21:21:57.958648,22.823,0.208,235.0,-113.58760833740234,290.17510986328125,84.958251953125,91.37760925292969,110.74401092529297,51.0,0.0,-20.0
1.2,60,60,60,go_to_pick_up_from_red,red,true,false,joint 1 -,false,2023-12-11 21:21:59.337657,16.538,0.161,235.0,88.3993148803711,298.8131408691406,84.958251953125,53.51995086669922,72.7999496459961,51.0,0.0,-20.0
1.2,60,60,60,go_to_pick_up_from_red,red,true,false,joint 1 -,false,2023-12-11 21:22:00.118660,16.538,0.161,235.0,242.3073272705078,195.93592834472656,84.958251953125,18.95989227294922,38.239891052246094,51.0,0.0,-20.0
1.2,60,60,60,moving_belt,red,false,true,joint 1 -,false,2023-12-11 21:22:01.494660,16.443,0.158,235.0,292.8220520019531,106.5785140991211,84.958251953125,0.0,20.0,51.0,0.0,-20.0
1.2,60,60,60,moving_belt,red,false,true,joint 1 -,false,2023-12-11 21:22:01.494660,16.443,0.158,235.0,292.8220520019531,106.5785140991211,84.958251953125,0.0,20.0,51.0,0.0,-20.0
1.2,60,60,60,moving_belt,red,false,true,joint 1 -,false,2023-12-11 21:22:03.373659,16.443,0.157,235.0,292.8220520019531,106.5785140991211,84.958251953125,0.0,20.0,51.0,0.0,-20.0
1.2,60,60,60,moving_belt,red,false,true,joint 1 -,false,2023-12-11 21:22:04.060224,16.348,0.157,235.0,292.8220520019531,106.5785140991211,84.958251953125,0.0,20.0,51.0,0.0,-20.0
1.2,60,60,60,moving_belt,red,false,true,joint 1 -,false,2023-12-11 21:22:05.434232,16.367,0.155,235.0,292.8220520019531,106.5785140991211,84.958251953125,0.0,20.0,51.0,0.0,-20.0
1.2,60,60,60,go_to_pick_down,red,true,false,joint 3 +,false,2023-12-11 21:22:06.131343,16.367,0.155,235.0,292.5893249511719,106.49381256103516,76.42871856689453,0.0,20.0,51.0,3.643200397491455,-20.0
1.2,60,60,60,go_to_pick_down,red,true,false,joint 3 +,false,2023-12-11 21:22:06.817341,16.386,0.155,235.0,277.1723937988281,100.88249969482422,16.995590209960938,0.0,20.0,51.0,27.735668182373047,-20.0
1.2,60,60,60,go_to_pick_up_from_pick_down,red,true,false,joint 3 -,true,2023-12-11 21:22:08.327934,16.462,0.157,235.0,282.0883483886719,102.67176055908203,28.144855499267578,0.0,20.0,51.0,22.304004669189453,-20.0
1.2,60,60,60,go_to_pick_up_from_pick_down,red,true,false,joint 3 -,true,2023-12-11 21:22:09.015924,23.355,0.157,235.0,292.7974853515625,106.569580078125,82.18573760986328,0.0,20.0,51.0,0.9114596247673035,-20.0
1.2,60,60,60,go_to_color_detect_up,red,true,false,joint 1 +,true,2023-12-11 21:22:10.401528,22.842,0.21,235.0,264.8161315917969,164.244140625,84.958251953125,11.807994842529297,32.39839553833008,51.0,0.0,-20.0
1.2,60,60,60,go_to_color_detect_up,red,true,false,joint 1 +,true,2023-12-11 21:22:11.093537,22.215,0.21,235.0,151.77345275878906,272.1553649902344,84.958251953125,40.85280990600586,61.19121170043945,51.0,0.0,-20.0
1.2,60,60,60,go_to_color_detect_up,red,true,false,joint 3 +,true,2023-12-11 21:22:12.468302,22.443,0.208,235.0,131.4139404296875,281.8180847167969,71.01399230957031,45.0,65.0,51.0,5.846400737762451,-20.0
1.2,60,60,60,go_to_color_detect_up,red,true,false,joint 3 +,true,2023-12-11 21:22:13.157301,22.443,0.208,235.0,120.05772399902344,257.464599609375,-0.6972427368164062,45.0,65.0,51.0,36.3599967956543,-20.0
1.2,60,60,60,go_to_color_detect_up,red,true,false,joint 3 +,true,2023-12-11 21:22:14.528292,22.291,0.205,235.0,102.159423828125,219.08157348632812,-40.19071960449219,45.0,65.0,51.0,58.487998962402344,-20.0
1.2,60,60,60,go_to_color_detect_up,red,true,false,joint 3 -,false,2023-12-11 21:22:15.216433,21.665,0.205,235.0,112.2531509399414,240.7276611328125,-21.851058959960938,45.0,65.0,51.0,45.996803283691406,-20.0
1.2,60,60,60,go_to_color_detect_up,red,true,false,joint 3 -,false,2023-12-11 21:22:16.587010,16.709,0.158,235.0,130.25283813476562,279.3280944824219,53.47834777832031,45.0,65.0,51.0,11.776005744934082,-20.0
1.2,60,60,60,detecting_color,red,false,false,detecting_color,false,2023-12-11 21:22:17.283003,16.709,0.158,235.0,131.69407653808594,282.4188232421875,84.958251953125,45.0,65.0,51.0,0.0,-20.0
1.2,60,60,60,detecting_color,red,false,false,detecting_color,false,2023-12-11 21:22:17.981023,16.861,0.157,235.0,131.69407653808594,282.4188232421875,84.958251953125,45.0,65.0,51.0,0.0,-20.0
1.2,60,60,60,go_to_color_detect_down,red,true,false,joint 3 +,false,2023-12-11 21:22:19.360597,16.386,0.157,235.0,131.6724395751953,282.3724365234375,81.0794677734375,45.0,65.0,51.0,1.7279998064041138,-20.0
1.2,60,60,60,go_to_color_detect_down,red,true,false,joint 3 +,false,2023-12-11 21:22:20.060596,16.405,0.157,235.0,122.64108276367188,263.004638671875,8.545120239257812,45.0,65.0,51.0,32.03998947143555,-20.0
1.2,60,60,60,go_to_color_detect_down,red,true,false,joint 3 +,false,2023-12-11 21:22:21.451589,16.519,0.157,235.0,103.14614868164062,221.19761657714844,-38.721649169921875,45.0,65.0,51.0,57.49919509887695,-20.0
1.2,60,60,60,go_to_color_detect_up,red,true,false,joint 3 -,true,2023-12-11 21:22:22.144595,16.519,0.157,235.0,107.55679321289062,230.65628051757812,-31.357887268066406,45.0,65.0,51.0,51.85760498046875,-20.0
1.2,60,60,60,go_to_color_detect_up,red,true,false,joint 3 -,true,2023-12-11 21:22:23.548102,22.956,0.168,235.0,129.2256317138672,277.125244140625,43.93274688720703,45.0,65.0,51.0,15.5296049118042,-20.0
1.2,60,60,60,go_to_green_up,green,true,false,joint 1 +,true,2023-12-11 21:22:24.243248,22.88,0.168,235.0,131.69407653808594,282.4188232421875,84.958251953125,45.0,65.0,51.0,0.0,-20.0
1.2,60,60,60,go_to_green_up,green,true,false,joint 1 +,true,2023-12-11 21:22:24.932857,22.88,0.21,235.0,51.075096130371094,307.4004821777344,84.958251953125,60.56639099121094,81.24319458007812,51.0,0.0,-20.0
1.2,60,60,60,go_to_green_up,green,true,false,joint 1 +,true,2023-12-11 21:22:26.341848,22.519,0.21,235.0,-79.68482208251953,301.254150390625,84.958251953125,84.81600952148438,104.88160705566406,51.0,0.0,-20.0
1.2,60,60,60,go_to_pick_up_from_green,green,true,false,joint 1 -,false,2023-12-11 21:22:27.050895,22.253,0.206,235.0,-20.478334426879883,310.94110107421875,84.958251953125,73.76800537109375,93.19200897216797,51.0,0.0,-20.0
1.2,60,60,60,go_to_pick_up_from_green,green,true,false,joint 1 -,false,2023-12-11 21:22:28.433402,16.462,0.206,235.0,155.80751037597656,269.86614990234375,84.958251953125,39.999961853027344,59.27996063232422,51.0,0.0,-20.0
1.2,60,60,60,go_to_pick_up_from_green,green,true,false,joint 1 -,false,2023-12-11 21:22:29.181976,16.538,0.158,235.0,282.24407958984375,132.06817626953125,84.958251953125,5.075922012329102,24.700721740722656,51.0,0.0,-20.0
1.2,60,60,60,moving_belt,green,false,true,joint 1 -,false,2023-12-11 21:22:29.967976,16.538,0.158,235.0,292.8220520019531,106.5785140991211,84.958251953125,0.0,20.0,51.0,0.0,-20.0
1.2,60,60,60,moving_belt,green,false,true,joint 1 -,false,2023-12-11 21:22:31.502113,16.823,0.159,235.0,292.8220520019531,106.5785140991211,84.958251953125,0.0,20.0,51.0,0.0,-20.0
1.2,60,60,60,moving_belt,green,false,true,joint 1 -,false,2023-12-11 21:22:32.244112,16.823,0.159,235.0,292.8220520019531,106.5785140991211,84.958251953125,0.0,20.0,51.0,0.0,-20.0
1.2,60,60,60,moving_belt,green,false,true,joint 1 -,false,2023-12-11 21:22:33.295103,16.348,0.156,235.0,292.8220520019531,106.5785140991211,84.958251953125,0.0,20.0,51.0,0.0,-20.0
1.2,60,60,60,go_to_pick_down,green,true,false,joint 3 +,false,2023-12-11 21:22:33.993300,16.557,0.156,235.0,292.8220520019531,106.5785140991211,84.958251953125,0.0,20.0,51.0,0.0,-20.0
1.2,60,60,60,go_to_pick_down,green,true,false,joint 3 +,false,2023-12-11 21:22:35.372295,16.291,0.157,235.0,287.3734130859375,104.59537506103516,44.07931900024414,0.0,20.0,51.0,16.747360229492188,-20.0
1.2,60,60,60,go_to_pick_up_from_pick_down,green,true,false,joint 3 -,true,2023-12-11 21:22:36.067871,16.291,0.157,235.0,275.5531311035156,100.29314422607422,13.788192749023438,0.0,20.0,51.0,28.91360092163086,-20.0
1.2,60,60,60,go_to_pick_up_from_pick_down,green,true,false,joint 3 -,true,2023-12-11 21:22:37.459476,23.127,0.214,235.0,290.2409973144531,105.63908386230469,56.674217224121094,0.0,20.0,51.0,10.535327911376953,-20.0
1.2,60,60,60,go_to_color_detect_up,green,true,false,joint 1 +,true,2023-12-11 21:22:38.153456,23.127,0.214,235.0,290.6766052246094,112.29800415039062,84.958251953125,1.1231975555419922,21.31039810180664,51.0,0.0,-20.0
1.2,60,60,60,go_to_color_detect_up,green,true,false,joint 1 +,true,2023-12-11 21:22:39.536446,22.367,0.207,235.0,218.18072509765625,222.4879608154297,84.958251953125,25.560009002685547,46.28001022338867,51.0,0.0,-20.0
1.2,60,60,60,go_to_color_detect_up,green,true,false,joint 1 +,true,2023-12-11 21:22:40.241455,22.595,0.207,235.0,132.26156616210938,282.15350341796875,84.958251953125,44.88481140136719,64.93521118164062,51.0,0.0,-20.0
1.2,60,60,60,go_to_color_detect_up,green,true,false,joint 3 +,true,2023-12-11 21:22:40.968647,22.595,0.207,235.0,129.41534423828125,277.5320739746094,45.51007080078125,45.0,65.0,51.0,16.243202209472656,-20.0
1.2,60,60,60,go_to_color_detect_up,green,true,false,joint 3 +,true,2023-12-11 21:22:42.401285,22.234,0.205,235.0,110.4033203125,236.76068115234375,-25.82636260986328,45.0,65.0,51.0,49.43840026855469,-20.0
1.2,60,60,60,go_to_color_detect_up,green,true,false,joint 3 -,false,2023-12-11 21:22:43.134284,22.196,0.205,235.0,102.7752914428711,220.40231323242188,-39.280967712402344,45.0,65.0,51.0,57.48800277709961,-20.0
1.2,60,60,60,go_to_color_detect_up,green,true,false,joint 3 -,false,2023-12-11 21:22:44.526860,21.228,0.206,235.0,121.83623504638672,261.2786560058594,5.4997711181640625,45.0,65.0,51.0,31.999990463256836,-20.0
1.2,60,60,60,go_to_color_detect_up,green,true,false,joint 3 -,false,2023-12-11 21:22:45.226851,16.994,0.206,235.0,131.5697479248047,282.1522216796875,75.6624755859375,45.0,65.0,51.0,3.3096065521240234,-20.0
1.2,60,60,60,detecting_color,green,false,false,detecting_color,false,2023-12-11 21:22:46.616860,17.032,0.162,235.0,131.69407653808594,282.4188232421875,84.958251953125,45.0,65.0,51.0,0.0,-20.0
1.2,60,60,60,go_to_color_detect_down,green,true,false,joint 3 +,false,2023-12-11 21:22:47.314420,16.519,0.162,235.0,131.69407653808594,282.4188232421875,84.958251953125,45.0,65.0,51.0,0.0,-20.0
1.2,60,60,60,go_to_color_detect_down,green,true,false,joint 3 +,false,2023-12-11 21:22:48.041428,16.519,0.157,235.0,127.75225067138672,273.965576171875,33.42970657348633,45.0,65.0,51.0,21.239999771118164,-20.0
1.2,60,60,60,go_to_color_detect_down,green,true,false,joint 3 +,false,2023-12-11 21:22:49.433427,16.424,0.157,235.0,107.53620147705078,230.6121063232422,-31.395530700683594,45.0,65.0,51.0,52.75919723510742,-20.0
1.2,60,60,60,go_to_color_detect_up,green,true,false,joint 3 -,true,2023-12-11 21:22:50.327476,16.443,0.157,235.0,102.95983123779297,220.7980499267578,-39.003746032714844,45.0,65.0,51.0,57.272003173828125,-20.0
1.2,60,60,60,go_to_color_detect_up,green,true,false,joint 3 -,true,2023-12-11 21:22:51.018447,21.361,0.158,235.0,124.5842514038086,267.1717834472656,16.671920776367188,45.0,65.0,51.0,26.95999526977539,-20.0
1.2,60,60,60,go_to_color_detect_up,green,true,false,joint 3 -,true,2023-12-11 21:22:52.408684,22.804,0.21,235.0,131.6662139892578,282.3591003417969,80.55626678466797,45.0,65.0,51.0,1.5008066892623901,-20.0
1.2,60,60,60,go_to_blue_up,blue,true,false,joint 1 +,true,2023-12-11 21:22:53.110635,22.747,0.21,235.0,100.09319305419922,295.101806640625,84.958251953125,51.26399230957031,71.69599151611328,51.0,0.0,-20.0
1.2,60,60,60,go_to_pick_up_from_blue,blue,true,false,joint 1 -,false,2023-12-11 21:22:54.502627,22.367,0.206,235.0,28.797012329101562,310.2812805175781,84.958251953125,64.69760131835938,84.5968017578125,51.0,0.0,-20.0
1.2,60,60,60,go_to_pick_up_from_blue,blue,true,false,joint 1 -,false,2023-12-11 21:22:55.222634,22.367,0.206,235.0,137.7748565673828,279.5028076171875,84.958251953125,43.76000213623047,63.040000915527344,51.0,0.0,-20.0
1.2,60,60,60,go_to_pick_up_from_blue,blue,true,false,joint 1 -,false,2023-12-11 21:22:55.908625,16.652,0.206,235.0,269.1148986816406,157.10154724121094,84.958251953125,10.275156021118164,29.73835563659668,51.0,0.0,-20.0
1.2,60,60,60,moving_belt,blue,false,true,joint 1 -,false,2023-12-11 21:22:57.328001,16.424,0.158,235.0,292.8220520019531,106.5785140991211,84.958251953125,0.0,20.0,51.0,0.0,-20.0
1.2,60,60,60,moving_belt,blue,false,true,joint 1 -,false,2023-12-11 21:22:58.016594,16.633,0.158,235.0,292.8220520019531,106.5785140991211,84.958251953125,0.0,20.0,51.0,0.0,-20.0
1.2,60,60,60,moving_belt,blue,false,true,joint 1 -,false,2023-12-11 21:22:59.504252,16.519,0.158,235.0,292.8220520019531,106.5785140991211,84.958251953125,0.0,20.0,51.0,0.0,-20.0
1.2,60,60,60,moving_belt,blue,false,true,joint 1 -,false,2023-12-11 21:23:00.291252,16.424,0.158,235.0,292.8220520019531,106.5785140991211,84.958251953125,0.0,20.0,51.0,0.0,-20.0
1.2,60,60,60,moving_belt,blue,false,true,joint 1 -,false,2023-12-11 21:23:01.175879,16.424,0.158,235.0,292.8220520019531,106.5785140991211,84.958251953125,0.0,20.0,51.0,0.0,-20.0
1.2,60,60,60,go_to_pick_down,blue,true,false,joint 3 +,false,2023-12-11 21:23:02.569581,16.196,0.158,235.0,291.2804260253906,106.01741027832031,63.05773162841797,0.0,20.0,51.0,9.072001457214355,-20.0
1.2,60,60,60,go_to_pick_down,blue,true,false,joint 3 +,false,2023-12-11 21:23:03.295580,16.519,0.157,235.0,275.5155944824219,100.27947998046875,13.716041564941406,0.0,20.0,51.0,28.999784469604492,-20.0
1.2,60,60,60,go_to_pick_up_from_pick_down,blue,true,false,joint 3 -,true,2023-12-11 21:23:04.011149,17.051,0.157,235.0,287.47308349609375,104.63164520263672,44.44744110107422,0.0,20.0,51.0,15.377604484558105,-20.0
1.2,60,60,60,go_to_color_detect_up,blue,true,false,joint 1 +,true,2023-12-11 21:23:05.400849,22.994,0.21,235.0,292.5532531738281,107.31410217285156,84.958251953125,0.1439990997314453,20.215999603271484,51.0,0.0,-20.0
1.2,60,60,60,go_to_color_detect_up,blue,true,false,joint 1 +,true,2023-12-11 21:23:06.090840,22.481,0.21,235.0,239.40846252441406,199.4676055908203,84.958251953125,19.799999237060547,40.52000045776367,51.0,0.0,-20.0
1.2,60,60,60,go_to_color_detect_up,blue,true,false,joint 1 +,true,2023-12-11 21:23:07.492241,22.386,0.207,235.0,136.78269958496094,279.98968505859375,84.958251953125,43.96321487426758,64.12881469726562,51.0,0.0,-20.0
1.2,60,60,60,go_to_color_detect_up,blue,true,false,joint 3 +,true,2023-12-11 21:23:08.191249,22.386,0.207,235.0,130.50416564941406,279.8670654296875,56.32526397705078,45.0,65.0,51.0,11.808001518249512,-20.0
1.2,60,60,60,go_to_color_detect_up,blue,true,false,joint 3 +,true,2023-12-11 21:23:09.591249,22.196,0.205,235.0,113.66706848144531,243.7598114013672,-18.585105895996094,45.0,65.0,51.0,45.41200256347656,-20.0
1.2,60,60,60,go_to_color_detect_up,blue,true,false,joint 3 -,false,2023-12-11 21:23:10.287317,22.196,0.205,235.0,101.56586456298828,217.80868530273438,-41.04534149169922,45.0,65.0,51.0,58.985599517822266,-20.0
1.2,60,60,60,go_to_color_detect_up,blue,true,false,joint 3 -,false,2023-12-11 21:23:10.977826,22.196,0.205,235.0,118.20213317871094,253.4852752685547,-6.511238098144531,45.0,65.0,51.0,37.7599983215332,-20.0
1.2,60,60,60,go_to_color_detect_up,blue,true,false,joint 3 -,false,2023-12-11 21:23:12.392823,17.487,0.159,235.0,131.27333068847656,281.5165710449219,67.87898254394531,45.0,65.0,51.0,6.240806579589844,-20.0
1.2,60,60,60,detecting_color,blue,false,false,detecting_color,false,2023-12-11 21:23:13.092833,17.108,0.159,235.0,131.69407653808594,282.4188232421875,84.958251953125,45.0,65.0,51.0,0.0,-20.0
1.2,60,60,60,detecting_color,blue,false,false,detecting_color,false,2023-12-11 21:23:14.509831,16.462,0.158,235.0,131.69407653808594,282.4188232421875,84.958251953125,45.0,65.0,51.0,0.0,-20.0
1.2,60,60,60,go_to_color_detect_down,blue,true,false,joint 3 +,false,2023-12-11 21:23:15.199822,16.31,0.158,235.0,129.94644165039062,278.6710205078125,50.33649826049805,45.0,65.0,51.0,14.256001472473145,-20.0
1.2,60,60,60,go_to_color_detect_down,blue,true,false,joint 3 +,false,2023-12-11 21:23:16.092410,16.31,0.157,235.0,111.76029968261719,239.67071533203125,-22.941871643066406,45.0,65.0,51.0,47.79920196533203,-20.0
1.2,60,60,60,go_to_color_detect_up,blue,true,false,joint 3 -,true,2023-12-11 21:23:17.502773,16.5,0.157,235.0,101.69959259033203,218.09547424316406,-40.85466003417969,45.0,65.0,51.0,58.784000396728516,-20.0
1.2,60,60,60,go_to_color_detect_up,blue,true,false,joint 3 -,true,2023-12-11 21:23:18.197772,16.5,0.195,235.0,120.53343200683594,258.4847717285156,0.8949050903320312,45.0,65.0,51.0,34.15999221801758,-20.0
1.2,60,60,60,go_to_color_detect_up,blue,true,false,joint 3 -,true,2023-12-11 21:23:19.122298,23.089,0.195,235.0,131.45448303222656,281.905029296875,72.06046295166016,45.0,65.0,51.0,4.660006523132324,-20.0
1.2,60,60,60,go_to_red_up,red,true,false,joint 1 +,true,2023-12-11 21:23:20.545994,22.652,0.208,235.0,108.21231079101562,292.22222900390625,84.958251953125,49.67999267578125,70.05438995361328,51.0,0.0,-20.0
1.2,60,60,60,go_to_red_up,red,true,false,joint 1 +,true,2023-12-11 21:23:21.254960,22.158,0.208,235.0,-53.682926177978516,306.955810546875,84.958251953125,79.9200210571289,100.64002227783203,51.0,0.0,-20.0
1.2,60,60,60,go_to_red_up,red,true,false,joint 1 +,true,2023-12-11 21:23:22.469969,22.386,0.208,235.0,-174.21681213378906,258.3645324707031,84.958251953125,103.99203491210938,124.15523529052734,51.0,0.0,-20.0
1.2,60,60,60,go_to_pick_up_from_red,red,true,false,joint 1 -,false,2023-12-11 21:23:23.155959,22.595,0.208,235.0,-128.38070678710938,283.9403381347656,84.958251953125,94.32960510253906,113.76800537109375,51.0,0.0,-20.0
1.2,60,60,60,go_to_pick_up_from_red,red,true,false,joint 1 -,false,2023-12-11 21:23:24.557958,16.595,0.158,235.0,50.250953674316406,307.53631591796875,84.958251953125,60.71996307373047,79.99996185302734,51.0,0.0,-20.0
1.2,60,60,60,go_to_pick_up_from_red,red,true,false,joint 1 -,false,2023-12-11 21:23:25.243967,16.633,0.158,235.0,215.83932495117188,224.7601318359375,84.958251953125,26.15990447998047,45.439903259277344,51.0,0.0,-20.0
1.2,60,60,60,go_to_pick_up_from_red,red,true,false,joint 1 -,false,2023-12-11 21:23:26.616542,16.481,0.159,235.0,292.09686279296875,108.55028533935547,84.958251953125,0.3862895965576172,20.28788948059082,51.0,0.0,-20.0
1.2,60,60,60,moving_belt,red,false,true,joint 1 -,false,2023-12-11 21:23:27.359543,16.481,0.159,235.0,292.8220520019531,106.5785140991211,84.958251953125,0.0,20.0,51.0,0.0,-20.0
1.2,60,60,60,moving_belt,red,false,true,joint 1 -,false,2023-12-11 21:23:28.052218,16.69,0.159,235.0,292.8220520019531,106.5785140991211,84.958251953125,0.0,20.0,51.0,0.0,-20.0
1.2,60,60,60,moving_belt,red,false,true,joint 1 -,false,2023-12-11 21:23:29.431218,16.386,0.156,235.0,292.8220520019531,106.5785140991211,84.958251953125,0.0,20.0,51.0,0.0,-20.0
1.2,60,60,60,moving_belt,red,false,true,joint 1 -,false,2023-12-11 21:23:30.130218,16.538,0.156,235.0,292.8220520019531,106.5785140991211,84.958251953125,0.0,20.0,51.0,0.0,-20.0
1.2,60,60,60,go_to_pick_down,red,true,false,joint 3 +,false,2023-12-11 21:23:31.597225,16.5,0.157,235.0,292.719970703125,106.54135131835938,79.30703735351562,0.0,20.0,51.0,2.462399959564209,-20.0
1.2,60,60,60,go_to_pick_down,red,true,false,joint 3 +,false,2023-12-11 21:23:32.298216,16.5,0.157,235.0,280.1180419921875,101.95463562011719,23.379783630371094,0.0,20.0,51.0,25.107269287109375,-20.0
1.2,60,60,60,go_to_pick_up_from_pick_down,red,true,false,joint 3 -,true,2023-12-11 21:23:32.991752,16.31,0.157,235.0,281.31048583984375,102.3886489868164,26.208515167236328,0.0,20.0,51.0,23.15360450744629,-20.0
1.2,60,60,60,go_to_pick_up_from_pick_down,red,true,false,joint 3 -,true,2023-12-11 21:23:34.459856,22.69,0.157,235.0,292.77703857421875,106.5621337890625,81.20673370361328,0.0,20.0,51.0,1.2643388509750366,-20.0
1.2,60,60,60,go_to_color_detect_up,red,true,false,joint 1 +,true,2023-12-11 21:23:35.165440,22.69,0.157,235.0,276.1460266113281,144.38526916503906,84.958251953125,7.6031951904296875,28.07839584350586,51.0,0.0,-20.0
1.2,60,60,60,go_to_color_detect_up,red,true,false,joint 1 +,true,2023-12-11 21:23:36.542562,22.424,0.205,235.0,166.8465576171875,263.18426513671875,84.958251953125,37.6272087097168,58.080810546875,51.0,0.0,-20.0
1.2,60,60,60,go_to_color_detect_up,red,true,false,joint 3 +,true,2023-12-11 21:23:37.244741,22.121,0.205,235.0,131.62326049804688,282.2669677734375,77.94134521484375,45.0,65.0,51.0,3.0240001678466797,-20.0
1.2,60,60,60,go_to_color_detect_up,red,true,false,joint 3 +,true,2023-12-11 21:23:38.640677,22.007,0.205,235.0,123.04268646240234,263.8658752441406,10.129180908203125,45.0,65.0,51.0,31.319990158081055,-20.0
1.2,60,60,60,go_to_color_detect_up,red,true,false,joint 3 +,true,2023-12-11 21:23:39.338260,22.14,0.205,235.0,102.29150390625,219.3648223876953,-39.99760437011719,45.0,65.0,51.0,58.35919952392578,-20.0
1.2,60,60,60,go_to_color_detect_up,red,true,false,joint 3 -,false,2023-12-11 21:23:40.027209,21.874,0.204,235.0,109.14232635498047,234.0564727783203,-28.359527587890625,45.0,65.0,51.0,49.928001403808594,-20.0
1.2,60,60,60,go_to_color_detect_up,red,true,false,joint 3 -,false,2023-12-11 21:23:41.414205,16.728,0.204,235.0,128.78578186035156,276.1820068359375,40.50791549682617,45.0,65.0,51.0,16.89600372314453,-20.0
1.2,60,60,60,detecting_color,red,false,false,detecting_color,false,2023-12-11 21:23:42.175205,16.728,0.162,235.0,131.69407653808594,282.4188232421875,84.958251953125,45.0,65.0,51.0,0.0,-20.0
1.2,60,60,60,detecting_color,red,false,false,detecting_color,false,2023-12-11 21:23:42.905748,17.127,0.162,235.0,131.69407653808594,282.4188232421875,84.958251953125,45.0,65.0,51.0,0.0,-20.0
1.2,60,60,60,go_to_color_detect_down,red,true,false,joint 3 +,false,2023-12-11 21:23:44.546756,16.386,0.157,235.0,131.67782592773438,282.38397216796875,81.5965347290039,45.0,65.0,51.0,1.5119998455047607,-20.0
1.2,60,60,60,go_to_color_detect_down,red,true,false,joint 3 +,false,2023-12-11 21:23:45.373396,16.5,0.157,235.0,125.6141586303711,269.38043212890625,21.534225463867188,45.0,65.0,51.0,26.27999496459961,-20.0
1.2,60,60,60,go_to_color_detect_down,red,true,false,joint 3 +,false,2023-12-11 21:23:46.112904,16.329,0.157,235.0,103.57704162597656,222.12167358398438,-38.06071472167969,45.0,65.0,51.0,57.05439758300781,-20.0
1.2,60,60,60,go_to_color_detect_up,red,true,false,joint 3 -,true,2023-12-11 21:23:47.526070,16.481,0.157,235.0,106.47295379638672,228.33197021484375,-33.29533386230469,45.0,65.0,51.0,53.153602600097656,-20.0
1.2,60,60,60,go_to_color_detect_up,red,true,false,joint 3 -,true,2023-12-11 21:23:48.504066,22.994,0.21,235.0,128.5453338623047,275.66632080078125,38.75263214111328,45.0,65.0,51.0,17.60080337524414,-20.0
1.2,60,60,60,go_to_color_detect_up,red,true,false,joint 3 -,true,2023-12-11 21:23:49.198075,22.842,0.21,235.0,131.69406127929688,282.4187927246094,84.85150146484375,45.0,65.0,51.0,0.013606678694486618,-20.0
1.2,60,60,60,go_to_green_up,green,true,false,joint 1 +,true,2023-12-11 21:23:50.580064,22.291,0.205,235.0,61.47352600097656,305.4909973144531,84.958251953125,58.62239074707031,79.25598907470703,51.0,0.0,-20.0
1.2,60,60,60,go_to_green_up,green,true,false,joint 1 +,true,2023-12-11 21:23:51.270669,22.234,0.205,235.0,-77.54605865478516,301.811767578125,84.958251953125,84.40960693359375,104.53280639648438,51.0,0.0,-20.0
1.2,60,60,60,go_to_pick_up_from_green,green,true,false,joint 1 -,false,2023-12-11 21:23:52.663818,17.468,0.182,235.0,-29.3775577545166,310.2268371582031,84.958251953125,75.40960693359375,94.8768081665039,51.0,0.0,-20.0
1.2,60,60,60,go_to_pick_up_from_green,green,true,false,joint 1 -,false,2023-12-11 21:23:53.354827,17.468,0.182,235.0,145.52549743652344,275.5468444824219,84.958251953125,42.15996551513672,61.439964294433594,51.0,0.0,-20.0
1.2,60,60,60,go_to_pick_up_from_green,green,true,false,joint 1 -,false,2023-12-11 21:23:54.039826,16.557,0.182,235.0,279.387451171875,138.0086212158203,84.958251953125,6.287921905517578,25.869522094726562,51.0,0.0,-20.0
1.2,60,60,60,moving_belt,green,false,true,joint 1 -,false,2023-12-11 21:23:55.428817,16.538,0.158,235.0,292.8220520019531,106.5785140991211,84.958251953125,0.0,20.0,51.0,0.0,-20.0
1.2,60,60,60,moving_belt,green,false,true,joint 1 -,false,2023-12-11 21:23:56.114949,16.538,0.158,235.0,292.8220520019531,106.5785140991211,84.958251953125,0.0,20.0,51.0,0.0,-20.0
1.2,60,60,60,moving_belt,green,false,true,joint 1 -,false,2023-12-11 21:23:57.486939,16.367,0.157,235.0,292.8220520019531,106.5785140991211,84.958251953125,0.0,20.0,51.0,0.0,-20.0
1.2,60,60,60,moving_belt,green,false,true,joint 1 -,false,2023-12-11 21:23:58.173545,16.367,0.157,235.0,292.8220520019531,106.5785140991211,84.958251953125,0.0,20.0,51.0,0.0,-20.0
1.2,60,60,60,moving_belt,green,false,true,joint 1 -,false,2023-12-11 21:23:59.587487,16.405,0.157,235.0,292.8220520019531,106.5785140991211,84.958251953125,0.0,20.0,51.0,0.0,-20.0
1.2,60,60,60,go_to_pick_down,green,true,false,joint 3 +,false,2023-12-11 21:24:00.494298,16.557,0.157,235.0,288.5682373046875,105.0302505493164,48.758792877197266,0.0,20.0,51.0,14.90044116973877,-20.0
1.2,60,60,60,go_to_pick_up_from_pick_down,green,true,false,joint 3 -,true,2023-12-11 21:24:01.189549,16.481,0.157,235.0,275.5026550292969,100.27477264404297,13.691230773925781,0.0,20.0,51.0,28.985599517822266,-20.0
1.2,60,60,60,go_to_pick_up_from_pick_down,green,true,false,joint 3 -,true,2023-12-11 21:24:02.559124,22.785,0.158,235.0,291.1410827636719,105.96669006347656,62.09515380859375,0.0,20.0,51.0,8.44717025756836,-20.0
1.2,60,60,60,go_to_color_detect_up,green,true,false,joint 1 +,true,2023-12-11 21:24:03.250132,22.69,0.158,235.0,291.3208923339844,110.6158676147461,84.958251953125,0.7919979095458984,20.950397491455078,51.0,0.0,-20.0
1.2,60,60,60,go_to_color_detect_up,green,true,false,joint 1 +,true,2023-12-11 21:24:04.645387,22.196,0.209,235.0,226.41136169433594,214.1066131591797,84.958251953125,23.400005340576172,44.1200065612793,51.0,0.0,-20.0
1.2,60,60,60,go_to_color_detect_up,green,true,false,joint 1 +,true,2023-12-11 21:24:05.356880,22.367,0.209,235.0,131.72947692871094,282.4023132324219,84.958251953125,44.99281311035156,65.00001525878906,51.0,0.0,-20.0
1.2,60,60,60,go_to_color_detect_up,green,true,false,joint 3 +,true,2023-12-11 21:24:06.139469,22.253,0.207,235.0,129.94644165039062,278.6710205078125,50.33649826049805,45.0,65.0,51.0,14.256001472473145,-20.0
1.2,60,60,60,go_to_color_detect_up,green,true,false,joint 3 +,true,2023-12-11 21:24:07.538469,22.045,0.204,235.0,109.11959075927734,234.00770568847656,-28.403961181640625,45.0,65.0,51.0,50.948001861572266,-20.0
1.2,60,60,60,go_to_color_detect_up,green,true,false,joint 3 -,false,2023-12-11 21:24:08.268460,22.121,0.204,235.0,102.29886627197266,219.380615234375,-39.986793518066406,45.0,65.0,51.0,58.049598693847656,-20.0
1.2,60,60,60,go_to_color_detect_up,green,true,false,joint 3 -,false,2023-12-11 21:24:09.001459,22.14,0.204,235.0,120.53343200683594,258.4847717285156,0.8949050903320312,45.0,65.0,51.0,34.15999221801758,-20.0
1.2,60,60,60,go_to_color_detect_up,green,true,false,joint 3 -,false,2023-12-11 21:24:10.396005,16.747,0.161,235.0,131.62403869628906,282.2686462402344,77.98027801513672,45.0,65.0,51.0,2.4480066299438477,-20.0
1.2,60,60,60,detecting_color,green,false,false,detecting_color,false,2023-12-11 21:24:11.082005,17.07,0.161,235.0,131.69407653808594,282.4188232421875,84.958251953125,45.0,65.0,51.0,0.0,-20.0
1.2,60,60,60,go_to_color_detect_down,green,true,false,joint 3 +,false,2023-12-11 21:24:12.516004,16.329,0.157,235.0,131.69407653808594,282.4188232421875,84.958251953125,45.0,65.0,51.0,0.0,-20.0
1.2,60,60,60,go_to_color_detect_down,green,true,false,joint 3 +,false,2023-12-11 21:24:13.241004,16.329,0.157,235.0,129.6040802001953,277.93682861328125,47.14980697631836,45.0,65.0,51.0,15.566401481628418,-20.0
1.2,60,60,60,go_to_color_detect_down,green,true,false,joint 3 +,false,2023-12-11 21:24:14.659013,16.538,0.157,235.0,110.84794616699219,237.71417236328125,-24.899917602539062,45.0,65.0,51.0,48.90639877319336,-20.0
1.2,60,60,60,go_to_color_detect_up,green,true,false,joint 3 -,true,2023-12-11 21:24:15.354003,16.538,0.157,235.0,102.7752914428711,220.40231323242188,-39.280967712402344,45.0,65.0,51.0,57.48800277709961,-20.0
1.2,60,60,60,go_to_color_detect_up,green,true,false,joint 3 -,true,2023-12-11 21:24:16.051010,17.506,0.157,235.0,121.83623504638672,261.2786560058594,5.4997711181640625,45.0,65.0,51.0,31.999990463256836,-20.0
1.2,60,60,60,go_to_color_detect_up,green,true,false,joint 3 -,true,2023-12-11 21:24:17.432010,22.614,0.214,235.0,131.5697479248047,282.1522216796875,75.6624755859375,45.0,65.0,51.0,3.3096065521240234,-20.0
1.2,60,60,60,go_to_blue_up,blue,true,false,joint 1 +,true,2023-12-11 21:24:18.121011,22.804,0.207,235.0,100.09319305419922,295.101806640625,84.958251953125,51.26399230957031,71.69599151611328,51.0,0.0,-20.0
1.2,60,60,60,go_to_pick_up_from_blue,blue,true,false,joint 1 -,false,2023-12-11 21:24:19.534000,22.31,0.207,235.0,27.159029006958008,310.4289245605469,84.958251953125,65.0,84.98560333251953,51.0,0.0,-20.0
1.2,60,60,60,go_to_pick_up_from_blue,blue,true,false,joint 1 -,false,2023-12-11 21:24:19.534000,22.31,0.207,235.0,116.40205383300781,289.0576171875,84.958251953125,48.06560516357422,67.3600082397461,51.0,0.0,-20.0
1.2,60,60,60,go_to_pick_up_from_blue,blue,true,false,joint 1 -,false,2023-12-11 21:24:21.401615,18.076,0.162,235.0,269.1148986816406,157.10154724121094,84.958251953125,10.275156021118164,29.73835563659668,51.0,0.0,-20.0
1.2,60,60,60,moving_belt,blue,false,true,joint 1 -,false,2023-12-11 21:24:22.091646,16.386,0.162,235.0,292.8220520019531,106.5785140991211,84.958251953125,0.0,20.0,51.0,0.0,-20.0
1.2,60,60,60,moving_belt,blue,false,true,joint 1 -,false,2023-12-11 21:24:23.469744,16.538,0.158,235.0,292.8220520019531,106.5785140991211,84.958251953125,0.0,20.0,51.0,0.0,-20.0
1.2,60,60,60,moving_belt,blue,false,true,joint 1 -,false,2023-12-11 21:24:24.161753,16.576,0.158,235.0,292.8220520019531,106.5785140991211,84.958251953125,0.0,20.0,51.0,0.0,-20.0
1.2,60,60,60,moving_belt,blue,false,true,joint 1 -,false,2023-12-11 21:24:25.561743,16.671,0.157,235.0,292.8220520019531,106.5785140991211,84.958251953125,0.0,20.0,51.0,0.0,-20.0
1.2,60,60,60,moving_belt,blue,false,true,joint 1 -,false,2023-12-11 21:24:26.251330,16.671,0.157,235.0,292.8220520019531,106.5785140991211,84.958251953125,0.0,20.0,51.0,0.0,-20.0
1.2,60,60,60,go_to_pick_down,blue,true,false,joint 3 +,false,2023-12-11 21:24:27.622850,16.424,0.158,235.0,291.4512939453125,106.07960510253906,64.30062866210938,0.0,20.0,51.0,8.568001747131348,-20.0
1.2,60,60,60,go_to_pick_down,blue,true,false,joint 3 +,false,2023-12-11 21:24:28.309850,16.424,0.158,235.0,276.0711364746094,100.48167419433594,14.793663024902344,0.0,20.0,51.0,28.621505737304688,-20.0
1.2,60,60,60,go_to_pick_up_from_pick_down,blue,true,false,joint 3 -,true,2023-12-11 21:24:29.016073,16.481,0.158,235.0,287.47308349609375,104.63164520263672,44.44744110107422,0.0,20.0,51.0,15.377604484558105,-20.0
1.2,60,60,60,go_to_color_detect_up,blue,true,false,joint 1 +,true,2023-12-11 21:24:30.418685,23.07,0.176,235.0,292.8220520019531,106.5785140991211,84.958251953125,0.0,20.0,51.0,0.0,-20.0
1.2,60,60,60,go_to_color_detect_up,blue,true,false,joint 1 +,true,2023-12-11 21:24:31.115676,22.538,0.176,235.0,241.8960723876953,196.4434356689453,84.958251953125,19.079998016357422,39.79999923706055,51.0,0.0,-20.0
1.2,60,60,60,go_to_color_detect_up,blue,true,false,joint 1 +,true,2023-12-11 21:24:32.501684,22.386,0.205,235.0,137.66162109375,279.55859375,84.958251953125,43.7832145690918,63.96321487426758,51.0,0.0,-20.0
1.2,60,60,60,go_to_color_detect_up,blue,true,false,joint 3 +,true,2023-12-11 21:24:33.186685,22.386,0.205,235.0,131.14788818359375,281.2475280761719,65.5084228515625,45.0,65.0,51.0,8.078401565551758,-20.0
1.2,60,60,60,go_to_color_detect_up,blue,true,false,joint 3 +,true,2023-12-11 21:24:34.556683,22.14,0.205,235.0,114.1585464477539,244.81378173828125,-17.399879455566406,45.0,65.0,51.0,44.77920150756836,-20.0
1.2,60,60,60,go_to_color_detect_up,blue,true,false,joint 3 -,false,2023-12-11 21:24:35.243683,22.234,0.205,235.0,101.56586456298828,217.80868530273438,-41.04534149169922,45.0,65.0,51.0,59.0,-20.0
1.2,60,60,60,go_to_color_detect_up,blue,true,false,joint 3 -,false,2023-12-11 21:24:36.646686,19.481,0.204,235.0,115.18388366699219,247.0126190185547,-14.838279724121094,45.0,65.0,51.0,42.06560516357422,-20.0
1.2,60,60,60,go_to_color_detect_up,blue,true,false,joint 3 -,false,2023-12-11 21:24:37.347681,17.013,0.204,235.0,131.27333068847656,281.5165710449219,67.87898254394531,45.0,65.0,51.0,6.240806579589844,-20.0
1.2,60,60,60,detecting_color,blue,false,false,detecting_color,false,2023-12-11 21:24:38.042693,17.013,0.164,235.0,131.69407653808594,282.4188232421875,84.958251953125,45.0,65.0,51.0,0.0,-20.0
1.2,60,60,60,detecting_color,blue,false,false,detecting_color,false,2023-12-11 21:24:39.424693,16.519,0.164,235.0,131.69407653808594,282.4188232421875,84.958251953125,45.0,65.0,51.0,0.0,-20.0
1.2,60,60,60,go_to_color_detect_down,blue,true,false,joint 3 +,false,2023-12-11 21:24:40.116438,16.367,0.157,235.0,129.94644165039062,278.6710205078125,50.33649826049805,45.0,65.0,51.0,14.256001472473145,-20.0
1.2,60,60,60,go_to_color_detect_down,blue,true,false,joint 3 +,false,2023-12-11 21:24:41.503208,16.386,0.157,235.0,111.76029968261719,239.67071533203125,-22.941871643066406,45.0,65.0,51.0,47.79920196533203,-20.0
1.2,60,60,60,go_to_color_detect_up,blue,true,false,joint 3 -,true,2023-12-11 21:24:42.210259,16.386,0.158,235.0,102.16606140136719,219.0958251953125,-40.18102264404297,45.0,65.0,51.0,58.20800018310547,-20.0
1.2,60,60,60,go_to_color_detect_up,blue,true,false,joint 3 -,true,2023-12-11 21:24:43.593833,23.032,0.158,235.0,120.08297729492188,257.5187683105469,-0.6138076782226562,45.0,65.0,51.0,34.8799934387207,-20.0
1.2,60,60,60,go_to_color_detect_up,blue,true,false,joint 3 -,true,2023-12-11 21:24:44.285430,22.861,0.21,235.0,131.45448303222656,281.905029296875,72.06046295166016,45.0,65.0,51.0,4.660006523132324,-20.0
1.2,60,60,60,go_to_red_up,red,true,false,joint 1 +,true,2023-12-11 21:24:45.666443,22.576,0.21,235.0,108.21231079101562,292.22222900390625,84.958251953125,49.67999267578125,70.05438995361328,51.0,0.0,-20.0
1.2,60,60,60,go_to_red_up,red,true,false,joint 1 +,true,2023-12-11 21:24:46.352969,22.272,0.207,235.0,-53.682926177978516,306.955810546875,84.958251953125,79.9200210571289,100.64002227783203,51.0,0.0,-20.0
1.2,60,60,60,go_to_red_up,red,true,false,joint 1 +,true,2023-12-11 21:24:47.039978,22.31,0.207,235.0,-177.64279174804688,256.0210266113281,84.958251953125,104.75524139404297,124.83203887939453,51.0,0.0,-20.0
1.2,60,60,60,go_to_pick_up_from_red,red,true,false,joint 1 -,false,2023-12-11 21:24:48.472553,22.462,0.19,235.0,-125.59143829345703,285.18505859375,84.958251953125,93.76800537109375,113.19200897216797,51.0,0.0,-20.0
1.2,60,60,60,go_to_pick_up_from_red,red,true,false,joint 1 -,false,2023-12-11 21:24:49.188553,16.728,0.19,235.0,54.11152267456055,306.88055419921875,84.958251953125,59.999961853027344,79.27996063232422,51.0,0.0,-20.0
1.2,60,60,60,go_to_pick_up_from_red,red,true,false,joint 1 -,false,2023-12-11 21:24:50.558514,16.519,0.159,235.0,234.7502899169922,204.92933654785156,84.958251953125,21.119895935058594,40.39989471435547,51.0,0.0,-20.0
1.2,60,60,60,go_to_pick_up_from_red,red,true,false,joint 1 -,false,2023-12-11 21:24:51.250490,16.633,0.159,235.0,292.4409484863281,107.61985778808594,84.958251953125,0.2038898468017578,20.13429069519043,51.0,0.0,-20.0
1.2,60,60,60,moving_belt,red,false,true,joint 1 -,false,2023-12-11 21:24:52.629480,16.728,0.16,235.0,292.8220520019531,106.5785140991211,84.958251953125,0.0,20.0,51.0,0.0,-20.0
1.2,60,60,60,moving_belt,red,false,true,joint 1 -,false,2023-12-11 21:24:53.318480,16.728,0.16,235.0,292.8220520019531,106.5785140991211,84.958251953125,0.0,20.0,51.0,0.0,-20.0
1.2,60,60,60,moving_belt,red,false,true,joint 1 -,false,2023-12-11 21:24:54.700583,16.291,0.16,235.0,292.8220520019531,106.5785140991211,84.958251953125,0.0,20.0,51.0,0.0,-20.0
1.2,60,60,60,moving_belt,red,false,true,joint 1 -,false,2023-12-11 21:24:55.395591,16.329,0.157,235.0,292.8220520019531,106.5785140991211,84.958251953125,0.0,20.0,51.0,0.0,-20.0
1.2,60,60,60,go_to_pick_down,red,true,false,joint 3 +,false,2023-12-11 21:24:56.087900,16.728,0.157,235.0,292.62969970703125,106.50850677490234,77.20337677001953,0.0,20.0,51.0,3.3264002799987793,-20.0
1.2,60,60,60,go_to_pick_down,red,true,false,joint 3 +,false,2023-12-11 21:24:57.550501,16.272,0.157,235.0,279.10693359375,101.58662414550781,21.099075317382812,0.0,20.0,51.0,26.04698944091797,-20.0
1.2,60,60,60,go_to_pick_up_from_pick_down,red,true,false,joint 3 -,true,2023-12-11 21:24:58.323613,16.272,0.157,235.0,279.8537902832031,101.85845184326172,22.773834228515625,0.0,20.0,51.0,24.680004119873047,-20.0
1.2,60,60,60,go_to_pick_up_from_pick_down,red,true,false,joint 3 -,true,2023-12-11 21:24:59.019532,17.962,0.157,235.0,292.7974853515625,106.569580078125,82.18573760986328,0.0,20.0,51.0,0.9114596247673035,-20.0
1.2,60,60,60,go_to_color_detect_up,red,true,false,joint 1 +,true,2023-12-11 21:25:00.214521,22.804,0.211,235.0,274.93902587890625,146.6705780029297,84.958251953125,8.07839584350586,28.567995071411133,51.0,0.0,-20.0
1.2,60,60,60,go_to_color_detect_up,red,true,false,joint 1 +,true,2023-12-11 21:25:01.591868,22.177,0.206,235.0,155.18136596679688,270.2266845703125,84.958251953125,40.1328125,60.5000114440918,51.0,0.0,-20.0
1.2,60,60,60,go_to_color_detect_up,red,true,false,joint 3 +,true,2023-12-11 21:25:02.341815,22.386,0.206,235.0,131.62326049804688,282.2669677734375,77.94134521484375,45.0,65.0,51.0,3.0240001678466797,-20.0
1.2,60,60,60,go_to_color_detect_up,red,true,false,joint 3 +,true,2023-12-11 21:25:03.068804,22.026,0.206,235.0,123.04268646240234,263.8658752441406,10.129180908203125,45.0,65.0,51.0,31.319990158081055,-20.0
1.2,60,60,60,go_to_color_detect_up,red,true,false,joint 3 +,true,2023-12-11 21:25:04.453834,21.988,0.204,235.0,102.29150390625,219.3648223876953,-39.99760437011719,45.0,65.0,51.0,58.35919952392578,-20.0
1.2,60,60,60,go_to_color_detect_up,red,true,false,joint 3 -,false,2023-12-11 21:25:05.160904,22.196,0.204,235.0,109.14232635498047,234.0564727783203,-28.359527587890625,45.0,65.0,51.0,49.928001403808594,-20.0
1.2,60,60,60,go_to_color_detect_up,red,true,false,joint 3 -,false,2023-12-11 21:25:06.541575,16.747,0.186,235.0,128.78578186035156,276.1820068359375,40.50791549682617,45.0,65.0,51.0,16.89600372314453,-20.0
1.2,60,60,60,detecting_color,red,false,false,detecting_color,false,2023-12-11 21:25:07.253184,17.051,0.186,235.0,131.69407653808594,282.4188232421875,84.958251953125,45.0,65.0,51.0,0.0,-20.0
1.2,60,60,60,detecting_color,red,false,false,detecting_color,false,2023-12-11 21:25:08.640192,16.443,0.161,235.0,131.69407653808594,282.4188232421875,84.958251953125,45.0,65.0,51.0,0.0,-20.0
1.2,60,60,60,go_to_color_detect_down,red,true,false,joint 3 +,false,2023-12-11 21:25:09.327183,16.443,0.161,235.0,131.69400024414062,282.418701171875,84.73657989501953,45.0,65.0,51.0,0.14399999380111694,-20.0
1.2,60,60,60,go_to_color_detect_down,red,true,false,joint 3 +,false,2023-12-11 21:25:10.722760,16.348,0.157,235.0,128.2811279296875,275.0997619628906,36.905704498291016,45.0,65.0,51.0,19.80000114440918,-20.0
1.2,60,60,60,go_to_color_detect_down,red,true,false,joint 3 +,false,2023-12-11 21:25:11.418751,16.348,0.157,235.0,106.11474609375,227.56378173828125,-33.91655731201172,45.0,65.0,51.0,54.34000015258789,-20.0
1.2,60,60,60,go_to_color_detect_up,red,true,false,joint 3 -,true,2023-12-11 21:25:12.120760,16.424,0.158,235.0,103.8241958618164,222.65170288085938,-37.676185607910156,45.0,65.0,51.0,56.263999938964844,-20.0
1.2,60,60,60,go_to_color_detect_up,red,true,false,joint 3 -,true,2023-12-11 21:25:13.521758,23.013,0.158,235.0,123.45745086669922,264.7553405761719,11.814056396484375,45.0,65.0,51.0,29.119993209838867,-20.0
1.2,60,60,60,go_to_color_detect_up,red,true,false,joint 3 -,true,2023-12-11 21:25:14.215794,22.671,0.21,235.0,131.68234252929688,282.3936767578125,82.10132598876953,45.0,65.0,51.0,0.9416065216064453,-20.0
1.2,60,60,60,go_to_green_up,green,true,false,joint 1 +,true,2023-12-11 21:25:15.590381,22.538,0.21,235.0,93.1689224243164,297.36053466796875,84.958251953125,52.60319519042969,73.0783920288086,51.0,0.0,-20.0
1.2,60,60,60,go_to_green_up,green,true,false,joint 1 +,true,2023-12-11 21:25:16.277016,22.102,0.206,235.0,-66.83824157714844,304.3622741699219,84.958251953125,82.38560485839844,102.65280151367188,51.0,0.0,-20.0
1.2,60,60,60,go_to_pick_up_from_green,green,true,false,joint 1 -,false,2023-12-11 21:25:17.660221,21.247,0.206,235.0,-55.824466705322266,306.5736083984375,84.958251953125,80.32000732421875,99.94561004638672,51.0,0.0,-20.0
1.2,60,60,60,go_to_pick_up_from_green,green,true,false,joint 1 -,false,2023-12-11 21:25:18.350335,21.247,0.158,235.0,106.16964721679688,292.9705505371094,84.958251953125,50.079978942871094,69.35997772216797,51.0,0.0,-20.0
1.2,60,60,60,go_to_pick_up_from_green,green,true,false,joint 1 -,false,2023-12-11 21:25:19.040553,16.576,0.158,235.0,263.01190185546875,167.1180877685547,84.958251953125,12.431922912597656,31.840723037719727,51.0,0.0,-20.0
1.2,60,60,60,moving_belt,green,false,true,joint 1 -,false,2023-12-11 21:25:20.465552,16.557,0.158,235.0,292.8220520019531,106.5785140991211,84.958251953125,0.0,20.0,51.0,0.0,-20.0
1.2,60,60,60,moving_belt,green,false,true,joint 1 -,false,2023-12-11 21:25:21.280481,16.633,0.158,235.0,292.8220520019531,106.5785140991211,84.958251953125,0.0,20.0,51.0,0.0,-20.0
1.2,60,60,60,moving_belt,green,false,true,joint 1 -,false,2023-12-11 21:25:22.017481,16.633,0.158,235.0,292.8220520019531,106.5785140991211,84.958251953125,0.0,20.0,51.0,0.0,-20.0
1.2,60,60,60,moving_belt,green,false,true,joint 1 -,false,2023-12-11 21:25:23.481472,16.5,0.159,235.0,292.8220520019531,106.5785140991211,84.958251953125,0.0,20.0,51.0,0.0,-20.0
1.2,60,60,60,moving_belt,green,false,true,joint 1 -,false,2023-12-11 21:25:24.344613,16.386,0.159,235.0,292.8220520019531,106.5785140991211,84.958251953125,0.0,20.0,51.0,0.0,-20.0
1.2,60,60,60,go_to_pick_down,green,true,false,joint 3 +,false,2023-12-11 21:25:25.135138,16.386,0.157,235.0,291.4512939453125,106.07960510253906,64.30062866210938,0.0,20.0,51.0,8.568001747131348,-20.0
1.2,60,60,60,go_to_pick_down,green,true,false,joint 3 +,false,2023-12-11 21:25:25.952138,16.386,0.157,235.0,276.0711364746094,100.48167419433594,14.793663024902344,0.0,20.0,51.0,28.621505737304688,-20.0
1.2,60,60,60,go_to_pick_up_from_pick_down,green,true,false,joint 3 -,true,2023-12-11 21:25:27.597931,17.886,0.167,235.0,287.47308349609375,104.63164520263672,44.44744110107422,0.0,20.0,51.0,15.377604484558105,-20.0
1.2,60,60,60,go_to_color_detect_up,green,true,false,joint 1 +,true,2023-12-11 21:25:28.293921,22.785,0.167,235.0,292.8220520019531,106.5785140991211,84.958251953125,0.0,20.0,51.0,0.0,-20.0
1.2,60,60,60,go_to_color_detect_up,green,true,false,joint 1 +,true,2023-12-11 21:25:29.678501,22.272,0.206,235.0,253.48049926757812,181.2494354248047,84.958251953125,15.566394805908203,36.243194580078125,51.0,0.0,-20.0
1.2,60,60,60,go_to_color_detect_up,green,true,false,joint 1 +,true,2023-12-11 21:25:30.379491,22.272,0.206,235.0,136.78269958496094,279.98968505859375,84.958251953125,43.96321487426758,64.12881469726562,51.0,0.0,-20.0
1.2,60,60,60,go_to_color_detect_up,green,true,false,joint 3 +,true,2023-12-11 21:25:31.068491,22.234,0.206,235.0,131.0775909423828,281.0968017578125,64.30062866210938,45.0,65.0,51.0,8.568001747131348,-20.0
1.2,60,60,60,go_to_color_detect_up,green,true,false,joint 3 +,true,2023-12-11 21:25:32.445099,22.045,0.205,235.0,113.66706848144531,243.7598114013672,-18.585105895996094,45.0,65.0,51.0,45.41200256347656,-20.0
1.2,60,60,60,go_to_color_detect_up,green,true,false,joint 3 -,false,2023-12-11 21:25:33.134107,21.912,0.205,235.0,101.56586456298828,217.80868530273438,-41.04534149169922,45.0,65.0,51.0,58.985599517822266,-20.0
1.2,60,60,60,go_to_color_detect_up,green,true,false,joint 3 -,false,2023-12-11 21:25:34.523044,22.158,0.205,235.0,115.6893539428711,248.0966033935547,-13.528976440429688,45.0,65.0,51.0,41.36000442504883,-20.0
1.2,60,60,60,go_to_color_detect_up,green,true,false,joint 3 -,false,2023-12-11 21:25:35.225615,16.785,0.205,235.0,131.32591247558594,281.6293029785156,68.978271484375,45.0,65.0,51.0,5.8240065574646,-20.0
1.2,60,60,60,detecting_color,green,false,false,detecting_color,false,2023-12-11 21:25:36.633624,17.203,0.164,235.0,131.69407653808594,282.4188232421875,84.958251953125,45.0,65.0,51.0,0.0,-20.0
1.2,60,60,60,detecting_color,green,false,false,detecting_color,false,2023-12-11 21:25:37.322193,16.557,0.164,235.0,131.69407653808594,282.4188232421875,84.958251953125,45.0,65.0,51.0,0.0,-20.0
1.2,60,60,60,go_to_color_detect_down,green,true,false,joint 3 +,false,2023-12-11 21:25:38.707765,16.462,0.158,235.0,130.10104370117188,279.0025634765625,51.882442474365234,45.0,65.0,51.0,13.622401237487793,-20.0
1.2,60,60,60,go_to_color_detect_down,green,true,false,joint 3 +,false,2023-12-11 21:25:39.398764,16.462,0.158,235.0,112.22731018066406,240.67222595214844,-21.908851623535156,45.0,65.0,51.0,47.224002838134766,-20.0
1.2,60,60,60,go_to_color_detect_up,green,true,false,joint 3 -,true,2023-12-11 21:25:40.097347,16.576,0.158,235.0,102.04634857177734,218.83909606933594,-40.35517883300781,45.0,65.0,51.0,58.35200119018555,-20.0
1.2,60,60,60,go_to_color_detect_up,green,true,false,joint 3 -,true,2023-12-11 21:25:41.476127,16.557,0.158,235.0,119.62454986572266,256.53564453125,-2.1090316772460938,45.0,65.0,51.0,35.59999465942383,-20.0
1.2,60,60,60,go_to_color_detect_up,green,true,false,joint 3 -,true,2023-12-11 21:25:42.168794,22.804,0.21,235.0,131.5904541015625,282.1966247558594,76.47173309326172,45.0,65.0,51.0,3.0080065727233887,-20.0
1.2,60,60,60,go_to_blue_up,blue,true,false,joint 1 +,true,2023-12-11 21:25:43.548375,22.481,0.21,235.0,111.80270385742188,290.86749267578125,84.958251953125,48.974395751953125,69.31999206542969,51.0,0.0,-20.0
1.2,60,60,60,go_to_pick_up_from_blue,blue,true,false,joint 1 -,false,2023-12-11 21:25:44.263964,22.272,0.207,235.0,27.524002075195312,310.39678955078125,84.958251953125,64.93262481689453,84.9691390991211,51.0,0.0,-20.0
1.2,60,60,60,go_to_pick_up_from_blue,blue,true,false,joint 1 -,false,2023-12-11 21:25:45.672963,20.905,0.207,235.0,109.46790313720703,291.75421142578125,84.958251953125,49.43360900878906,68.75680541992188,51.0,0.0,-20.0
1.2,60,60,60,go_to_pick_up_from_blue,blue,true,false,joint 1 -,false,2023-12-11 21:25:46.366584,16.538,0.207,235.0,254.9851531982422,179.1265106201172,84.958251953125,15.087955474853516,34.43595504760742,51.0,0.0,-20.0
1.2,60,60,60,moving_belt,blue,false,true,joint 1 -,false,2023-12-11 21:25:47.060574,16.538,0.159,235.0,292.8220520019531,106.5785140991211,84.958251953125,0.0,20.0,51.0,0.0,-20.0
1.2,60,60,60,moving_belt,blue,false,true,joint 1 -,false,2023-12-11 21:25:48.476573,16.652,0.159,235.0,292.8220520019531,106.5785140991211,84.958251953125,0.0,20.0,51.0,0.0,-20.0
1.2,60,60,60,moving_belt,blue,false,true,joint 1 -,false,2023-12-11 21:25:49.240731,16.614,0.159,235.0,292.8220520019531,106.5785140991211,84.958251953125,0.0,20.0,51.0,0.0,-20.0
1.2,60,60,60,moving_belt,blue,false,true,joint 1 -,false,2023-12-11 21:25:50.693730,16.348,0.159,235.0,292.8220520019531,106.5785140991211,84.958251953125,0.0,20.0,51.0,0.0,-20.0
1.2,60,60,60,moving_belt,blue,false,true,joint 1 -,false,2023-12-11 21:25:51.512739,16.462,0.157,235.0,292.8220520019531,106.5785140991211,84.958251953125,0.0,20.0,51.0,0.0,-20.0
1.2,60,60,60,go_to_pick_down,blue,true,false,joint 3 +,false,2023-12-11 21:25:52.332729,16.462,0.157,235.0,291.60760498046875,106.13648986816406,65.5084228515625,0.0,20.0,51.0,8.078401565551758,-20.0
1.2,60,60,60,go_to_pick_down,blue,true,false,joint 3 +,false,2023-12-11 21:25:53.020313,16.424,0.16,235.0,276.37646484375,100.59280395507812,15.39520263671875,0.0,20.0,51.0,28.383827209472656,-20.0
1.2,60,60,60,go_to_pick_up_from_pick_down,blue,true,false,joint 3 -,true,2023-12-11 21:25:53.809875,16.576,0.16,235.0,283.7148132324219,103.26375579833984,32.46598434448242,0.0,20.0,51.0,20.432004928588867,-20.0
1.2,60,60,60,go_to_pick_up_from_pick_down,blue,true,false,joint 3 -,true,2023-12-11 21:25:55.699865,22.785,0.211,235.0,292.822021484375,106.57849884033203,84.8651123046875,0.0,20.0,51.0,0.011063838377594948,-20.0
1.2,60,60,60,go_to_color_detect_up,blue,true,false,joint 1 +,true,2023-12-11 21:25:56.612874,22.785,0.211,235.0,259.4830627441406,172.54640197753906,84.958251953125,13.622398376464844,34.25599670410156,51.0,0.0,-20.0
1.2,60,60,60,go_to_color_detect_up,blue,true,false,joint 1 +,true,2023-12-11 21:25:57.454872,22.31,0.208,235.0,147.1348114013672,274.69085693359375,84.958251953125,41.82481384277344,62.12001419067383,51.0,0.0,-20.0
1.2,60,60,60,go_to_color_detect_up,blue,true,false,joint 3 +,true,2023-12-11 21:25:58.142863,22.557,0.208,235.0,131.2703094482422,281.51007080078125,67.81784057617188,45.0,65.0,51.0,7.142401218414307,-20.0
1.2,60,60,60,go_to_color_detect_up,blue,true,false,joint 3 +,true,2023-12-11 21:25:59.553184,22.291,0.206,235.0,118.17512512207031,253.42735290527344,-6.591560363769531,45.0,65.0,51.0,39.2400016784668,-20.0
1.2,60,60,60,go_to_color_detect_up,blue,true,false,joint 3 +,true,2023-12-11 21:26:00.242083,22.177,0.206,235.0,101.76268005371094,218.2307586669922,-40.76433563232422,45.0,65.0,51.0,58.85919952392578,-20.0
1.2,60,60,60,go_to_color_detect_up,blue,true,false,joint 3 -,false,2023-12-11 21:26:01.028093,22.196,0.206,235.0,114.68251037597656,245.9374237060547,-16.106246948242188,45.0,65.0,51.0,42.756805419921875,-20.0
1.2,60,60,60,go_to_color_detect_up,blue,true,false,joint 3 -,false,2023-12-11 21:26:02.578508,16.956,0.178,235.0,130.62594604492188,280.12823486328125,57.81652069091797,45.0,65.0,51.0,10.093605995178223,-20.0
1.2,60,60,60,detecting_color,blue,false,false,detecting_color,false,2023-12-11 21:26:03.264509,16.956,0.178,235.0,131.69407653808594,282.4188232421875,84.958251953125,45.0,65.0,51.0,0.0,-20.0
1.2,60,60,60,detecting_color,blue,false,false,detecting_color,false,2023-12-11 21:26:04.641514,16.5,0.162,235.0,131.69407653808594,282.4188232421875,84.958251953125,45.0,65.0,51.0,0.0,-20.0
1.2,60,60,60,go_to_color_detect_down,blue,true,false,joint 3 +,false,2023-12-11 21:26:05.328511,16.5,0.162,235.0,129.94644165039062,278.6710205078125,50.33649826049805,45.0,65.0,51.0,14.256001472473145,-20.0
1.2,60,60,60,go_to_color_detect_down,blue,true,false,joint 3 +,false,2023-12-11 21:26:06.098507,16.481,0.159,235.0,111.76029968261719,239.67071533203125,-22.941871643066406,45.0,65.0,51.0,47.79920196533203,-20.0
1.2,60,60,60,go_to_color_detect_up,blue,true,false,joint 3 -,true,2023-12-11 21:26:06.953508,16.481,0.159,235.0,101.69959259033203,218.09547424316406,-40.85466003417969,45.0,65.0,51.0,58.784000396728516,-20.0
1.2,60,60,60,go_to_color_detect_up,blue,true,false,joint 3 -,true,2023-12-11 21:26:08.739506,20.165,0.173,235.0,120.53343200683594,258.4847717285156,0.8949050903320312,45.0,65.0,51.0,34.15999221801758,-20.0
1.2,60,60,60,go_to_color_detect_up,blue,true,false,joint 3 -,true,2023-12-11 21:26:09.437506,22.804,0.173,233.1,131.51913452148438,282.0436706542969,73.93431091308594,45.0,65.0,51.0,3.9560065269470215,-20.0
1.2,60,60,60,go_to_red_up,red,true,false,joint 1 +,true,2023-12-11 21:26:10.319505,22.595,0.211,233.1,115.08512115478516,289.5844421386719,84.958251953125,48.326393127441406,68.64319610595703,51.0,0.0,-20.0
1.2,60,60,60,go_to_red_up,red,true,false,joint 1 +,true,2023-12-11 21:26:11.092019,22.253,0.211,235.0,-38.19227981567383,309.265380859375,84.958251953125,77.0400161743164,97.76001739501953,51.0,0.0,-20.0
1.2,60,60,60,go_to_red_up,red,true,false,joint 1 +,true,2023-12-11 21:26:12.518442,22.557,0.209,235.0,-175.62118530273438,257.4119567871094,84.958251953125,104.30403900146484,124.43843841552734,51.0,0.0,-20.0
1.2,60,60,60,go_to_pick_up_from_red,red,true,false,joint 1 -,false,2023-12-11 21:26:13.229950,22.728,0.209,235.0,-133.70970153808594,281.47015380859375,84.958251953125,95.40960693359375,114.8768081665039,51.0,0.0,-20.0
1.2,60,60,60,go_to_pick_up_from_red,red,true,false,joint 1 -,false,2023-12-11 21:26:14.620501,19.557,0.159,235.0,42.506656646728516,308.7019958496094,84.958251953125,62.15996551513672,81.4399642944336,51.0,0.0,-20.0
1.2,60,60,60,go_to_pick_up_from_red,red,true,false,joint 1 -,false,2023-12-11 21:26:15.336502,16.481,0.159,235.0,226.85964965820312,213.6315155029297,84.958251953125,23.27989959716797,42.559898376464844,51.0,0.0,-20.0
1.2,60,60,60,go_to_pick_up_from_red,red,true,false,joint 1 -,false,2023-12-11 21:26:16.753488,16.69,0.165,235.0,291.63958740234375,109.77287292480469,84.958251953125,0.6262893676757812,20.49909019470215,51.0,0.0,-20.0
1.2,60,60,60,moving_belt,red,false,true,joint 1 -,false,2023-12-11 21:26:17.445487,16.785,0.165,235.0,292.8220520019531,106.5785140991211,84.958251953125,0.0,20.0,51.0,0.0,-20.0
1.2,60,60,60,moving_belt,red,false,true,joint 1 -,false,2023-12-11 21:26:18.144486,16.785,0.165,235.0,292.8220520019531,106.5785140991211,84.958251953125,0.0,20.0,51.0,0.0,-20.0
1.2,60,60,60,moving_belt,red,false,true,joint 1 -,false,2023-12-11 21:26:19.520225,16.462,0.163,235.0,292.8220520019531,106.5785140991211,84.958251953125,0.0,20.0,51.0,0.0,-20.0
1.2,60,60,60,moving_belt,red,false,true,joint 1 -,false,2023-12-11 21:26:20.206857,16.424,0.163,235.0,292.8220520019531,106.5785140991211,84.958251953125,0.0,20.0,51.0,0.0,-20.0
1.2,60,60,60,go_to_pick_down,red,true,false,joint 3 +,false,2023-12-11 21:26:21.652064,16.462,0.157,235.0,292.6944885253906,106.53208923339844,78.642578125,0.0,20.0,51.0,2.7360000610351562,-20.0
1.2,60,60,60,go_to_pick_down,red,true,false,joint 3 +,false,2023-12-11 21:26:22.342063,16.614,0.157,235.0,279.43316650390625,101.70536041259766,21.82388687133789,0.0,20.0,51.0,25.748149871826172,-20.0
1.2,60,60,60,go_to_pick_up_from_pick_down,red,true,false,joint 3 -,true,2023-12-11 21:26:23.042062,16.614,0.158,235.0,279.5139465332031,101.73475646972656,22.004913330078125,0.0,20.0,51.0,25.025604248046875,-20.0
1.2,60,60,60,go_to_pick_up_from_pick_down,red,true,false,joint 3 -,true,2023-12-11 21:26:24.637537,22.975,0.158,235.0,292.7884216308594,106.56626892089844,81.71468353271484,0.0,20.0,51.0,2.3985366821289062,-20.0
1.2,60,60,60,go_to_color_detect_up,red,true,false,joint 1 +,true,2023-12-11 21:26:25.325141,22.443,0.208,235.0,276.1460266113281,144.38526916503906,84.958251953125,7.6031951904296875,28.07839584350586,51.0,0.0,-20.0
1.2,60,60,60,go_to_color_detect_up,red,true,false,joint 1 +,true,2023-12-11 21:26:26.699465,22.348,0.208,235.0,166.8465576171875,263.18426513671875,84.958251953125,37.6272087097168,58.080810546875,51.0,0.0,-20.0
1.2,60,60,60,go_to_color_detect_up,red,true,false,joint 3 +,true,2023-12-11 21:26:27.467114,22.424,0.207,235.0,131.62326049804688,282.2669677734375,77.94134521484375,45.0,65.0,51.0,3.0240001678466797,-20.0
1.2,60,60,60,go_to_color_detect_up,red,true,false,joint 3 +,true,2023-12-11 21:26:28.160264,22.121,0.207,235.0,123.43585968017578,264.70904541015625,11.725059509277344,45.0,65.0,51.0,30.599990844726562,-20.0
1.2,60,60,60,go_to_color_detect_up,red,true,false,joint 3 +,true,2023-12-11 21:26:29.357846,22.083,0.207,235.0,103.57704162597656,222.12167358398438,-38.06071472167969,45.0,65.0,51.0,57.05439758300781,-20.0
1.2,60,60,60,go_to_color_detect_up,red,true,false,joint 3 -,false,2023-12-11 21:26:30.752073,19.424,0.206,235.0,109.14232635498047,234.0564727783203,-28.359527587890625,45.0,65.0,51.0,49.928001403808594,-20.0
1.2,60,60,60,go_to_color_detect_up,red,true,false,joint 3 -,false,2023-12-11 21:26:31.453141,19.424,0.206,235.0,128.78578186035156,276.1820068359375,40.50791549682617,45.0,65.0,51.0,16.89600372314453,-20.0
1.2,60,60,60,detecting_color,red,false,false,detecting_color,false,2023-12-11 21:26:32.145281,16.994,0.161,235.0,131.69407653808594,282.4188232421875,84.92333984375,45.0,65.0,51.0,6.6729262471199036e-06,-20.0
1.2,60,60,60,detecting_color,red,false,false,detecting_color,false,2023-12-11 21:26:33.725817,16.728,0.158,235.0,131.69407653808594,282.4188232421875,84.958251953125,45.0,65.0,51.0,0.0,-20.0
1.2,60,60,60,go_to_color_detect_down,red,true,false,joint 3 +,false,2023-12-11 21:26:34.417818,16.576,0.158,235.0,131.60757446289062,282.23333740234375,77.20337677001953,45.0,65.0,51.0,3.3264002799987793,-20.0
1.2,60,60,60,go_to_color_detect_down,red,true,false,joint 3 +,false,2023-12-11 21:26:35.804630,16.443,0.158,235.0,122.23108673095703,262.1253967285156,6.9731292724609375,45.0,65.0,51.0,32.75999069213867,-20.0
1.2,60,60,60,go_to_color_detect_down,red,true,false,joint 3 +,false,2023-12-11 21:26:36.507633,16.443,0.158,235.0,102.0404281616211,218.82640075683594,-40.36376190185547,45.0,65.0,51.0,58.60239791870117,-20.0
1.2,60,60,60,go_to_color_detect_up,red,true,false,joint 3 -,true,2023-12-11 21:26:37.197623,16.633,0.158,235.0,109.99055480957031,235.87550354003906,-26.670677185058594,45.0,65.0,51.0,48.87680435180664,-20.0
1.2,60,60,60,go_to_color_detect_up,red,true,false,joint 3 -,true,2023-12-11 21:26:38.594150,22.557,0.212,235.0,129.2256317138672,277.125244140625,43.93274688720703,45.0,65.0,51.0,15.5296049118042,-20.0
1.2,60,60,60,go_to_green_up,green,true,false,joint 1 +,true,2023-12-11 21:26:39.283149,22.557,0.212,235.0,130.98388671875,282.7489318847656,84.958251953125,45.14399719238281,65.21599578857422,51.0,0.0,-20.0
1.2,60,60,60,go_to_green_up,green,true,false,joint 1 +,true,2023-12-11 21:26:40.663161,22.158,0.206,235.0,28.24247169494629,310.3322448730469,84.958251953125,64.79999542236328,85.5199966430664,51.0,0.0,-20.0
1.2,60,60,60,go_to_green_up,green,true,false,joint 1 +,true,2023-12-11 21:26:41.377149,22.576,0.206,235.0,-79.68482208251953,301.254150390625,84.958251953125,84.81600952148438,104.88160705566406,51.0,0.0,-20.0
1.2,60,60,60,go_to_pick_up_from_green,green,true,false,joint 1 -,false,2023-12-11 21:26:42.770156,21.817,0.204,235.0,-0.522193968296051,311.6142578125,84.958251953125,70.09600830078125,89.43360900878906,51.0,0.0,-20.0
1.2,60,60,60,go_to_pick_up_from_green,green,true,false,joint 1 -,false,2023-12-11 21:26:43.457146,16.595,0.204,235.0,175.6930389404297,257.3629455566406,84.958251953125,35.679954528808594,54.95995330810547,51.0,0.0,-20.0
1.2,60,60,60,go_to_pick_up_from_green,green,true,false,joint 1 -,false,2023-12-11 21:26:44.367145,16.595,0.204,235.0,282.24407958984375,132.06817626953125,84.958251953125,5.075922012329102,24.700721740722656,51.0,0.0,-20.0
1.2,60,60,60,moving_belt,green,false,true,joint 1 -,false,2023-12-11 21:26:45.758779,16.652,0.159,235.0,292.8220520019531,106.5785140991211,84.958251953125,0.0,20.0,51.0,0.0,-20.0
1.2,60,60,60,moving_belt,green,false,true,joint 1 -,false,2023-12-11 21:26:46.453813,16.462,0.159,235.0,292.8220520019531,106.5785140991211,84.958251953125,0.0,20.0,51.0,0.0,-20.0
1.2,60,60,60,moving_belt,green,false,true,joint 1 -,false,2023-12-11 21:26:47.155995,16.481,0.16,235.0,292.8220520019531,106.5785140991211,84.958251953125,0.0,20.0,51.0,0.0,-20.0
1.2,60,60,60,moving_belt,green,false,true,joint 1 -,false,2023-12-11 21:26:48.548557,16.272,0.16,235.0,292.8220520019531,106.5785140991211,84.958251953125,0.0,20.0,51.0,0.0,-20.0
1.2,60,60,60,go_to_pick_down,green,true,false,joint 3 +,false,2023-12-11 21:26:49.240556,16.272,0.158,235.0,292.8220520019531,106.5785140991211,84.958251953125,0.0,20.0,51.0,0.0,-20.0
1.2,60,60,60,go_to_pick_down,green,true,false,joint 3 +,false,2023-12-11 21:26:50.617657,16.5,0.158,235.0,287.77850341796875,104.74281311035156,45.59885787963867,0.0,20.0,51.0,16.146120071411133,-20.0
1.2,60,60,60,go_to_pick_up_from_pick_down,green,true,false,joint 3 -,true,2023-12-11 21:26:51.321667,16.405,0.158,235.0,275.85443115234375,100.4028091430664,14.370796203613281,0.0,20.0,51.0,28.5968017578125,-20.0
1.2,60,60,60,go_to_pick_up_from_pick_down,green,true,false,joint 3 -,true,2023-12-11 21:26:52.697256,16.937,0.158,235.0,291.1410827636719,105.96669006347656,62.09515380859375,0.0,20.0,51.0,8.44717025756836,-20.0
1.2,60,60,60,go_to_color_detect_up,green,true,false,joint 1 +,true,2023-12-11 21:26:53.391255,22.861,0.21,235.0,291.3208923339844,110.6158676147461,84.958251953125,0.7919979095458984,20.950397491455078,51.0,0.0,-20.0
1.2,60,60,60,go_to_color_detect_up,green,true,false,joint 1 +,true,2023-12-11 21:26:54.770113,22.272,0.21,235.0,206.8435821533203,233.0653839111328,84.958251953125,28.411209106445312,49.09520721435547,51.0,0.0,-20.0
1.2,60,60,60,go_to_color_detect_up,green,true,false,joint 3 +,true,2023-12-11 21:26:54.770113,22.272,0.21,235.0,131.69400024414062,282.41888427734375,84.958251953125,45.00001525878906,65.0,51.0,0.0,-20.0
1.2,60,60,60,go_to_color_detect_up,green,true,false,joint 3 +,true,2023-12-11 21:26:56.630760,22.14,0.207,235.0,128.2811279296875,275.0997619628906,36.905704498291016,45.0,65.0,51.0,19.80000114440918,-20.0
1.2,60,60,60,go_to_color_detect_up,green,true,false,joint 3 +,true,2023-12-11 21:26:57.318761,21.874,0.204,235.0,108.30864715576172,232.2686309814453,-29.961105346679688,45.0,65.0,51.0,51.88240051269531,-20.0
1.2,60,60,60,go_to_color_detect_up,green,true,false,joint 3 -,false,2023-12-11 21:26:58.520980,21.874,0.204,235.0,102.44473266601562,219.6934356689453,-39.77220153808594,45.0,65.0,51.0,57.876800537109375,-20.0
1.2,60,60,60,go_to_color_detect_up,green,true,false,joint 3 -,false,2023-12-11 21:26:59.215971,22.064,0.204,235.0,123.45745086669922,264.7553405761719,11.814056396484375,45.0,65.0,51.0,29.119993209838867,-20.0
1.2,60,60,60,go_to_color_detect_up,green,true,false,joint 3 -,false,2023-12-11 21:27:00.624706,17.108,0.16,235.0,131.6373748779297,282.2972412109375,78.67947387695312,45.0,65.0,51.0,2.1896066665649414,-20.0
1.2,60,60,60,detecting_color,green,false,false,detecting_color,false,2023-12-11 21:27:01.313854,17.108,0.16,235.0,131.69407653808594,282.4188232421875,84.958251953125,45.0,65.0,51.0,0.0,-20.0
1.2,60,60,60,go_to_color_detect_down,green,true,false,joint 3 +,false,2023-12-11 21:27:02.707865,16.519,0.159,235.0,131.69406127929688,282.4187927246094,84.84741973876953,45.0,65.0,51.0,0.08639999479055405,-20.0
1.2,60,60,60,go_to_color_detect_down,green,true,false,joint 3 +,false,2023-12-11 21:27:03.396853,16.348,0.159,235.0,128.53167724609375,275.6370544433594,38.65522766113281,45.0,65.0,51.0,19.080001831054688,-20.0
1.2,60,60,60,go_to_color_detect_down,green,true,false,joint 3 +,false,2023-12-11 21:27:04.780855,16.386,0.157,235.0,106.45410919189453,228.29156494140625,-33.32825469970703,45.0,65.0,51.0,53.966400146484375,-20.0
1.2,60,60,60,go_to_color_detect_up,green,true,false,joint 3 -,true,2023-12-11 21:27:05.469452,16.519,0.157,235.0,103.8241958618164,222.65170288085938,-37.676185607910156,45.0,65.0,51.0,56.263999938964844,-20.0
1.2,60,60,60,go_to_color_detect_up,green,true,false,joint 3 -,true,2023-12-11 21:27:06.174030,16.519,0.194,235.0,123.45745086669922,264.7553405761719,11.814056396484375,45.0,65.0,51.0,29.119993209838867,-20.0
1.2,60,60,60,go_to_color_detect_up,green,true,false,joint 3 -,true,2023-12-11 21:27:07.722636,22.785,0.194,235.0,131.68234252929688,282.3936767578125,82.10132598876953,45.0,65.0,51.0,0.9416065216064453,-20.0
1.2,60,60,60,go_to_blue_up,blue,true,false,joint 1 +,true,2023-12-11 21:27:08.412635,22.443,0.208,235.0,90.69951629638672,298.1230163574219,84.958251953125,53.078392028808594,73.5679931640625,51.0,0.0,-20.0
1.2,60,60,60,go_to_pick_up_from_blue,blue,true,false,joint 1 -,false,2023-12-11 21:27:09.099635,22.158,0.208,235.0,29.966487884521484,310.1705017089844,84.958251953125,64.48160552978516,84.35200500488281,51.0,0.0,-20.0
1.2,60,60,60,go_to_pick_up_from_blue,blue,true,false,joint 1 -,false,2023-12-11 21:27:10.679813,21.779,0.192,235.0,144.7553253173828,275.95220947265625,84.958251953125,42.31999969482422,61.599998474121094,51.0,0.0,-20.0
1.2,60,60,60,go_to_pick_up_from_blue,blue,true,false,joint 1 -,false,2023-12-11 21:27:11.384825,16.443,0.192,235.0,271.9730224609375,152.09999084472656,84.958251953125,9.21595573425293,28.707956314086914,51.0,0.0,-20.0
1.2,60,60,60,moving_belt,blue,false,true,joint 1 -,false,2023-12-11 21:27:12.763475,16.443,0.159,235.0,292.8220520019531,106.5785140991211,84.958251953125,0.0,20.0,51.0,0.0,-20.0
1.2,60,60,60,moving_belt,blue,false,true,joint 1 -,false,2023-12-11 21:27:13.451475,16.443,0.159,235.0,292.8220520019531,106.5785140991211,84.958251953125,0.0,20.0,51.0,0.0,-20.0
1.2,60,60,60,moving_belt,blue,false,true,joint 1 -,false,2023-12-11 21:27:14.831909,16.614,0.157,235.0,292.8220520019531,106.5785140991211,84.958251953125,0.0,20.0,51.0,0.0,-20.0
1.2,60,60,60,moving_belt,blue,false,true,joint 1 -,false,2023-12-11 21:27:15.521018,16.291,0.157,235.0,292.8220520019531,106.5785140991211,84.958251953125,0.0,20.0,51.0,0.0,-20.0
1.2,60,60,60,moving_belt,blue,false,true,joint 1 -,false,2023-12-11 21:27:16.219017,16.386,0.157,235.0,292.8220520019531,106.5785140991211,84.958251953125,0.0,20.0,51.0,0.0,-20.0
1.2,60,60,60,go_to_pick_down,blue,true,false,joint 3 +,false,2023-12-11 21:27:17.652018,16.481,0.156,235.0,288.9361877441406,105.16416931152344,50.33649826049805,0.0,20.0,51.0,14.256001472473145,-20.0
1.2,60,60,60,go_to_pick_up_from_pick_down,blue,true,false,joint 3 -,true,2023-12-11 21:27:18.392017,16.481,0.156,235.0,275.5026550292969,100.27477264404297,13.691230773925781,0.0,20.0,51.0,29.0,-20.0
1.2,60,60,60,go_to_pick_up_from_pick_down,blue,true,false,joint 3 -,true,2023-12-11 21:27:19.774621,22.937,0.158,235.0,289.02252197265625,105.19560241699219,50.717811584472656,0.0,20.0,51.0,12.853885650634766,-20.0
1.2,60,60,60,go_to_color_detect_up,blue,true,false,joint 1 +,true,2023-12-11 21:27:20.477174,22.804,0.158,235.0,291.84576416015625,109.22349548339844,84.958251953125,0.5183982849121094,20.647998809814453,51.0,0.0,-20.0
1.2,60,60,60,go_to_color_detect_up,blue,true,false,joint 1 +,true,2023-12-11 21:27:21.166164,22.804,0.207,235.0,229.0839385986328,211.24459838867188,84.958251953125,22.680004119873047,43.40000534057617,51.0,0.0,-20.0
1.2,60,60,60,go_to_color_detect_up,blue,true,false,joint 1 +,true,2023-12-11 21:27:22.547144,22.272,0.207,235.0,133.9610595703125,281.3506164550781,84.958251953125,44.539215087890625,64.647216796875,51.0,0.0,-20.0
1.2,60,60,60,go_to_color_detect_up,blue,true,false,joint 3 +,true,2023-12-11 21:27:23.327712,22.102,0.206,235.0,130.10104370117188,279.0025634765625,51.882442474365234,45.0,65.0,51.0,13.622401237487793,-20.0
1.2,60,60,60,go_to_color_detect_up,blue,true,false,joint 3 +,true,2023-12-11 21:27:24.760254,22.102,0.206,235.0,112.22731018066406,240.67222595214844,-21.908851623535156,45.0,65.0,51.0,47.224002838134766,-20.0
1.2,60,60,60,go_to_color_detect_up,blue,true,false,joint 3 -,false,2023-12-11 21:27:25.457253,22.064,0.206,235.0,101.64613342285156,217.98081970214844,-40.93102264404297,45.0,65.0,51.0,58.85599899291992,-20.0
1.2,60,60,60,go_to_color_detect_up,blue,true,false,joint 3 -,false,2023-12-11 21:27:26.848018,21.931,0.206,235.0,119.62454986572266,256.53564453125,-2.1090316772460938,45.0,65.0,51.0,35.59999465942383,-20.0
1.2,60,60,60,go_to_color_detect_up,blue,true,false,joint 3 -,false,2023-12-11 21:27:27.556017,16.766,0.163,235.0,131.41616821289062,281.8228454589844,71.06914520263672,45.0,65.0,51.0,5.03360652923584,-20.0
1.2,60,60,60,detecting_color,blue,false,false,detecting_color,false,2023-12-11 21:27:28.255096,17.013,0.163,235.0,131.69407653808594,282.4188232421875,84.958251953125,45.0,65.0,51.0,0.0,-20.0
1.2,60,60,60,go_to_color_detect_down,blue,true,false,joint 3 +,false,2023-12-11 21:27:29.638006,16.519,0.157,235.0,131.69407653808594,282.4188232421875,84.958251953125,45.0,65.0,51.0,0.0,-20.0
1.2,60,60,60,go_to_color_detect_down,blue,true,false,joint 3 +,false,2023-12-11 21:27:30.364291,16.519,0.157,235.0,127.75225067138672,273.965576171875,33.42970657348633,45.0,65.0,51.0,21.239999771118164,-20.0
1.2,60,60,60,go_to_color_detect_down,blue,true,false,joint 3 +,false,2023-12-11 21:27:31.753332,16.462,0.161,235.0,107.53620147705078,230.6121063232422,-31.395530700683594,45.0,65.0,51.0,52.75919723510742,-20.0
1.2,60,60,60,go_to_color_detect_up,blue,true,false,joint 3 -,true,2023-12-11 21:27:32.447831,16.652,0.161,235.0,102.95983123779297,220.7980499267578,-39.003746032714844,45.0,65.0,51.0,57.272003173828125,-20.0
1.2,60,60,60,go_to_color_detect_up,blue,true,false,joint 3 -,true,2023-12-11 21:27:33.832615,19.766,0.21,235.0,124.5842514038086,267.1717834472656,16.671920776367188,45.0,65.0,51.0,26.95999526977539,-20.0
1.2,60,60,60,go_to_color_detect_up,blue,true,false,joint 3 -,true,2023-12-11 21:27:34.526614,22.804,0.21,235.0,131.6662139892578,282.3591003417969,80.55626678466797,45.0,65.0,51.0,1.5008066892623901,-20.0
1.2,60,60,60,go_to_red_up,red,true,false,joint 1 +,true,2023-12-11 21:27:35.222624,22.842,0.21,235.0,97.86534881591797,295.8481140136719,84.958251953125,51.69599151611328,72.14239501953125,51.0,0.0,-20.0
1.2,60,60,60,go_to_red_up,red,true,false,joint 1 +,true,2023-12-11 21:27:36.597213,22.481,0.206,235.0,-95.416748046875,296.6468811035156,84.958251953125,87.83043670654297,108.52643585205078,51.0,0.0,-20.0
1.2,60,60,60,go_to_pick_up_from_red,red,true,false,joint 1 -,false,2023-12-11 21:27:37.291216,22.481,0.206,235.0,-178.71368408203125,255.27464294433594,84.958251953125,104.9952392578125,125.00003814697266,51.0,0.0,-20.0
1.2,60,60,60,go_to_pick_up_from_red,red,true,false,joint 1 -,false,2023-12-11 21:27:38.496313,22.576,0.208,235.0,-110.37187194824219,291.4134216308594,84.958251953125,90.74401092529297,110.09600830078125,51.0,0.0,-20.0
1.2,60,60,60,go_to_pick_up_from_red,red,true,false,joint 1 -,false,2023-12-11 21:27:39.188888,19.709,0.208,235.0,95.880615234375,296.4972839355469,84.958251953125,52.07994842529297,71.35994720458984,51.0,0.0,-20.0
