demetriskallis/dobot_magician_pick_and_place_and_color_sorting/Sampling/OLD_DATA/sampling_joint_movement_extra/joint_measurements__armv_100_arma_100_belts_60_cube_1.2g.csv
cube/weight,arm/velocity_ratio,arm/acceleration_ratio,belt/speed,dobot/operation,dobot/color,dobot/moving_arm,dobot/moving_belt,dobot/operation2,dobot/suction,meross/sample_timestamp,meross/power,meross/current,meross/voltage,dobot/pose_x,dobot/pose_y,dobot/pose_z,dobot/pose_rHead,dobot/pose_joint1Angle,dobot/pose_joint2Angle,dobot/pose_joint3Angle,dobot/pose_joint4Angle
1.2,100,100,60,homing,,,,homing,,,,,,183.4612122,63.0129509,92.55282593,-1.044073105,18.55592728,-2.76158762,16.71969414,-20
1.2,100,100,60,homing,,,,homing,,,,,,193.9792938,-0.826302767,92.55282593,-20.24406433,-0.644064069,-2.76158762,16.71969414,-20
1.2,100,100,60,homing,,,,homing,,,,,,182.9177246,-64.57363892,92.55282593,-39.44405365,-19.84405518,-2.76158762,16.71969414,-20
1.2,100,100,60,homing,,,,homing,,,,,,146.3014069,-127.3756256,92.55282593,-61.04407883,-41.44408035,-2.76158762,16.71969414,-20
1.2,100,100,60,homing,,,,homing,,,,,,96.27378082,-168.4042816,92.55282593,-80.24415588,-60.64415359,-2.76158762,16.71969414,-20
1.2,100,100,60,homing,,,,homing,,31:08.3,16.614,0.163,235,35.53589249,-190.6983185,92.55282593,-99.4442215,-79.84422302,-2.76158762,16.71969414,-20
1.2,100,100,60,homing,,,,homing,,31:09.1,16.69,0.163,235,-30.49347305,-191.5692902,92.55282593,-119.0442963,-99.44429779,-2.76158762,16.71969414,-20
1.2,100,100,60,homing,,,,homing,,31:09.9,16.69,0.163,235,-100.0363922,-166.1967621,92.55282593,-141.0443726,-121.4443817,-2.76158762,16.71969414,-20
1.2,100,100,60,homing,,,,homing,,31:11.5,16.519,0.162,235,-140.6254883,-133.6155701,92.55282593,-156.4642334,-136.4442291,-2.76158762,16.71969414,-20
1.2,100,100,60,homing,,,,homing,,31:12.3,16.519,0.162,231.2,-138.3666077,-135.9533844,92.55282593,-155.5040283,-135.484024,-2.76158762,16.71969414,-20
1.2,100,100,60,homing,,,,homing,,31:13.2,16.481,0.162,231.2,-117.4433289,-158.0400085,90.11071777,-145.8737183,-126.1609116,-1.097898245,17.82530022,-19.21663475
1.2,100,100,60,homing,,,,homing,,31:14.0,16.614,0.163,231.2,-16.74913025,-210.3312073,76.35836029,-110.0303955,-93.95298004,7.052159309,23.24142456,-15.37909603
1.2,100,100,60,homing,,,,homing,,31:15.5,16.918,0.168,231.2,96.78054047,-209.0023346,50.01596069,-74.58623505,-64.55305481,19.97873688,31.83179092,-9.292484283
1.2,100,100,60,homing,,,,homing,,31:16.3,17.108,0.168,231.2,196.2516785,-144.4415436,21.65119934,-40.22533035,-35.75312805,31.68121719,39.60868073,-3.782251358
1.2,100,100,60,homing,,,,homing,,31:17.1,17.108,0.168,231.2,247.4609833,-29.36863899,3.421325684,-7.36466074,-6.371139526,38.52139664,44.15432358,-0.561483145
1.2,100,100,60,homing,,,,homing,,31:17.9,17.013,0.167,231.2,250.34198,-0.104160145,-0.019737244,-0.023839137,-0.011741125,39.76762009,44.90752411,0
1.2,100,100,60,homing,,,,homing,,31:19.3,16.728,0.167,231.2,249.9999847,0.00017966,-7.63E-06,4.12E-05,4.12E-05,39.71385956,44.94676971,0
1.2,100,100,60,homing,,,,homing,,31:20.1,16.5,0.164,231.2,249.9999847,0.00017966,-7.63E-06,4.12E-05,4.12E-05,39.71385956,44.94676971,0
1.2,100,100,60,homing,,,,homing,,31:20.9,16.367,0.164,231.2,249.9999847,0.00017966,-7.63E-06,4.12E-05,4.12E-05,39.71385956,44.94676971,0
1.2,100,100,60,homing,,,,homing,,31:21.7,16.367,0.164,231.2,249.9999847,0.00017966,-7.63E-06,4.12E-05,4.12E-05,39.71385956,44.94676971,0
1.2,100,100,60,homing,,,,homing,,31:23.5,16.709,0.165,231.2,249.9999847,0.00017966,-7.63E-06,4.12E-05,4.12E-05,39.71385956,44.94676971,0
1.2,100,100,60,homing,,,,homing,,31:24.2,16.709,0.164,231.2,249.9999847,0.00017966,-7.63E-06,4.12E-05,4.12E-05,39.71385956,44.94676971,0
1.2,100,100,60,homing,,,,homing,,31:25.0,16.633,0.164,231.2,257.5704041,30.8285141,19.48280334,4.10E-05,7.261687279,37.25507355,36.12999725,-7.261646271
1.2,100,100,60,go_to_pick_up_from_homing,nothing,,,go_to_pick_up_from_homing,,31:25.8,16.975,0.164,231.2,274.9972534,102.9885635,64.99276733,4.20E-05,20.53320694,42.43653107,13.62708092,-20.53316498
1.2,100,100,60,moving_belt,nothing,FALSE,TRUE,go_to_pick_up_from_homing,,31:27.4,17.184,0.172,231.2,292.822052,106.5785141,84.95825195,0,20,51,0,-20
1.2,100,100,60,moving_belt,nothing,FALSE,TRUE,go_to_pick_up_from_homing,,31:28.2,16.861,0.172,231.2,292.822052,106.5785141,84.95825195,0,20,51,0,-20
1.2,100,100,60,moving_belt,nothing,FALSE,TRUE,go_to_pick_up_from_homing,,31:29.2,16.861,0.166,231.2,292.822052,106.5785141,84.95825195,0,20,51,0,-20
1.2,100,100,60,moving_belt,nothing,FALSE,TRUE,go_to_pick_up_from_homing,,31:29.9,16.671,0.166,233.1,292.822052,106.5785141,84.95825195,0,20,51,0,-20
1.2,100,100,60,moving_belt,nothing,FALSE,TRUE,go_to_pick_up_from_homing,,31:31.3,16.329,0.163,233.1,292.822052,106.5785141,84.95825195,0,20,51,0,-20
1.2,100,100,60,go_to_pick_down,nothing,TRUE,FALSE,joint 3 +,,31:32.2,16.633,0.163,235,282.5214539,102.8293991,29.25750351,0,20,51,22.98065948,-20
1.2,100,100,60,go_to_pick_up_from_pick_down,nothing,TRUE,FALSE,joint 3 -,TRUE,31:32.9,16.766,0.163,235,288.7851257,105.1091995,49.67976379,0,20,51,12.85186768,-20
1.2,100,100,60,go_to_color_detect_up,nothing,TRUE,FALSE,joint 1 +,TRUE,31:34.4,23.848,0.163,235,276.1540527,144.369873,84.95825195,7.600002289,28.40000153,51,0,-20
1.2,100,100,60,go_to_color_detect_up,nothing,TRUE,FALSE,joint 3 +,TRUE,31:35.2,22.747,0.215,235,131.6935272,282.4176636,84.34249878,45,65,51,0.399999976,-20
1.2,100,100,60,go_to_color_detect_up,nothing,TRUE,FALSE,joint 3 +,TRUE,31:35.9,22.861,0.215,235,112.5826187,241.4341888,-21.10847473,45,65,51,47.1744194,-20
1.2,100,100,60,go_to_color_detect_up,nothing,TRUE,FALSE,joint 3 -,FALSE,31:37.5,21.437,0.214,235,109.0017471,233.7549896,-28.63358307,45,65,51,49.75999832,-20
1.2,100,100,60,go_to_color_detect_up,nothing,TRUE,FALSE,joint 3 -,FALSE,31:38.2,21.437,0.214,235,131.6831665,282.3954468,82.20346832,45,65,51,0.801329434,-20
1.2,100,100,60,detecting_color,nothing,FALSE,FALSE,detecting_color,FALSE,31:39.0,17.886,0.214,235,131.6940765,282.4188232,84.95825195,45,65,51,0,-20
1.2,100,100,60,go_to_color_detect_down,nothing,TRUE,FALSE,joint 3 +,FALSE,31:39.9,16.747,0.165,235,130.88797,280.6901245,61.35441971,45,65,51,10.11999989,-20
1.2,100,100,60,go_to_color_detect_down,nothing,TRUE,FALSE,joint 3 +,FALSE,31:41.5,16.747,0.165,235,102.5581818,219.9367218,-39.60438538,45,65,51,58.19866562,-20
1.2,100,100,60,go_to_color_detect_up,nothing,TRUE,FALSE,joint 3 -,TRUE,31:42.3,19.272,0.165,233.1,127.0897446,272.5447998,29.42110443,45,65,51,20.88524628,-20
1.2,100,100,60,go_to_red_up,red,TRUE,FALSE,joint 1 +,TRUE,31:43.3,23.772,0.165,233.1,118.5459595,288.1849976,84.95825195,47.64000702,68.12001038,51,0,-20
1.2,100,100,60,go_to_red_up,red,TRUE,FALSE,joint 1 +,TRUE,31:44.1,22.538,0.221,233.1,-152.2356262,271.8971252,84.95825195,99.24452209,119.9029083,51,0,-20
1.2,100,100,60,go_to_pick_up_from_red,red,TRUE,FALSE,joint 1 -,FALSE,31:44.9,23.146,0.221,233.1,-67.76433563,304.1574097,84.95825195,82.55999756,101.1999969,51,0,-20
1.2,100,100,60,go_to_pick_up_from_red,red,TRUE,FALSE,joint 1 -,FALSE,31:46.4,17.07,0.181,233.1,273.0176392,150.2168121,84.95825195,8.819992065,27.99999237,51,0,-20
1.2,100,100,60,moving_belt,red,FALSE,TRUE,joint 1 -,FALSE,31:47.2,16.804,0.181,233.1,292.822052,106.5785141,84.95825195,0,20,51,0,-20
1.2,100,100,60,moving_belt,red,FALSE,TRUE,joint 1 -,FALSE,31:48.0,16.804,0.166,233.1,292.822052,106.5785141,84.95825195,0,20,51,0,-20
1.2,100,100,60,moving_belt,red,FALSE,TRUE,joint 1 -,FALSE,31:49.5,16.443,0.166,233.1,292.822052,106.5785141,84.95825195,0,20,51,0,-20
1.2,100,100,60,moving_belt,red,FALSE,TRUE,joint 1 -,FALSE,31:50.3,16.443,0.162,233.1,292.822052,106.5785141,84.95825195,0,20,51,0,-20
1.2,100,100,60,go_to_pick_down,red,TRUE,FALSE,joint 3 +,FALSE,31:51.0,16.633,0.162,233.1,292.822052,106.5785141,84.95825195,0,20,51,0.039999999,-20
1.2,100,100,60,go_to_pick_down,red,TRUE,FALSE,joint 3 +,FALSE,31:51.9,16.557,0.162,233.1,275.940094,100.4339828,14.53757477,0,20,51,28.77758408,-20
1.2,100,100,60,go_to_pick_up_from_pick_down,red,TRUE,FALSE,joint 3 -,TRUE,31:53.4,17.582,0.162,233.1,292.7975769,106.5696106,82.19091797,0,20,51,0.804613233,-20
1.2,100,100,60,go_to_color_detect_up,red,TRUE,FALSE,joint 1 +,TRUE,31:54.5,23.146,0.216,233.1,201.2184601,237.938797,84.95825195,29.77968979,50.86297226,51,0,-20
1.2,100,100,60,go_to_color_detect_up,red,TRUE,FALSE,joint 3 +,TRUE,31:55.3,22.595,0.216,233.1,131.2519073,281.4706116,67.45097351,45,65,51,7.599999428,-20
1.2,100,100,60,go_to_color_detect_up,red,TRUE,FALSE,joint 3 +,TRUE,31:56.0,22.064,0.211,233.1,103.5240097,222.0079346,-38.14271545,45,65,51,57.2612915,-20
1.2,100,100,60,go_to_color_detect_up,red,TRUE,FALSE,joint 3 -,FALSE,31:56.8,22.386,0.211,233.1,121.1940079,259.9013672,3.182800293,45,65,51,32.3599968,-20
1.2,100,100,60,detecting_color,red,FALSE,FALSE,detecting_color,FALSE,31:58.4,17.336,0.172,233.1,131.6940765,282.4188232,84.95825195,45,65,51,0,-20
1.2,100,100,60,detecting_color,red,FALSE,FALSE,detecting_color,FALSE,31:59.2,16.956,0.172,233.1,131.6940765,282.4188232,84.95825195,45,65,51,0,-20
1.2,100,100,60,go_to_color_detect_down,red,TRUE,FALSE,joint 3 +,FALSE,32:00.0,16.462,0.172,233.1,131.6019897,282.221344,76.95742798,45,65,51,3.640000105,-20
1.2,100,100,60,go_to_color_detect_down,red,TRUE,FALSE,joint 3 +,FALSE,32:01.4,16.348,0.162,233.1,106.3705826,228.1124268,-33.47382355,45,65,51,54.30654144,-20
1.2,100,100,60,go_to_color_detect_up,red,TRUE,FALSE,joint 3 -,TRUE,32:02.1,16.348,0.162,233.1,115.1815338,247.0075836,-14.84429932,45,65,51,41.59999847,-20
1.2,100,100,60,go_to_green_up,green,TRUE,FALSE,joint 1 +,TRUE,32:03.5,23.431,0.213,233.1,131.6940765,282.4188232,84.95825195,45,65,51,0,-20
1.2,100,100,60,go_to_green_up,green,TRUE,FALSE,joint 1 +,TRUE,32:04.3,22.215,0.213,233.1,-68.43447876,304.0073242,84.95825195,82.68627167,103.0960922,51,0,-20
1.2,100,100,60,go_to_pick_up_from_green,green,TRUE,FALSE,joint 1 -,FALSE,32:05.1,22.367,0.217,233.1,47.67263412,307.9465027,84.95825195,61.19999695,79.79999542,51,0,-20
1.2,100,100,60,go_to_pick_up_from_green,green,TRUE,FALSE,joint 1 -,FALSE,32:05.9,22.367,0.217,235,289.1708984,116.1202621,84.95825195,1.878555298,21.51073837,51,0,-20
1.2,100,100,60,moving_belt,green,FALSE,TRUE,joint 1 -,FALSE,32:07.0,16.595,0.217,235,292.822052,106.5785141,84.95825195,0,20,51,0,-20
1.2,100,100,60,moving_belt,green,FALSE,TRUE,joint 1 -,FALSE,32:08.5,16.519,0.162,235,292.822052,106.5785141,84.95825195,0,20,51,0,-20
1.2,100,100,60,moving_belt,green,FALSE,TRUE,joint 1 -,FALSE,32:09.2,16.481,0.162,235,292.822052,106.5785141,84.95825195,0,20,51,0,-20
1.2,100,100,60,moving_belt,green,FALSE,TRUE,joint 1 -,FALSE,32:10.0,16.481,0.162,235,292.822052,106.5785141,84.95825195,0,20,51,0,-20
1.2,100,100,60,go_to_pick_down,green,TRUE,FALSE,joint 3 +,FALSE,32:11.4,16.538,0.161,235,292.4510803,106.4434891,74.19223785,0,20,51,4.800000191,-20
1.2,100,100,60,go_to_pick_up_from_pick_down,green,TRUE,FALSE,joint 3 -,TRUE,32:12.2,16.538,0.161,235,276.1973267,100.5276108,15.04149628,0,20,51,28.15999794,-20
1.2,100,100,60,go_to_color_detect_up,green,TRUE,FALSE,joint 1 +,TRUE,32:13.1,16.177,0.161,235,292.822052,106.5785141,84.95825195,0,20,51,0,-20
1.2,100,100,60,go_to_color_detect_up,green,TRUE,FALSE,joint 1 +,TRUE,32:13.8,23.298,0.22,235,149.6178284,273.346344,84.95825195,41.30563354,61.82891464,51,0,-20
1.2,100,100,60,go_to_color_detect_up,green,TRUE,FALSE,joint 3 +,TRUE,32:15.4,22.121,0.21,235,128.4491882,275.4601746,38.07122803,45,65,51,19.84000015,-20
1.2,100,100,60,go_to_color_detect_up,green,TRUE,FALSE,joint 3 -,FALSE,32:16.4,22.102,0.21,235,101.5658646,217.8086853,-41.04534149,45,65,51,59,-20
1.2,100,100,60,go_to_color_detect_up,green,TRUE,FALSE,joint 3 -,FALSE,32:17.3,20.45,0.21,235,130.3755493,279.5912476,54.83309174,45,65,51,10.87312031,-20
1.2,100,100,60,detecting_color,green,FALSE,FALSE,detecting_color,FALSE,32:18.1,20.45,0.164,235,131.6940765,282.4188232,84.95825195,45,65,51,0,-20
1.2,100,100,60,detecting_color,green,FALSE,FALSE,detecting_color,FALSE,32:19.0,17.355,0.164,235,131.6940765,282.4188232,84.95825195,45,65,51,0,-20
1.2,100,100,60,go_to_color_detect_down,green,TRUE,FALSE,joint 3 +,FALSE,32:19.9,16.348,0.161,235,116.7249527,250.3174591,-10.74386597,45,65,51,41.81212997,-20
1.2,100,100,60,go_to_color_detect_up,green,TRUE,FALSE,joint 3 -,TRUE,32:21.5,16.158,0.161,235,105.9096146,227.1238861,-34.26812744,45,65,51,53.55999756,-20
1.2,100,100,60,go_to_color_detect_up,green,TRUE,FALSE,joint 3 -,TRUE,32:22.2,19.044,0.204,235,131.5749664,282.1634216,75.8598175,45,65,51,3.036079407,-20
1.2,100,100,60,go_to_blue_up,blue,TRUE,FALSE,joint 1 +,TRUE,32:23.0,23.146,0.204,235,31.37334061,310.0313721,84.95825195,64.22167206,84.45052338,51,0,-20
1.2,100,100,60,go_to_pick_up_from_blue,blue,TRUE,FALSE,joint 1 -,FALSE,32:23.8,21.95,0.204,235,184.0414124,251.4606934,84.95825195,33.79999542,52.19999695,51,0,-20
1.2,100,100,60,moving_belt,blue,FALSE,TRUE,joint 1 -,FALSE,32:25.3,17.43,0.211,235,292.822052,106.5785141,84.95825195,0,20,51,0,-20
1.2,100,100,60,moving_belt,blue,FALSE,TRUE,joint 1 -,FALSE,32:26.0,16.31,0.163,235,292.822052,106.5785141,84.95825195,0,20,51,0,-20
1.2,100,100,60,moving_belt,blue,FALSE,TRUE,joint 1 -,FALSE,32:26.8,16.31,0.163,235,292.822052,106.5785141,84.95825195,0,20,51,0,-20
1.2,100,100,60,moving_belt,blue,FALSE,TRUE,joint 1 -,FALSE,32:28.5,16.272,0.161,235,292.822052,106.5785141,84.95825195,0,20,51,0,-20
1.2,100,100,60,moving_belt,blue,FALSE,TRUE,joint 1 -,FALSE,32:29.2,16.272,0.161,235,292.822052,106.5785141,84.95825195,0,20,51,0,-20
1.2,100,100,60,go_to_pick_down,blue,TRUE,FALSE,joint 3 +,FALSE,32:29.9,16.652,0.161,235,286.6856079,104.3450241,41.63085556,0,20,51,18.09626389,-20
1.2,100,100,60,go_to_pick_up_from_pick_down,blue,TRUE,FALSE,joint 3 -,TRUE,32:31.6,16.481,0.162,235,288.7851257,105.1091995,49.67976379,0,20,51,12.85186768,-20
1.2,100,100,60,go_to_color_detect_up,blue,TRUE,FALSE,joint 1 +,TRUE,32:32.3,22.652,0.216,235,274.1114197,148.2115173,84.95825195,8.400001526,29.24000168,51,0,-20
1.2,100,100,60,go_to_color_detect_up,blue,TRUE,FALSE,joint 3 +,TRUE,32:33.4,22.462,0.216,235,131.6940765,282.4188232,84.95825195,45,65,51,0,-20
1.2,100,100,60,go_to_color_detect_up,blue,TRUE,FALSE,joint 3 +,TRUE,32:34.2,22.386,0.216,235,116.7249527,250.3174591,-10.74386597,45,65,51,41.81212997,-20
1.2,100,100,60,go_to_color_detect_up,blue,TRUE,FALSE,joint 3 -,FALSE,32:35.0,22.026,0.21,235,109.0017471,233.7549896,-28.63358307,45,65,51,49.75999832,-20
1.2,100,100,60,go_to_color_detect_up,blue,TRUE,FALSE,joint 3 -,FALSE,32:36.4,17.203,0.171,235,131.6654816,282.3575134,80.4980545,45,65,51,1.386245966,-20
1.2,100,100,60,detecting_color,blue,FALSE,FALSE,detecting_color,FALSE,32:37.2,17.203,0.171,235,131.6940765,282.4188232,84.95825195,45,65,51,0,-20
1.2,100,100,60,go_to_color_detect_down,blue,TRUE,FALSE,joint 3 +,FALSE,32:37.9,16.462,0.171,235,131.3400116,281.6595459,69.2864151,45,65,51,6.839999676,-20
1.2,100,100,60,go_to_color_detect_down,blue,TRUE,FALSE,joint 3 +,FALSE,32:39.4,16.367,0.161,235,103.5240097,222.0079346,-38.14271545,45,65,51,57.2612915,-20
1.2,100,100,60,go_to_color_detect_up,blue,TRUE,FALSE,joint 3 -,TRUE,32:40.1,16.728,0.161,235,120.3342209,258.0575562,0.222702026,45,65,51,33.79999542,-20
1.2,100,100,60,go_to_red_up,red,TRUE,FALSE,joint 1 +,TRUE,32:41.0,16.728,0.22,235,120.7555389,287.2661438,84.95825195,47.20000458,67.64000702,51,0,-20
1.2,100,100,60,go_to_red_up,red,TRUE,FALSE,joint 1 +,TRUE,32:42.4,22.557,0.22,235,-145.3701935,275.6287842,84.95825195,97.80774689,118.5461349,51,0,-20
1.2,100,100,60,go_to_pick_up_from_red,red,TRUE,FALSE,joint 1 -,FALSE,32:43.1,22.69,0.215,235,-111.4696426,290.9952698,84.95825195,90.95999908,109.8799973,51,0,-20
1.2,100,100,60,go_to_pick_up_from_red,red,TRUE,FALSE,joint 1 -,FALSE,32:43.9,18.532,0.215,235,270.7322388,154.2976837,84.95825195,9.679992676,28.81999207,51,0,-20
1.2,100,100,60,moving_belt,red,FALSE,TRUE,joint 1 -,FALSE,32:45.4,16.766,0.163,235,292.822052,106.5785141,84.95825195,0,20,51,0,-20
1.2,100,100,60,moving_belt,red,FALSE,TRUE,joint 1 -,FALSE,32:46.1,16.728,0.163,235,292.822052,106.5785141,84.95825195,0,20,51,0,-20
1.2,100,100,60,moving_belt,red,FALSE,TRUE,joint 1 -,FALSE,32:46.8,16.728,0.163,235,292.822052,106.5785141,84.95825195,0,20,51,0,-20
1.2,100,100,60,moving_belt,red,FALSE,TRUE,joint 1 -,FALSE,32:48.5,16.709,0.161,235,292.822052,106.5785141,84.95825195,0,20,51,0,-20
1.2,100,100,60,go_to_pick_down,red,TRUE,FALSE,joint 3 +,FALSE,32:49.1,16.709,0.161,235,292.822052,106.5785141,84.95825195,0,20,51,0,-20
1.2,100,100,60,go_to_pick_down,red,TRUE,FALSE,joint 3 +,FALSE,32:49.9,16.291,0.16,235,276.7419739,100.7258453,16.12422943,0,20,51,28.19538689,-20
1.2,100,100,60,go_to_pick_up_from_pick_down,red,TRUE,FALSE,joint 3 -,TRUE,32:51.3,16.652,0.16,235,292.725647,106.5434189,79.46682739,0,20,51,1.746810913,-20
1.2,100,100,60,go_to_color_detect_up,red,TRUE,FALSE,joint 1 +,TRUE,32:52.0,23.507,0.223,235,215.3290558,225.249054,84.95825195,26.28984451,47.49312592,51,0,-20
1.2,100,100,60,go_to_color_detect_up,red,TRUE,FALSE,joint 3 +,TRUE,32:53.6,22.538,0.223,235,131.5272369,282.0610352,74.19223785,45,65,51,4.800000191,-20
1.2,100,100,60,go_to_color_detect_up,red,TRUE,FALSE,joint 3 +,TRUE,32:54.4,22.519,0.212,235,104.8004608,224.7453156,-36.11772156,45,65,51,55.96391678,-20
1.2,100,100,60,go_to_color_detect_up,red,TRUE,FALSE,joint 3 -,FALSE,32:55.1,22.424,0.212,235,122.8875122,263.5331116,9.511726379,45,65,51,29.3599968,-20
1.2,100,100,60,detecting_color,red,FALSE,FALSE,detecting_color,FALSE,32:56.5,18.95,0.167,235,131.6940765,282.4188232,84.95825195,45,65,51,0,-20
1.2,100,100,60,detecting_color,red,FALSE,FALSE,detecting_color,FALSE,32:57.3,17.468,0.167,235,131.6940765,282.4188232,84.95825195,45,65,51,0,-20
1.2,100,100,60,go_to_color_detect_down,red,TRUE,FALSE,joint 3 +,FALSE,32:58.1,16.557,0.163,235,131.1483307,281.2485046,65.51656342,45,65,51,8.399999619,-20
1.2,100,100,60,go_to_color_detect_down,red,TRUE,FALSE,joint 3 +,FALSE,32:58.9,16.557,0.163,235,101.7737656,218.2545319,-40.7484436,45,65,51,58.88850021,-20
1.2,100,100,60,go_to_color_detect_up,red,TRUE,FALSE,joint 3 -,TRUE,33:00.5,19.12,0.192,235,127.0897446,272.5447998,29.42110443,45,65,51,20.88524628,-20
1.2,100,100,60,go_to_green_up,green,TRUE,FALSE,joint 1 +,TRUE,33:00.5,19.12,0.192,235,116.1275024,289.1679993,84.95825195,48.12001038,68.64000702,51,0,-20
1.2,100,100,60,go_to_pick_up_from_green,green,TRUE,FALSE,joint 1 -,FALSE,33:02.5,22.329,0.215,235,-79.83647156,301.2140198,84.95825195,84.84484863,104.9346695,51,0,-20
1.2,100,100,60,go_to_pick_up_from_green,green,TRUE,FALSE,joint 1 -,FALSE,33:03.2,22.538,0.215,235,164.2794647,264.79422,84.95825195,38.18435669,56.45653915,51,0,-20
1.2,100,100,60,moving_belt,green,FALSE,TRUE,joint 1 -,FALSE,33:04.0,22.538,0.215,235,292.822052,106.5785141,84.95825195,0,20,51,0,-20
1.2,100,100,60,moving_belt,green,FALSE,TRUE,joint 1 -,FALSE,33:05.5,16.728,0.165,235,292.822052,106.5785141,84.95825195,0,20,51,0,-20
1.2,100,100,60,moving_belt,green,FALSE,TRUE,joint 1 -,FALSE,33:06.2,16.728,0.165,235,292.822052,106.5785141,84.95825195,0,20,51,0,-20
1.2,100,100,60,moving_belt,green,FALSE,TRUE,joint 1 -,FALSE,33:07.0,16.462,0.161,235,292.822052,106.5785141,84.95825195,0,20,51,0,-20
1.2,100,100,60,moving_belt,green,FALSE,TRUE,joint 1 -,FALSE,33:08.5,16.557,0.161,235,292.822052,106.5785141,84.95825195,0,20,51,0,-20
1.2,100,100,60,go_to_pick_down,green,TRUE,FALSE,joint 3 +,FALSE,33:08.5,16.557,0.161,235,289.8034973,105.4798508,54.39522934,0,20,51,13,-20
1.2,100,100,60,go_to_pick_up_from_pick_down,green,TRUE,FALSE,joint 3 -,TRUE,33:10.5,16.538,0.161,235,283.9896545,103.3637848,33.23753357,0,20,51,19.75999832,-20
1.2,100,100,60,go_to_color_detect_up,green,TRUE,FALSE,joint 1 +,TRUE,33:11.2,23.507,0.219,235,286.5872192,122.3580856,84.95825195,3.120002747,23.6400032,51,0,-20
1.2,100,100,60,go_to_color_detect_up,green,TRUE,FALSE,joint 1 +,TRUE,33:11.9,22.481,0.219,235,135.9739075,280.3833618,84.95825195,44.12860107,64.37187958,51,0,-20
1.2,100,100,60,go_to_color_detect_up,green,TRUE,FALSE,joint 3 +,TRUE,33:13.4,22.519,0.212,235,118.4475632,254.0116119,-5.775810242,45,65,51,39.38721085,-20
1.2,100,100,60,go_to_color_detect_up,green,TRUE,FALSE,joint 3 -,FALSE,33:14.2,22.253,0.212,235,104.882103,224.9203796,-35.98448181,45,65,51,54.79999542,-20
1.2,100,100,60,go_to_color_detect_up,green,TRUE,FALSE,joint 3 -,FALSE,33:15.0,22.026,0.212,235,131.4857483,281.9721069,72.93003082,45,65,51,4.100996017,-20
1.2,100,100,60,detecting_color,green,FALSE,FALSE,detecting_color,FALSE,33:16.5,17.81,0.172,235,131.6940765,282.4188232,84.95825195,45,65,51,0,-20
1.2,100,100,60,go_to_color_detect_down,green,TRUE,FALSE,joint 3 +,FALSE,33:17.3,16.519,0.163,235,131.6925659,282.4155884,83.93200684,45,65,51,0.599999964,-20
1.2,100,100,60,go_to_color_detect_down,green,TRUE,FALSE,joint 3 +,FALSE,33:18.1,16.519,0.163,235,111.7997513,239.7553253,-22.85543823,45,65,51,48.12687683,-20
1.2,100,100,60,go_to_color_detect_up,green,TRUE,FALSE,joint 3 -,TRUE,33:19.6,16.804,0.172,235,113.5287704,243.4632263,-18.91384888,45,65,51,43.87999725,-20
1.2,100,100,60,go_to_color_detect_up,green,TRUE,FALSE,joint 3 -,TRUE,33:20.4,23.564,0.172,235,131.6939545,282.4185791,84.67219543,45,65,51,0.039038025,-20
1.2,100,100,60,go_to_pick_up_from_blue,blue,TRUE,FALSE,joint 1 -,FALSE,33:21.1,22.386,0.172,235,27.71648026,310.3796692,84.95825195,64.89709473,84.96595001,51,0,-20
1.2,100,100,60,go_to_pick_up_from_blue,blue,TRUE,FALSE,joint 1 -,FALSE,33:21.9,22.386,0.213,235,240.8784485,197.6899261,84.95825195,19.37586594,38.15096283,51,0,-20
1.2,100,100,60,moving_belt,blue,FALSE,TRUE,joint 1 -,FALSE,33:22.7,21.057,0.213,235,292.822052,106.5785141,84.95825195,0,20,51,0,-20
1.2,100,100,60,moving_belt,blue,FALSE,TRUE,joint 1 -,FALSE,33:24.5,16.595,0.163,235,292.822052,106.5785141,84.95825195,0,20,51,0,-20
1.2,100,100,60,moving_belt,blue,FALSE,TRUE,joint 1 -,FALSE,33:25.3,16.595,0.163,235,292.822052,106.5785141,84.95825195,0,20,51,0,-20
1.2,100,100,60,moving_belt,blue,FALSE,TRUE,joint 1 -,FALSE,33:26.1,16.158,0.16,235,292.822052,106.5785141,84.95825195,0,20,51,0,-20
1.2,100,100,60,moving_belt,blue,FALSE,TRUE,joint 1 -,FALSE,33:27.6,16.405,0.16,235,292.822052,106.5785141,84.95825195,0,20,51,0,-20
1.2,100,100,60,go_to_pick_down,blue,TRUE,FALSE,joint 3 +,FALSE,33:28.3,16.538,0.161,235,281.2159424,102.3542404,25.97830963,0,20,51,24.28879166,-20
1.2,100,100,60,go_to_pick_up_from_pick_down,blue,TRUE,FALSE,joint 3 -,TRUE,33:29.0,16.538,0.161,235,291.8692932,106.2317352,67.72253418,0,20,51,6.019338131,-20
1.2,100,100,60,go_to_color_detect_up,blue,TRUE,FALSE,joint 1 +,TRUE,33:29.8,17.905,0.161,235,254.8849182,179.2690735,84.95825195,15.11999893,36.23999786,51,0,-20
1.2,100,100,60,go_to_color_detect_up,blue,TRUE,FALSE,joint 3 +,TRUE,33:31.4,22.614,0.215,235,131.6935272,282.4176636,84.34249878,45,65,51,0.399999976,-20
1.2,100,100,60,go_to_color_detect_up,blue,TRUE,FALSE,joint 3 +,TRUE,33:32.2,21.855,0.215,235,107.5695267,230.6835785,-31.33460999,45,65,51,53.00162506,-20
1.2,100,100,60,go_to_color_detect_up,blue,TRUE,FALSE,joint 3 -,FALSE,33:33.0,22.253,0.208,235,114.348381,245.2208862,-16.93483734,45,65,51,42.75999832,-20
1.2,100,100,60,detecting_color,blue,FALSE,FALSE,detecting_color,FALSE,33:34.5,16.994,0.17,235,131.6940613,282.4187927,84.85809326,45,65,51,0.006579682,-20
1.2,100,100,60,detecting_color,blue,FALSE,FALSE,detecting_color,FALSE,33:35.3,16.804,0.17,235,131.6940765,282.4188232,84.95825195,45,65,51,0,-20
1.2,100,100,60,go_to_color_detect_down,blue,TRUE,FALSE,joint 3 +,FALSE,33:36.1,16.804,0.17,235,129.8381958,278.4388733,49.29616547,45,65,51,15.11999989,-20
1.2,100,100,60,go_to_color_detect_up,blue,TRUE,FALSE,joint 3 -,TRUE,33:37.6,16.481,0.161,235,101.6021423,217.8864899,-40.99371338,45,65,51,58.99341583,-20
1.2,100,100,60,go_to_color_detect_up,blue,TRUE,FALSE,joint 3 -,TRUE,33:38.3,16.576,0.161,235,128.0897522,274.6893311,35.61596298,45,65,51,18.38032913,-20
1.2,100,100,60,go_to_red_up,red,TRUE,FALSE,joint 1 +,TRUE,33:39.2,23.374,0.22,235,89.02467346,298.6274414,84.95825195,49.20000458,69.80000305,51,0,-20
1.2,100,100,60,go_to_red_up,red,TRUE,FALSE,joint 1 +,TRUE,33:40.0,22.652,0.22,235,-171.4998322,260.1759644,84.95825195,103.3916168,123.7300034,51,0,-20
1.2,100,100,60,go_to_pick_up_from_red,red,TRUE,FALSE,joint 1 -,FALSE,33:41.6,21.399,0.214,235,-53.03977966,307.067627,84.95825195,79.79999542,98.35999298,51,0,-20
1.2,100,100,60,go_to_pick_up_from_red,red,TRUE,FALSE,joint 1 -,FALSE,33:42.4,21.399,0.214,235,278.9232483,138.9444275,84.95825195,6.479991913,25.77999115,51,0,-20
1.2,100,100,60,moving_belt,red,FALSE,TRUE,joint 1 -,FALSE,33:43.1,16.671,0.162,235,292.822052,106.5785141,84.95825195,0,20,51,0,-20
1.2,100,100,60,moving_belt,red,FALSE,TRUE,joint 1 -,FALSE,33:43.9,16.633,0.162,235,292.822052,106.5785141,84.95825195,0,20,51,0,-20
1.2,100,100,60,moving_belt,red,FALSE,TRUE,joint 1 -,FALSE,33:45.4,16.595,0.161,235,292.822052,106.5785141,84.95825195,0,20,51,0,-20
1.2,100,100,60,moving_belt,red,FALSE,TRUE,joint 1 -,FALSE,33:46.1,16.329,0.161,235,292.822052,106.5785141,84.95825195,0,20,51,0,-20
1.2,100,100,60,go_to_pick_down,red,TRUE,FALSE,joint 3 +,FALSE,33:46.9,16.329,0.161,235,292.8072205,106.5731201,82.80319977,0,20,51,1.120000005,-20
1.2,100,100,60,go_to_pick_up_from_pick_down,red,TRUE,FALSE,joint 3 -,TRUE,33:48.5,16.139,0.159,235,275.7821045,100.3764877,14.23040771,0,20,51,28.59999847,-20
1.2,100,100,60,go_to_pick_up_from_pick_down,red,TRUE,FALSE,joint 3 -,TRUE,33:49.3,16.462,0.159,235,292.8218079,106.5784302,84.68026733,0,20,51,0.03428372,-20
1.2,100,100,60,go_to_color_detect_up,red,TRUE,FALSE,joint 1 +,TRUE,33:50.1,23.336,0.221,235,179.6420898,254.6221619,84.95825195,34.79610062,55.67938232,51,0,-20
1.2,100,100,60,go_to_color_detect_up,red,TRUE,FALSE,joint 3 +,TRUE,33:51.0,22.196,0.221,235,130.88797,280.6901245,61.35441971,45,65,51,10.11999989,-20
1.2,100,100,60,go_to_color_detect_up,red,TRUE,FALSE,joint 3 +,TRUE,33:51.9,22.121,0.209,235,101.6021423,217.8864899,-40.99371338,45,65,51,58.99341583,-20
1.2,100,100,60,go_to_color_detect_up,red,TRUE,FALSE,joint 3 -,FALSE,33:53.4,20.431,0.209,235,127.0897446,272.5447998,29.42110443,45,65,51,20.88524628,-20
1.2,100,100,60,detecting_color,red,FALSE,FALSE,detecting_color,FALSE,33:54.2,20.431,0.166,235,131.6940765,282.4188232,84.95825195,45,65,51,0,-20
1.2,100,100,60,detecting_color,red,FALSE,FALSE,detecting_color,FALSE,33:55.0,17.487,0.166,235,131.6940765,282.4188232,84.95825195,45,65,51,0,-20
1.2,100,100,60,go_to_color_detect_down,red,TRUE,FALSE,joint 3 +,FALSE,33:56.6,16.348,0.161,235,125.0989838,268.2756042,19.04592133,45,65,51,28.12000084,-20
1.2,100,100,60,go_to_color_detect_up,red,TRUE,FALSE,joint 3 -,TRUE,33:57.3,16.462,0.161,235,101.9368515,218.6042786,-40.51370239,45,65,51,58.39999771,-20
1.2,100,100,60,go_to_color_detect_up,red,TRUE,FALSE,joint 3 -,TRUE,33:58.2,18.532,0.189,235,130.3755493,279.5912476,54.83309174,45,65,51,10.87312031,-20
1.2,100,100,60,go_to_green_up,green,TRUE,FALSE,joint 1 +,TRUE,33:59.0,23.165,0.189,235,53.46846008,306.9932556,84.95825195,60.12000275,81.24000549,51,0,-20
1.2,100,100,60,go_to_pick_up_from_green,green,TRUE,FALSE,joint 1 -,FALSE,34:00.5,22.215,0.212,235,-73.06226349,302.9284668,84.95825195,83.55999756,103.1999969,51,0,-20
1.2,100,100,60,go_to_pick_up_from_green,green,TRUE,FALSE,joint 1 -,FALSE,34:01.3,22.102,0.212,235,223.8771057,216.7550812,84.95825195,24.0739975,42.70618057,51,0,-20
1.2,100,100,60,moving_belt,green,FALSE,TRUE,joint 1 -,FALSE,34:02.0,16.709,0.212,235,292.822052,106.5785141,84.95825195,0,20,51,0,-20
1.2,100,100,60,moving_belt,green,FALSE,TRUE,joint 1 -,FALSE,34:03.4,16.69,0.163,235,292.822052,106.5785141,84.95825195,0,20,51,0,-20
1.2,100,100,60,moving_belt,green,FALSE,TRUE,joint 1 -,FALSE,34:04.1,16.69,0.163,235,292.822052,106.5785141,84.95825195,0,20,51,0,-20
1.2,100,100,60,moving_belt,green,FALSE,TRUE,joint 1 -,FALSE,34:04.8,16.538,0.162,235,292.822052,106.5785141,84.95825195,0,20,51,0,-20
1.2,100,100,60,moving_belt,green,FALSE,TRUE,joint 1 -,FALSE,34:06.4,16.519,0.162,235,292.822052,106.5785141,84.95825195,0,20,51,0,-20
1.2,100,100,60,go_to_pick_down,green,TRUE,FALSE,joint 3 +,FALSE,34:07.1,16.481,0.161,235,277.9200745,101.1546402,18.54389191,0,20,51,27.25318909,-20
1.2,100,100,60,go_to_pick_up_from_pick_down,green,TRUE,FALSE,joint 3 -,TRUE,34:08.5,16.747,0.161,235,291.0775146,105.9435501,61.669487,0,20,51,8.281536102,-20
1.2,100,100,60,go_to_color_detect_up,green,TRUE,FALSE,joint 1 +,TRUE,34:09.2,23.564,0.22,235,261.3420715,169.7175446,84.95825195,13,34.04000092,51,0,-20
1.2,100,100,60,go_to_color_detect_up,green,TRUE,FALSE,joint 3 +,TRUE,34:10.0,22.5,0.22,235,131.6935272,282.4176636,84.34249878,45,65,51,0.399999976,-20
1.2,100,100,60,go_to_color_detect_up,green,TRUE,FALSE,joint 3 +,TRUE,34:11.4,22.5,0.211,235,108.2116699,232.0606689,-30.14376068,45,65,51,52.2891655,-20
1.2,100,100,60,go_to_color_detect_up,green,TRUE,FALSE,joint 3 -,FALSE,34:12.2,22.177,0.211,235,113.5287704,243.4632263,-18.91384888,45,65,51,43.87999725,-20
1.2,100,100,60,detecting_color,green,FALSE,FALSE,detecting_color,FALSE,34:12.9,21.855,0.166,235,131.6939545,282.4185791,84.67219543,45,65,51,0.039038025,-20
1.2,100,100,60,detecting_color,green,FALSE,FALSE,detecting_color,FALSE,34:14.6,17.563,0.166,235,131.6940765,282.4188232,84.95825195,45,65,51,0,-20
1.2,100,100,60,go_to_color_detect_down,green,TRUE,FALSE,joint 3 +,FALSE,34:14.6,17.563,0.166,235,129.8381958,278.4388733,49.29616547,45,65,51,15.11999989,-20
1.2,100,100,60,go_to_color_detect_up,green,TRUE,FALSE,joint 3 -,TRUE,34:16.4,16.614,0.163,235,101.6021423,217.8864899,-40.99371338,45,65,51,58.99341583,-20
1.2,100,100,60,go_to_color_detect_up,green,TRUE,FALSE,joint 3 -,TRUE,34:17.1,18.304,0.163,235,129.8877106,278.545105,49.76803207,45,65,51,12.81803703,-20
1.2,100,100,60,go_to_blue_up,blue,TRUE,FALSE,joint 1 +,TRUE,34:18.0,18.304,0.205,235,93.18548584,297.3553467,84.95825195,52.6000061,73.40000916,51,0,-20
1.2,100,100,60,go_to_pick_up_from_blue,blue,TRUE,FALSE,joint 1 -,FALSE,34:19.6,22.386,0.212,235,67.97665405,304.1100464,84.95825195,57.3999939,76.59999084,51,0,-20
1.2,100,100,60,go_to_pick_up_from_blue,blue,TRUE,FALSE,joint 1 -,FALSE,34:20.3,19.139,0.212,235,290.8819275,111.7651138,84.95825195,1.018194199,20.75329208,51,0,-20
1.2,100,100,60,moving_belt,blue,FALSE,TRUE,joint 1 -,FALSE,34:21.1,16.766,0.212,235,292.822052,106.5785141,84.95825195,0,20,51,0,-20
1.2,100,100,60,moving_belt,blue,FALSE,TRUE,joint 1 -,FALSE,34:22.6,16.348,0.163,235,292.822052,106.5785141,84.95825195,0,20,51,0,-20
1.2,100,100,60,moving_belt,blue,FALSE,TRUE,joint 1 -,FALSE,34:23.4,16.348,0.163,235,292.822052,106.5785141,84.95825195,0,20,51,0,-20
1.2,100,100,60,moving_belt,blue,FALSE,TRUE,joint 1 -,FALSE,34:24.1,16.462,0.161,235,292.822052,106.5785141,84.95825195,0,20,51,0,-20
1.2,100,100,60,go_to_pick_down,blue,TRUE,FALSE,joint 3 +,FALSE,34:25.0,16.462,0.161,235,292.4510803,106.4434891,74.19223785,0,20,51,4.800000191,-20
1.2,100,100,60,go_to_pick_up_from_pick_down,blue,TRUE,FALSE,joint 3 -,TRUE,34:26.5,16.481,0.162,235,276.4714661,100.627388,15.58375549,0,20,51,27.87999725,-20
1.2,100,100,60,go_to_color_detect_up,blue,TRUE,FALSE,joint 1 +,TRUE,34:27.3,20.336,0.162,235,292.822052,106.5785141,84.95825195,0,20,51,0,-20
1.2,100,100,60,go_to_color_detect_up,blue,TRUE,FALSE,joint 1 +,TRUE,34:28.1,23.013,0.213,235,152.2978363,271.8622742,84.95825195,40.74235153,61.30563354,51,0,-20
1.2,100,100,60,go_to_color_detect_up,blue,TRUE,FALSE,joint 3 +,TRUE,34:29.7,22.766,0.213,235,128.0065918,274.5110168,35.06723022,45,65,51,21.12000084,-20
1.2,100,100,60,go_to_color_detect_up,blue,TRUE,FALSE,joint 3 -,FALSE,34:30.4,22.234,0.212,235,101.5658646,217.8086853,-41.04534149,45,65,51,59,-20
1.2,100,100,60,go_to_color_detect_up,blue,TRUE,FALSE,joint 3 -,FALSE,34:31.3,22.215,0.212,235,130.5787659,280.0270386,57.22894287,45,65,51,9.960661888,-20
1.2,100,100,60,detecting_color,blue,FALSE,FALSE,detecting_color,FALSE,34:32.2,17.26,0.212,235,131.6940765,282.4188232,84.95825195,45,65,51,0,-20
1.2,100,100,60,go_to_color_detect_down,blue,TRUE,FALSE,joint 3 +,FALSE,34:33.6,16.823,0.171,235,131.6940765,282.4188232,84.95825195,45,65,51,0,-20
1.2,100,100,60,go_to_color_detect_down,blue,TRUE,FALSE,joint 3 +,FALSE,34:34.3,16.614,0.164,235,111.7997513,239.7553253,-22.85543823,45,65,51,48.12687683,-20
1.2,100,100,60,go_to_color_detect_up,blue,TRUE,FALSE,joint 3 -,TRUE,34:35.1,16.614,0.164,235,109.7012863,235.2551575,-27.25350189,45,65,51,48.87999725,-20
1.2,100,100,60,go_to_color_detect_up,blue,TRUE,FALSE,joint 3 -,TRUE,34:36.6,23.753,0.222,235,131.6831665,282.3954468,82.20346832,45,65,51,0.801329434,-20
1.2,100,100,60,go_to_red_up,red,TRUE,FALSE,joint 1 +,TRUE,34:37.3,22.88,0.222,235,-64.4262619,304.8819275,84.95825195,81.9319458,103.2703323,51,0,-20
1.2,100,100,60,go_to_pick_up_from_red,red,TRUE,FALSE,joint 1 -,FALSE,34:38.0,22.842,0.222,235,-168.804245,261.9329224,84.95825195,102.7999954,122.359993,51,0,-20
1.2,100,100,60,go_to_pick_up_from_red,red,TRUE,FALSE,joint 1 -,FALSE,34:39.6,21.855,0.216,235,169.8087769,261.2828064,84.95825195,36.97999191,55.27999115,51,0,-20
1.2,100,100,60,moving_belt,red,FALSE,TRUE,joint 1 -,FALSE,34:40.4,16.975,0.216,235,292.822052,106.5785141,84.95825195,0,20,51,0,-20
1.2,100,100,60,moving_belt,red,FALSE,TRUE,joint 1 -,FALSE,34:41.1,16.861,0.164,235,292.822052,106.5785141,84.95825195,0,20,51,0,-20
1.2,100,100,60,moving_belt,red,FALSE,TRUE,joint 1 -,FALSE,34:42.6,16.576,0.164,235,292.822052,106.5785141,84.95825195,0,20,51,0,-20
1.2,100,100,60,moving_belt,red,FALSE,TRUE,joint 1 -,FALSE,34:43.4,16.576,0.161,235,292.822052,106.5785141,84.95825195,0,20,51,0,-20
1.2,100,100,60,moving_belt,red,FALSE,TRUE,joint 1 -,FALSE,34:44.2,16.196,0.161,233.1,292.822052,106.5785141,84.95825195,0,20,51,0,-20
1.2,100,100,60,go_to_pick_down,red,TRUE,FALSE,joint 3 +,FALSE,34:45.0,16.633,0.161,233.1,284.5865784,103.5810471,34.96010208,0,20,51,20.71846199,-20
1.2,100,100,60,go_to_pick_up_from_pick_down,red,TRUE,FALSE,joint 3 -,TRUE,34:46.6,16.5,0.162,233.1,286.0910339,104.128624,39.63036728,0,20,51,17,-20
1.2,100,100,60,go_to_color_detect_up,red,TRUE,FALSE,joint 1 +,TRUE,34:47.3,23.431,0.223,233.1,271.9091492,152.2141266,84.95825195,9.240001678,30.12000084,51,0,-20
1.2,100,100,60,go_to_color_detect_up,red,TRUE,FALSE,joint 3 +,TRUE,34:48.2,22.367,0.223,233.1,131.6940765,282.4188232,84.95825195,45,65,51,0.039999999,-20
1.2,100,100,60,go_to_color_detect_up,red,TRUE,FALSE,joint 3 +,TRUE,34:49.6,22.348,0.211,233.1,115.0306396,246.6839905,-15.22904205,45,65,51,44.07704544,-20
1.2,100,100,60,go_to_color_detect_up,red,TRUE,FALSE,joint 3 -,FALSE,34:50.4,22.121,0.211,233.1,107.0606995,229.5924072,-32.25562286,45,65,51,52.15999603,-20
1.2,100,100,60,go_to_color_detect_up,red,TRUE,FALSE,joint 3 -,FALSE,34:51.2,20.962,0.211,233.1,131.6510925,282.3266907,79.49172974,45,65,51,1.738704205,-20
1.2,100,100,60,detecting_color,red,FALSE,FALSE,detecting_color,FALSE,34:52.0,17.582,0.172,233.1,131.6940765,282.4188232,84.95825195,45,65,51,0,-20
1.2,100,100,60,go_to_color_detect_down,red,TRUE,FALSE,joint 3 +,FALSE,34:53.6,16.576,0.172,233.1,131.6482849,282.3206482,79.31524658,45,65,51,2.640000105,-20
1.2,100,100,60,go_to_color_detect_down,red,TRUE,FALSE,joint 3 +,FALSE,34:54.3,16.519,0.164,233.1,104.3414078,223.7608643,-36.85847473,45,65,51,56.43637466,-20
1.2,100,100,60,go_to_color_detect_up,red,TRUE,FALSE,joint 3 -,TRUE,34:55.0,16.519,0.164,233.1,117.7399292,252.4940796,-7.870498657,45,65,51,37.87999725,-20
1.2,100,100,60,go_to_green_up,green,TRUE,FALSE,joint 1 +,TRUE,34:56.5,23.165,0.222,233.1,131.1022797,282.6940308,84.95825195,45.12000275,65.24000549,51,0,-20
1.2,100,100,60,go_to_green_up,green,TRUE,FALSE,joint 1 +,TRUE,34:57.3,22.196,0.222,233.1,-63.43982315,305.0887146,84.95825195,81.74662781,102.2364502,51,0,-20
1.2,100,100,60,go_to_pick_up_from_green,green,TRUE,FALSE,joint 1 -,FALSE,34:58.0,22.196,0.217,233.1,70.73384857,303.4805603,84.95825195,56.87998962,75.35999298,51,0,-20
1.2,100,100,60,go_to_pick_up_from_green,green,TRUE,FALSE,joint 1 -,FALSE,34:59.5,16.861,0.217,233.1,291.9959717,108.8213501,84.95825195,0.439468384,20.27165031,51,0,-20
1.2,100,100,60,moving_belt,green,FALSE,TRUE,joint 1 -,FALSE,35:00.2,16.861,0.165,233.1,292.822052,106.5785141,84.95825195,0,20,51,0,-20
1.2,100,100,60,moving_belt,green,FALSE,TRUE,joint 1 -,FALSE,35:01.6,16.31,0.165,233.1,292.822052,106.5785141,84.95825195,0,20,51,0,-20
1.2,100,100,60,moving_belt,green,FALSE,TRUE,joint 1 -,FALSE,35:02.4,16.31,0.162,233.1,292.822052,106.5785141,84.95825195,0,20,51,0,-20
1.2,100,100,60,moving_belt,green,FALSE,TRUE,joint 1 -,FALSE,35:03.1,16.5,0.162,233.1,292.822052,106.5785141,84.95825195,0,20,51,0,-20
1.2,100,100,60,go_to_pick_down,green,TRUE,FALSE,joint 3 +,FALSE,35:04.6,16.462,0.163,233.1,291.0296631,105.9261398,61.35441971,0,20,51,10.11999989,-20
1.2,100,100,60,go_to_pick_up_from_pick_down,green,TRUE,FALSE,joint 3 -,TRUE,35:05.4,16.405,0.163,233.1,279.5106201,101.733551,21.99751282,0,20,51,24.79999733,-20
1.2,100,100,60,go_to_color_detect_up,green,TRUE,FALSE,joint 1 +,TRUE,35:06.2,16.405,0.163,233.1,291.2281189,110.8599167,84.95825195,0.84000206,21.12000275,51,0,-20
1.2,100,100,60,go_to_color_detect_up,green,TRUE,FALSE,joint 1 +,TRUE,35:07.6,22.234,0.223,233.1,147.1151581,274.7013855,84.95825195,41.82891464,62.31219482,51,0,-20
1.2,100,100,60,go_to_color_detect_up,green,TRUE,FALSE,joint 3 +,TRUE,35:08.4,22.215,0.223,233.1,124.3610001,266.6929932,15.67424011,45,65,51,29.6400013,-20
1.2,100,100,60,go_to_color_detect_up,green,TRUE,FALSE,joint 3 -,FALSE,35:09.3,22.064,0.211,233.1,102.6006241,220.0277405,-39.54138947,45,65,51,57.55999756,-20
1.2,100,100,60,go_to_color_detect_up,green,TRUE,FALSE,joint 3 -,FALSE,35:10.1,20.886,0.211,233.1,131.0502777,281.038208,63.85025024,45,65,51,7.463286877,-20
1.2,100,100,60,detecting_color,green,FALSE,FALSE,detecting_color,FALSE,35:11.6,17.62,0.172,233.1,131.6940765,282.4188232,84.95825195,45,65,51,0,-20
1.2,100,100,60,go_to_color_detect_down,green,TRUE,FALSE,joint 3 +,FALSE,35:12.4,16.5,0.172,233.1,131.6940765,282.4188232,84.95825195,45,65,51,0,-20
1.2,100,100,60,go_to_color_detect_down,green,TRUE,FALSE,joint 3 +,FALSE,35:13.1,16.5,0.163,233.1,116.7249527,250.3174591,-10.74386597,45,65,51,41.81212997,-20
1.2,100,100,60,go_to_color_detect_up,green,TRUE,FALSE,joint 3 -,TRUE,35:13.9,16.329,0.163,233.1,105.3799744,225.9880829,-35.16204071,45,65,51,54.19999695,-20
1.2,100,100,60,go_to_color_detect_up,green,TRUE,FALSE,joint 3 -,TRUE,35:15.5,17.658,0.22,233.1,131.6759033,282.3798523,81.40200043,45,65,51,1.073787689,-20
1.2,100,100,60,go_to_blue_up,blue,TRUE,FALSE,joint 1 +,TRUE,35:16.3,23.431,0.22,233.1,31.37334061,310.0313721,84.95825195,64.22167206,84.45052338,51,0,-20
1.2,100,100,60,go_to_pick_up_from_blue,blue,TRUE,FALSE,joint 1 -,FALSE,35:17.0,22.177,0.213,233.1,170.2645264,260.9860535,84.95825195,36.87999725,55.3599968,51,0,-20
1.2,100,100,60,moving_belt,blue,FALSE,TRUE,joint 1 -,FALSE,35:18.6,19.785,0.213,233.1,292.822052,106.5785141,84.95825195,0,20,51,0,-20
1.2,100,100,60,moving_belt,blue,FALSE,TRUE,joint 1 -,FALSE,35:19.5,16.633,0.163,233.1,292.822052,106.5785141,84.95825195,0,20,51,0,-20
1.2,100,100,60,moving_belt,blue,FALSE,TRUE,joint 1 -,FALSE,35:20.2,16.671,0.163,233.1,292.822052,106.5785141,84.95825195,0,20,51,0,-20
1.2,100,100,60,moving_belt,blue,FALSE,TRUE,joint 1 -,FALSE,35:21.6,16.424,0.163,233.1,292.822052,106.5785141,84.95825195,0,20,51,0,-20
1.2,100,100,60,moving_belt,blue,FALSE,TRUE,joint 1 -,FALSE,35:22.4,16.367,0.163,233.1,292.822052,106.5785141,84.95825195,0,20,51,0,-20
1.2,100,100,60,go_to_pick_down,blue,TRUE,FALSE,joint 3 +,FALSE,35:23.1,16.367,0.163,233.1,287.3720703,104.5948868,44.07436371,0,20,51,17.14219856,-20
1.2,100,100,60,go_to_pick_up_from_pick_down,blue,TRUE,FALSE,joint 3 -,TRUE,35:24.6,18.893,0.163,233.1,286.7862244,104.3816528,41.97961044,0,20,51,16,-20
1.2,100,100,60,go_to_color_detect_up,blue,TRUE,FALSE,joint 1 +,TRUE,35:25.3,18.893,0.163,233.1,281.3991699,133.8590088,84.95825195,5.440002441,26.12000275,51,0,-20
1.2,100,100,60,go_to_color_detect_up,blue,TRUE,FALSE,joint 1 +,TRUE,35:26.0,22.956,0.217,233.1,132.3752441,282.1001892,84.95825195,44.86173248,64.94501495,51,0,-20
1.2,100,100,60,go_to_color_detect_up,blue,TRUE,FALSE,joint 3 +,TRUE,35:27.5,22.234,0.217,233.1,121.0382309,259.5673218,2.634895325,45,65,51,35.44983673,-20
1.2,100,100,60,go_to_color_detect_up,blue,TRUE,FALSE,joint 3 -,FALSE,35:28.3,22.215,0.211,233.1,105.9096146,227.1238861,-34.26812744,45,65,51,53.55999756,-20
1.2,100,100,60,go_to_color_detect_up,blue,TRUE,FALSE,joint 3 -,FALSE,35:29.0,22.215,0.211,235,131.5749664,282.1634216,75.8598175,45,65,51,3.036079407,-20
1.2,100,100,60,detecting_color,blue,FALSE,FALSE,detecting_color,FALSE,35:30.6,17.089,0.172,235,131.6940765,282.4188232,84.95825195,45,65,51,0,-20
1.2,100,100,60,go_to_color_detect_down,blue,TRUE,FALSE,joint 3 +,FALSE,35:31.4,17.089,0.172,235,131.5687561,282.1500854,75.62562561,45,65,51,4.200000286,-20
1.2,100,100,60,go_to_color_detect_down,blue,TRUE,FALSE,joint 3 +,FALSE,35:32.2,16.614,0.161,235,105.2921982,225.7998352,-35.30828094,45,65,51,55.45145798,-20
1.2,100,100,60,go_to_color_detect_up,blue,TRUE,FALSE,joint 3 -,TRUE,35:33.0,16.709,0.161,235,117.7399292,252.4940796,-7.870498657,45,65,51,37.87999725,-20
1.2,100,100,60,go_to_red_up,red,TRUE,FALSE,joint 1 +,TRUE,35:34.6,23.241,0.22,235,131.6940765,282.4188232,84.95825195,45,65.04000092,51,0,-20
1.2,100,100,60,go_to_red_up,red,TRUE,FALSE,joint 1 +,TRUE,35:35.5,23.089,0.22,235,-128.997818,283.6605225,84.95825195,94.45420074,115.3525848,51,0,-20
1.2,100,100,60,go_to_pick_up_from_red,red,TRUE,FALSE,joint 1 -,FALSE,35:36.3,22.424,0.214,235,-131.1022644,282.6940308,84.95825195,94.87999725,113.9599991,51,0,-20
1.2,100,100,60,go_to_pick_up_from_red,red,TRUE,FALSE,joint 1 -,FALSE,35:37.0,22.386,0.214,235,241.4153595,197.033905,84.95825195,19.21999359,37.99999237,51,0,-20
1.2,100,100,60,moving_belt,red,FALSE,TRUE,joint 1 -,FALSE,35:38.5,16.842,0.163,235,292.822052,106.5785141,84.95825195,0,20,51,0,-20
1.2,100,100,60,moving_belt,red,FALSE,TRUE,joint 1 -,FALSE,35:39.3,16.709,0.163,235,292.822052,106.5785141,84.95825195,0,20,51,0,-20
1.2,100,100,60,moving_belt,red,FALSE,TRUE,joint 1 -,FALSE,35:40.1,16.329,0.163,235,292.822052,106.5785141,84.95825195,0,20,51,0,-20
1.2,100,100,60,moving_belt,red,FALSE,TRUE,joint 1 -,FALSE,35:41.6,16.196,0.16,235,292.822052,106.5785141,84.95825195,0,20,51,0,-20
1.2,100,100,60,moving_belt,red,FALSE,TRUE,joint 1 -,FALSE,35:42.4,16.196,0.16,235,292.822052,106.5785141,84.95825195,0,20,51,0,-20
1.2,100,100,60,go_to_pick_down,red,TRUE,FALSE,joint 3 +,FALSE,35:43.1,16.424,0.162,235,276.7419739,100.7258453,16.12422943,0,20,51,28.19538689,-20
1.2,100,100,60,go_to_pick_up_from_pick_down,red,TRUE,FALSE,joint 3 -,TRUE,35:44.7,16.671,0.162,235,280.6827698,102.1601791,24.6995697,0,20,51,23.55999756,-20
1.2,100,100,60,go_to_color_detect_up,red,TRUE,FALSE,joint 1 +,TRUE,35:45.4,20.298,0.203,235,290.051239,113.903511,84.95825195,1.440002441,21.80000305,51,0,-20
1.2,100,100,60,go_to_color_detect_up,red,TRUE,FALSE,joint 1 +,TRUE,35:46.2,22.918,0.203,235,142.6537781,277.0444336,84.95825195,42.75547791,63.15876007,51,0,-20
1.2,100,100,60,go_to_color_detect_up,red,TRUE,FALSE,joint 3 +,TRUE,35:47.7,22.234,0.214,235,121.0382309,259.5673218,2.634895325,45,65,51,35.44983673,-20
1.2,100,100,60,go_to_color_detect_up,red,TRUE,FALSE,joint 3 -,FALSE,35:48.4,22.272,0.214,235,103.2227478,221.3618774,-38.60502625,45,65,51,56.79999542,-20
1.2,100,100,60,go_to_color_detect_up,red,TRUE,FALSE,joint 3 -,FALSE,35:49.2,22.272,0.182,235,131.2684326,281.5060425,67.78005981,45,65,51,5.998370647,-20
1.2,100,100,60,detecting_color,red,FALSE,FALSE,detecting_color,FALSE,35:50.0,17.279,0.182,235,131.6940765,282.4188232,84.95825195,45,65,51,0,-20
1.2,100,100,60,detecting_color,red,FALSE,FALSE,detecting_color,FALSE,35:51.1,16.614,0.182,235,131.6940765,282.4188232,84.95825195,45,65,51,0,-20
1.2,100,100,60,go_to_color_detect_down,red,TRUE,FALSE,joint 3 +,FALSE,35:51.9,16.614,0.163,235,121.8918762,261.3979492,5.705085754,45,65,51,34.05737686,-20
1.2,100,100,60,go_to_color_detect_up,red,TRUE,FALSE,joint 3 -,TRUE,35:53.5,16.747,0.164,235,103.2227478,221.3618774,-38.60502625,45,65,51,56.79999542,-20
1.2,100,100,60,go_to_color_detect_up,red,TRUE,FALSE,joint 3 -,TRUE,35:54.2,23.146,0.164,235,131.631897,282.2854919,78.38313293,45,65,51,2.131162643,-20
1.2,100,100,60,go_to_green_up,green,TRUE,FALSE,joint 1 +,TRUE,35:54.9,23.146,0.164,235,8.323090553,311.50354,84.95825195,68.46947479,89.59929657,51,0,-20
1.2,100,100,60,go_to_pick_up_from_green,green,TRUE,FALSE,joint 1 -,FALSE,35:56.5,22.424,0.212,235,-55.18222046,306.6898499,84.95825195,80.19999695,99.55999756,51,0,-20
1.2,100,100,60,go_to_pick_up_from_green,green,TRUE,FALSE,joint 1 -,FALSE,35:57.2,20.298,0.212,235,250.6000366,185.2116394,84.95825195,16.46709442,35.33927536,51,0,-20
1.2,100,100,60,moving_belt,green,FALSE,TRUE,joint 1 -,FALSE,35:58.7,16.975,0.165,235,292.822052,106.5785141,84.95825195,0,20,51,0,-20
1.2,100,100,60,moving_belt,green,FALSE,TRUE,joint 1 -,FALSE,35:59.4,16.899,0.165,235,292.822052,106.5785141,84.95825195,0,20,51,0,-20
1.2,100,100,60,moving_belt,green,FALSE,TRUE,joint 1 -,FALSE,36:00.2,16.899,0.16,235,292.822052,106.5785141,84.95825195,0,20,51,0,-20
1.2,100,100,60,moving_belt,green,FALSE,TRUE,joint 1 -,FALSE,36:01.0,16.538,0.16,235,292.822052,106.5785141,84.95825195,0,20,51,0,-20
1.2,100,100,60,go_to_pick_down,green,TRUE,FALSE,joint 3 +,FALSE,36:02.6,16.595,0.161,235,292.822052,106.5785141,84.95825195,0,20,51,0,-20
1.2,100,100,60,go_to_pick_down,green,TRUE,FALSE,joint 3 +,FALSE,36:03.4,16.12,0.161,235,276.7419739,100.7258453,16.12422943,0,20,51,28.19538689,-20
1.2,100,100,60,go_to_pick_up_from_pick_down,green,TRUE,FALSE,joint 3 -,TRUE,36:04.1,16.5,0.161,235,292.2213745,106.3598862,71.26412201,0,20,51,4.711206436,-20
1.2,100,100,60,go_to_color_detect_up,green,TRUE,FALSE,joint 1 +,TRUE,36:05.6,23.412,0.172,235,243.5332794,194.4100494,84.95825195,18.59999847,39.84000015,51,0,-20
1.2,100,100,60,go_to_color_detect_up,green,TRUE,FALSE,joint 3 +,TRUE,36:06.3,22.31,0.213,235,131.5272369,282.0610352,74.19223785,45,65,51,4.800000191,-20
1.2,100,100,60,go_to_color_detect_up,green,TRUE,FALSE,joint 3 +,TRUE,36:07.0,22.291,0.213,235,105.2921982,225.7998352,-35.30828094,45,65,51,55.45145798,-20
1.2,100,100,60,go_to_color_detect_up,green,TRUE,FALSE,joint 3 -,FALSE,36:08.1,22.045,0.213,235,117.7399292,252.4940796,-7.870498657,45,65,51,37.87999725,-20
1.2,100,100,60,detecting_color,green,FALSE,FALSE,detecting_color,FALSE,36:09.0,18.665,0.205,235,131.6940765,282.4188232,84.95825195,45,65,51,0,-20
1.2,100,100,60,detecting_color,green,FALSE,FALSE,detecting_color,FALSE,36:10.4,17.317,0.205,235,131.6940765,282.4188232,84.95825195,45,65,51,0,-20
1.2,100,100,60,go_to_color_detect_down,green,TRUE,FALSE,joint 3 +,FALSE,36:11.2,16.652,0.163,235,130.1018219,279.0042419,51.89044571,45,65,51,14.03999996,-20
1.2,100,100,60,go_to_color_detect_up,green,TRUE,FALSE,joint 3 -,TRUE,36:12.6,16.728,0.163,235,101.7737656,218.2545319,-40.7484436,45,65,51,58.88850021,-20
1.2,100,100,60,go_to_color_detect_up,green,TRUE,FALSE,joint 3 -,TRUE,36:13.4,21.418,0.164,235,129.2768555,277.2351074,44.35223007,45,65,51,14.92295361,-20
1.2,100,100,60,go_to_blue_up,blue,TRUE,FALSE,joint 1 +,TRUE,36:14.2,21.418,0.164,235,100.8345184,294.8493347,84.95825195,51.12000275,71.84000397,51,0,-20
1.2,100,100,60,go_to_pick_up_from_blue,blue,TRUE,FALSE,joint 1 -,FALSE,36:15.7,22.272,0.21,235,63.93692017,304.9849243,84.95825195,58.15999603,77.3999939,51,0,-20
1.2,100,100,60,go_to_pick_up_from_blue,blue,TRUE,FALSE,joint 1 -,FALSE,36:16.4,17.127,0.21,235,285.8829041,123.9947433,84.95825195,3.447612762,22.94271088,51,0,-20
1.2,100,100,60,moving_belt,blue,FALSE,TRUE,joint 1 -,FALSE,36:17.1,17.127,0.164,235,292.822052,106.5785141,84.95825195,0,20,51,0,-20
1.2,100,100,60,moving_belt,blue,FALSE,TRUE,joint 1 -,FALSE,36:18.7,16.443,0.164,235,292.822052,106.5785141,84.95825195,0,20,51,0,-20
1.2,100,100,60,moving_belt,blue,FALSE,TRUE,joint 1 -,FALSE,36:19.4,16.443,0.161,235,292.822052,106.5785141,84.95825195,0,20,51,0,-20
1.2,100,100,60,moving_belt,blue,FALSE,TRUE,joint 1 -,FALSE,36:20.1,16.462,0.161,235,292.822052,106.5785141,84.95825195,0,20,51,0,-20
1.2,100,100,60,go_to_pick_down,blue,TRUE,FALSE,joint 3 +,FALSE,36:21.6,16.5,0.162,235,292.337616,106.4021912,72.65760803,0,20,51,5.440000057,-20
1.2,100,100,60,go_to_pick_up_from_pick_down,blue,TRUE,FALSE,joint 3 -,TRUE,36:22.4,16.367,0.162,235,277.1474304,100.8734207,16.94469452,0,20,51,27.19999695,-20
1.2,100,100,60,go_to_color_detect_up,blue,TRUE,FALSE,joint 1 +,TRUE,36:23.1,16.367,0.162,235,292.822052,106.5785141,84.95825195,0,20.04000092,51,0,-20
1.2,100,100,60,go_to_color_detect_up,blue,TRUE,FALSE,joint 1 +,TRUE,36:24.6,22.633,0.223,235,161.3666229,266.5793152,84.95825195,38.81250763,59.49578857,51,0,-20
1.2,100,100,60,go_to_color_detect_up,blue,TRUE,FALSE,joint 3 +,TRUE,36:25.5,22.709,0.212,235,129.5434113,277.8067322,46.61454773,45,65,51,16.23999977,-20
1.2,100,100,60,go_to_color_detect_up,blue,TRUE,FALSE,joint 3 -,FALSE,36:26.3,22.158,0.212,235,101.6773224,218.0477142,-40.8864975,45,65,51,58.75999832,-20
1.2,100,100,60,go_to_color_detect_up,blue,TRUE,FALSE,joint 3 -,FALSE,36:27.4,22.31,0.212,235,130.1458893,279.0987549,52.34549713,45,65,51,11.82557869,-20
1.2,100,100,60,detecting_color,blue,FALSE,FALSE,detecting_color,FALSE,36:28.2,17.374,0.166,235,131.6940765,282.4188232,84.95825195,45,65,51,0,-20
1.2,100,100,60,detecting_color,blue,FALSE,FALSE,detecting_color,FALSE,36:29.7,16.462,0.166,235,131.6940765,282.4188232,84.95825195,45,65,51,0,-20
1.2,100,100,60,go_to_color_detect_down,blue,TRUE,FALSE,joint 3 +,FALSE,36:30.5,16.576,0.161,235,123.5650177,264.9860229,12.25958252,45,65,51,31.1524601,-20
1.2,100,100,60,go_to_color_detect_up,blue,TRUE,FALSE,joint 3 -,TRUE,36:31.2,16.576,0.161,235,102.3431091,219.4754791,-39.92185974,45,65,51,57.87999725,-20
1.2,100,100,60,go_to_color_detect_up,blue,TRUE,FALSE,joint 3 -,TRUE,36:32.0,16.595,0.161,235,131.4857483,281.9721069,72.93003082,45,65,51,4.100996017,-20
1.2,100,100,60,go_to_red_up,red,TRUE,FALSE,joint 1 +,TRUE,36:33.5,22.538,0.181,235,28.02575111,310.3518677,84.95825195,64.84000397,86.12000275,51,0,-20
1.2,100,100,60,go_to_pick_up_from_red,red,TRUE,FALSE,joint 1 -,FALSE,36:34.4,22.633,0.214,235,-178.7348633,255.2598114,84.95825195,105,125,51,0,-20
1.2,100,100,60,go_to_pick_up_from_red,red,TRUE,FALSE,joint 1 -,FALSE,36:35.1,22.633,0.214,235,85.89263916,299.5433044,84.95825195,54,72,51,0,-20
1.2,100,100,60,go_to_pick_up_from_red,red,TRUE,FALSE,joint 1 -,FALSE,36:36.5,16.557,0.163,235,292.2222595,108.2122421,84.95825195,0.31999588,20.17999649,51,0,-20
1.2,100,100,60,moving_belt,red,FALSE,TRUE,joint 1 -,FALSE,36:37.2,16.557,0.163,235,292.822052,106.5785141,84.95825195,0,20,51,0,-20
1.2,100,100,60,moving_belt,red,FALSE,TRUE,joint 1 -,FALSE,36:38.7,16.595,0.16,235,292.822052,106.5785141,84.95825195,0,20,51,0,-20
1.2,100,100,60,moving_belt,red,FALSE,TRUE,joint 1 -,FALSE,36:39.4,16.196,0.16,235,292.822052,106.5785141,84.95825195,0,20,51,0,-20
1.2,100,100,60,moving_belt,red,FALSE,TRUE,joint 1 -,FALSE,36:40.1,16.405,0.16,235,292.822052,106.5785141,84.95825195,0,20,51,0,-20
1.2,100,100,60,go_to_pick_down,red,TRUE,FALSE,joint 3 +,FALSE,36:41.5,16.348,0.16,235,291.3401794,106.0391617,63.48404694,0,20,51,9.239999771,-20
1.2,100,100,60,go_to_pick_up_from_pick_down,red,TRUE,FALSE,joint 3 -,TRUE,36:42.2,16.348,0.16,235,278.4590759,101.3508148,19.68882751,0,20,51,25.87999725,-20
1.2,100,100,60,go_to_color_detect_up,red,TRUE,FALSE,joint 1 +,TRUE,36:43.4,16.291,0.176,235,288.5148926,117.7407684,84.95825195,2.20000267,22.6400032,51,0,-20
1.2,100,100,60,go_to_color_detect_up,red,TRUE,FALSE,joint 1 +,TRUE,36:44.1,23.203,0.176,235,137.3585052,279.7076416,84.95825195,43.84532166,64.12860107,51,0,-20
1.2,100,100,60,go_to_color_detect_up,red,TRUE,FALSE,joint 3 +,TRUE,36:45.6,22.14,0.212,235,124.3610001,266.6929932,15.67424011,45,65,51,29.6400013,-20
1.2,100,100,60,go_to_color_detect_up,red,TRUE,FALSE,joint 3 -,FALSE,36:46.4,22.177,0.212,235,101.9368515,218.6042786,-40.51370239,45,65,51,58.39999771,-20
1.2,100,100,60,go_to_color_detect_up,red,TRUE,FALSE,joint 3 -,FALSE,36:47.2,22.177,0.202,235,131.3539276,281.6893921,69.59672546,45,65,51,5.325912476,-20
1.2,100,100,60,detecting_color,red,FALSE,FALSE,detecting_color,FALSE,36:48.0,18.798,0.202,235,131.6940765,282.4188232,84.95825195,45,65,51,0,-20
1.2,100,100,60,detecting_color,red,FALSE,FALSE,detecting_color,FALSE,36:49.6,16.405,0.16,235,131.6940765,282.4188232,84.95825195,45,65,51,0,-20
1.2,100,100,60,go_to_color_detect_down,red,TRUE,FALSE,joint 3 +,FALSE,36:50.5,16.405,0.16,235,126.9899673,272.3308411,28.84603882,45,65,51,23.80000114,-20
1.2,100,100,60,go_to_color_detect_up,red,TRUE,FALSE,joint 3 -,TRUE,36:51.3,16.405,0.16,235,101.603035,217.8883972,-40.9924469,45,65,51,58.87999725,-20
1.2,100,100,60,go_to_color_detect_up,red,TRUE,FALSE,joint 3 -,TRUE,36:52.1,17.279,0.162,235,129.8877106,278.545105,49.76803207,45,65,51,12.81803703,-20
1.2,100,100,60,go_to_green_up,green,TRUE,FALSE,joint 1 +,TRUE,36:53.8,23.355,0.214,235,64.78833008,304.8052063,84.95825195,58,79.04000092,51,0,-20
1.2,100,100,60,go_to_pick_up_from_green,green,TRUE,FALSE,joint 1 -,FALSE,36:54.6,22.121,0.214,235,-74.75302887,302.5156555,84.95825195,83.87999725,103.5599976,51,0,-20
1.2,100,100,60,go_to_pick_up_from_green,green,TRUE,FALSE,joint 1 -,FALSE,36:55.3,22.443,0.214,235,212.8004456,227.6394043,84.95825195,26.92963409,45.48181534,51,0,-20
1.2,100,100,60,moving_belt,green,FALSE,TRUE,joint 1 -,FALSE,36:56.1,16.576,0.162,235,292.822052,106.5785141,84.95825195,0,20,51,0,-20
1.2,100,100,60,moving_belt,green,FALSE,TRUE,joint 1 -,FALSE,36:57.1,16.576,0.162,235,292.822052,106.5785141,84.95825195,0,20,51,0,-20
1.2,100,100,60,moving_belt,green,FALSE,TRUE,joint 1 -,FALSE,36:58.7,16.557,0.161,235,292.822052,106.5785141,84.95825195,0,20,51,0,-20
1.2,100,100,60,moving_belt,green,FALSE,TRUE,joint 1 -,FALSE,36:59.4,16.557,0.161,235,292.822052,106.5785141,84.95825195,0,20,51,0,-20
1.2,100,100,60,moving_belt,green,FALSE,TRUE,joint 1 -,FALSE,37:00.1,16.405,0.159,235,292.822052,106.5785141,84.95825195,0,20,51,0,-20
1.2,100,100,60,go_to_pick_down,green,TRUE,FALSE,joint 3 +,FALSE,37:01.7,16.671,0.159,235,277.9200745,101.1546402,18.54389191,0,20,51,27.25318909,-20
1.2,100,100,60,go_to_pick_up_from_pick_down,green,TRUE,FALSE,joint 3 -,TRUE,37:02.6,16.462,0.162,235,291.8692932,106.2317352,67.72253418,0,20,51,6.019338131,-20
1.2,100,100,60,go_to_color_detect_up,green,TRUE,FALSE,joint 1 +,TRUE,37:03.2,23.697,0.162,235,251.3321686,184.2169037,84.95825195,16.23999786,37.39999771,51,0,-20
1.2,100,100,60,go_to_color_detect_up,green,TRUE,FALSE,joint 3 +,TRUE,37:04.2,22.31,0.162,235,131.6874084,282.404541,82.80319977,45,65,51,1.120000005,-20
1.2,100,100,60,go_to_color_detect_up,green,TRUE,FALSE,joint 3 +,TRUE,37:05.1,22.424,0.213,235,109.5755081,234.9854279,-27.50468445,45,65,51,50.74425125,-20
1.2,100,100,60,go_to_color_detect_up,green,TRUE,FALSE,joint 3 -,FALSE,37:06.6,21.874,0.21,235,116.8796692,250.6492462,-10.31536865,45,65,51,39.15999603,-20
1.2,100,100,60,detecting_color,green,FALSE,FALSE,detecting_color,FALSE,37:07.4,21.874,0.21,235,131.6940765,282.4188232,84.95825195,45,65,51,0,-20
1.2,100,100,60,detecting_color,green,FALSE,FALSE,detecting_color,FALSE,37:08.2,17.43,0.21,235,131.6940765,282.4188232,84.95825195,45,65,51,0,-20
1.2,100,100,60,go_to_color_detect_down,green,TRUE,FALSE,joint 3 +,FALSE,37:09.7,16.462,0.162,235,130.1018219,279.0042419,51.89044571,45,65,51,14.03999996,-20
1.2,100,100,60,go_to_color_detect_down,green,TRUE,FALSE,joint 3 +,TRUE,37:10.5,16.614,0.162,235,101.669426,218.030777,-40.89776611,45,65,51,58.96095657,-20
1.2,100,100,60,go_to_color_detect_up,green,TRUE,FALSE,joint 3 -,TRUE,37:11.6,16.614,0.163,235,126.5197296,271.3224182,26.22413635,45,65,51,22.19770432,-20
1.2,100,100,60,go_to_blue_up,blue,TRUE,FALSE,joint 1 +,TRUE,37:12.4,23.374,0.163,235,97.12145233,296.0931702,84.95825195,51.84000397,72.6000061,51,0,-20
1.2,100,100,60,go_to_pick_up_from_blue,blue,TRUE,FALSE,joint 1 -,FALSE,37:13.7,22.443,0.213,235,67.97665405,304.1100464,84.95825195,57.3999939,76.59999084,51,0,-20
1.2,100,100,60,go_to_pick_up_from_blue,blue,TRUE,FALSE,joint 1 -,FALSE,37:14.4,18.836,0.213,235,285.8829041,123.9947433,84.95825195,3.447612762,22.94271088,51,0,-20
1.2,100,100,60,moving_belt,blue,FALSE,TRUE,joint 1 -,FALSE,37:15.1,16.747,0.163,235,292.822052,106.5785141,84.95825195,0,20,51,0,-20
1.2,100,100,60,moving_belt,blue,FALSE,TRUE,joint 1 -,FALSE,37:16.7,16.557,0.163,235,292.822052,106.5785141,84.95825195,0,20,51,0,-20
1.2,100,100,60,moving_belt,blue,FALSE,TRUE,joint 1 -,FALSE,37:17.6,16.557,0.161,235,292.822052,106.5785141,84.95825195,0,20,51,0,-20
1.2,100,100,60,moving_belt,blue,FALSE,TRUE,joint 1 -,FALSE,37:18.5,16.462,0.161,235,292.822052,106.5785141,84.95825195,0,20,51,0,-20
1.2,100,100,60,go_to_pick_down,blue,TRUE,FALSE,joint 3 +,FALSE,37:19.3,16.709,0.161,235,292.4510803,106.4434891,74.19223785,0,20,51,4.800000191,-20
1.2,100,100,60,go_to_pick_up_from_pick_down,blue,TRUE,FALSE,joint 3 -,TRUE,37:20.1,16.386,0.161,235,276.4714661,100.627388,15.58375549,0,20,51,27.87999725,-20
1.2,100,100,60,go_to_color_detect_up,blue,TRUE,FALSE,joint 1 +,TRUE,37:21.7,20.545,0.22,235,292.0708618,108.6202011,84.95825195,0.400001526,20.60000229,51,0,-20
1.2,100,100,60,go_to_color_detect_up,blue,TRUE,FALSE,joint 1 +,TRUE,37:21.7,20.545,0.22,235,149.6178284,273.346344,84.95825195,41.30563354,61.82891464,51,0,-20
1.2,100,100,60,go_to_color_detect_up,blue,TRUE,FALSE,joint 3 +,TRUE,37:23.1,22.576,0.22,235,127.5210114,273.469696,31.99084854,45,65,51,22.44000053,-20
1.2,100,100,60,go_to_color_detect_up,blue,TRUE,FALSE,joint 3 -,FALSE,37:24.0,22.045,0.21,235,101.603035,217.8883972,-40.9924469,45,65,51,58.87999725,-20
1.2,100,100,60,go_to_color_detect_up,blue,TRUE,FALSE,joint 3 -,FALSE,37:25.8,22.215,0.168,235,131.0502777,281.038208,63.85025024,45,65,51,7.463286877,-20
1.2,100,100,60,detecting_color,blue,FALSE,FALSE,detecting_color,FALSE,37:26.6,17.336,0.168,235,131.6940765,282.4188232,84.95825195,45,65,51,0,-20
1.2,100,100,60,go_to_color_detect_down,blue,TRUE,FALSE,joint 3 +,FALSE,37:27.3,16.69,0.168,235,131.6939392,282.4185486,84.65037537,45,65,51,0.239999995,-20
1.2,100,100,60,go_to_color_detect_down,blue,TRUE,FALSE,joint 3 +,FALSE,37:28.0,16.69,0.162,235,113.3833466,243.1513519,-19.25731659,45,65,51,46.18196106,-20
1.2,100,100,60,go_to_color_detect_up,blue,TRUE,FALSE,joint 3 -,TRUE,37:29.7,16.576,0.162,235,112.7247543,241.7390137,-20.78470612,45,65,51,44.95999908,-20
1.2,100,100,60,go_to_red_up,red,TRUE,FALSE,joint 1 +,TRUE,37:30.5,23.45,0.221,235,131.6939545,282.4185791,84.67219543,45,65,51,0.039038025,-20
1.2,100,100,60,go_to_red_up,red,TRUE,FALSE,joint 1 +,TRUE,37:31.3,22.443,0.221,235,-71.52986908,303.2939453,84.95825195,83.27033234,104.568718,51,0,-20
1.2,100,100,60,go_to_pick_up_from_red,red,TRUE,FALSE,joint 1 -,FALSE,37:32.0,22.728,0.215,235,-153.7303772,271.0547791,84.95825195,99.55999756,118.8799973,51,0,-20
1.2,100,100,60,go_to_pick_up_from_red,red,TRUE,FALSE,joint 1 -,FALSE,37:33.6,18.722,0.215,235,211.0045929,229.3050232,84.95825195,27.37998962,45.91999054,51,0,-20
1.2,100,100,60,moving_belt,red,FALSE,TRUE,joint 1 -,FALSE,37:34.4,16.899,0.164,235,292.822052,106.5785141,84.95825195,0,20,51,0,-20
1.2,100,100,60,moving_belt,red,FALSE,TRUE,joint 1 -,FALSE,37:35.2,16.899,0.164,235,292.822052,106.5785141,84.95825195,0,20,51,0,-20
1.2,100,100,60,moving_belt,red,FALSE,TRUE,joint 1 -,FALSE,37:36.0,16.5,0.164,235,292.822052,106.5785141,84.95825195,0,20,51,0,-20
1.2,100,100,60,moving_belt,red,FALSE,TRUE,joint 1 -,FALSE,37:37.6,16.272,0.162,235,292.822052,106.5785141,84.95825195,0,20,51,0,-20
1.2,100,100,60,moving_belt,red,FALSE,TRUE,joint 1 -,FALSE,37:38.4,16.481,0.162,235,292.822052,106.5785141,84.95825195,0,20,51,0,-20
1.2,100,100,60,go_to_pick_down,red,TRUE,FALSE,joint 3 +,FALSE,37:39.5,16.481,0.16,235,281.2159424,102.3542404,25.97830963,0,20,51,24.28879166,-20
1.2,100,100,60,go_to_pick_up_from_pick_down,red,TRUE,FALSE,joint 3 -,TRUE,37:40.2,16.443,0.16,235,289.3615417,105.3189926,52.26087189,0,20,51,11.85780144,-20
1.2,100,100,60,go_to_color_detect_up,red,TRUE,FALSE,joint 1 +,TRUE,37:41.7,23.165,0.207,235,274.1114197,148.2115173,84.95825195,8.400001526,29.24000168,51,0,-20
1.2,100,100,60,go_to_color_detect_up,red,TRUE,FALSE,joint 3 +,TRUE,37:42.4,22.329,0.207,235,131.6925659,282.4155884,83.93200684,45,65,51,0.599999964,-20
1.2,100,100,60,go_to_color_detect_up,red,TRUE,FALSE,joint 3 +,TRUE,37:43.6,21.988,0.212,235,111.0365143,238.1185608,-24.50159454,45,65,51,49.03933334,-20
1.2,100,100,60,go_to_color_detect_up,red,TRUE,FALSE,joint 3 -,FALSE,37:44.3,22.234,0.212,235,109.7012863,235.2551575,-27.25350189,45,65,51,48.87999725,-20
1.2,100,100,60,go_to_color_detect_up,red,TRUE,FALSE,joint 3 -,FALSE,37:45.1,18.38,0.171,235,131.6831665,282.3954468,82.20346832,45,65,51,0.801329434,-20
1.2,100,100,60,detecting_color,red,FALSE,FALSE,detecting_color,FALSE,37:46.7,17.089,0.171,235,131.6940765,282.4188232,84.95825195,45,65,51,0,-20
1.2,100,100,60,detecting_color,red,FALSE,FALSE,detecting_color,FALSE,37:47.5,16.747,0.162,235,131.6940765,282.4188232,84.95825195,45,65,51,0,-20
1.2,100,100,60,go_to_color_detect_down,red,TRUE,FALSE,joint 3 +,FALSE,37:48.2,16.747,0.162,235,123.5650177,264.9860229,12.25958252,45,65,51,31.1524601,-20
1.2,100,100,60,go_to_color_detect_up,red,TRUE,FALSE,joint 3 -,TRUE,37:49.0,16.69,0.162,235,102.3431091,219.4754791,-39.92185974,45,65,51,57.87999725,-20
1.2,100,100,60,go_to_color_detect_up,red,TRUE,FALSE,joint 3 -,TRUE,37:50.6,16.804,0.163,235,130.7576447,280.410675,59.53136826,45,65,51,9.08820343,-20
1.2,100,100,60,go_to_green_up,green,TRUE,FALSE,joint 1 +,TRUE,37:51.5,23.336,0.163,235,70.09805298,303.6280823,84.95825195,57,78,51,0,-20
1.2,100,100,60,go_to_pick_up_from_green,green,TRUE,FALSE,joint 1 -,FALSE,37:52.2,22.443,0.213,235,-64.14976501,304.9402161,84.95825195,81.87998962,101.359993,51,0,-20
1.2,100,100,60,go_to_pick_up_from_green,green,TRUE,FALSE,joint 1 -,FALSE,37:53.7,16.728,0.163,235,242.7075043,195.4400177,84.95825195,18.84272766,37.63491058,51,0,-20
1.2,100,100,60,moving_belt,green,FALSE,TRUE,joint 1 -,FALSE,37:54.5,16.728,0.163,235,292.822052,106.5785141,84.95825195,0,20,51,0,-20
1.2,100,100,60,moving_belt,green,FALSE,TRUE,joint 1 -,FALSE,37:55.4,16.766,0.163,235,292.822052,106.5785141,84.95825195,0,20,51,0,-20
1.2,100,100,60,moving_belt,green,FALSE,TRUE,joint 1 -,FALSE,37:56.2,16.595,0.164,235,292.822052,106.5785141,84.95825195,0,20,51,0,-20
1.2,100,100,60,moving_belt,green,FALSE,TRUE,joint 1 -,FALSE,37:57.7,16.405,0.164,235,292.822052,106.5785141,84.95825195,0,20,51,0,-20
1.2,100,100,60,moving_belt,green,FALSE,TRUE,joint 1 -,FALSE,37:58.5,16.538,0.162,235,292.822052,106.5785141,84.95825195,0,20,51,0,-20
1.2,100,100,60,go_to_pick_down,green,TRUE,FALSE,joint 3 +,FALSE,37:59.2,16.538,0.162,235,277.094696,100.8542252,16.8372345,0,20,51,27.92132187,-20
1.2,100,100,60,go_to_pick_up_from_pick_down,green,TRUE,FALSE,joint 3 -,TRUE,38:00.1,16.538,0.162,235,292.2213745,106.3598862,71.26412201,0,20,51,4.711206436,-20
1.2,100,100,60,go_to_color_detect_up,green,TRUE,FALSE,joint 1 +,TRUE,38:01.6,22.386,0.162,235,243.5332794,194.4100494,84.95825195,18.59999847,39.84000015,51,0,-20
1.2,100,100,60,go_to_color_detect_up,green,TRUE,FALSE,joint 3 +,TRUE,38:01.6,22.386,0.162,235,131.6634216,282.3530884,80.34086609,45,65,51,2.200000048,-20
1.2,100,100,60,go_to_color_detect_up,green,TRUE,FALSE,joint 3 +,TRUE,38:03.1,22.386,0.162,235,104.8004608,224.7453156,-36.11772156,45,65,51,55.96391678,-20
1.2,100,100,60,go_to_color_detect_up,green,TRUE,FALSE,joint 3 -,FALSE,38:04.4,21.95,0.213,235,119.4699707,256.2041626,-2.604385376,45,65,51,35.19999695,-20
1.2,100,100,60,detecting_color,green,FALSE,FALSE,detecting_color,FALSE,38:05.1,21.95,0.2,235,131.6940765,282.4188232,84.95825195,45,65,51,0,-20
1.2,100,100,60,detecting_color,green,FALSE,FALSE,detecting_color,FALSE,38:06.7,16.595,0.161,235,131.6940765,282.4188232,84.95825195,45,65,51,0,-20
1.2,100,100,60,go_to_color_detect_down,green,TRUE,FALSE,joint 3 +,FALSE,38:07.4,16.595,0.161,235,128.0065918,274.5110168,35.06723022,45,65,51,21.12000084,-20
1.2,100,100,60,go_to_color_detect_up,green,TRUE,FALSE,joint 3 -,TRUE,38:08.5,16.462,0.161,235,101.5658646,217.8086853,-41.04534149,45,65,51,59,-20
1.2,100,100,60,go_to_color_detect_up,green,TRUE,FALSE,joint 3 -,TRUE,38:09.3,16.861,0.162,235,130.5787659,280.0270386,57.22894287,45,65,51,9.960661888,-20
1.2,100,100,60,go_to_blue_up,blue,TRUE,FALSE,joint 1 +,TRUE,38:10.0,23.26,0.162,235,80.02121735,301.164978,84.95825195,55.12000275,75.98885345,51,0,-20
1.2,100,100,60,go_to_pick_up_from_blue,blue,TRUE,FALSE,joint 1 -,FALSE,38:11.6,22.177,0.209,235,81.28206635,300.8271484,84.95825195,54.87999725,73.95999908,51,0,-20
1.2,100,100,60,go_to_pick_up_from_blue,blue,TRUE,FALSE,joint 1 -,FALSE,38:12.4,20.317,0.209,235,292.1778564,108.3320541,84.95825195,0.343486786,20.1985836,51,0,-20
1.2,100,100,60,moving_belt,blue,FALSE,TRUE,joint 1 -,FALSE,38:13.2,16.652,0.164,235,292.822052,106.5785141,84.95825195,0,20,51,0,-20
1.2,100,100,60,moving_belt,blue,FALSE,TRUE,joint 1 -,FALSE,38:14.7,16.671,0.164,235,292.822052,106.5785141,84.95825195,0,20,51,0,-20
1.2,100,100,60,moving_belt,blue,FALSE,TRUE,joint 1 -,FALSE,38:15.5,16.785,0.162,235,292.822052,106.5785141,84.95825195,0,20,51,0,-20
1.2,100,100,60,moving_belt,blue,FALSE,TRUE,joint 1 -,FALSE,38:16.3,16.785,0.162,235,292.822052,106.5785141,84.95825195,0,20,51,0,-20
1.2,100,100,60,go_to_pick_down,blue,TRUE,FALSE,joint 3 +,FALSE,38:17.2,16.386,0.162,235,292.03479,106.2919769,69.2864151,0,20,51,6.839999676,-20
1.2,100,100,60,go_to_pick_up_from_pick_down,blue,TRUE,FALSE,joint 3 -,TRUE,38:18.8,16.424,0.159,235,277.5466309,101.0187149,17.76486206,0,20,51,26.79999733,-20
1.2,100,100,60,go_to_color_detect_up,blue,TRUE,FALSE,joint 1 +,TRUE,38:19.6,18.456,0.221,235,292.5982056,107.1915665,84.95825195,0.120000839,20.24000168,51,0,-20
1.2,100,100,60,go_to_color_detect_up,blue,TRUE,FALSE,joint 1 +,TRUE,38:20.4,22.975,0.221,235,142.6537781,277.0444336,84.95825195,42.75547791,63.15876007,51,0,-20
1.2,100,100,60,go_to_color_detect_up,blue,TRUE,FALSE,joint 3 +,TRUE,38:21.5,22.766,0.221,235,126.4109573,271.0891724,25.63708496,45,65,51,25.20000076,-20
1.2,100,100,60,go_to_color_detect_up,blue,TRUE,FALSE,joint 3 -,FALSE,38:22.2,22.083,0.21,235,101.6773224,218.0477142,-40.8864975,45,65,51,58.75999832,-20
1.2,100,100,60,go_to_color_detect_up,blue,TRUE,FALSE,joint 3 -,FALSE,38:23.8,17.222,0.168,235,130.1458893,279.0987549,52.34549713,45,65,51,11.82557869,-20
1.2,100,100,60,detecting_color,blue,FALSE,FALSE,detecting_color,FALSE,38:24.5,17.222,0.168,235,131.6940765,282.4188232,84.95825195,45,65,51,0,-20
1.2,100,100,60,go_to_color_detect_down,blue,TRUE,FALSE,joint 3 +,FALSE,38:25.3,17.108,0.168,235,131.6940765,282.4188232,84.95825195,45,65,51,0,-20
1.2,100,100,60,go_to_color_detect_down,blue,TRUE,FALSE,joint 3 +,FALSE,38:26.1,16.557,0.164,235,111.7997513,239.7553253,-22.85543823,45,65,51,48.12687683,-20
1.2,100,100,60,go_to_color_detect_up,blue,TRUE,FALSE,joint 3 -,TRUE,38:27.6,16.538,0.164,235,109.7012863,235.2551575,-27.25350189,45,65,51,48.87999725,-20
1.2,100,100,60,go_to_color_detect_up,blue,TRUE,FALSE,joint 3 -,TRUE,38:28.3,23.412,0.203,235,131.6880035,282.4057922,82.90240479,45,65,51,0.568871081,-20
1.2,100,100,60,go_to_red_up,red,TRUE,FALSE,joint 1 +,TRUE,38:29.8,23.07,0.203,235,-33.53736115,309.8047485,84.95825195,76.1783905,97.6767807,51,0,-20
1.2,100,100,60,go_to_pick_up_from_red,red,TRUE,FALSE,joint 1 -,FALSE,38:30.6,22.595,0.214,235,-174.973465,257.8526917,84.95825195,104.159996,123.8799973,51,0,-20
1.2,100,100,60,go_to_pick_up_from_red,red,TRUE,FALSE,joint 1 -,FALSE,38:31.4,22.481,0.214,235,184.8305206,250.8812561,84.95825195,33.6199913,51.99999237,51,0,-20
1.2,100,100,60,moving_belt,red,FALSE,TRUE,joint 1 -,FALSE,38:32.8,16.956,0.165,235,292.822052,106.5785141,84.95825195,0,20,51,0,-20
1.2,100,100,60,moving_belt,red,FALSE,TRUE,joint 1 -,FALSE,38:33.6,16.766,0.165,235,292.822052,106.5785141,84.95825195,0,20,51,0,-20
1.2,100,100,60,moving_belt,red,FALSE,TRUE,joint 1 -,FALSE,38:34.5,16.766,0.161,235,292.822052,106.5785141,84.95825195,0,20,51,0,-20
1.2,100,100,60,moving_belt,red,FALSE,TRUE,joint 1 -,FALSE,38:35.3,16.576,0.161,235,292.822052,106.5785141,84.95825195,0,20,51,0,-20
1.2,100,100,60,moving_belt,red,FALSE,TRUE,joint 1 -,FALSE,38:36.1,16.538,0.161,235,292.822052,106.5785141,84.95825195,0,20,51,0,-20
1.2,100,100,60,go_to_pick_down,red,TRUE,FALSE,joint 3 +,FALSE,38:36.9,16.405,0.162,235,285.9893494,104.0916138,39.29792786,0,20,51,19.0103302,-20
1.2,100,100,60,go_to_pick_up_from_pick_down,red,TRUE,FALSE,joint 3 -,TRUE,38:38.8,16.424,0.172,235,284.6882629,103.6180573,35.26035309,0,20,51,18.87999916,-20
1.2,100,100,60,go_to_color_detect_up,red,TRUE,FALSE,joint 1 +,TRUE,38:39.7,23.26,0.172,235,286.5872192,122.3580856,84.95825195,3.120002747,23.6400032,51,0,-20
1.2,100,100,60,go_to_color_detect_up,red,TRUE,FALSE,joint 1 +,TRUE,38:40.5,22.367,0.172,235,131.7517395,282.3919373,84.95825195,44.98829651,64.99157715,51,0,-20
1.2,100,100,60,go_to_color_detect_up,red,TRUE,FALSE,joint 3 +,TRUE,38:41.4,22.462,0.213,235,118.4475632,254.0116119,-5.775810242,45,65,51,39.38721085,-20
1.2,100,100,60,go_to_color_detect_up,red,TRUE,FALSE,joint 3 -,FALSE,38:42.2,22.158,0.213,235,104.882103,224.9203796,-35.98448181,45,65,51,54.79999542,-20
1.2,100,100,60,go_to_color_detect_up,red,TRUE,FALSE,joint 3 -,FALSE,38:43.8,22.007,0.195,235,131.6654816,282.3575134,80.4980545,45,65,51,1.386245966,-20
1.2,100,100,60,detecting_color,red,FALSE,FALSE,detecting_color,FALSE,38:44.6,17.658,0.195,235,131.6940765,282.4188232,84.95825195,45,65,51,0,-20
1.2,100,100,60,go_to_color_detect_down,red,TRUE,FALSE,joint 3 +,FALSE,38:45.3,16.538,0.163,235,131.6940765,282.4188232,84.95825195,45,65,51,0.039999999,-20
1.2,100,100,60,go_to_color_detect_down,red,TRUE,FALSE,joint 3 +,FALSE,38:46.1,16.538,0.163,235,109.5755081,234.9854279,-27.50468445,45,65,51,50.74425125,-20
1.2,100,100,60,go_to_color_detect_up,red,TRUE,FALSE,joint 3 -,TRUE,38:47.7,16.709,0.163,235,111.9382553,240.0523529,-22.55075073,45,65,51,46,-20
1.2,100,100,60,go_to_color_detect_up,red,TRUE,FALSE,joint 3 -,TRUE,38:48.5,23.469,0.163,235,131.6927338,282.4159546,83.99252319,45,65,51,0.223954409,-20
1.2,100,100,60,go_to_green_up,green,TRUE,FALSE,joint 1 +,TRUE,38:49.3,22.595,0.163,235,-25.25359917,310.5897522,84.95825195,74.64840698,95.5382309,51,0,-20
1.2,100,100,60,go_to_pick_up_from_green,green,TRUE,FALSE,joint 1 -,FALSE,38:50.8,22.538,0.212,235,0.652628005,311.6140137,84.95825195,69.87999725,88.75999451,51,0,-20
1.2,100,100,60,go_to_pick_up_from_green,green,TRUE,FALSE,joint 1 -,FALSE,38:51.6,16.842,0.212,235,282.5899048,131.3265686,84.95825195,4.925462723,24.31764412,51,0,-20
1.2,100,100,60,moving_belt,green,FALSE,TRUE,joint 1 -,FALSE,38:52.3,16.842,0.163,235,292.822052,106.5785141,84.95825195,0,20,51,0,-20
1.2,100,100,60,moving_belt,green,FALSE,TRUE,joint 1 -,FALSE,38:53.7,16.405,0.161,235,292.822052,106.5785141,84.95825195,0,20,51,0,-20
1.2,100,100,60,moving_belt,green,FALSE,TRUE,joint 1 -,FALSE,38:54.4,16.405,0.161,235,292.822052,106.5785141,84.95825195,0,20,51,0,-20
1.2,100,100,60,moving_belt,green,FALSE,TRUE,joint 1 -,FALSE,38:55.3,16.785,0.161,235,292.822052,106.5785141,84.95825195,0,20,51,0,-20
1.2,100,100,60,go_to_pick_down,green,TRUE,FALSE,joint 3 +,FALSE,38:56.1,16.785,0.161,235,292.8186951,106.5772934,83.93200684,0,20,51,0.600000024,-20
1.2,100,100,60,go_to_pick_up_from_pick_down,green,TRUE,FALSE,joint 3 -,TRUE,38:56.9,16.519,0.161,235,275.6426697,100.3257294,13.96067047,0,20,51,28.75999832,-20
1.2,100,100,60,go_to_pick_up_from_pick_down,green,TRUE,FALSE,joint 3 -,TRUE,38:58.5,16.557,0.161,235,292.8210144,106.5781403,84.38761902,0,20,51,0.108349651,-20
1.2,100,100,60,go_to_color_detect_up,green,TRUE,FALSE,joint 1 +,TRUE,38:59.2,22.918,0.175,235,183.7216797,251.6944122,84.95825195,33.87281799,54.79610062,51,0,-20
1.2,100,100,60,go_to_color_detect_up,green,TRUE,FALSE,joint 3 +,TRUE,39:00.8,22.614,0.213,235,130.88797,280.6901245,61.35441971,45,65,51,10.11999989,-20
1.2,100,100,60,go_to_color_detect_up,green,TRUE,FALSE,joint 3 +,TRUE,39:01.5,22.026,0.213,235,101.6021423,217.8864899,-40.99371338,45,65,51,58.99341583,-20
1.2,100,100,60,go_to_color_detect_up,green,TRUE,FALSE,joint 3 -,FALSE,39:02.3,22.158,0.213,235,127.612236,273.6653137,32.55312729,45,65,51,19.61278725,-20
1.2,100,100,60,detecting_color,green,FALSE,FALSE,detecting_color,FALSE,39:03.0,17.317,0.204,235,131.6940765,282.4188232,84.95825195,45,65,51,0,-20
1.2,100,100,60,detecting_color,green,FALSE,FALSE,detecting_color,FALSE,39:04.7,16.785,0.164,235,131.6940765,282.4188232,84.95825195,45,65,51,0,-20
1.2,100,100,60,go_to_color_detect_down,green,TRUE,FALSE,joint 3 +,FALSE,39:04.7,16.785,0.164,235,130.88797,280.6901245,61.35441971,45,65,51,10.11999989,-20
1.2,100,100,60,go_to_color_detect_down,green,TRUE,FALSE,joint 3 +,FALSE,39:06.2,16.747,0.164,235,102.5581818,219.9367218,-39.60438538,45,65,51,58.19866562,-20
1.2,100,100,60,go_to_color_detect_up,green,TRUE,FALSE,joint 3 -,TRUE,39:07.6,21.19,0.164,235,122.046196,261.7288818,6.278381348,45,65,51,30.87999725,-20
1.2,100,100,60,go_to_blue_up,blue,TRUE,FALSE,joint 1 +,TRUE,39:08.3,21.19,0.164,235,120.7555389,287.2661438,84.95825195,47.20000458,67.64000702,51,0,-20
1.2,100,100,60,go_to_pick_up_from_blue,blue,TRUE,FALSE,joint 1 -,FALSE,39:09.7,22.329,0.215,235,36.89640427,309.4226685,84.95825195,63.19999695,82.79999542,51,0,-20
1.2,100,100,60,go_to_pick_up_from_blue,blue,TRUE,FALSE,joint 1 -,FALSE,39:10.5,17.715,0.215,235,267.9519348,159.0769806,84.95825195,10.69664383,29.79174042,51,0,-20
1.2,100,100,60,moving_belt,blue,FALSE,TRUE,joint 1 -,FALSE,39:11.2,17.715,0.164,235,292.822052,106.5785141,84.95825195,0,20,51,0,-20
1.2,100,100,60,moving_belt,blue,FALSE,TRUE,joint 1 -,FALSE,39:11.9,16.899,0.164,235,292.822052,106.5785141,84.95825195,0,20,51,0,-20
1.2,100,100,60,moving_belt,blue,FALSE,TRUE,joint 1 -,FALSE,39:13.8,16.481,0.161,235,292.822052,106.5785141,84.95825195,0,20,51,0,-20
1.2,100,100,60,moving_belt,blue,FALSE,TRUE,joint 1 -,FALSE,39:14.5,16.633,0.161,235,292.822052,106.5785141,84.95825195,0,20,51,0,-20
1.2,100,100,60,go_to_pick_down,blue,TRUE,FALSE,joint 3 +,FALSE,39:15.3,16.367,0.161,235,292.8208313,106.5780716,84.34249878,0,20,51,0.400000006,-20
1.2,100,100,60,go_to_pick_down,blue,TRUE,FALSE,joint 3 +,TRUE,39:16.2,16.367,0.16,235,275.6290894,100.3207932,13.93449402,0,20,51,28.96571541,-20
1.2,100,100,60,go_to_pick_up_from_pick_down,blue,TRUE,FALSE,joint 3 -,TRUE,39:17.7,21.646,0.207,235,292.6825867,106.5277557,78.35411072,0,20,51,2.14087677,-20
1.2,100,100,60,go_to_color_detect_up,blue,TRUE,FALSE,joint 1 +,TRUE,39:18.4,22.652,0.207,235,201.2184601,237.938797,84.95825195,29.77968979,50.86297226,51,0,-20
1.2,100,100,60,go_to_color_detect_up,blue,TRUE,FALSE,joint 3 +,TRUE,39:19.2,22.652,0.207,235,131.2519073,281.4706116,67.45097351,45,65,51,7.599999428,-20
1.2,100,100,60,go_to_color_detect_up,blue,TRUE,FALSE,joint 3 +,TRUE,39:20.8,21.912,0.212,235,103.5240097,222.0079346,-38.14271545,45,65,51,57.2612915,-20
1.2,100,100,60,go_to_color_detect_up,blue,TRUE,FALSE,joint 3 -,FALSE,39:21.6,22.196,0.191,235,123.7145233,265.3066406,12.88483429,45,65,51,27.84753799,-20
1.2,100,100,60,detecting_color,blue,FALSE,FALSE,detecting_color,FALSE,39:22.3,17.393,0.191,235,131.6940765,282.4188232,84.95825195,45,65,51,0,-20
1.2,100,100,60,detecting_color,blue,FALSE,FALSE,detecting_color,FALSE,39:23.8,16.766,0.163,235,131.6940765,282.4188232,84.95825195,45,65,51,0,-20
1.2,100,100,60,go_to_color_detect_down,blue,TRUE,FALSE,joint 3 +,FALSE,39:24.6,16.785,0.163,235,129.21521,277.1029053,43.84801483,45,65,51,17.39999962,-20
1.2,100,100,60,go_to_color_detect_up,blue,TRUE,FALSE,joint 3 -,TRUE,39:25.3,16.785,0.163,235,101.603035,217.8883972,-40.9924469,45,65,51,58.87999725,-20
1.2,100,100,60,go_to_color_detect_up,blue,TRUE,FALSE,joint 3 -,TRUE,39:26.1,16.88,0.163,235,129.8877106,278.545105,49.76803207,45,65,51,12.81803703,-20
1.2,100,100,60,go_to_red_up,red,TRUE,FALSE,joint 1 +,TRUE,39:27.6,23.146,0.163,235,89.02467346,298.6274414,84.95825195,53.40000916,74.24000549,51,0,-20
1.2,100,100,60,go_to_red_up,red,TRUE,FALSE,joint 1 +,TRUE,39:28.4,23.146,0.21,235,-171.4998322,260.1759644,84.95825195,103.3916168,123.7300034,51,0,-20
1.2,100,100,60,go_to_pick_up_from_red,red,TRUE,FALSE,joint 1 -,FALSE,39:29.1,22.709,0.21,235,6.090987206,311.5551758,84.95825195,68.87999725,87.15999603,51,0,-20
1.2,100,100,60,go_to_pick_up_from_red,red,TRUE,FALSE,joint 1 -,FALSE,39:30.6,16.937,0.164,235,287.0972595,121.156517,84.95825195,2.879993439,22.41999435,51,0,-20
1.2,100,100,60,moving_belt,red,FALSE,TRUE,joint 1 -,FALSE,39:31.3,16.937,0.164,235,292.822052,106.5785141,84.95825195,0,20,51,0,-20
1.2,100,100,60,moving_belt,red,FALSE,TRUE,joint 1 -,FALSE,39:32.0,16.671,0.164,235,292.822052,106.5785141,84.95825195,0,20,51,0,-20
1.2,100,100,60,moving_belt,red,FALSE,TRUE,joint 1 -,FALSE,39:33.7,16.576,0.162,235,292.822052,106.5785141,84.95825195,0,20,51,0,-20
1.2,100,100,60,moving_belt,red,FALSE,TRUE,joint 1 -,FALSE,39:34.7,16.519,0.162,235,292.822052,106.5785141,84.95825195,0,20,51,0,-20
1.2,100,100,60,go_to_pick_down,red,TRUE,FALSE,joint 3 +,FALSE,39:35.5,16.519,0.161,235,292.7202454,106.5414581,79.31524658,0,20,51,2.640000105,-20
1.2,100,100,60,go_to_pick_up_from_pick_down,red,TRUE,FALSE,joint 3 -,TRUE,39:36.2,16.519,0.161,235,275.502655,100.2747726,13.69123077,0,20,51,28.95999908,-20
1.2,100,100,60,go_to_color_detect_up,red,TRUE,FALSE,joint 1 +,TRUE,39:37.7,23.526,0.162,235,292.822052,106.5785141,84.95825195,0,20,51,0,-20
1.2,100,100,60,go_to_color_detect_up,red,TRUE,FALSE,joint 1 +,TRUE,39:38.4,22.083,0.162,235,171.8888855,259.9190979,84.95825195,36.52266312,57.32594299,51,0,-20
1.2,100,100,60,go_to_color_detect_up,red,TRUE,FALSE,joint 3 +,TRUE,39:39.2,22.083,0.212,235,130.1018219,279.0042419,51.89044571,45,65,51,14.03999996,-20
1.2,100,100,60,go_to_color_detect_up,red,TRUE,FALSE,joint 3 -,FALSE,39:40.7,22.102,0.212,235,101.7737656,218.2545319,-40.7484436,45,65,51,58.88850021,-20
1.2,100,100,60,go_to_color_detect_up,red,TRUE,FALSE,joint 3 -,FALSE,39:41.4,21.494,0.209,235,129.2768555,277.2351074,44.35223007,45,65,51,14.92295361,-20
1.2,100,100,60,detecting_color,red,FALSE,FALSE,detecting_color,FALSE,39:42.1,21.494,0.209,235,131.6940765,282.4188232,84.95825195,45,65,51,0,-20
1.2,100,100,60,detecting_color,red,FALSE,FALSE,detecting_color,FALSE,39:43.7,16.652,0.162,235,131.6940765,282.4188232,84.95825195,45,65,51,0,-20
1.2,100,100,60,go_to_color_detect_down,red,TRUE,FALSE,joint 3 +,FALSE,39:44.4,16.652,0.162,235,131.0276184,280.989624,63.48404694,45,65,51,9.239999771,-20
1.2,100,100,60,go_to_color_detect_down,red,TRUE,FALSE,joint 3 +,FALSE,39:45.3,16.557,0.162,235,102.8447723,220.5513153,-39.17684937,45,65,51,57.9262085,-20
1.2,100,100,60,go_to_color_detect_up,red,TRUE,FALSE,joint 3 -,TRUE,39:46.1,16.899,0.162,235,122.8875122,263.5331116,9.511726379,45,65,51,29.3599968,-20
1.2,100,100,60,go_to_green_up,green,TRUE,FALSE,joint 1 +,TRUE,39:47.8,23.431,0.219,235,127.539566,284.3191528,84.95825195,45.84000397,66.12000275,51,0,-20
1.2,100,100,60,go_to_green_up,green,TRUE,FALSE,joint 1 +,TRUE,39:48.5,22.804,0.219,235,-80.3085556,301.088501,84.95825195,84.93466949,104.9844894,51,0,-20
1.2,100,100,60,go_to_pick_up_from_green,green,TRUE,FALSE,joint 1 -,FALSE,39:49.4,22.557,0.219,235,120.9560852,287.1817627,84.95825195,47.15999603,65.3999939,51,0,-20
1.2,100,100,60,moving_belt,green,FALSE,TRUE,joint 1 -,FALSE,39:50.2,17.62,0.182,235,292.8067932,106.6204147,84.95825195,0.008197784,20.00037956,51,0,-20
1.2,100,100,60,moving_belt,green,FALSE,TRUE,joint 1 -,FALSE,39:51.8,16.804,0.162,235,292.822052,106.5785141,84.95825195,0,20,51,0,-20
1.2,100,100,60,moving_belt,green,FALSE,TRUE,joint 1 -,FALSE,39:52.6,16.386,0.162,235,292.822052,106.5785141,84.95825195,0,20,51,0,-20
1.2,100,100,60,moving_belt,green,FALSE,TRUE,joint 1 -,FALSE,39:53.4,16.386,0.162,235,292.822052,106.5785141,84.95825195,0,20,51,0,-20
1.2,100,100,60,moving_belt,green,FALSE,TRUE,joint 1 -,FALSE,39:54.6,16.329,0.161,235,292.822052,106.5785141,84.95825195,0,20,51,0,-20
1.2,100,100,60,go_to_pick_down,green,TRUE,FALSE,joint 3 +,FALSE,39:55.4,16.652,0.161,235,291.0296631,105.9261398,61.35441971,0,20,51,10.11999989,-20
1.2,100,100,60,go_to_pick_up_from_pick_down,green,TRUE,FALSE,joint 3 -,TRUE,39:56.2,16.538,0.162,235,282.6185913,102.8647614,29.5106926,0,20,51,21.39999771,-20
1.2,100,100,60,go_to_color_detect_up,green,TRUE,FALSE,joint 1 +,TRUE,39:57.6,18.988,0.162,235,288.5148926,117.7407684,84.95825195,2.20000267,22.6400032,51,0,-20
1.2,100,100,60,go_to_color_detect_up,green,TRUE,FALSE,joint 1 +,TRUE,39:58.3,23.089,0.21,235,138.9345093,278.9281921,84.95825195,43.52204132,63.84532166,51,0,-20
1.2,100,100,60,go_to_color_detect_up,green,TRUE,FALSE,joint 3 +,TRUE,39:59.2,22.785,0.21,235,125.0989838,268.2756042,19.04592133,45,65,51,28.12000084,-20
1.2,100,100,60,go_to_color_detect_up,green,TRUE,FALSE,joint 3 -,FALSE,40:00.8,22.234,0.21,235,103.2227478,221.3618774,-38.60502625,45,65,51,56.79999542,-20
1.2,100,100,60,go_to_color_detect_up,green,TRUE,FALSE,joint 3 -,FALSE,40:01.6,17.184,0.21,235,131.2684326,281.5060425,67.78005981,45,65,51,5.998370647,-20
1.2,100,100,60,detecting_color,green,FALSE,FALSE,detecting_color,FALSE,40:02.6,17.184,0.21,235,131.6940765,282.4188232,84.95825195,45,65,51,0,-20
1.2,100,100,60,go_to_color_detect_down,green,TRUE,FALSE,joint 3 +,FALSE,40:03.3,17.089,0.167,235,131.6935272,282.4176636,84.34249878,45,65,51,0.399999976,-20
1.2,100,100,60,go_to_color_detect_down,green,TRUE,FALSE,joint 3 +,FALSE,40:04.9,16.88,0.162,235,111.7997513,239.7553253,-22.85543823,45,65,51,48.12687683,-20
1.2,100,100,60,go_to_color_detect_up,green,TRUE,FALSE,joint 3 -,TRUE,40:05.8,16.899,0.162,235,109.0017471,233.7549896,-28.63358307,45,65,51,49.75999832,-20
1.2,100,100,60,go_to_color_detect_up,green,TRUE,FALSE,joint 3 -,TRUE,40:06.6,23.393,0.162,235,131.6831665,282.3954468,82.20346832,45,65,51,0.801329434,-20
1.2,100,100,60,go_to_blue_up,blue,TRUE,FALSE,joint 1 +,TRUE,40:07.3,23.393,0.219,235,27.15902901,310.4289246,84.95825195,65,85,51,0,-20
1.2,100,100,60,go_to_pick_up_from_blue,blue,TRUE,FALSE,joint 1 -,FALSE,40:08.8,22.443,0.219,235,216.0727081,224.5357819,84.95825195,26.10038376,44.67547989,51,0,-20
1.2,100,100,60,moving_belt,blue,FALSE,TRUE,joint 1 -,FALSE,40:09.7,16.899,0.163,235,292.822052,106.5785141,84.95825195,0,20,51,0,-20
1.2,100,100,60,moving_belt,blue,FALSE,TRUE,joint 1 -,FALSE,40:10.5,16.918,0.163,235,292.822052,106.5785141,84.95825195,0,20,51,0,-20
1.2,100,100,60,moving_belt,blue,FALSE,TRUE,joint 1 -,FALSE,40:11.2,16.918,0.161,235,292.822052,106.5785141,84.95825195,0,20,51,0,-20
1.2,100,100,60,moving_belt,blue,FALSE,TRUE,joint 1 -,FALSE,40:12.7,16.253,0.161,235,292.822052,106.5785141,84.95825195,0,20,51,0,-20
1.2,100,100,60,moving_belt,blue,FALSE,TRUE,joint 1 -,FALSE,40:13.5,16.253,0.161,235,292.822052,106.5785141,84.95825195,0,20,51,0,-20
1.2,100,100,60,go_to_pick_down,blue,TRUE,FALSE,joint 3 +,FALSE,40:14.3,16.329,0.161,235,283.1992188,103.0760956,31.05266953,0,20,51,22.26659393,-20
1.2,100,100,60,go_to_pick_up_from_pick_down,blue,TRUE,FALSE,joint 3 -,TRUE,40:15.1,16.709,0.161,235,290.7278137,105.8162766,59.45807266,0,20,51,9.115602493,-20
1.2,100,100,60,go_to_color_detect_up,blue,TRUE,FALSE,joint 1 +,TRUE,40:16.6,16.709,0.171,235,269.5393372,156.3722229,84.95825195,10.12000084,31.04000092,51,0,-20
1.2,100,100,60,go_to_color_detect_up,blue,TRUE,FALSE,joint 3 +,TRUE,40:17.4,22.5,0.171,235,131.6940765,282.4188232,84.95825195,45,65,51,0.039999999,-20
1.2,100,100,60,go_to_color_detect_up,blue,TRUE,FALSE,joint 3 +,TRUE,40:18.8,22.083,0.214,235,114.2000122,244.90271,-17.29862976,45,65,51,45.1495018,-20
1.2,100,100,60,go_to_color_detect_up,blue,TRUE,FALSE,joint 3 -,FALSE,40:19.6,22.083,0.214,235,112.7247543,241.7390137,-20.78470612,45,65,51,44.95999908,-20
1.2,100,100,60,go_to_color_detect_up,blue,TRUE,FALSE,joint 3 -,FALSE,40:20.5,22.215,0.205,235,131.6935883,282.4178162,84.38366699,45,65,51,0.111496218,-20
1.2,100,100,60,detecting_color,blue,FALSE,FALSE,detecting_color,FALSE,40:21.2,17.848,0.205,235,131.6940765,282.4188232,84.95825195,45,65,51,0,-20
1.2,100,100,60,go_to_color_detect_down,blue,TRUE,FALSE,joint 3 +,FALSE,40:22.7,16.747,0.163,235,131.4142609,281.8187866,71.02216339,45,65,51,6.119999886,-20
1.2,100,100,60,go_to_color_detect_down,blue,TRUE,FALSE,joint 3 +,FALSE,40:23.6,16.557,0.163,235,104.3414078,223.7608643,-36.85847473,45,65,51,56.43637466,-20
1.2,100,100,60,go_to_color_detect_up,blue,TRUE,FALSE,joint 3 -,TRUE,40:24.3,16.557,0.165,235,122.8875122,263.5331116,9.511726379,45,65,51,29.3599968,-20
1.2,100,100,60,go_to_red_up,red,TRUE,FALSE,joint 1 +,TRUE,40:25.8,23.735,0.165,235,127.539566,284.3191528,84.95825195,45.84000397,66.12000275,51,0,-20
1.2,100,100,60,go_to_red_up,red,TRUE,FALSE,joint 1 +,TRUE,40:26.6,22.747,0.211,235,-128.997818,283.6605225,84.95825195,94.45420074,115.3525848,51,0,-20
1.2,100,100,60,go_to_pick_up_from_red,red,TRUE,FALSE,joint 1 -,FALSE,40:27.4,22.918,0.211,235,-100.2167587,295.059906,84.95825195,88.75999451,107.5999908,51,0,-20
1.2,100,100,60,go_to_pick_up_from_red,red,TRUE,FALSE,joint 1 -,FALSE,40:28.1,19.424,0.211,235,249.4545441,186.7516174,84.95825195,16.81999207,35.67999268,51,0,-20
1.2,100,100,60,moving_belt,red,FALSE,TRUE,joint 1 -,FALSE,40:29.8,17.013,0.163,235,292.822052,106.5785141,84.95825195,0,20,51,0,-20
1.2,100,100,60,moving_belt,red,FALSE,TRUE,joint 1 -,FALSE,40:30.5,16.823,0.163,235,292.822052,106.5785141,84.95825195,0,20,51,0,-20
1.2,100,100,60,moving_belt,red,FALSE,TRUE,joint 1 -,FALSE,40:31.4,16.823,0.163,235,292.822052,106.5785141,84.95825195,0,20,51,0,-20
1.2,100,100,60,moving_belt,red,FALSE,TRUE,joint 1 -,FALSE,40:32.2,16.481,0.163,235,292.822052,106.5785141,84.95825195,0,20,51,0,-20
1.2,100,100,60,go_to_pick_down,red,TRUE,FALSE,joint 3 +,FALSE,40:33.8,16.557,0.162,235,292.822052,106.5785141,84.95825195,0,20,51,0,-20
1.2,100,100,60,go_to_pick_down,red,TRUE,FALSE,joint 3 +,FALSE,40:34.6,16.519,0.162,235,277.094696,100.8542252,16.8372345,0,20,51,27.92132187,-20
1.2,100,100,60,go_to_pick_up_from_pick_down,red,TRUE,FALSE,joint 3 -,TRUE,40:35.3,16.747,0.163,235,292.2213745,106.3598862,71.26412201,0,20,51,4.711206436,-20
1.2,100,100,60,go_to_color_detect_up,red,TRUE,FALSE,joint 1 +,TRUE,40:36.2,23.526,0.163,235,225.0492859,215.537796,84.95825195,23.76327896,45.04656219,51,0,-20
1.2,100,100,60,go_to_color_detect_up,red,TRUE,FALSE,joint 3 +,TRUE,40:37.7,22.462,0.213,235,131.6019897,282.221344,76.95742798,45,65,51,3.640000105,-20
1.2,100,100,60,go_to_color_detect_up,red,TRUE,FALSE,joint 3 +,TRUE,40:38.6,22.272,0.213,235,105.8158569,226.922821,-34.4278183,45,65,51,54.89899826,-20
1.2,100,100,60,go_to_color_detect_up,red,TRUE,FALSE,joint 3 -,FALSE,40:39.4,22.272,0.21,235,117.7399292,252.4940796,-7.870498657,45,65,51,37.87999725,-20
1.2,100,100,60,detecting_color,red,FALSE,FALSE,detecting_color,FALSE,40:40.2,19.899,0.21,235,131.6940765,282.4188232,84.95825195,45,65,51,0,-20
1.2,100,100,60,detecting_color,red,FALSE,FALSE,detecting_color,FALSE,40:41.8,17.487,0.163,235,131.6940765,282.4188232,84.95825195,45,65,51,0,-20
1.2,100,100,60,go_to_color_detect_down,red,TRUE,FALSE,joint 3 +,FALSE,40:42.7,16.671,0.163,235,130.7275391,280.3460999,59.12882614,45,65,51,11.03999996,-20
1.2,100,100,60,go_to_color_detect_down,red,TRUE,FALSE,joint 3 +,TRUE,40:43.4,16.69,0.163,235,101.5719833,217.8218079,-41.03664398,45,65,51,59,-20
1.2,100,100,60,go_to_color_detect_up,red,TRUE,FALSE,joint 3 -,TRUE,40:44.1,16.69,0.162,235,128.0897522,274.6893311,35.61596298,45,65,51,18.38032913,-20
1.2,100,100,60,go_to_green_up,green,TRUE,FALSE,joint 1 +,TRUE,40:45.7,23.697,0.218,235,104.3266754,293.6318665,84.95825195,50.44000244,71.12000275,51,0,-20
1.2,100,100,60,go_to_pick_up_from_green,green,TRUE,FALSE,joint 1 -,FALSE,40:46.6,22.462,0.218,235,-80.65180969,300.9967041,84.95825195,85,105,51,0,-20
1.2,100,100,60,go_to_pick_up_from_green,green,TRUE,FALSE,joint 1 -,FALSE,40:47.3,22.367,0.218,235,193.9290161,243.9165192,84.95825195,31.51308441,49.94526672,51,0,-20
