demetriskallis/dobot_magician_pick_and_place_and_color_sorting/Sampling/OLD_DATA/sampling_joint_movement_extra/joint_measurements__6_experiments.csv
cube/weight,arm/velocity_ratio,arm/acceleration_ratio,belt/speed,dobot/operation,dobot/color,dobot/moving_arm,dobot/moving_belt,dobot/operation2,dobot/suction,meross/sample_timestamp,meross/power,meross/current,meross/voltage,dobot/pose_x,dobot/pose_y,dobot/pose_z,dobot/pose_rHead,dobot/pose_joint1Angle,dobot/pose_joint2Angle,dobot/pose_joint3Angle,dobot/pose_joint4Angle
1.2,50,50,60,homing,,,,homing,,,,,,85.75179291,170.1721649,61.03849792,43.25592041,62.85591888,1.607817173,30.18395805,-20
1.2,50,50,60,homing,,,,homing,,,,,,142.3747406,126.654541,61.03849792,21.65583801,41.25583649,1.607817173,30.18395805,-20
1.2,50,50,60,homing,,,,homing,,,,,,175.5953827,74.01486206,61.03849792,2.855810165,22.45581055,1.607817173,30.18395805,-20
1.2,50,50,60,homing,,,,homing,,,,,,190.1691437,12.15045547,61.03849792,-16.34417725,3.255823135,1.607817173,30.18395805,-20
1.2,50,50,60,homing,,,,homing,,,,,,181.2876892,-58.70870209,61.03849792,-37.94416809,-18.34416962,1.607817173,30.18395805,-20
1.2,50,50,60,homing,,,,homing,,,,,,151.0894775,-116.1202316,61.03849792,-57.54417801,-37.94417953,1.607817173,30.18395805,-20
1.2,50,50,60,homing,,,,homing,,,,,,104.4970474,-159.3496246,61.03849792,-76.74424744,-57.14425278,1.607817173,30.18395805,-20
1.2,50,50,60,homing,,,,homing,,51:11.9,16.69,0.162,235,38.4981308,-186.627533,61.03849792,-98.34432983,-78.74433136,1.607817173,30.18395805,-20
1.2,50,50,60,homing,,,,homing,,51:13.6,16.728,0.163,235,-26.33729172,-188.7280731,61.03849792,-117.9444046,-98.34440613,1.607817173,30.18395805,-20
1.2,50,50,60,homing,,,,homing,,51:14.7,16.728,0.163,235,-86.93888855,-169.5687714,61.03849792,-137.1444702,-117.5444794,1.607817173,30.18395805,-20
1.2,50,50,60,homing,,,,homing,,51:15.4,16.69,0.162,235,-137.8683472,-131.5456543,61.03849792,-156.3443909,-136.3243866,1.607817173,30.18395805,-20
1.2,50,50,60,homing,,,,homing,,51:16.1,16.766,0.162,235,-135.3638763,-134.1214294,61.03849792,-155.2641602,-135.2441559,1.607817173,30.18395805,-20
1.2,50,50,60,homing,,,,homing,,51:17.6,16.728,0.162,235,-112.8742523,-157.1221619,59.53822327,-144.8683167,-125.2129059,3.259489059,30.82383537,-19.13311768
1.2,50,50,60,homing,,,,homing,,51:18.3,16.785,0.162,236.8,-26.89372635,-202.8287964,52.7888031,-113.5061111,-96.95297241,9.495558739,33.2397728,-15.86010933
1.2,50,50,60,homing,,,,homing,,51:19.8,17.013,0.164,236.8,97.10240173,-204.0655365,34.48275757,-73.84553528,-63.95305634,22.27492142,38.19067764,-9.152844429
1.2,50,50,60,homing,,,,homing,,51:20.6,16.956,0.164,236.8,195.7653046,-140.9470673,15.19107819,-39.5353775,-35.15312958,32.67689896,42.22054291,-3.69335556
1.2,50,50,60,homing,,,,homing,,51:21.3,16.956,0.164,236.8,246.3759308,-32.86618805,2.796142578,-8.267908096,-7.17725563,38.50875473,44.47988892,-0.632500172
1.2,50,50,60,homing,,,,homing,,51:22.7,17.07,0.164,236.8,250.0005951,-0.0002488,-0.000534058,-5.70E-05,-2.51E-07,39.71385956,44.94676971,0
1.2,50,50,60,homing,,,,homing,,51:23.5,16.614,0.164,236.8,249.9999847,0.00017966,-7.63E-06,4.12E-05,4.12E-05,39.71385956,44.94676971,0
1.2,50,50,60,homing,,,,homing,,51:24.2,16.443,0.16,236.8,249.9999847,0.00017966,-7.63E-06,4.12E-05,4.12E-05,39.71385956,44.94676971,0
1.2,50,50,60,homing,,,,homing,,51:25.5,16.481,0.16,235,249.9999847,0.00017966,-7.63E-06,4.12E-05,4.12E-05,39.71385956,44.94676971,0
1.2,50,50,60,homing,,,,homing,,51:26.3,16.481,0.161,235,249.9999847,0.00017966,-7.63E-06,4.12E-05,4.12E-05,39.71385956,44.94676971,0
1.2,50,50,60,homing,,,,homing,,51:27.9,16.519,0.161,235,249.9999847,0.00017966,-7.63E-06,4.12E-05,4.12E-05,39.71385956,44.94676971,0
1.2,50,50,60,homing,,,,homing,,51:28.6,16.519,0.161,235,249.9999847,0.00017966,-7.63E-06,4.12E-05,4.12E-05,39.71385956,44.94676971,0
1.2,50,50,60,homing,,,,homing,,51:29.4,16.652,0.161,235,249.9999847,0.00017966,-7.63E-06,4.12E-05,4.12E-05,39.71385956,44.94676971,0
1.2,50,50,60,homing,,,,homing,,51:30.2,16.652,0.161,235,249.9999847,0.00017966,-7.63E-06,4.12E-05,4.12E-05,39.71385956,44.94676971,0
1.2,50,50,60,homing,,,,homing,,51:31.7,16.614,0.161,236.8,249.9999847,0.00017966,-7.63E-06,4.12E-05,4.12E-05,39.71385956,44.94676971,0
1.2,50,50,60,homing,,,,homing,,51:32.4,16.614,0.161,236.8,249.9999847,0.00017966,-7.63E-06,4.12E-05,4.12E-05,39.71385956,44.94676971,0
1.2,50,50,60,homing,,,,homing,,51:33.2,16.329,0.16,236.8,249.9999847,0.00017966,-7.63E-06,4.12E-05,4.12E-05,39.71385956,44.94676971,0
1.2,50,50,60,homing,,,,homing,,51:33.9,16.576,0.16,235,252.2721252,9.145554543,5.744338989,4.12E-05,2.254858255,38.6967926,42.39680481,-2.254817009
1.2,50,50,60,homing,,,,homing,,51:35.9,16.804,0.162,236.8,268.6869812,76.93035889,48.54074097,4.10E-05,16.21495438,38.74956131,22.36102486,-16.21491241
1.2,50,50,60,go_to_pick_up_from_homing,nothing,,,go_to_pick_up_from_homing,,51:36.6,17.393,0.162,236.8,275.1657715,103.040657,65.14942169,4.20E-05,20.52733803,42.53079224,13.47708035,-20.52729607
1.2,50,50,60,go_to_pick_up_from_homing,nothing,,,go_to_pick_up_from_homing,,51:37.4,17.393,0.164,236.8,290.5266724,106.2543716,81.715065,9.54E-06,20.08084297,49.70167923,2.066022873,-20.08083344
1.2,50,50,60,moving_belt,nothing,FALSE,TRUE,go_to_pick_up_from_homing,,51:38.9,16.747,0.164,236.8,292.822052,106.5785141,84.95825195,0,20,51,0,-20
1.2,50,50,60,moving_belt,nothing,FALSE,TRUE,go_to_pick_up_from_homing,,51:39.6,16.747,0.166,236.8,292.822052,106.5785141,84.95825195,0,20,51,0,-20
1.2,50,50,60,moving_belt,nothing,FALSE,TRUE,go_to_pick_up_from_homing,,51:40.4,16.557,0.166,236.8,292.822052,106.5785141,84.95825195,0,20,51,0,-20
1.2,50,50,60,moving_belt,nothing,FALSE,TRUE,go_to_pick_up_from_homing,,51:41.7,16.785,0.162,236.8,292.822052,106.5785141,84.95825195,0,20,51,0,-20
1.2,50,50,60,go_to_pick_down,nothing,TRUE,FALSE,joint 3 +,,51:42.5,16.633,0.162,236.8,292.8204041,106.577919,84.23987579,0,20,51,0.359999925,-20
1.2,50,50,60,go_to_pick_down,nothing,TRUE,FALSE,joint 3 +,,51:43.2,16.633,0.162,236.8,287.9579773,104.808136,46.29266739,0,20,51,15.74999809,-20
1.2,50,50,60,go_to_pick_down,nothing,TRUE,FALSE,joint 3 +,,51:44.8,16.576,0.162,236.8,275.6193848,100.3172531,13.9157486,0,20,51,28.93999672,-20
1.2,50,50,60,go_to_pick_up_from_pick_down,nothing,TRUE,FALSE,joint 3 -,TRUE,51:45.5,16.576,0.162,236.8,285.2175903,103.8107147,36.8572197,0,20,51,18.64999962,-20
1.2,50,50,60,go_to_pick_up_from_pick_down,nothing,TRUE,FALSE,joint 3 -,TRUE,51:46.2,23.355,0.219,236.8,292.7917786,106.5674896,81.87971497,0,20,51,1.05000186,-20
1.2,50,50,60,go_to_color_detect_up,nothing,TRUE,FALSE,joint 1 +,TRUE,51:47.8,22.747,0.212,236.8,283.2180481,129.9664459,84.95825195,4.650001526,24.96000099,51,0,-20
1.2,50,50,60,go_to_color_detect_up,nothing,TRUE,FALSE,joint 1 +,TRUE,51:48.5,22.747,0.212,236.8,199.2585907,239.5824432,84.95825195,30.25,50.75,51,0,-20
1.2,50,50,60,go_to_color_detect_up,nothing,TRUE,FALSE,joint 1 +,TRUE,51:49.2,22.69,0.212,236.8,132.7282715,281.9342651,84.95825195,44.79000092,64.84999847,51,0,-20
1.2,50,50,60,go_to_color_detect_up,nothing,TRUE,FALSE,joint 3 +,TRUE,51:50.6,22.709,0.212,236.8,131.1192932,281.1862183,65.00806427,45,65,51,8.199997902,-20
1.2,50,50,60,go_to_color_detect_up,nothing,TRUE,FALSE,joint 3 +,TRUE,51:51.4,22.424,0.212,236.8,120.9209824,259.3158569,2.22593689,45,65,51,34.74999619,-20
1.2,50,50,60,go_to_color_detect_up,nothing,TRUE,FALSE,joint 3 +,TRUE,51:52.2,22.538,0.21,236.8,104.7660446,224.6714935,-36.17375946,45,65,51,55.74999619,-20
1.2,50,50,60,go_to_color_detect_up,nothing,TRUE,FALSE,joint 3 -,FALSE,51:53.7,22.69,0.21,236.8,102.8207321,220.4997559,-39.21290588,45,65,51,57.47000122,-20
1.2,50,50,60,go_to_color_detect_up,nothing,TRUE,FALSE,joint 3 -,FALSE,51:54.6,22.69,0.181,236.8,119.6694641,256.6319885,-1.964271545,45,65,51,35.75,-20
1.2,50,50,60,go_to_color_detect_up,nothing,TRUE,FALSE,joint 3 -,FALSE,51:55.4,16.823,0.181,236.8,130.2795563,279.3854065,53.76813507,45,65,51,11.76000023,-20
1.2,50,50,60,detecting_color,nothing,FALSE,FALSE,detecting_color,FALSE,51:56.2,17.089,0.181,236.8,131.6940765,282.4188232,84.93260193,45,65,51,-1.25E-06,-20
1.2,50,50,60,detecting_color,nothing,FALSE,FALSE,detecting_color,FALSE,51:57.8,16.804,0.166,236.8,131.6940765,282.4188232,84.95825195,45,65,51,0,-20
1.2,50,50,60,go_to_color_detect_down,nothing,TRUE,FALSE,joint 3 +,FALSE,51:57.8,16.804,0.166,236.8,131.6599274,282.3455811,80.08444214,45,65,51,2.099999428,-20
1.2,50,50,60,go_to_color_detect_down,nothing,TRUE,FALSE,joint 3 +,FALSE,51:59.8,16.424,0.161,236.8,127.4700699,273.3604431,31.67986679,45,65,51,21.74999619,-20
1.2,50,50,60,go_to_color_detect_down,nothing,TRUE,FALSE,joint 3 +,FALSE,52:00.5,16.424,0.161,236.8,110.9855194,238.009201,-24.60961914,45,65,51,48.64999771,-20
1.2,50,50,60,go_to_color_detect_up,nothing,TRUE,FALSE,joint 3 -,TRUE,52:01.3,16.633,0.161,236.8,101.5658646,217.8086853,-41.04534149,45,65,51,59,-20
1.2,50,50,60,go_to_color_detect_up,nothing,TRUE,FALSE,joint 3 -,TRUE,52:02.8,16.69,0.219,236.8,110.6124268,237.2091064,-25.3928833,45,65,51,48.19000244,-20
1.2,50,50,60,go_to_color_detect_up,nothing,TRUE,FALSE,joint 3 -,TRUE,52:03.5,23.165,0.219,236.8,125.9874725,270.1809998,23.41526413,45,65,51,24.25,-20
1.2,50,50,60,go_to_color_detect_up,nothing,TRUE,FALSE,joint 3 -,TRUE,52:04.9,22.975,0.214,236.8,131.6599274,282.3455811,80.08444214,45,65,51,1.710000277,-20
1.2,50,50,60,go_to_red_up,red,TRUE,FALSE,joint 1 +,TRUE,52:05.7,22.69,0.214,236.8,115.471138,289.4307251,84.95825195,48.25,68.51000214,51,0,-20
1.2,50,50,60,go_to_red_up,red,TRUE,FALSE,joint 1 +,TRUE,52:06.4,22.69,0.214,236.8,1.359650016,311.6117554,84.95825195,69.75,90.25,51,0,-20
1.2,50,50,60,go_to_red_up,red,TRUE,FALSE,joint 1 +,TRUE,52:07.7,22.652,0.212,235,-138.5061493,279.1411438,84.95825195,96.38999939,116.8000031,51,0,-20
1.2,50,50,60,go_to_pick_up_from_red,red,TRUE,FALSE,joint 1 -,FALSE,52:08.4,22.69,0.212,235,-178.6012115,255.3533478,84.95825195,104.9700012,124.9400024,51,0,-20
1.2,50,50,60,go_to_pick_up_from_red,red,TRUE,FALSE,joint 1 -,FALSE,52:09.9,21.608,0.212,235,-117.9924774,288.4120483,84.95825195,92.25,111.75,51,0,-20
1.2,50,50,60,go_to_pick_up_from_red,red,TRUE,FALSE,joint 1 -,FALSE,52:10.6,16.519,0.212,235,25.80424309,310.5444946,84.95825195,65.25,84.75,51,0,-20
1.2,50,50,60,go_to_pick_up_from_red,red,TRUE,FALSE,joint 1 -,FALSE,52:11.3,16.519,0.161,235,149.8831635,273.2009583,84.95825195,41.25,60.75,51,0,-20
1.2,50,50,60,go_to_pick_up_from_red,red,TRUE,FALSE,joint 1 -,FALSE,52:12.8,16.633,0.161,235,248.045929,188.618515,84.95825195,17.25,36.75,51,0,-20
1.2,50,50,60,go_to_pick_up_from_red,red,TRUE,FALSE,joint 1 -,FALSE,52:13.4,16.709,0.161,235,292.6355591,107.0894623,84.95825195,0.100008011,20.060009,51,0,-20
1.2,50,50,60,moving_belt,red,FALSE,TRUE,joint 1 -,FALSE,52:14.9,16.766,0.161,236.8,292.822052,106.5785141,84.95825195,0,20,51,0,-20
1.2,50,50,60,moving_belt,red,FALSE,TRUE,joint 1 -,FALSE,52:15.6,16.785,0.161,236.8,292.822052,106.5785141,84.95825195,0,20,51,0,-20
1.2,50,50,60,moving_belt,red,FALSE,TRUE,joint 1 -,FALSE,52:16.4,16.785,0.161,236.8,292.822052,106.5785141,84.95825195,0,20,51,0,-20
1.2,50,50,60,moving_belt,red,FALSE,TRUE,joint 1 -,FALSE,52:17.2,16.633,0.161,235,292.822052,106.5785141,84.95825195,0,20,51,0,-20
1.2,50,50,60,go_to_pick_down,red,TRUE,FALSE,joint 3 +,FALSE,52:18.7,16.595,0.16,236.8,292.7727966,106.5605927,81.03330231,0,20,51,1.709999681,-20
1.2,50,50,60,go_to_pick_down,red,TRUE,FALSE,joint 3 +,FALSE,52:19.8,16.614,0.16,236.8,284.5162354,103.5554428,34.75363159,0,20,51,20.38999748,-20
1.2,50,50,60,go_to_pick_up_from_pick_down,red,TRUE,FALSE,joint 3 -,TRUE,52:20.5,16.728,0.161,236.8,275.8284912,100.393364,14.32039642,0,20,51,28.63999939,-20
1.2,50,50,60,go_to_pick_up_from_pick_down,red,TRUE,FALSE,joint 3 -,TRUE,52:21.9,18.855,0.161,235,288.8634033,105.1376801,50.01841736,0,20,51,13.25000191,-20
1.2,50,50,60,go_to_pick_up_from_pick_down,red,TRUE,FALSE,joint 3 -,TRUE,52:22.6,22.975,0.216,235,292.8218384,106.5784378,84.70168304,0,20,51,0.060001068,-20
1.2,50,50,60,go_to_color_detect_up,red,TRUE,FALSE,joint 1 +,TRUE,52:23.3,22.88,0.216,236.8,274.6271057,147.2537842,84.95825195,8.200000763,28.61000061,51,0,-20
1.2,50,50,60,go_to_color_detect_up,red,TRUE,FALSE,joint 1 +,TRUE,52:24.7,22.804,0.21,236.8,178.2890625,255.5714111,84.95825195,35.10000229,55.54000092,51,0,-20
1.2,50,50,60,go_to_color_detect_up,red,TRUE,FALSE,joint 3 +,TRUE,52:25.4,22.804,0.21,236.8,131.6940765,282.4188232,84.9325943,45,65,51,0.02999999,-20
1.2,50,50,60,go_to_color_detect_up,red,TRUE,FALSE,joint 3 +,TRUE,52:26.2,22.633,0.21,236.8,130.0402679,278.8722229,51.26580048,45,65,51,13.74999714,-20
1.2,50,50,60,go_to_color_detect_up,red,TRUE,FALSE,joint 3 +,TRUE,52:27.9,22.386,0.209,236.8,118.6906891,254.5330048,-5.03768158,45,65,51,38.24999619,-20
1.2,50,50,60,go_to_color_detect_up,red,TRUE,FALSE,joint 3 +,TRUE,52:28.7,22.481,0.209,236.8,102.4075699,219.6137238,-39.82701111,45,65,51,58.21999741,-20
1.2,50,50,60,go_to_color_detect_up,red,TRUE,FALSE,joint 3 -,FALSE,52:29.4,22.557,0.209,236.8,106.6182861,228.643631,-33.0406189,45,65,51,53.04999924,-20
1.2,50,50,60,go_to_color_detect_up,red,TRUE,FALSE,joint 3 -,FALSE,52:30.9,16.899,0.163,236.8,123.2348709,264.2780151,10.9034729,45,65,51,29.75,-20
1.2,50,50,60,go_to_color_detect_up,red,TRUE,FALSE,joint 3 -,FALSE,52:31.7,17.108,0.163,236.8,131.2270355,281.4172668,66.9670639,45,65,51,6.660000801,-20
1.2,50,50,60,detecting_color,red,FALSE,FALSE,detecting_color,FALSE,52:32.5,17.108,0.163,236.8,131.6940765,282.4188232,84.95825195,45,65,51,0,-20
1.2,50,50,60,detecting_color,red,FALSE,FALSE,detecting_color,FALSE,52:33.2,17.089,0.164,236.8,131.6940765,282.4188232,84.95825195,45,65,51,0,-20
1.2,50,50,60,go_to_color_detect_down,red,TRUE,FALSE,joint 3 +,FALSE,52:34.8,16.728,0.164,236.8,131.0589294,281.0567627,63.99180222,45,65,51,8.609997749,-20
1.2,50,50,60,go_to_color_detect_down,red,TRUE,FALSE,joint 3 +,FALSE,52:35.4,16.652,0.161,236.8,122.3972168,262.4816589,7.604812622,45,65,51,32.24999619,-20
1.2,50,50,60,go_to_color_detect_down,red,TRUE,FALSE,joint 3 +,FALSE,52:36.6,16.747,0.161,236.8,106.0501785,227.4253235,-34.02753448,45,65,51,54.34999847,-20
1.2,50,50,60,go_to_color_detect_up,red,TRUE,FALSE,joint 3 -,TRUE,52:37.4,16.747,0.162,236.8,103.3138275,221.5572052,-38.46586609,45,65,51,56.90000153,-20
1.2,50,50,60,go_to_color_detect_up,red,TRUE,FALSE,joint 3 -,TRUE,52:38.3,16.804,0.162,236.8,119.0207214,255.2407532,-4.019966125,45,65,51,36.75,-20
1.2,50,50,60,go_to_color_detect_up,red,TRUE,FALSE,joint 3 -,TRUE,52:39.3,23.45,0.162,236.8,130.1622162,279.1337585,52.515728,45,65,51,12.25,-20
1.2,50,50,60,go_to_green_up,green,TRUE,FALSE,joint 1 +,TRUE,52:40.8,22.918,0.213,236.8,131.6940765,282.4188232,84.88128662,45,65,51,0.00999886,-20
1.2,50,50,60,go_to_green_up,green,TRUE,FALSE,joint 1 +,TRUE,52:41.6,22.557,0.21,236.8,71.36923218,303.3317871,84.95825195,56.76000214,77.25,51,0,-20
1.2,50,50,60,go_to_green_up,green,TRUE,FALSE,joint 1 +,TRUE,52:42.4,22.633,0.21,236.8,-50.84109497,307.4393005,84.95825195,79.38999939,99.72000122,51,0,-20
1.2,50,50,60,go_to_pick_up_from_green,green,TRUE,FALSE,joint 1 -,FALSE,52:43.2,22.519,0.21,236.8,-76.54686737,302.0667419,84.95825195,84.22000122,104.090004,51,0,-20
1.2,50,50,60,go_to_pick_up_from_green,green,TRUE,FALSE,joint 1 -,FALSE,52:44.3,22.538,0.211,236.8,31.22006989,310.0468445,84.95825195,64.25,83.75,51,0,-20
1.2,50,50,60,go_to_pick_up_from_green,green,TRUE,FALSE,joint 1 -,FALSE,52:45.2,16.709,0.211,236.8,154.6283569,270.5435181,84.95825195,40.25,59.75,51,0,-20
1.2,50,50,60,go_to_pick_up_from_green,green,TRUE,FALSE,joint 1 -,FALSE,52:46.7,16.709,0.162,236.8,251.2999878,184.260788,84.95825195,16.25,35.75,51,0,-20
1.2,50,50,60,go_to_pick_up_from_green,green,TRUE,FALSE,joint 1 -,FALSE,52:47.6,16.728,0.162,236.8,292.1466064,108.4162598,84.95825195,0.36000061,20.28000069,51,0,-20
1.2,50,50,60,moving_belt,green,FALSE,TRUE,joint 1 -,FALSE,52:48.4,16.728,0.162,236.8,292.822052,106.5785141,84.95825195,0,20,51,0,-20
1.2,50,50,60,moving_belt,green,FALSE,TRUE,joint 1 -,FALSE,52:49.8,16.69,0.162,236.8,292.822052,106.5785141,84.95825195,0,20,51,0,-20
1.2,50,50,60,moving_belt,green,FALSE,TRUE,joint 1 -,FALSE,52:50.6,16.69,0.16,236.8,292.822052,106.5785141,84.95825195,0,20,51,0,-20
1.2,50,50,60,moving_belt,green,FALSE,TRUE,joint 1 -,FALSE,52:51.3,16.538,0.16,236.8,292.822052,106.5785141,84.95825195,0,20,51,0,-20
1.2,50,50,60,go_to_pick_down,green,TRUE,FALSE,joint 3 +,FALSE,52:52.8,16.5,0.161,236.8,292.7988586,106.5700684,82.26448822,0,20,51,1.199999809,-20
1.2,50,50,60,go_to_pick_down,green,TRUE,FALSE,joint 3 +,FALSE,52:53.5,16.671,0.161,236.8,283.1306152,103.0511169,30.86780167,0,20,51,21.9699955,-20
1.2,50,50,60,go_to_pick_up_from_pick_down,green,TRUE,FALSE,joint 3 -,TRUE,52:54.3,16.671,0.161,236.8,275.7473145,100.3638153,14.16294098,0,20,51,28.71999931,-20
1.2,50,50,60,go_to_pick_up_from_pick_down,green,TRUE,FALSE,joint 3 -,TRUE,52:55.8,23.431,0.162,236.8,288.8634033,105.1376801,50.01841736,0,20,51,13.25000191,-20
1.2,50,50,60,go_to_pick_up_from_pick_down,green,TRUE,FALSE,joint 3 -,TRUE,52:56.6,22.975,0.213,236.8,292.8218384,106.5784378,84.70168304,0,20,51,0.060001068,-20
1.2,50,50,60,go_to_color_detect_up,green,TRUE,FALSE,joint 1 +,TRUE,52:57.3,22.69,0.213,236.8,267.6366577,159.6068268,84.95825195,10.81000137,31.28000069,51,0,-20
1.2,50,50,60,go_to_color_detect_up,green,TRUE,FALSE,joint 1 +,TRUE,52:58.9,22.538,0.211,236.8,178.2890625,255.5714111,84.95825195,35.10000229,55.54000092,51,0,-20
1.2,50,50,60,go_to_color_detect_up,green,TRUE,FALSE,joint 3 +,TRUE,52:59.6,22.709,0.211,236.8,131.6940765,282.4188232,84.9325943,45,65,51,0.02999999,-20
1.2,50,50,60,go_to_color_detect_up,green,TRUE,FALSE,joint 3 +,TRUE,53:00.9,22.5,0.209,236.8,129.6468048,278.0284729,47.53177261,45,65,51,15.24999714,-20
1.2,50,50,60,go_to_color_detect_up,green,TRUE,FALSE,joint 3 +,TRUE,53:01.6,22.462,0.209,236.8,117.6782455,252.3617859,-8.049423218,45,65,51,39.74999619,-20
1.2,50,50,60,go_to_color_detect_up,green,TRUE,FALSE,joint 3 +,TRUE,53:02.3,22.462,0.209,236.8,102.6740646,220.1852264,-39.43213654,45,65,51,57.94999695,-20
1.2,50,50,60,go_to_color_detect_up,green,TRUE,FALSE,joint 3 -,FALSE,53:03.7,22.462,0.21,236.8,105.5127487,226.2728119,-34.93980408,45,65,51,54.35000229,-20
1.2,50,50,60,go_to_color_detect_up,green,TRUE,FALSE,joint 3 -,FALSE,53:04.4,22.462,0.21,236.8,123.5059357,264.859314,12.01441956,45,65,51,29.25,-20
1.2,50,50,60,go_to_color_detect_up,green,TRUE,FALSE,joint 3 -,FALSE,53:05.9,17.241,0.166,236.8,131.2748413,281.5198059,67.90957642,45,65,51,6.300000668,-20
1.2,50,50,60,detecting_color,green,FALSE,FALSE,detecting_color,FALSE,53:06.7,17.241,0.166,236.8,131.6940765,282.4188232,84.95825195,45,65,51,0,-20
1.2,50,50,60,detecting_color,green,FALSE,FALSE,detecting_color,FALSE,53:07.4,16.842,0.163,236.8,131.6940765,282.4188232,84.95825195,45,65,51,0,-20
1.2,50,50,60,go_to_color_detect_down,green,TRUE,FALSE,joint 3 +,FALSE,53:08.8,16.899,0.163,236.8,131.6523438,282.3293457,79.57162476,45,65,51,2.309999466,-20
1.2,50,50,60,go_to_color_detect_down,green,TRUE,FALSE,joint 3 +,FALSE,53:09.6,16.861,0.162,236.8,126.860817,272.053894,28.11175156,45,65,51,23.24999619,-20
1.2,50,50,60,go_to_color_detect_down,green,TRUE,FALSE,joint 3 +,FALSE,53:10.4,16.861,0.162,236.8,112.5293655,241.3199768,-21.22924805,45,65,51,46.74999619,-20
1.2,50,50,60,go_to_color_detect_up,green,TRUE,FALSE,joint 3 -,TRUE,53:11.2,16.88,0.162,236.8,101.5658646,217.8086853,-41.04534149,45,65,51,58.99000168,-20
1.2,50,50,60,go_to_color_detect_up,green,TRUE,FALSE,joint 3 -,TRUE,53:12.1,16.842,0.162,236.8,111.7475662,239.6434174,-22.96974945,45,65,51,46.75,-20
1.2,50,50,60,go_to_color_detect_up,green,TRUE,FALSE,joint 3 -,TRUE,53:13.8,22.937,0.213,236.8,126.6489868,271.5996094,26.93090439,45,65,51,22.75,-20
1.2,50,50,60,go_to_color_detect_up,green,TRUE,FALSE,joint 3 -,TRUE,53:14.5,22.937,0.213,236.8,131.6719208,282.3713379,81.03329468,45,65,51,1.360000134,-20
1.2,50,50,60,go_to_blue_up,blue,TRUE,FALSE,joint 1 +,TRUE,53:15.4,22.956,0.213,236.8,112.7889557,290.4864502,84.95825195,48.77999878,69.05999756,51,0,-20
1.2,50,50,60,go_to_blue_up,blue,TRUE,FALSE,joint 1 +,TRUE,53:17.0,22.595,0.211,236.8,32.42522049,309.9231262,84.95825195,64.02724457,84.1616745,51,0,-20
1.2,50,50,60,go_to_pick_up_from_blue,blue,TRUE,FALSE,joint 1 -,FALSE,53:17.8,22.557,0.189,236.8,66.96777344,304.3338013,84.95825195,57.59000397,77.20000458,51,0,-20
1.2,50,50,60,go_to_pick_up_from_blue,blue,TRUE,FALSE,joint 1 -,FALSE,53:18.6,16.918,0.189,236.8,182.060791,252.8983917,84.95825195,34.25,53.75,51,0,-20
1.2,50,50,60,go_to_pick_up_from_blue,blue,TRUE,FALSE,joint 1 -,FALSE,53:19.4,16.918,0.189,236.8,268.9094238,157.4529724,84.95825195,10.35000229,29.90000153,51,0,-20
1.2,50,50,60,moving_belt,blue,FALSE,TRUE,joint 1 -,FALSE,53:20.9,16.804,0.163,236.8,292.822052,106.5785141,84.95825195,0,20,51,0,-20
1.2,50,50,60,moving_belt,blue,FALSE,TRUE,joint 1 -,FALSE,53:21.6,16.804,0.163,236.8,292.822052,106.5785141,84.95825195,0,20,51,0,-20
1.2,50,50,60,moving_belt,blue,FALSE,TRUE,joint 1 -,FALSE,53:22.3,16.785,0.159,236.8,292.822052,106.5785141,84.95825195,0,20,51,0,-20
1.2,50,50,60,moving_belt,blue,FALSE,TRUE,joint 1 -,FALSE,53:23.9,16.671,0.159,236.8,292.822052,106.5785141,84.95825195,0,20,51,0,-20
1.2,50,50,60,moving_belt,blue,FALSE,TRUE,joint 1 -,FALSE,53:24.6,16.519,0.161,236.8,292.822052,106.5785141,84.95825195,0,20,51,0,-20
1.2,50,50,60,go_to_pick_down,blue,TRUE,FALSE,joint 3 +,FALSE,53:25.3,16.519,0.161,236.8,292.2359314,106.3651886,71.43087006,0,20,51,5.609998703,-20
1.2,50,50,60,go_to_pick_down,blue,TRUE,FALSE,joint 3 +,FALSE,53:26.8,16.747,0.161,236.8,279.6548157,101.7860336,22.32227325,0,20,51,25.48999786,-20
1.2,50,50,60,go_to_pick_up_from_pick_down,blue,TRUE,FALSE,joint 3 -,TRUE,53:27.5,16.747,0.161,236.8,277.2476807,100.9099121,17.14949036,0,20,51,27.28999901,-20
1.2,50,50,60,go_to_pick_up_from_pick_down,blue,TRUE,FALSE,joint 3 -,TRUE,53:28.9,23.07,0.216,236.8,291.2653198,106.0119095,62.9511795,0,20,51,8.20000267,-20
1.2,50,50,60,go_to_color_detect_up,blue,TRUE,FALSE,joint 1 +,TRUE,53:29.6,22.538,0.216,236.8,292.1466064,108.4162598,84.95825195,0.36000061,20.45000076,51,0,-20
1.2,50,50,60,go_to_color_detect_up,blue,TRUE,FALSE,joint 1 +,TRUE,53:30.4,22.538,0.216,236.8,252.8983765,182.060791,84.95825195,15.75,36.25,51,0,-20
1.2,50,50,60,go_to_color_detect_up,blue,TRUE,FALSE,joint 1 +,TRUE,53:31.9,22.614,0.21,236.8,152.7358398,271.6164246,84.95825195,40.65000153,60.94000244,51,0,-20
1.2,50,50,60,go_to_color_detect_up,blue,TRUE,FALSE,joint 3 +,TRUE,53:32.6,22.481,0.21,236.8,131.6765747,282.3812866,81.46931458,45,65,51,1.529999614,-20
1.2,50,50,60,go_to_color_detect_up,blue,TRUE,FALSE,joint 3 +,TRUE,53:33.4,22.291,0.21,236.8,127.8542175,274.1842346,34.07904816,45,65,51,20.74999619,-20
1.2,50,50,60,go_to_color_detect_up,blue,TRUE,FALSE,joint 3 +,TRUE,53:35.0,22.329,0.209,235,114.0693665,244.6225281,-17.61693573,45,65,51,44.74999619,-20
1.2,50,50,60,go_to_color_detect_up,blue,TRUE,FALSE,joint 3 +,TRUE,53:35.7,22.253,0.209,236.8,101.5658646,217.8086853,-41.04533386,45,65,51,59,-20
1.2,50,50,60,go_to_color_detect_up,blue,TRUE,FALSE,joint 3 -,FALSE,53:36.4,22.31,0.209,236.8,110.2448807,236.4208984,-26.15221405,45,65,51,48.65000153,-20
1.2,50,50,60,go_to_color_detect_up,blue,TRUE,FALSE,joint 3 -,FALSE,53:37.9,16.842,0.163,236.8,125.7583694,269.6896667,22.2526474,45,65,51,24.75,-20
1.2,50,50,60,go_to_color_detect_up,blue,TRUE,FALSE,joint 3 -,FALSE,53:38.6,17.013,0.163,236.8,131.5589142,282.1289978,75.26718903,45,65,51,3.510000467,-20
1.2,50,50,60,detecting_color,blue,FALSE,FALSE,detecting_color,FALSE,53:39.4,17.108,0.165,236.8,131.6940765,282.4188232,84.95825195,45,65,51,0,-20
1.2,50,50,60,go_to_color_detect_down,blue,TRUE,FALSE,joint 3 +,FALSE,53:40.9,16.633,0.165,235,131.6940765,282.4188232,84.95825195,45,65,51,0.009999997,-20
1.2,50,50,60,go_to_color_detect_down,blue,TRUE,FALSE,joint 3 +,FALSE,53:41.6,16.633,0.161,235,130.3900604,279.6223755,54.99779892,45,65,51,12.24999714,-20
1.2,50,50,60,go_to_color_detect_down,blue,TRUE,FALSE,joint 3 +,FALSE,53:43.0,16.595,0.161,236.8,117.6782455,252.3617859,-8.049423218,45,65,51,39.74999619,-20
1.2,50,50,60,go_to_color_detect_down,blue,TRUE,FALSE,joint 3 +,FALSE,53:43.7,16.595,0.162,236.8,102.6740646,220.1852264,-39.43213654,45,65,51,57.94999695,-20
1.2,50,50,60,go_to_color_detect_up,blue,TRUE,FALSE,joint 3 -,TRUE,53:44.4,16.652,0.162,235,105.0068817,225.187973,-35.77996063,45,65,51,54.94000244,-20
1.2,50,50,60,go_to_color_detect_up,blue,TRUE,FALSE,joint 3 -,TRUE,53:45.9,23.317,0.212,235,123.2348709,264.2780151,10.9034729,45,65,51,29.75,-20
1.2,50,50,60,go_to_color_detect_up,blue,TRUE,FALSE,joint 3 -,TRUE,53:46.6,22.747,0.212,235,131.2270355,281.4172668,66.9670639,45,65,51,6.660000801,-20
1.2,50,50,60,go_to_red_up,red,TRUE,FALSE,joint 1 +,TRUE,53:47.4,22.823,0.212,235,130.3123322,283.0590515,84.95825195,45.27999878,65.36000061,51,0,-20
1.2,50,50,60,go_to_red_up,red,TRUE,FALSE,joint 1 +,TRUE,53:48.2,22.481,0.212,235,50.08974838,307.5625916,84.95825195,60.75,81.25,51,0,-20
1.2,50,50,60,go_to_red_up,red,TRUE,FALSE,joint 1 +,TRUE,53:49.7,22.462,0.212,236.8,-97.5864563,295.9402466,84.95825195,88.25,108.75,51,0,-20
1.2,50,50,60,go_to_red_up,red,TRUE,FALSE,joint 1 +,TRUE,53:50.5,22.462,0.21,236.8,-176.7246399,256.6556702,84.95825195,104.5500031,124.6399994,51,0,-20
1.2,50,50,60,go_to_pick_up_from_red,red,TRUE,FALSE,joint 1 -,FALSE,53:52.0,22.348,0.166,236.8,-149.6447144,273.3316345,84.95825195,98.70000458,118.340004,51,0,-20
1.2,50,50,60,go_to_pick_up_from_red,red,TRUE,FALSE,joint 1 -,FALSE,53:52.7,16.557,0.166,236.8,-28.51325226,310.3074646,84.95825195,75.25,94.75,51,0,-20
1.2,50,50,60,go_to_pick_up_from_red,red,TRUE,FALSE,joint 1 -,FALSE,53:53.5,16.557,0.166,236.8,100.1652451,295.0773621,84.95825195,51.25,70.75,51,0,-20
1.2,50,50,60,go_to_pick_up_from_red,red,TRUE,FALSE,joint 1 -,FALSE,53:54.2,16.747,0.162,236.8,225.0992432,215.4856415,84.95825195,23.75,43.25,51,0,-20
1.2,50,50,60,go_to_pick_up_from_red,red,TRUE,FALSE,joint 1 -,FALSE,53:55.9,16.766,0.162,236.8,286.3088379,123.0080261,84.95825195,3.250003815,23.00000381,51,0,-20
1.2,50,50,60,moving_belt,red,FALSE,TRUE,joint 1 -,FALSE,53:56.6,16.633,0.161,236.8,292.822052,106.5785141,84.95825195,0,20,51,0,-20
1.2,50,50,60,moving_belt,red,FALSE,TRUE,joint 1 -,FALSE,53:57.6,16.899,0.161,235,292.822052,106.5785141,84.95825195,0,20,51,0,-20
1.2,50,50,60,moving_belt,red,FALSE,TRUE,joint 1 -,FALSE,53:58.3,16.899,0.161,235,292.822052,106.5785141,84.95825195,0,20,51,0,-20
1.2,50,50,60,moving_belt,red,FALSE,TRUE,joint 1 -,FALSE,53:59.8,16.443,0.162,235,292.822052,106.5785141,84.95825195,0,20,51,0,-20
1.2,50,50,60,go_to_pick_down,red,TRUE,FALSE,joint 3 +,FALSE,54:00.6,16.443,0.162,235,292.822052,106.5785141,84.88128662,0,20,51,0.059999987,-20
1.2,50,50,60,go_to_pick_down,red,TRUE,FALSE,joint 3 +,FALSE,54:02.0,16.519,0.161,235,289.4159851,105.3388062,52.51573181,0,20,51,13.24999809,-20
1.2,50,50,60,go_to_pick_down,red,TRUE,FALSE,joint 3 +,FALSE,54:02.7,16.31,0.161,235,275.921051,100.4270554,14.50046539,0,20,51,28.71999741,-20
1.2,50,50,60,go_to_pick_up_from_pick_down,red,TRUE,FALSE,joint 3 -,TRUE,54:03.4,16.31,0.16,235,282.4542847,102.8049545,29.08325958,0,20,51,21.96999931,-20
1.2,50,50,60,go_to_pick_up_from_pick_down,red,TRUE,FALSE,joint 3 -,TRUE,54:04.9,22.766,0.16,235,292.7727966,106.5605927,81.03329468,0,20,51,1.360002041,-20
1.2,50,50,60,go_to_color_detect_up,red,TRUE,FALSE,joint 1 +,TRUE,54:05.6,22.329,0.211,235,285.158783,125.6511307,84.95825195,3.780000687,24.06000137,51,0,-20
1.2,50,50,60,go_to_color_detect_up,red,TRUE,FALSE,joint 1 +,TRUE,54:06.3,22.121,0.211,235,217.4417725,223.2102203,84.95825195,25.75,46.25,51,0,-20
1.2,50,50,60,go_to_color_detect_up,red,TRUE,FALSE,joint 1 +,TRUE,54:07.8,22.329,0.209,235,137.5796967,279.5989075,84.95825195,43.79999924,63.95000076,51,0,-20
1.2,50,50,60,go_to_color_detect_up,red,TRUE,FALSE,joint 3 +,TRUE,54:08.7,22.253,0.209,235,131.2270355,281.4172668,66.96707153,45,65,51,7.409998417,-20
1.2,50,50,60,go_to_color_detect_up,red,TRUE,FALSE,joint 3 +,TRUE,54:09.4,22.083,0.207,235,122.9597092,263.6879272,9.798164368,45,65,51,31.24999619,-20
1.2,50,50,60,go_to_color_detect_up,red,TRUE,FALSE,joint 3 +,TRUE,54:10.8,22.083,0.207,235,106.3304596,228.0263824,-33.54356384,45,65,51,54.0399971,-20
1.2,50,50,60,go_to_color_detect_up,red,TRUE,FALSE,joint 3 -,FALSE,54:11.6,22.083,0.207,235,102.0755539,218.9017181,-40.31277466,45,65,51,58.34000015,-20
1.2,50,50,60,go_to_color_detect_up,red,TRUE,FALSE,joint 3 -,FALSE,54:12.3,22.102,0.207,235,117.6782455,252.3617859,-8.049438477,45,65,51,38.75,-20
1.2,50,50,60,go_to_color_detect_up,red,TRUE,FALSE,joint 3 -,FALSE,54:13.9,16.595,0.163,235,129.5065002,277.7275696,46.29266357,45,65,51,14.75,-20
1.2,50,50,60,go_to_color_detect_up,red,TRUE,FALSE,joint 3 -,FALSE,54:14.6,16.88,0.163,235,131.6936646,282.4179382,84.41947174,45,65,51,0.149999127,-20
1.2,50,50,60,detecting_color,red,FALSE,FALSE,detecting_color,FALSE,54:15.5,16.785,0.163,235,131.6940765,282.4188232,84.95825195,45,65,51,0,-20
1.2,50,50,60,go_to_color_detect_down,red,TRUE,FALSE,joint 3 +,FALSE,54:16.3,16.785,0.16,235,131.6899567,282.4100037,83.26496887,45,65,51,0.779999733,-20
1.2,50,50,60,go_to_color_detect_down,red,TRUE,FALSE,joint 3 +,FALSE,54:17.8,16.329,0.16,235,128.8996887,276.4262695,41.36664963,45,65,51,17.74999619,-20
1.2,50,50,60,go_to_color_detect_down,red,TRUE,FALSE,joint 3 +,FALSE,54:18.6,16.329,0.16,235,113.6893692,243.8076324,-18.53191376,45,65,51,45.24999619,-20
1.2,50,50,60,go_to_color_detect_down,red,TRUE,FALSE,joint 3 +,FALSE,54:19.4,16.462,0.16,235,101.7051697,218.1074219,-40.84670258,45,65,51,58.89999771,-20
1.2,50,50,60,go_to_color_detect_up,red,TRUE,FALSE,joint 3 -,TRUE,54:20.8,16.538,0.161,235,108.4968719,232.6722717,-29.60443115,45,65,51,50.79999924,-20
1.2,50,50,60,go_to_color_detect_up,red,TRUE,FALSE,joint 3 -,TRUE,54:21.5,23.089,0.161,235,124.7992706,267.6329041,17.65078735,45,65,51,26.75,-20
1.2,50,50,60,go_to_color_detect_up,red,TRUE,FALSE,joint 3 -,TRUE,54:22.2,22.481,0.211,235,131.594162,282.2045593,76.62441254,45,65,51,3.000000477,-20
1.2,50,50,60,go_to_green_up,green,TRUE,FALSE,joint 1 +,TRUE,54:24.0,22.234,0.211,235,122.2580109,286.6299133,84.95825195,46.90000153,67.09999847,51,0,-20
1.2,50,50,60,go_to_green_up,green,TRUE,FALSE,joint 1 +,TRUE,54:24.8,22.177,0.208,235,17.66630363,311.1135559,84.95825195,66.75,87.25,51,0,-20
1.2,50,50,60,go_to_green_up,green,TRUE,FALSE,joint 1 +,TRUE,54:25.6,21.969,0.208,235,-75.12258148,302.4241028,84.95825195,83.95000458,104.090004,51,0,-20
1.2,50,50,60,go_to_pick_up_from_green,green,TRUE,FALSE,joint 1 -,FALSE,54:26.5,21.969,0.208,235,-43.20684433,308.6047668,84.95825195,77.97000122,97.59000397,51,0,-20
1.2,50,50,60,go_to_pick_up_from_green,green,TRUE,FALSE,joint 1 -,FALSE,54:27.9,16.538,0.207,235,84.58483124,299.9152222,84.95825195,54.25,73.75,51,0,-20
1.2,50,50,60,go_to_pick_up_from_green,green,TRUE,FALSE,joint 1 -,FALSE,54:28.6,16.538,0.16,235,199.2585907,239.5824432,84.95825195,30.25,49.75,51,0,-20
1.2,50,50,60,go_to_pick_up_from_green,green,TRUE,FALSE,joint 1 -,FALSE,54:30.0,16.633,0.16,235,282.5107117,131.4968872,84.95825195,4.960000992,24.65000153,51,0,-20
1.2,50,50,60,moving_belt,green,FALSE,TRUE,joint 1 -,FALSE,54:30.0,16.633,0.16,235,292.822052,106.5785141,84.95825195,0,20,51,0,-20
1.2,50,50,60,moving_belt,green,FALSE,TRUE,joint 1 -,FALSE,54:32.0,16.69,0.162,233.1,292.822052,106.5785141,84.95825195,0,20,51,0,-20
1.2,50,50,60,moving_belt,green,FALSE,TRUE,joint 1 -,FALSE,54:32.7,16.519,0.162,233.1,292.822052,106.5785141,84.95825195,0,20,51,0,-20
1.2,50,50,60,moving_belt,green,FALSE,TRUE,joint 1 -,FALSE,54:33.4,16.519,0.163,233.1,292.822052,106.5785141,84.95825195,0,20,51,0,-20
1.2,50,50,60,moving_belt,green,FALSE,TRUE,joint 1 -,FALSE,54:35.0,16.557,0.163,233.1,292.822052,106.5785141,84.95825195,0,20,51,0,-20
1.2,50,50,60,go_to_pick_down,green,TRUE,FALSE,joint 3 +,FALSE,54:35.8,16.557,0.162,233.1,290.9434814,105.8947754,60.79748154,0,20,51,9.899998665,-20
1.2,50,50,60,go_to_pick_down,green,TRUE,FALSE,joint 3 +,FALSE,54:36.5,16.652,0.162,233.1,277.0581055,100.8409042,16.76280975,0,20,51,27.79999733,-20
1.2,50,50,60,go_to_pick_up_from_pick_down,green,TRUE,FALSE,joint 3 -,TRUE,54:37.3,16.652,0.162,233.1,279.9409485,101.8901825,22.97291946,0,20,51,24.64999962,-20
1.2,50,50,60,go_to_pick_up_from_pick_down,green,TRUE,FALSE,joint 3 -,TRUE,54:38.9,23.298,0.163,233.1,292.3047791,106.3902359,72.24858856,0,20,51,4.65000248,-20
1.2,50,50,60,go_to_color_detect_up,green,TRUE,FALSE,joint 1 +,TRUE,54:39.7,22.69,0.214,233.1,288.7199707,117.23703,84.95825195,2.100002289,22.31000137,51,0,-20
1.2,50,50,60,go_to_color_detect_up,green,TRUE,FALSE,joint 1 +,TRUE,54:40.4,22.215,0.214,233.1,230.6628723,209.5194092,84.95825195,22.25,42.75,51,0,-20
1.2,50,50,60,go_to_color_detect_up,green,TRUE,FALSE,joint 1 +,TRUE,54:41.9,22.443,0.212,233.1,142.9702606,276.8812561,84.95825195,42.69000244,62.90000153,51,0,-20
1.2,50,50,60,go_to_color_detect_up,green,TRUE,FALSE,joint 3 +,TRUE,54:42.7,22.443,0.212,233.1,131.6089325,282.2362671,77.26486969,45,65,51,3.249999523,-20
1.2,50,50,60,go_to_color_detect_up,green,TRUE,FALSE,joint 3 +,TRUE,54:43.4,22.177,0.212,233.1,126.2123032,270.663147,24.58258438,45,65,51,24.74999619,-20
1.2,50,50,60,go_to_color_detect_up,green,TRUE,FALSE,joint 3 +,TRUE,54:44.8,22.291,0.21,233.1,108.8339386,233.3951263,-28.95859528,45,65,51,51.19999695,-20
1.2,50,50,60,go_to_color_detect_up,green,TRUE,FALSE,joint 3 -,FALSE,54:45.8,22.234,0.21,233.1,101.6216049,217.9282227,-40.96598816,45,65,51,58.90000153,-20
1.2,50,50,60,go_to_color_detect_up,green,TRUE,FALSE,joint 3 -,FALSE,54:46.5,19.519,0.21,233.1,113.3060226,242.9855347,-19.43899536,45,65,51,44.75,-20
1.2,50,50,60,go_to_color_detect_up,green,TRUE,FALSE,joint 3 -,FALSE,54:47.3,19.519,0.21,233.1,128.5691376,275.7173767,38.923172,45,65,51,17.75,-20
1.2,50,50,60,go_to_color_detect_up,green,TRUE,FALSE,joint 3 -,FALSE,54:48.9,17.165,0.166,233.1,131.6862488,282.4020386,82.62362671,45,65,51,0.779999793,-20
1.2,50,50,60,detecting_color,green,FALSE,FALSE,detecting_color,FALSE,54:49.7,17.165,0.166,233.1,131.6940765,282.4188232,84.95825195,45,65,51,0,-20
1.2,50,50,60,go_to_color_detect_down,green,TRUE,FALSE,joint 3 +,FALSE,54:50.5,16.652,0.164,233.1,131.6936646,282.4179382,84.41947174,45,65,51,0.279999912,-20
1.2,50,50,60,go_to_color_detect_down,green,TRUE,FALSE,joint 3 +,FALSE,54:51.9,16.652,0.164,233.1,129.6468048,278.0284729,47.53177261,45,65,51,15.24999714,-20
1.2,50,50,60,go_to_color_detect_down,green,TRUE,FALSE,joint 3 +,FALSE,54:52.8,16.5,0.161,233.1,118.0194244,253.0934601,-7.052497864,45,65,51,39.24999619,-20
1.2,50,50,60,go_to_color_detect_down,green,TRUE,FALSE,joint 3 +,FALSE,54:53.6,16.5,0.161,235,102.0755539,218.9017334,-40.31276703,45,65,51,58.54999542,-20
1.2,50,50,60,go_to_color_detect_up,green,TRUE,FALSE,joint 3 -,TRUE,54:54.3,16.709,0.161,235,106.913559,229.2768402,-32.51833344,45,65,51,52.70000076,-20
1.2,50,50,60,go_to_color_detect_up,green,TRUE,FALSE,joint 3 -,TRUE,54:56.0,22.671,0.162,235,123.5059357,264.859314,12.01441956,45,65,51,29.25,-20
1.2,50,50,60,go_to_color_detect_up,green,TRUE,FALSE,joint 3 -,TRUE,54:56.9,22.785,0.213,235,131.2748413,281.5198059,67.90957642,45,65,51,6.300000668,-20
1.2,50,50,60,go_to_blue_up,blue,TRUE,FALSE,joint 1 +,TRUE,54:57.6,22.652,0.213,235,126.496666,284.7846985,84.95825195,46.04999542,66.19999695,51,0,-20
1.2,50,50,60,go_to_blue_up,blue,TRUE,FALSE,joint 1 +,TRUE,54:58.4,22.196,0.213,235,46.76036453,308.0863342,84.95825195,61.36968994,81.63411713,51,0,-20
1.2,50,50,60,go_to_blue_up,blue,TRUE,FALSE,joint 1 +,TRUE,54:59.9,22.272,0.209,235,29.32886314,310.2314453,84.95825195,64.59938049,84.68380737,51,0,-20
1.2,50,50,60,go_to_pick_up_from_blue,blue,TRUE,FALSE,joint 1 -,FALSE,55:00.6,22.177,0.209,235,34.51913834,309.6968994,84.95825195,63.63999939,83.47000122,51,0,-20
1.2,50,50,60,go_to_pick_up_from_blue,blue,TRUE,FALSE,joint 1 -,FALSE,55:01.4,20.867,0.208,235,130.4605103,282.9907837,84.95825195,45.25,64.75,51,0,-20
1.2,50,50,60,go_to_pick_up_from_blue,blue,TRUE,FALSE,joint 1 -,FALSE,55:02.3,20.867,0.208,236.8,244.7163086,192.9187927,84.95825195,18.25,37.75,51,0,-20
1.2,50,50,60,go_to_pick_up_from_blue,blue,TRUE,FALSE,joint 1 -,FALSE,55:03.9,16.785,0.162,235,291.0924683,111.2156296,84.95825195,0.910001755,20.78000259,51,0,-20
1.2,50,50,60,moving_belt,blue,FALSE,TRUE,joint 1 -,FALSE,55:04.6,16.785,0.162,235,292.822052,106.5785141,84.95825195,0,20,51,0,-20
1.2,50,50,60,moving_belt,blue,FALSE,TRUE,joint 1 -,FALSE,55:05.3,16.557,0.163,235,292.822052,106.5785141,84.95825195,0,20,51,0,-20
1.2,50,50,60,moving_belt,blue,FALSE,TRUE,joint 1 -,FALSE,55:06.6,16.595,0.163,235,292.822052,106.5785141,84.95825195,0,20,51,0,-20
1.2,50,50,60,moving_belt,blue,FALSE,TRUE,joint 1 -,FALSE,55:08.0,16.633,0.162,235,292.822052,106.5785141,84.95825195,0,20,51,0,-20
1.2,50,50,60,go_to_pick_down,blue,TRUE,FALSE,joint 3 +,FALSE,55:08.7,16.576,0.162,236.8,292.8178101,106.5769653,83.8037262,0,20,51,0.549999893,-20
1.2,50,50,60,go_to_pick_down,blue,TRUE,FALSE,joint 3 +,FALSE,55:09.4,16.576,0.162,236.8,284.8666382,103.6829834,35.79191971,0,20,51,19.96999741,-20
1.2,50,50,60,go_to_pick_up_from_pick_down,blue,TRUE,FALSE,joint 3 -,TRUE,55:11.0,16.804,0.162,236.8,275.5143738,100.2790298,13.71367645,0,20,51,28.96999931,-20
1.2,50,50,60,go_to_pick_up_from_pick_down,blue,TRUE,FALSE,joint 3 -,TRUE,55:11.8,23.051,0.21,236.8,287.3035583,104.5699463,43.8233757,0,20,51,15.75000191,-20
1.2,50,50,60,go_to_pick_up_from_pick_down,blue,TRUE,FALSE,joint 3 -,TRUE,55:12.4,23.051,0.21,235,292.8178101,106.5769653,83.8037262,0,20,51,0.360001415,-20
1.2,50,50,60,go_to_color_detect_up,blue,TRUE,FALSE,joint 1 +,TRUE,55:13.9,22.576,0.211,235,279.3583679,138.0675049,84.95825195,6.300001144,26.66000175,51,0,-20
1.2,50,50,60,go_to_color_detect_up,blue,TRUE,FALSE,joint 1 +,TRUE,55:14.6,22.652,0.211,235,199.2585907,239.5824432,84.95825195,30.25,50.75,51,0,-20
1.2,50,50,60,go_to_color_detect_up,blue,TRUE,FALSE,joint 3 +,TRUE,55:15.4,22.481,0.211,235,131.6940765,282.4188232,84.95825195,45,65,51,0,-20
1.2,50,50,60,go_to_color_detect_up,blue,TRUE,FALSE,joint 3 +,TRUE,55:16.2,22.462,0.211,235,130.4940033,279.8452759,56.20449066,45,65,51,11.75999737,-20
1.2,50,50,60,go_to_color_detect_up,blue,TRUE,FALSE,joint 3 +,TRUE,55:17.9,22.158,0.211,235,120.3029556,257.990509,0.117912292,45,65,51,35.74999619,-20
1.2,50,50,60,go_to_color_detect_up,blue,TRUE,FALSE,joint 3 +,TRUE,55:18.6,22.386,0.209,235,103.1406708,221.1858826,-38.72997284,45,65,51,57.46999741,-20
1.2,50,50,60,go_to_color_detect_up,blue,TRUE,FALSE,joint 3 -,FALSE,55:19.3,22.329,0.209,235,104.7660446,224.6714935,-36.17376709,45,65,51,55.22000122,-20
1.2,50,50,60,go_to_color_detect_up,blue,TRUE,FALSE,joint 3 -,FALSE,55:20.9,21.969,0.192,235,120.9209824,259.3158569,2.22592926,45,65,51,33.75,-20
1.2,50,50,60,go_to_color_detect_up,blue,TRUE,FALSE,joint 3 -,FALSE,55:21.6,17.013,0.192,235,130.7689819,280.4349976,59.68467331,45,65,51,9.460000992,-20
1.2,50,50,60,detecting_color,blue,FALSE,FALSE,detecting_color,FALSE,55:23.0,17.203,0.167,235,131.6940765,282.4188232,84.95825195,45,65,51,0,-20
1.2,50,50,60,detecting_color,blue,FALSE,FALSE,detecting_color,FALSE,55:23.7,16.918,0.167,235,131.6940765,282.4188232,84.95825195,45,65,51,0,-20
1.2,50,50,60,go_to_color_detect_down,blue,TRUE,FALSE,joint 3 +,FALSE,55:24.4,16.918,0.163,235,131.5381622,282.0845032,74.55049133,45,65,51,4.349999428,-20
1.2,50,50,60,go_to_color_detect_down,blue,TRUE,FALSE,joint 3 +,FALSE,55:26.0,16.937,0.163,235,124.0357437,265.9954834,14.25291443,45,65,51,29.24999619,-20
1.2,50,50,60,go_to_color_detect_down,blue,TRUE,FALSE,joint 3 +,FALSE,55:26.7,16.937,0.163,235,107.5259094,230.5900421,-31.41432953,45,65,51,52.69999695,-20
1.2,50,50,60,go_to_color_detect_up,blue,TRUE,FALSE,joint 3 -,TRUE,55:27.4,16.918,0.163,236.8,101.8998108,218.5248413,-40.56715393,45,65,51,58.54999924,-20
1.2,50,50,60,go_to_color_detect_up,blue,TRUE,FALSE,joint 3 -,TRUE,55:29.0,23.051,0.219,236.8,114.8191605,246.2304688,-15.76364899,45,65,51,42.75,-20
1.2,50,50,60,go_to_color_detect_up,blue,TRUE,FALSE,joint 3 -,TRUE,55:29.8,23.051,0.219,235,129.2121887,277.096405,43.82338715,45,65,51,15.75,-20
1.2,50,50,60,go_to_color_detect_up,blue,TRUE,FALSE,joint 3 -,TRUE,55:30.5,22.823,0.219,235,131.6921692,282.4147339,83.8037262,45,65,51,0.359999359,-20
1.2,50,50,60,go_to_red_up,red,TRUE,FALSE,joint 1 +,TRUE,55:32.0,22.557,0.215,235,98.05122375,295.7865601,84.95825195,51.65999603,72.02999878,51,0,-20
1.2,50,50,60,go_to_red_up,red,TRUE,FALSE,joint 1 +,TRUE,55:32.7,22.386,0.215,235,-28.51325226,310.3074646,84.95825195,75.25,95.75,51,0,-20
1.2,50,50,60,go_to_red_up,red,TRUE,FALSE,joint 1 +,TRUE,55:33.5,22.614,0.211,235,-155.9957275,269.7573853,84.95825195,100.0400009,120.3499985,51,0,-20
1.2,50,50,60,go_to_pick_up_from_red,red,TRUE,FALSE,joint 1 -,FALSE,55:34.9,22.614,0.211,236.8,-174.6584015,258.0661926,84.95825195,104.090004,123.9500046,51,0,-20
1.2,50,50,60,go_to_pick_up_from_red,red,TRUE,FALSE,joint 1 -,FALSE,55:35.7,20.127,0.212,236.8,-89.80621338,298.3933411,84.95825195,86.75,106.25,51,0,-20
1.2,50,50,60,go_to_pick_up_from_red,red,TRUE,FALSE,joint 1 -,FALSE,55:36.5,16.804,0.212,235,42.0215416,308.7684021,84.95825195,62.25,81.75,51,0,-20
1.2,50,50,60,go_to_pick_up_from_red,red,TRUE,FALSE,joint 1 -,FALSE,55:38.1,16.747,0.162,235,177.6193848,256.037262,84.95825195,35.25,54.75,51,0,-20
1.2,50,50,60,go_to_pick_up_from_red,red,TRUE,FALSE,joint 1 -,FALSE,55:38.8,16.747,0.162,235,267.6366577,159.6068268,84.95825195,10.81000137,30.35000229,51,0,-20
1.2,50,50,60,moving_belt,red,FALSE,TRUE,joint 1 -,FALSE,55:39.4,16.804,0.163,235,292.822052,106.5785141,84.95825195,0,20,51,0,-20
1.2,50,50,60,moving_belt,red,FALSE,TRUE,joint 1 -,FALSE,55:41.0,16.861,0.163,236.8,292.822052,106.5785141,84.95825195,0,20,51,0,-20
1.2,50,50,60,moving_belt,red,FALSE,TRUE,joint 1 -,FALSE,55:41.7,16.823,0.161,236.8,292.822052,106.5785141,84.95825195,0,20,51,0,-20
1.2,50,50,60,moving_belt,red,FALSE,TRUE,joint 1 -,FALSE,55:42.8,16.272,0.161,235,292.822052,106.5785141,84.95825195,0,20,51,0,-20
1.2,50,50,60,moving_belt,red,FALSE,TRUE,joint 1 -,FALSE,55:43.5,16.272,0.161,235,292.822052,106.5785141,84.95825195,0,20,51,0,-20
1.2,50,50,60,go_to_pick_down,red,TRUE,FALSE,joint 3 +,FALSE,55:45.0,16.671,0.16,236.8,292.5629272,106.4841995,75.95851135,0,20,51,3.779999733,-20
1.2,50,50,60,go_to_pick_down,red,TRUE,FALSE,joint 3 +,FALSE,55:45.8,16.671,0.16,236.8,281.1527405,102.3312302,25.82494736,0,20,51,24.0399971,-20
1.2,50,50,60,go_to_pick_up_from_pick_down,red,TRUE,FALSE,joint 3 -,TRUE,55:46.6,16.766,0.162,236.8,277.058075,100.8408966,16.76280212,0,20,51,27.46999931,-20
1.2,50,50,60,go_to_pick_up_from_pick_down,red,TRUE,FALSE,joint 3 -,TRUE,55:47.4,19.937,0.162,235,290.9434814,105.8947754,60.79747009,0,20,51,9.030002594,-20
1.2,50,50,60,go_to_color_detect_up,red,TRUE,FALSE,joint 1 +,TRUE,55:48.4,22.918,0.214,235,292.8034668,106.6296158,84.95825195,0.010000229,20.03000069,51,0,-20
1.2,50,50,60,go_to_color_detect_up,red,TRUE,FALSE,joint 1 +,TRUE,55:49.5,22.462,0.214,235,252.8983765,182.060791,84.95825195,15.75,36.25,51,0,-20
1.2,50,50,60,go_to_color_detect_up,red,TRUE,FALSE,joint 1 +,TRUE,55:51.0,22.557,0.21,235,160.2602692,267.2459106,84.95825195,39.04999924,59.38999939,51,0,-20
1.2,50,50,60,go_to_color_detect_up,red,TRUE,FALSE,joint 3 +,TRUE,55:51.8,22.462,0.21,235,131.688324,282.4064941,82.9571228,45,65,51,0.909999728,-20
1.2,50,50,60,go_to_color_detect_up,red,TRUE,FALSE,joint 3 +,TRUE,55:52.7,22.272,0.209,235,128.8996887,276.4262695,41.36664963,45,65,51,17.74999619,-20
1.2,50,50,60,go_to_color_detect_up,red,TRUE,FALSE,joint 3 +,TRUE,55:53.4,22.272,0.209,235,114.0693665,244.6225281,-17.61693573,45,65,51,44.74999619,-20
1.2,50,50,60,go_to_color_detect_up,red,TRUE,FALSE,joint 3 +,TRUE,55:55.1,22.253,0.208,236.8,101.7051697,218.1074219,-40.84670258,45,65,51,58.89999771,-20
1.2,50,50,60,go_to_color_detect_up,red,TRUE,FALSE,joint 3 -,FALSE,55:55.9,22.158,0.208,236.8,108.4968719,232.6722717,-29.60443115,45,65,51,50.79999924,-20
1.2,50,50,60,go_to_color_detect_up,red,TRUE,FALSE,joint 3 -,FALSE,55:56.7,16.804,0.163,236.8,124.5489349,267.0960388,16.51290894,45,65,51,27.25,-20
1.2,50,50,60,go_to_color_detect_up,red,TRUE,FALSE,joint 3 -,FALSE,55:57.5,16.804,0.163,236.8,131.594162,282.2045593,76.62441254,45,65,51,3.000000477,-20
1.2,50,50,60,detecting_color,red,FALSE,FALSE,detecting_color,FALSE,55:59.0,16.975,0.165,236.8,131.6940765,282.4188232,84.95825195,45,65,51,0,-20
1.2,50,50,60,detecting_color,red,FALSE,FALSE,detecting_color,FALSE,55:59.7,16.975,0.165,236.8,131.6940765,282.4188232,84.95825195,45,65,51,0,-20
1.2,50,50,60,go_to_color_detect_down,red,TRUE,FALSE,joint 3 +,FALSE,56:00.4,16.747,0.165,236.8,131.3965149,281.7807312,70.58803558,45,65,51,5.949998856,-20
1.2,50,50,60,go_to_color_detect_down,red,TRUE,FALSE,joint 3 +,FALSE,56:01.8,16.614,0.163,236.8,124.2944183,266.5502319,15.38026428,45,65,51,28.74999619,-20
1.2,50,50,60,go_to_color_detect_down,red,TRUE,FALSE,joint 3 +,FALSE,56:02.7,16.747,0.163,236.8,108.16642,231.963623,-30.22874451,45,65,51,51.96999741,-20
1.2,50,50,60,go_to_color_detect_up,red,TRUE,FALSE,joint 3 -,TRUE,56:03.5,16.747,0.163,236.8,102.2878113,219.3569183,-40.00301361,45,65,51,58.09000015,-20
1.2,50,50,60,go_to_color_detect_up,red,TRUE,FALSE,joint 3 -,TRUE,56:04.9,23.241,0.216,236.8,116.2771454,249.357132,-11.96559143,45,65,51,40.75,-20
1.2,50,50,60,go_to_color_detect_up,red,TRUE,FALSE,joint 3 -,TRUE,56:05.7,22.804,0.216,236.8,128.8996887,276.4262695,41.366642,45,65,51,16.75,-20
1.2,50,50,60,go_to_color_detect_up,red,TRUE,FALSE,joint 3 -,TRUE,56:06.4,22.747,0.216,236.8,131.693985,282.4186401,84.70169067,45,65,51,0.059999011,-20
1.2,50,50,60,go_to_green_up,green,TRUE,FALSE,joint 1 +,TRUE,56:07.8,22.481,0.212,236.8,90.0665741,298.3148499,84.95825195,53.19999695,73.61000061,51,0,-20
1.2,50,50,60,go_to_green_up,green,TRUE,FALSE,joint 1 +,TRUE,56:08.5,22.367,0.212,236.8,-34.68130875,309.678772,84.95825195,76.38999939,96.80000305,51,0,-20
1.2,50,50,60,go_to_pick_up_from_green,green,TRUE,FALSE,joint 1 -,FALSE,56:09.7,22.386,0.211,236.8,-80.12638855,301.1369934,84.95825195,84.90000153,104.8499985,51,0,-20
1.2,50,50,60,go_to_pick_up_from_green,green,TRUE,FALSE,joint 1 -,FALSE,56:10.4,22.424,0.211,236.8,9.516257286,311.4693909,84.95825195,68.25,87.75,51,0,-20
1.2,50,50,60,go_to_pick_up_from_green,green,TRUE,FALSE,joint 1 -,FALSE,56:11.6,16.861,0.162,236.8,135.3795471,280.6708069,84.95825195,44.25,63.75,51,0,-20
1.2,50,50,60,go_to_pick_up_from_green,green,TRUE,FALSE,joint 1 -,FALSE,56:12.4,16.861,0.162,236.8,237.8344727,201.3417511,84.95825195,20.25,39.75,51,0,-20
1.2,50,50,60,go_to_pick_up_from_green,green,TRUE,FALSE,joint 1 -,FALSE,56:14.0,16.671,0.163,236.8,291.5749512,109.9444427,84.95825195,0.660001755,20.55000114,51,0,-20
1.2,50,50,60,moving_belt,green,FALSE,TRUE,joint 1 -,FALSE,56:14.8,16.633,0.163,235,292.822052,106.5785141,84.95825195,0,20,51,0,-20
1.2,50,50,60,moving_belt,green,FALSE,TRUE,joint 1 -,FALSE,56:15.6,16.633,0.161,235,292.822052,106.5785141,84.95825195,0,20,51,0,-20
1.2,50,50,60,moving_belt,green,FALSE,TRUE,joint 1 -,FALSE,56:16.4,16.633,0.161,236.8,292.822052,106.5785141,84.95825195,0,20,51,0,-20
1.2,50,50,60,moving_belt,green,FALSE,TRUE,joint 1 -,FALSE,56:17.9,16.728,0.161,236.8,292.822052,106.5785141,84.95825195,0,20,51,0,-20
1.2,50,50,60,go_to_pick_down,green,TRUE,FALSE,joint 3 +,FALSE,56:18.7,16.348,0.161,235,292.8156738,106.5761948,83.54717255,0,20,51,0.659999847,-20
1.2,50,50,60,go_to_pick_down,green,TRUE,FALSE,joint 3 +,FALSE,56:19.5,16.348,0.161,235,286.6159058,104.319664,41.39114761,0,20,51,17.71999741,-20
1.2,50,50,60,go_to_pick_up_from_pick_down,green,TRUE,FALSE,joint 3 -,TRUE,56:21.0,16.538,0.161,236.8,275.5143738,100.2790298,13.71367645,0,20,51,28.96999931,-20
1.2,50,50,60,go_to_pick_up_from_pick_down,green,TRUE,FALSE,joint 3 -,TRUE,56:21.7,16.538,0.161,236.8,286.9611816,104.4453354,42.59339142,0,20,51,16.25000191,-20
1.2,50,50,60,go_to_pick_up_from_pick_down,green,TRUE,FALSE,joint 3 -,TRUE,56:23.0,22.614,0.215,236.8,292.8156738,106.5761948,83.54717255,0,20,51,0.450001538,-20
1.2,50,50,60,go_to_color_detect_up,green,TRUE,FALSE,joint 1 +,TRUE,56:23.8,22.234,0.215,236.8,279.3583679,138.0675049,84.95825195,6.300001144,26.66000175,51,0,-20
1.2,50,50,60,go_to_color_detect_up,green,TRUE,FALSE,joint 1 +,TRUE,56:24.5,22.31,0.207,236.8,188.6184998,248.0459442,84.95825195,32.75,53.24000168,51,0,-20
1.2,50,50,60,go_to_color_detect_up,green,TRUE,FALSE,joint 3 +,TRUE,56:26.0,22.386,0.207,236.8,131.7433624,282.3958435,84.95825195,44.98999786,65,51,0,-20
1.2,50,50,60,go_to_color_detect_up,green,TRUE,FALSE,joint 3 +,TRUE,56:26.7,22.083,0.208,236.8,130.6832275,280.2510681,58.54812622,45,65,51,10.80999756,-20
1.2,50,50,60,go_to_color_detect_up,green,TRUE,FALSE,joint 3 +,TRUE,56:27.5,22.007,0.208,236.8,120.6139069,258.6573486,1.168731689,45,65,51,35.24999619,-20
1.2,50,50,60,go_to_color_detect_up,green,TRUE,FALSE,joint 3 +,TRUE,56:29.0,22.121,0.208,236.8,103.3138351,221.5572205,-38.46585846,45,65,51,57.2899971,-20
1.2,50,50,60,go_to_color_detect_up,green,TRUE,FALSE,joint 3 -,FALSE,56:29.7,22.158,0.208,236.8,104.533371,224.1725311,-36.55044556,45,65,51,55.49000168,-20
1.2,50,50,60,go_to_color_detect_up,green,TRUE,FALSE,joint 3 -,FALSE,56:30.5,21.209,0.208,236.8,120.6139069,258.6573486,1.16872406,45,65,51,34.25,-20
1.2,50,50,60,go_to_color_detect_up,green,TRUE,FALSE,joint 3 -,FALSE,56:32.1,16.861,0.163,236.8,130.5916443,280.054657,57.38799286,45,65,51,10.35000038,-20
1.2,50,50,60,detecting_color,green,FALSE,FALSE,detecting_color,FALSE,56:33.0,17.165,0.165,236.8,131.6940765,282.4188232,84.95825195,45,65,51,0,-20
1.2,50,50,60,detecting_color,green,FALSE,FALSE,detecting_color,FALSE,56:33.8,16.728,0.165,236.8,131.6940765,282.4188232,84.95825195,45,65,51,0,-20
1.2,50,50,60,go_to_color_detect_down,green,TRUE,FALSE,joint 3 +,FALSE,56:34.6,16.728,0.165,236.8,131.6912079,282.4126892,83.54717255,45,65,51,0.659999788,-20
1.2,50,50,60,go_to_color_detect_down,green,TRUE,FALSE,joint 3 +,FALSE,56:35.4,16.557,0.161,236.8,128.8996887,276.4262695,41.36664963,45,65,51,17.74999619,-20
1.2,50,50,60,go_to_color_detect_down,green,TRUE,FALSE,joint 3 +,FALSE,56:36.9,16.633,0.161,236.8,116.6328278,250.1198883,-10.99742889,45,65,51,41.24999619,-20
1.2,50,50,60,go_to_color_detect_down,green,TRUE,FALSE,joint 3 +,FALSE,56:37.8,16.576,0.161,235,102.2878113,219.3569183,-40.00299835,45,65,51,58.33999634,-20
1.2,50,50,60,go_to_color_detect_up,green,TRUE,FALSE,joint 3 -,TRUE,56:38.6,16.538,0.161,235,108.1664124,231.9636078,-30.22875214,45,65,51,51.20000076,-20
1.2,50,50,60,go_to_color_detect_up,green,TRUE,FALSE,joint 3 -,TRUE,56:40.1,22.975,0.217,236.8,124.5489349,267.0960388,16.51290894,45,65,51,27.25,-20
1.2,50,50,60,go_to_color_detect_up,green,TRUE,FALSE,joint 3 -,TRUE,56:40.8,22.5,0.217,236.8,131.430481,281.8535461,71.43087006,45,65,51,4.960000515,-20
1.2,50,50,60,go_to_blue_up,blue,TRUE,FALSE,joint 1 +,TRUE,56:41.5,22.671,0.213,236.8,123.2078476,286.2229004,84.95825195,46.70999908,66.90000153,51,0,-20
1.2,50,50,60,go_to_blue_up,blue,TRUE,FALSE,joint 1 +,TRUE,56:42.9,22.177,0.213,236.8,41.38875961,308.8538513,84.95825195,62.36740112,82.59182739,51,0,-20
1.2,50,50,60,go_to_pick_up_from_blue,blue,TRUE,FALSE,joint 1 -,FALSE,56:43.7,22.177,0.209,236.8,39.6491127,309.0820007,84.95825195,62.69000244,82.47000122,51,0,-20
1.2,50,50,60,go_to_pick_up_from_blue,blue,TRUE,FALSE,joint 1 -,FALSE,56:44.4,22.177,0.209,236.8,142.6802521,277.0308228,84.95825195,42.75,62.25,51,0,-20
1.2,50,50,60,go_to_pick_up_from_blue,blue,TRUE,FALSE,joint 1 -,FALSE,56:45.9,16.671,0.161,236.8,252.8983765,182.060791,84.95825195,15.75,35.25,51,0,-20
1.2,50,50,60,go_to_pick_up_from_blue,blue,TRUE,FALSE,joint 1 -,FALSE,56:46.8,16.557,0.161,236.8,292.1466064,108.4162598,84.95825195,0.36000061,20.28000069,51,0,-20
1.2,50,50,60,moving_belt,blue,FALSE,TRUE,joint 1 -,FALSE,56:47.6,16.633,0.161,236.8,292.822052,106.5785141,84.95825195,0,20,51,0,-20
1.2,50,50,60,moving_belt,blue,FALSE,TRUE,joint 1 -,FALSE,56:48.4,16.633,0.161,236.8,292.822052,106.5785141,84.95825195,0,20,51,0,-20
1.2,50,50,60,moving_belt,blue,FALSE,TRUE,joint 1 -,FALSE,56:50.0,16.481,0.161,236.8,292.822052,106.5785141,84.95825195,0,20,51,0,-20
1.2,50,50,60,moving_belt,blue,FALSE,TRUE,joint 1 -,FALSE,56:50.8,16.481,0.161,236.8,292.822052,106.5785141,84.95825195,0,20,51,0,-20
1.2,50,50,60,go_to_pick_down,blue,TRUE,FALSE,joint 3 +,FALSE,56:51.8,16.557,0.161,236.8,292.7605286,106.5561218,80.57167053,0,20,51,1.899999619,-20
1.2,50,50,60,go_to_pick_down,blue,TRUE,FALSE,joint 3 +,FALSE,56:52.6,16.671,0.163,236.8,283.8192444,103.3017578,32.75753403,0,20,51,21.19999695,-20
1.2,50,50,60,go_to_pick_up_from_pick_down,blue,TRUE,FALSE,joint 3 -,TRUE,56:53.5,16.671,0.163,236.8,275.5376892,100.287529,13.75856018,0,20,51,28.93999863,-20
1.2,50,50,60,go_to_pick_up_from_pick_down,blue,TRUE,FALSE,joint 3 -,TRUE,56:55.1,20.469,0.161,236.8,287.6358032,104.6908798,45.05649567,0,20,51,15.25000191,-20
1.2,50,50,60,go_to_pick_up_from_pick_down,blue,TRUE,FALSE,joint 3 -,TRUE,56:55.9,22.842,0.161,236.8,292.822052,106.5785141,84.88127899,0,20,51,0.010000842,-20
1.2,50,50,60,go_to_color_detect_up,blue,TRUE,FALSE,joint 1 +,TRUE,56:56.7,22.272,0.211,236.8,271.3226929,153.2570496,84.95825195,9.460000992,29.90000153,51,0,-20
1.2,50,50,60,go_to_color_detect_up,blue,TRUE,FALSE,joint 1 +,TRUE,56:57.4,22.253,0.211,236.8,184.392334,251.2034912,84.95825195,33.72000122,54.19000244,51,0,-20
1.2,50,50,60,go_to_color_detect_up,blue,TRUE,FALSE,joint 3 +,TRUE,56:58.9,22.443,0.209,236.8,131.6940765,282.4188232,84.95825195,45,65,51,0.009999997,-20
1.2,50,50,60,go_to_color_detect_up,blue,TRUE,FALSE,joint 3 +,TRUE,56:59.8,22.348,0.209,236.8,130.2795563,279.3854065,53.7681427,45,65,51,12.74999714,-20
1.2,50,50,60,go_to_color_detect_up,blue,TRUE,FALSE,joint 3 +,TRUE,57:00.7,22.196,0.208,236.8,119.3470001,255.9404449,-2.995452881,45,65,51,37.24999619,-20
1.2,50,50,60,go_to_color_detect_up,blue,TRUE,FALSE,joint 3 +,TRUE,57:01.5,22.215,0.208,236.8,102.5363235,219.8898468,-39.63677979,45,65,51,58.08999634,-20
1.2,50,50,60,go_to_color_detect_up,blue,TRUE,FALSE,joint 3 -,FALSE,57:02.9,22.215,0.209,236.8,106.0501785,227.4253235,-34.02753448,45,65,51,53.72000122,-20
1.2,50,50,60,go_to_color_detect_up,blue,TRUE,FALSE,joint 3 -,FALSE,57:03.6,22.215,0.209,236.8,122.3972168,262.4816589,7.604804993,45,65,51,31.25,-20
1.2,50,50,60,go_to_color_detect_up,blue,TRUE,FALSE,joint 3 -,FALSE,57:04.3,16.975,0.209,236.8,131.1192932,281.1862183,65.00805664,45,65,51,7.410000801,-20
1.2,50,50,60,detecting_color,blue,FALSE,FALSE,detecting_color,FALSE,57:06.1,17.203,0.165,236.8,131.6940765,282.4188232,84.95825195,45,65,51,0,-20
1.2,50,50,60,detecting_color,blue,FALSE,FALSE,detecting_color,FALSE,57:06.9,16.785,0.162,236.8,131.6940765,282.4188232,84.95825195,45,65,51,0,-20
1.2,50,50,60,go_to_color_detect_down,blue,TRUE,FALSE,joint 3 +,FALSE,57:07.6,16.861,0.162,236.8,131.461441,281.9199524,72.24859619,45,65,51,5.279998779,-20
1.2,50,50,60,go_to_color_detect_down,blue,TRUE,FALSE,joint 3 +,FALSE,57:09.1,16.519,0.161,236.8,124.7992706,267.6329041,17.65079498,45,65,51,27.74999619,-20
1.2,50,50,60,go_to_color_detect_down,blue,TRUE,FALSE,joint 3 +,FALSE,57:09.8,16.728,0.161,236.8,108.16642,231.963623,-30.22874451,45,65,51,51.96999741,-20
1.2,50,50,60,go_to_color_detect_up,blue,TRUE,FALSE,joint 3 -,TRUE,57:10.5,16.728,0.161,236.8,102.0755539,218.9017181,-40.31277466,45,65,51,58.34000015,-20
1.2,50,50,60,go_to_color_detect_up,blue,TRUE,FALSE,joint 3 -,TRUE,57:12.0,23.222,0.167,236.8,115.9179153,248.5867615,-12.92634583,45,65,51,41.25,-20
1.2,50,50,60,go_to_color_detect_up,blue,TRUE,FALSE,joint 3 -,TRUE,57:12.8,23.222,0.167,236.8,128.7366791,276.0766602,40.14319611,45,65,51,17.25,-20
1.2,50,50,60,go_to_color_detect_up,blue,TRUE,FALSE,joint 3 -,TRUE,57:13.6,22.728,0.212,236.8,131.688324,282.4064941,82.9571228,45,65,51,0.659999728,-20
1.2,50,50,60,go_to_red_up,red,TRUE,FALSE,joint 1 +,TRUE,57:15.1,22.386,0.212,236.8,103.4549789,293.9401245,84.95825195,50.61000061,70.94999695,51,0,-20
1.2,50,50,60,go_to_red_up,red,TRUE,FALSE,joint 1 +,TRUE,57:15.9,22.348,0.209,236.8,-36.62641144,309.4547424,84.95825195,76.75,97.25,51,0,-20
1.2,50,50,60,go_to_red_up,red,TRUE,FALSE,joint 1 +,TRUE,57:16.6,22.386,0.209,236.8,-152.9254456,271.5097351,84.95825195,99.38999939,119.7200012,51,0,-20
1.2,50,50,60,go_to_pick_up_from_red,red,TRUE,FALSE,joint 1 -,FALSE,57:18.2,22.064,0.21,236.8,-176.7246399,256.6556702,84.95825195,104.5500031,124.4500046,51,0,-20
1.2,50,50,60,go_to_pick_up_from_red,red,TRUE,FALSE,joint 1 -,FALSE,57:18.8,22.064,0.21,236.8,-81.9644165,300.6419373,84.95825195,85.25,104.75,51,0,-20
1.2,50,50,60,go_to_pick_up_from_red,red,TRUE,FALSE,joint 1 -,FALSE,57:19.7,16.614,0.161,236.8,47.40386581,307.9880066,84.95825195,61.25,80.75,51,0,-20
1.2,50,50,60,go_to_pick_up_from_red,red,TRUE,FALSE,joint 1 -,FALSE,57:20.4,16.614,0.161,236.8,168.5755768,262.0801392,84.95825195,37.25,56.75,51,0,-20
1.2,50,50,60,go_to_pick_up_from_red,red,TRUE,FALSE,joint 1 -,FALSE,57:21.9,16.69,0.161,236.8,260.5990601,170.8562469,84.95825195,13.25,32.75,51,0,-20
1.2,50,50,60,moving_belt,red,FALSE,TRUE,joint 1 -,FALSE,57:22.6,16.69,0.161,236.8,292.822052,106.5785141,84.95825195,0,20,51,0,-20
1.2,50,50,60,moving_belt,red,FALSE,TRUE,joint 1 -,FALSE,57:23.4,16.728,0.161,236.8,292.822052,106.5785141,84.95825195,0,20,51,0,-20
1.2,50,50,60,moving_belt,red,FALSE,TRUE,joint 1 -,FALSE,57:24.9,16.671,0.163,236.8,292.822052,106.5785141,84.95825195,0,20,51,0,-20
1.2,50,50,60,moving_belt,red,FALSE,TRUE,joint 1 -,FALSE,57:25.7,16.652,0.163,236.8,292.822052,106.5785141,84.95825195,0,20,51,0,-20
1.2,50,50,60,moving_belt,red,FALSE,TRUE,joint 1 -,FALSE,57:27.1,16.481,0.16,236.8,292.822052,106.5785141,84.95825195,0,20,51,0,-20
1.2,50,50,60,go_to_pick_down,red,TRUE,FALSE,joint 3 +,FALSE,57:28.0,16.462,0.16,236.8,292.5629272,106.4841995,75.95851135,0,20,51,3.779999733,-20
1.2,50,50,60,go_to_pick_down,red,TRUE,FALSE,joint 3 +,FALSE,57:28.8,16.462,0.161,236.8,281.1527405,102.3312302,25.82494736,0,20,51,24.0399971,-20
1.2,50,50,60,go_to_pick_up_from_pick_down,red,TRUE,FALSE,joint 3 -,TRUE,57:29.7,16.652,0.161,236.8,277.4472961,100.9825592,17.55957031,0,20,51,27.09999847,-20
1.2,50,50,60,go_to_pick_up_from_pick_down,red,TRUE,FALSE,joint 3 -,TRUE,57:30.5,18.323,0.216,236.8,291.4098206,106.0644989,63.99179077,0,20,51,7.800002575,-20
1.2,50,50,60,go_to_color_detect_up,red,TRUE,FALSE,joint 1 +,TRUE,57:32.1,22.519,0.216,236.8,292.7102966,106.8851013,84.95825195,0.060001373,20.10000229,51,0,-20
1.2,50,50,60,go_to_color_detect_up,red,TRUE,FALSE,joint 1 +,TRUE,57:32.9,22.519,0.208,236.8,260.5990601,170.8562469,84.95825195,13.25,33.75,51,0,-20
1.2,50,50,60,go_to_color_detect_up,red,TRUE,FALSE,joint 1 +,TRUE,57:33.7,22.253,0.208,236.8,158.6716003,268.1921692,84.95825195,39.38999939,59.72000122,51,0,-20
1.2,50,50,60,go_to_color_detect_up,red,TRUE,FALSE,joint 3 +,TRUE,57:34.5,22.424,0.208,236.8,131.688324,282.4064941,82.9571228,45,65,51,0.909999728,-20
1.2,50,50,60,go_to_color_detect_up,red,TRUE,FALSE,joint 3 +,TRUE,57:35.3,22.234,0.209,236.8,128.5691376,275.7173767,38.92318344,45,65,51,18.74999619,-20
1.2,50,50,60,go_to_color_detect_up,red,TRUE,FALSE,joint 3 +,TRUE,57:37.0,22.272,0.209,236.8,115.5551529,247.8088226,-13.87966156,45,65,51,42.74999619,-20
1.2,50,50,60,go_to_color_detect_up,red,TRUE,FALSE,joint 3 +,TRUE,57:37.8,22.329,0.209,236.8,101.6216125,217.9282379,-40.96598816,45,65,51,58.96999741,-20
1.2,50,50,60,go_to_color_detect_up,red,TRUE,FALSE,joint 3 -,FALSE,57:38.5,22.253,0.209,236.8,108.8339386,233.3951263,-28.95859528,45,65,51,50.38999939,-20
1.2,50,50,60,go_to_color_detect_up,red,TRUE,FALSE,joint 3 -,FALSE,57:40.0,16.804,0.191,236.8,124.7992706,267.6329041,17.65078735,45,65,51,26.75,-20
1.2,50,50,60,go_to_color_detect_up,red,TRUE,FALSE,joint 3 -,FALSE,57:40.7,17.336,0.191,236.8,131.4895782,281.9803162,73.04114532,45,65,51,4.350000381,-20
1.2,50,50,60,detecting_color,red,FALSE,FALSE,detecting_color,FALSE,57:42.1,17.279,0.166,236.8,131.6940765,282.4188232,84.95825195,45,65,51,0,-20
1.2,50,50,60,detecting_color,red,FALSE,FALSE,detecting_color,FALSE,57:42.8,16.861,0.166,236.8,131.6940765,282.4188232,84.95825195,45,65,51,0,-20
1.2,50,50,60,go_to_color_detect_down,red,TRUE,FALSE,joint 3 +,FALSE,57:43.5,16.861,0.163,236.8,131.6599274,282.3455811,80.08444214,45,65,51,2.099999428,-20
1.2,50,50,60,go_to_color_detect_down,red,TRUE,FALSE,joint 3 +,FALSE,57:45.1,16.823,0.163,235,126.2123032,270.663147,24.58258438,45,65,51,24.74999619,-20
1.2,50,50,60,go_to_color_detect_down,red,TRUE,FALSE,joint 3 +,FALSE,57:45.9,16.804,0.162,235,110.9855194,238.009201,-24.60961914,45,65,51,48.64999771,-20
1.2,50,50,60,go_to_color_detect_up,red,TRUE,FALSE,joint 3 -,TRUE,57:46.6,16.823,0.162,236.8,101.5658646,217.8086853,-41.04534149,45,65,51,59,-20
1.2,50,50,60,go_to_color_detect_up,red,TRUE,FALSE,joint 3 -,TRUE,57:48.1,19.481,0.18,236.8,112.9193344,242.1562958,-20.33812714,45,65,51,45.25,-20
1.2,50,50,60,go_to_color_detect_up,red,TRUE,FALSE,joint 3 -,TRUE,57:48.8,22.766,0.18,236.8,127.2713699,272.9343262,30.48630905,45,65,51,21.25,-20
1.2,50,50,60,go_to_color_detect_up,red,TRUE,FALSE,joint 3 -,TRUE,57:49.7,22.69,0.18,236.8,131.6523438,282.3293457,79.57162476,45,65,51,1.900000334,-20
1.2,50,50,60,go_to_green_up,green,TRUE,FALSE,joint 1 +,TRUE,57:50.8,22.614,0.212,236.8,108.3652649,292.1655273,84.95825195,49.65000153,69.95999908,51,0,-20
1.2,50,50,60,go_to_green_up,green,TRUE,FALSE,joint 1 +,TRUE,57:50.8,22.614,0.212,236.8,-9.516283989,311.4693909,84.95825195,71.75,92.25,51,0,-20
1.2,50,50,60,go_to_green_up,green,TRUE,FALSE,joint 1 +,TRUE,57:53.0,22.443,0.209,236.8,-80.33659363,301.0809937,84.95825195,84.94000244,104.9700012,51,0,-20
1.2,50,50,60,go_to_pick_up_from_green,green,TRUE,FALSE,joint 1 -,FALSE,57:53.9,22.405,0.209,236.8,-34.68130875,309.678772,84.95825195,76.38999939,95.97000122,51,0,-20
1.2,50,50,60,go_to_pick_up_from_green,green,TRUE,FALSE,joint 1 -,FALSE,57:54.7,18.228,0.179,236.8,107.8551636,292.3542175,84.95825195,49.75,69.25,51,0,-20
1.2,50,50,60,go_to_pick_up_from_green,green,TRUE,FALSE,joint 1 -,FALSE,57:55.5,16.823,0.179,236.8,219.3813477,221.3041992,84.95825195,25.25,44.75,51,0,-20
1.2,50,50,60,go_to_pick_up_from_green,green,TRUE,FALSE,joint 1 -,FALSE,57:57.0,16.804,0.162,236.8,285.7477112,124.305954,84.95825195,3.510000229,23.25,51,0,-20
1.2,50,50,60,moving_belt,green,FALSE,TRUE,joint 1 -,FALSE,57:57.8,16.785,0.162,236.8,292.822052,106.5785141,84.95825195,0,20,51,0,-20
1.2,50,50,60,moving_belt,green,FALSE,TRUE,joint 1 -,FALSE,57:58.6,16.785,0.163,236.8,292.822052,106.5785141,84.95825195,0,20,51,0,-20
1.2,50,50,60,moving_belt,green,FALSE,TRUE,joint 1 -,FALSE,58:00.1,16.424,0.163,236.8,292.822052,106.5785141,84.95825195,0,20,51,0,-20
1.2,50,50,60,moving_belt,green,FALSE,TRUE,joint 1 -,FALSE,58:00.1,16.424,0.163,236.8,292.822052,106.5785141,84.95825195,0,20,51,0,-20
1.2,50,50,60,go_to_pick_down,green,TRUE,FALSE,joint 3 +,FALSE,58:01.9,16.367,0.16,236.8,292.822052,106.5785141,84.95825195,0,20,51,0,-20
1.2,50,50,60,go_to_pick_down,green,TRUE,FALSE,joint 3 +,FALSE,58:02.7,16.405,0.16,236.8,289.4159851,105.3388062,52.51573181,0,20,51,13.24999809,-20
1.2,50,50,60,go_to_pick_down,green,TRUE,FALSE,joint 3 +,FALSE,58:04.1,16.766,0.16,236.8,276.0249329,100.464859,14.70321655,0,20,51,28.63999748,-20
1.2,50,50,60,go_to_pick_up_from_pick_down,green,TRUE,FALSE,joint 3 -,TRUE,58:04.9,17.886,0.175,236.8,281.4707031,102.4469528,26.60105133,0,20,51,23.05000114,-20
1.2,50,50,60,go_to_pick_up_from_pick_down,green,TRUE,FALSE,joint 3 -,TRUE,58:05.7,22.88,0.175,236.8,292.6327515,106.509613,77.26486206,0,20,51,2.760002375,-20
1.2,50,50,60,go_to_color_detect_up,green,TRUE,FALSE,joint 1 +,TRUE,58:07.2,22.747,0.21,236.8,286.3088684,123.0079956,84.95825195,3.25,23.51000023,51,0,-20
1.2,50,50,60,go_to_color_detect_up,green,TRUE,FALSE,joint 1 +,TRUE,58:07.9,22.272,0.21,236.8,221.3041992,219.3813477,84.95825195,24.75,45.25,51,0,-20
1.2,50,50,60,go_to_color_detect_up,green,TRUE,FALSE,joint 1 +,TRUE,58:08.6,22.538,0.21,236.8,138.3599701,279.213623,84.95825195,43.63999939,63.79999924,51,0,-20
1.2,50,50,60,go_to_color_detect_up,green,TRUE,FALSE,joint 3 +,TRUE,58:10.1,22.367,0.211,235,131.5151062,282.0350342,73.80846405,45,65,51,4.649999142,-20
1.2,50,50,60,go_to_color_detect_up,green,TRUE,FALSE,joint 3 +,TRUE,58:10.8,22.367,0.211,235,124.7992706,267.6329041,17.65079498,45,65,51,27.74999619,-20
1.2,50,50,60,go_to_color_detect_up,green,TRUE,FALSE,joint 3 +,TRUE,58:12.2,22.367,0.209,236.8,106.913559,229.2768555,-32.51831818,45,65,51,53.38999557,-20
1.2,50,50,60,go_to_color_detect_up,green,TRUE,FALSE,joint 3 -,FALSE,58:12.9,22.31,0.209,236.8,101.9831009,218.7034607,-40.44682312,45,65,51,58.45000076,-20
1.2,50,50,60,go_to_color_detect_up,green,TRUE,FALSE,joint 3 -,FALSE,58:13.6,22.31,0.21,236.8,115.1888885,247.0233459,-14.82546234,45,65,51,42.25,-20
1.2,50,50,60,go_to_color_detect_up,green,TRUE,FALSE,joint 3 -,FALSE,58:14.4,17.26,0.21,235,129.361618,277.4168396,45.05650711,45,65,51,15.25,-20
1.2,50,50,60,go_to_color_detect_up,green,TRUE,FALSE,joint 3 -,FALSE,58:16.0,17.222,0.166,235,131.6933441,282.4172668,84.23987579,45,65,51,0.209999159,-20
1.2,50,50,60,detecting_color,green,FALSE,FALSE,detecting_color,FALSE,58:16.7,17.26,0.166,236.8,131.6940765,282.4188232,84.95825195,45,65,51,0,-20
1.2,50,50,60,go_to_color_detect_down,green,TRUE,FALSE,joint 3 +,FALSE,58:18.1,16.842,0.163,236.8,131.6912079,282.4126892,83.54717255,45,65,51,0.659999788,-20
1.2,50,50,60,go_to_color_detect_down,green,TRUE,FALSE,joint 3 +,FALSE,58:18.8,16.937,0.163,236.8,129.058197,276.7662048,42.59341049,45,65,51,17.24999619,-20
1.2,50,50,60,go_to_color_detect_down,green,TRUE,FALSE,joint 3 +,FALSE,58:19.7,16.937,0.163,236.8,116.6328278,250.1198883,-10.99742889,45,65,51,41.24999619,-20
1.2,50,50,60,go_to_color_detect_down,green,TRUE,FALSE,joint 3 +,FALSE,58:20.5,16.785,0.162,236.8,101.7608261,218.2267761,-40.76699066,45,65,51,58.84999847,-20
1.2,50,50,60,go_to_color_detect_up,green,TRUE,FALSE,joint 3 -,TRUE,58:22.1,21.988,0.183,235,108.1664124,231.9636078,-30.22875214,45,65,51,51.20000076,-20
1.2,50,50,60,go_to_color_detect_up,green,TRUE,FALSE,joint 3 -,TRUE,58:23.0,22.785,0.183,236.8,124.5489349,267.0960388,16.51290894,45,65,51,27.25,-20
1.2,50,50,60,go_to_color_detect_up,green,TRUE,FALSE,joint 3 -,TRUE,58:23.7,22.785,0.183,236.8,131.430481,281.8535461,71.43087006,45,65,51,4.960000515,-20
1.2,50,50,60,go_to_blue_up,blue,TRUE,FALSE,joint 1 +,TRUE,58:24.4,22.804,0.212,236.8,122.2580109,286.6299133,84.95825195,46.90000153,67.09999847,51,0,-20
1.2,50,50,60,go_to_blue_up,blue,TRUE,FALSE,joint 1 +,TRUE,58:26.0,22.329,0.21,236.8,40.17867279,309.0136108,84.95825195,62.59182739,82.80625153,51,0,-20
1.2,50,50,60,go_to_pick_up_from_blue,blue,TRUE,FALSE,joint 1 -,FALSE,58:26.9,22.424,0.21,236.8,43.36838913,308.5821228,84.95825195,62,81.75,51,0,-20
1.2,50,50,60,go_to_pick_up_from_blue,blue,TRUE,FALSE,joint 1 -,FALSE,58:26.9,22.424,0.21,236.8,149.8831635,273.2009583,84.95825195,41.25,60.75,51,0,-20
1.2,50,50,60,go_to_pick_up_from_blue,blue,TRUE,FALSE,joint 1 -,FALSE,58:28.8,17.468,0.21,236.8,259.098175,173.1238708,84.95825195,13.75,33.25,51,0,-20
1.2,50,50,60,go_to_pick_up_from_blue,blue,TRUE,FALSE,joint 1 -,FALSE,58:29.6,16.785,0.163,236.8,292.6355896,107.0894394,84.95825195,0.100002289,20.06000137,51,0,-20
1.2,50,50,60,moving_belt,blue,FALSE,TRUE,joint 1 -,FALSE,58:30.5,16.975,0.163,236.8,292.822052,106.5785141,84.95825195,0,20,51,0,-20
1.2,50,50,60,moving_belt,blue,FALSE,TRUE,joint 1 -,FALSE,58:31.7,16.975,0.163,236.8,292.822052,106.5785141,84.95825195,0,20,51,0,-20
1.2,50,50,60,moving_belt,blue,FALSE,TRUE,joint 1 -,FALSE,58:32.5,16.5,0.16,236.8,292.822052,106.5785141,84.95825195,0,20,51,0,-20
1.2,50,50,60,moving_belt,blue,FALSE,TRUE,joint 1 -,FALSE,58:34.1,16.557,0.16,236.8,292.822052,106.5785141,84.95825195,0,20,51,0,-20
1.2,50,50,60,go_to_pick_down,blue,TRUE,FALSE,joint 3 +,FALSE,58:34.9,16.557,0.16,236.8,292.7461243,106.5508728,80.08444214,0,20,51,2.099999666,-20
1.2,50,50,60,go_to_pick_down,blue,TRUE,FALSE,joint 3 +,FALSE,58:35.7,16.557,0.16,236.8,282.1218567,102.68396,28.23006821,0,20,51,23.04999733,-20
1.2,50,50,60,go_to_pick_up_from_pick_down,blue,TRUE,FALSE,joint 3 -,TRUE,58:36.6,16.728,0.16,236.8,275.921051,100.4270554,14.50045776,0,20,51,28.54999924,-20
1.2,50,50,60,go_to_pick_up_from_pick_down,blue,TRUE,FALSE,joint 3 -,TRUE,58:37.4,16.747,0.162,236.8,289.1448059,105.2401047,51.26578903,0,20,51,12.75000191,-20
1.2,50,50,60,go_to_color_detect_up,blue,TRUE,FALSE,joint 1 +,TRUE,58:39.0,22.576,0.162,236.8,292.821991,106.5784912,84.80431366,0,20,51,0.030000955,-20
1.2,50,50,60,go_to_color_detect_up,blue,TRUE,FALSE,joint 1 +,TRUE,58:39.7,22.291,0.211,236.8,263.5412292,166.282135,84.95825195,12.25,32.75,51,0,-20
1.2,50,50,60,go_to_color_detect_up,blue,TRUE,FALSE,joint 1 +,TRUE,58:40.5,22.291,0.211,236.8,172.4902344,259.5204163,84.95825195,36.38999939,56.79999924,51,0,-20
1.2,50,50,60,go_to_color_detect_up,blue,TRUE,FALSE,joint 3 +,TRUE,58:42.0,22.215,0.209,236.8,131.694046,282.4187927,84.80431366,45,65,51,0.099999964,-20
1.2,50,50,60,go_to_color_detect_up,blue,TRUE,FALSE,joint 3 +,TRUE,58:42.7,22.272,0.209,236.8,129.782547,278.3195801,48.7737236,45,65,51,14.74999714,-20
1.2,50,50,60,go_to_color_detect_up,blue,TRUE,FALSE,joint 3 +,TRUE,58:44.1,22.177,0.208,236.8,116.2771606,249.3571625,-11.96557617,45,65,51,41.74999619,-20
1.2,50,50,60,go_to_color_detect_up,blue,TRUE,FALSE,joint 3 +,TRUE,58:44.8,22.386,0.208,236.8,102.2878113,219.3569183,-40.00299835,45,65,51,58.33999634,-20
1.2,50,50,60,go_to_color_detect_up,blue,TRUE,FALSE,joint 3 -,FALSE,58:45.6,22.177,0.209,236.8,106.3304596,228.0263824,-33.5435791,45,65,51,53.38999939,-20
1.2,50,50,60,go_to_color_detect_up,blue,TRUE,FALSE,joint 3 -,FALSE,58:47.0,18.019,0.209,236.8,122.680481,263.0891418,8.69858551,45,65,51,30.75,-20
1.2,50,50,60,go_to_color_detect_up,blue,TRUE,FALSE,joint 3 -,FALSE,58:47.7,17.184,0.166,236.8,131.3965149,281.7807312,70.58802795,45,65,51,5.280000687,-20
1.2,50,50,60,detecting_color,blue,FALSE,FALSE,detecting_color,FALSE,58:48.5,17.184,0.166,236.8,131.6940765,282.4188232,84.95825195,45,65,51,0,-20
1.2,50,50,60,detecting_color,blue,FALSE,FALSE,detecting_color,FALSE,58:49.3,17.241,0.166,236.8,131.6940765,282.4188232,84.95825195,45,65,51,0,-20
1.2,50,50,60,go_to_color_detect_down,blue,TRUE,FALSE,joint 3 +,FALSE,58:50.5,16.842,0.163,236.8,130.9939423,280.9173889,62.95119476,45,65,51,9.029997826,-20
1.2,50,50,60,go_to_color_detect_down,blue,TRUE,FALSE,joint 3 +,FALSE,58:51.9,16.823,0.162,236.8,122.1099319,261.8655701,6.516914368,45,65,51,32.74999619,-20
1.2,50,50,60,go_to_color_detect_down,blue,TRUE,FALSE,joint 3 +,FALSE,58:52.7,16.709,0.162,236.8,105.2558289,225.7218475,-35.36873627,45,65,51,55.21999741,-20
1.2,50,50,60,go_to_color_detect_up,blue,TRUE,FALSE,joint 3 -,TRUE,58:53.5,16.766,0.162,235,102.674057,220.1852112,-39.43214417,45,65,51,57.63999939,-20
1.2,50,50,60,go_to_color_detect_up,blue,TRUE,FALSE,joint 3 -,TRUE,58:55.1,21.722,0.169,236.8,119.3469849,255.9404144,-2.99546051,45,65,51,36.25,-20
1.2,50,50,60,go_to_color_detect_up,blue,TRUE,FALSE,joint 3 -,TRUE,58:55.9,22.747,0.169,236.8,130.1622162,279.1337585,52.515728,45,65,51,12.25,-20
1.2,50,50,60,go_to_red_up,red,TRUE,FALSE,joint 1 +,TRUE,58:56.7,22.614,0.211,236.8,131.6940765,282.4188232,84.93260193,45,65,51,-1.25E-06,-20
1.2,50,50,60,go_to_red_up,red,TRUE,FALSE,joint 1 +,TRUE,58:57.5,22.443,0.211,236.8,68.77253723,303.9310303,84.95825195,57.25,77.75,51,0,-20
1.2,50,50,60,go_to_red_up,red,TRUE,FALSE,joint 1 +,TRUE,58:58.9,22.538,0.209,236.8,-60.79301453,305.6271362,84.95825195,81.25,101.75,51,0,-20
1.2,50,50,60,go_to_red_up,red,TRUE,FALSE,joint 1 +,TRUE,58:59.6,22.538,0.209,236.8,-165.1306763,264.2642212,84.95825195,102,122.2399979,51,0,-20
1.2,50,50,60,go_to_pick_up_from_red,red,TRUE,FALSE,joint 1 -,FALSE,59:00.4,22.462,0.21,236.8,-169.2611847,261.6378784,84.95825195,102.9000015,122.6900024,51,0,-20
1.2,50,50,60,go_to_pick_up_from_red,red,TRUE,FALSE,joint 1 -,FALSE,59:01.9,16.747,0.21,236.8,-55.44982147,306.641571,84.95825195,80.25,99.75,51,0,-20
1.2,50,50,60,go_to_pick_up_from_red,red,TRUE,FALSE,joint 1 -,FALSE,59:02.6,16.747,0.163,236.8,74.06642914,302.6844788,84.95825195,56.25,75.75,51,0,-20
1.2,50,50,60,go_to_pick_up_from_red,red,TRUE,FALSE,joint 1 -,FALSE,59:04.1,16.747,0.163,236.8,190.7759094,246.3905182,84.95825195,32.25,51.75,51,0,-20
1.2,50,50,60,go_to_pick_up_from_red,red,TRUE,FALSE,joint 1 -,FALSE,59:04.8,16.785,0.163,236.8,279.3583679,138.0675201,84.95825195,6.300003052,25.95000267,51,0,-20
1.2,50,50,60,moving_belt,red,FALSE,TRUE,joint 1 -,FALSE,59:05.6,16.709,0.163,236.8,292.822052,106.5785141,84.95825195,0,20,51,0,-20
1.2,50,50,60,moving_belt,red,FALSE,TRUE,joint 1 -,FALSE,59:07.1,16.5,0.163,236.8,292.822052,106.5785141,84.95825195,0,20,51,0,-20
1.2,50,50,60,moving_belt,red,FALSE,TRUE,joint 1 -,FALSE,59:07.9,16.595,0.163,236.8,292.822052,106.5785141,84.95825195,0,20,51,0,-20
1.2,50,50,60,moving_belt,red,FALSE,TRUE,joint 1 -,FALSE,59:08.6,16.595,0.163,236.8,292.822052,106.5785141,84.95825195,0,20,51,0,-20
1.2,50,50,60,moving_belt,red,FALSE,TRUE,joint 1 -,FALSE,59:10.0,16.785,0.161,236.8,292.822052,106.5785141,84.95825195,0,20,51,0,-20
1.2,50,50,60,go_to_pick_down,red,TRUE,FALSE,joint 3 +,FALSE,59:10.7,16.576,0.161,236.8,291.2653198,106.0119095,62.95119095,0,20,51,9.029998779,-20
1.2,50,50,60,go_to_pick_down,red,TRUE,FALSE,joint 3 +,FALSE,59:12.2,16.652,0.161,236.8,277.4472961,100.9825592,17.55957794,0,20,51,27.46999741,-20
1.2,50,50,60,go_to_pick_up_from_pick_down,red,TRUE,FALSE,joint 3 -,TRUE,59:13.0,16.69,0.161,236.8,278.8420105,101.4901886,20.51768494,0,20,51,25.75,-20
1.2,50,50,60,go_to_pick_up_from_pick_down,red,TRUE,FALSE,joint 3 -,TRUE,59:13.9,23.222,0.217,236.8,291.987854,106.2748947,68.82730103,0,20,51,5.95000267,-20
1.2,50,50,60,go_to_color_detect_up,red,TRUE,FALSE,joint 1 +,TRUE,59:14.6,22.576,0.217,236.8,290.2099915,113.4984055,84.95825195,1.36000061,21.53000069,51,0,-20
1.2,50,50,60,go_to_color_detect_up,red,TRUE,FALSE,joint 1 +,TRUE,59:16.2,22.121,0.209,236.8,237.8344727,201.3417511,84.95825195,20.25,40.75,51,0,-20
1.2,50,50,60,go_to_color_detect_up,red,TRUE,FALSE,joint 1 +,TRUE,59:17.1,22.348,0.209,236.8,148.7374878,273.826355,84.95825195,41.49000168,61.75,51,0,-20
1.2,50,50,60,go_to_color_detect_up,red,TRUE,FALSE,joint 3 +,TRUE,59:18.2,22.405,0.209,236.8,131.6089325,282.2362671,77.26486969,45,65,51,3.249999523,-20
1.2,50,50,60,go_to_color_detect_up,red,TRUE,FALSE,joint 3 +,TRUE,59:18.9,22.253,0.209,236.8,126.2123032,270.663147,24.58258438,45,65,51,24.74999619,-20
1.2,50,50,60,go_to_color_detect_up,red,TRUE,FALSE,joint 3 +,TRUE,59:19.7,22.196,0.209,236.8,110.6124268,237.2091064,-25.39286804,45,65,51,49.09999847,-20
1.2,50,50,60,go_to_color_detect_up,red,TRUE,FALSE,joint 3 -,FALSE,59:20.5,22.158,0.208,236.8,101.5658646,217.8086853,-41.04534149,45,65,51,59,-20
1.2,50,50,60,go_to_color_detect_up,red,TRUE,FALSE,joint 3 -,FALSE,59:22.0,18.646,0.167,236.8,111.7475662,239.6434174,-22.96974945,45,65,51,46.75,-20
1.2,50,50,60,go_to_color_detect_up,red,TRUE,FALSE,joint 3 -,FALSE,59:22.7,18.646,0.167,236.8,126.860817,272.053894,28.11174011,45,65,51,22.25,-20
1.2,50,50,60,go_to_color_detect_up,red,TRUE,FALSE,joint 3 -,FALSE,59:23.4,17.07,0.167,236.8,131.6765747,282.3812866,81.46931458,45,65,51,1.200000048,-20
1.2,50,50,60,detecting_color,red,FALSE,FALSE,detecting_color,FALSE,59:25.0,17.26,0.167,236.8,131.6940765,282.4188232,84.95825195,45,65,51,0,-20
1.2,50,50,60,detecting_color,red,FALSE,FALSE,detecting_color,FALSE,59:25.0,17.26,0.167,236.8,131.6940765,282.4188232,84.95825195,45,65,51,0,-20
1.2,50,50,60,go_to_color_detect_down,red,TRUE,FALSE,joint 3 +,FALSE,59:26.4,16.614,0.167,236.8,130.8492126,280.6070251,60.79748154,45,65,51,9.899997711,-20
1.2,50,50,60,go_to_color_detect_down,red,TRUE,FALSE,joint 3 +,FALSE,59:28.2,16.481,0.163,236.8,121.5233765,260.6076965,4.359153748,45,65,51,33.74999619,-20
1.2,50,50,60,go_to_color_detect_down,red,TRUE,FALSE,joint 3 +,FALSE,59:29.0,16.481,0.163,236.8,105.0068817,225.187973,-35.77996063,45,65,51,55.48999786,-20
1.2,50,50,60,go_to_color_detect_up,red,TRUE,FALSE,joint 3 -,TRUE,59:29.7,16.747,0.163,236.8,103.8853226,222.7827911,-37.58046722,45,65,51,56.24000168,-20
1.2,50,50,60,go_to_color_detect_up,red,TRUE,FALSE,joint 3 -,TRUE,59:30.4,18.361,0.163,236.8,120.3029404,257.9904785,0.117904663,45,65,51,34.75,-20
1.2,50,50,60,go_to_color_detect_up,red,TRUE,FALSE,joint 3 -,TRUE,59:32.0,22.633,0.219,236.8,130.4940033,279.8452759,56.20448685,45,65,51,10.81000042,-20
1.2,50,50,60,go_to_green_up,green,TRUE,FALSE,joint 1 +,TRUE,59:32.8,22.633,0.214,236.8,131.6940765,282.4188232,84.95825195,45,65,51,0,-20
1.2,50,50,60,go_to_green_up,green,TRUE,FALSE,joint 1 +,TRUE,59:33.5,22.5,0.214,236.8,63.45776367,305.0849915,84.95825195,58.25,78.75,51,0,-20
1.2,50,50,60,go_to_green_up,green,TRUE,FALSE,joint 1 +,TRUE,59:34.3,21.931,0.214,236.8,-55.98497009,306.5443115,84.95825195,80.34999847,100.6500015,51,0,-20
1.2,50,50,60,go_to_pick_up_from_green,green,TRUE,FALSE,joint 1 -,FALSE,59:35.5,22.329,0.21,236.8,-75.12258148,302.4241028,84.95825195,83.95000458,103.8000031,51,0,-20
1.2,50,50,60,go_to_pick_up_from_green,green,TRUE,FALSE,joint 1 -,FALSE,59:36.4,22.329,0.21,236.8,39.32543945,309.1233521,84.95825195,62.75,82.25,51,0,-20
1.2,50,50,60,go_to_pick_up_from_green,green,TRUE,FALSE,joint 1 -,FALSE,59:38.2,16.595,0.165,236.8,161.6573639,266.4031067,84.95825195,38.75,58.25,51,0,-20
1.2,50,50,60,go_to_pick_up_from_green,green,TRUE,FALSE,joint 1 -,FALSE,59:39.1,16.633,0.162,236.8,257.5775146,175.3782959,84.95825195,14.25,33.75,51,0,-20
1.2,50,50,60,go_to_pick_up_from_green,green,TRUE,FALSE,joint 1 -,FALSE,59:39.8,16.633,0.162,236.8,292.6355896,107.0894394,84.95825195,0.100002289,20.06000137,51,0,-20
1.2,50,50,60,moving_belt,green,FALSE,TRUE,joint 1 -,FALSE,59:40.5,16.747,0.162,236.8,292.822052,106.5785141,84.95825195,0,20,51,0,-20
1.2,50,50,60,moving_belt,green,FALSE,TRUE,joint 1 -,FALSE,59:42.2,16.823,0.164,236.8,292.822052,106.5785141,84.95825195,0,20,51,0,-20
1.2,50,50,60,moving_belt,green,FALSE,TRUE,joint 1 -,FALSE,59:43.2,16.386,0.164,236.8,292.822052,106.5785141,84.95825195,0,20,51,0,-20
1.2,50,50,60,moving_belt,green,FALSE,TRUE,joint 1 -,FALSE,59:43.9,16.633,0.162,236.8,292.822052,106.5785141,84.95825195,0,20,51,0,-20
1.2,50,50,60,go_to_pick_down,green,TRUE,FALSE,joint 3 +,FALSE,59:44.6,16.633,0.162,236.8,292.7831421,106.5643463,81.46931458,0,20,51,1.529999733,-20
1.2,50,50,60,go_to_pick_down,green,TRUE,FALSE,joint 3 +,FALSE,59:46.1,16.614,0.162,236.8,282.7907104,102.9273987,29.96246338,0,20,51,22.33999634,-20
1.2,50,50,60,go_to_pick_up_from_pick_down,green,TRUE,FALSE,joint 3 -,TRUE,59:46.8,16.576,0.162,236.8,275.7473145,100.3638153,14.16294098,0,20,51,28.71999931,-20
1.2,50,50,60,go_to_pick_up_from_pick_down,green,TRUE,FALSE,joint 3 -,TRUE,59:48.2,17.525,0.202,236.8,288.5717773,105.0315399,48.77371216,0,20,51,13.75000191,-20
1.2,50,50,60,go_to_color_detect_up,green,TRUE,FALSE,joint 1 +,TRUE,59:49.2,22.747,0.202,236.8,292.822052,106.5785141,84.95825195,0,20,51,0,-20
1.2,50,50,60,go_to_color_detect_up,green,TRUE,FALSE,joint 1 +,TRUE,59:49.9,22.405,0.21,236.8,266.3184204,161.7968445,84.95825195,11.28000069,31.76000023,51,0,-20
1.2,50,50,60,go_to_color_detect_up,green,TRUE,FALSE,joint 1 +,TRUE,59:50.7,22.215,0.21,236.8,176.3211517,256.9330139,84.95825195,35.54000092,55.97000122,51,0,-20
1.2,50,50,60,go_to_color_detect_up,green,TRUE,FALSE,joint 3 +,TRUE,59:52.2,22.31,0.21,236.8,131.694046,282.4187927,84.80431366,45,65,51,0.099999964,-20
1.2,50,50,60,go_to_color_detect_up,green,TRUE,FALSE,joint 3 +,TRUE,59:53.0,22.121,0.21,236.8,129.361618,277.4168396,45.05651093,45,65,51,16.24999619,-20
1.2,50,50,60,go_to_color_detect_up,green,TRUE,FALSE,joint 3 +,TRUE,59:53.7,22.253,0.21,236.8,116.9849243,250.8749695,-10.02196503,45,65,51,40.74999619,-20
1.2,50,50,60,go_to_color_detect_up,green,TRUE,FALSE,joint 3 +,TRUE,59:54.5,22.253,0.208,236.8,102.5363235,219.8898468,-39.63677979,45,65,51,58.08999634,-20
1.2,50,50,60,go_to_color_detect_up,green,TRUE,FALSE,joint 3 -,FALSE,59:55.3,22.158,0.208,236.8,105.5127487,226.2728119,-34.93980408,45,65,51,54.35000229,-20
1.2,50,50,60,go_to_color_detect_up,green,TRUE,FALSE,joint 3 -,FALSE,59:56.4,22.215,0.207,236.8,123.5059357,264.859314,12.01441956,45,65,51,29.25,-20
1.2,50,50,60,go_to_color_detect_up,green,TRUE,FALSE,joint 3 -,FALSE,59:57.6,16.842,0.207,236.8,131.3189087,281.6142883,68.82730865,45,65,51,5.950000763,-20
1.2,50,50,60,detecting_color,green,FALSE,FALSE,detecting_color,FALSE,59:59.1,17.013,0.166,236.8,131.6940765,282.4188232,84.95825195,45,65,51,0,-20
1.2,50,50,60,detecting_color,green,FALSE,FALSE,detecting_color,FALSE,59:59.9,17.013,0.166,236.8,131.6940765,282.4188232,84.95825195,45,65,51,0,-20
1.2,50,50,60,go_to_color_detect_down,green,TRUE,FALSE,joint 3 +,FALSE,00:00.6,16.861,0.163,236.8,131.5381622,282.0845032,74.55049133,45,65,51,4.349999428,-20
1.2,50,50,60,go_to_color_detect_down,green,TRUE,FALSE,joint 3 +,FALSE,00:02.0,16.709,0.163,236.8,125.5249634,269.1891479,21.09480667,45,65,51,26.24999619,-20
1.2,50,50,60,go_to_color_detect_down,green,TRUE,FALSE,joint 3 +,FALSE,00:02.7,16.614,0.162,236.8,109.5272064,234.8818512,-27.60079956,45,65,51,50.38999557,-20
1.2,50,50,60,go_to_color_detect_up,green,TRUE,FALSE,joint 3 -,TRUE,00:03.5,16.614,0.162,236.8,101.5751572,217.8286133,-41.03211975,45,65,51,58.97000122,-20
1.2,50,50,60,go_to_color_detect_up,green,TRUE,FALSE,joint 3 -,TRUE,00:04.3,16.747,0.162,236.8,114.8191605,246.2304688,-15.76364899,45,65,51,42.75,-20
1.2,50,50,60,go_to_color_detect_up,green,TRUE,FALSE,joint 3 -,TRUE,00:06.2,22.614,0.181,236.8,128.39711,275.3484802,37.70664978,45,65,51,18.25,-20
1.2,50,50,60,go_to_color_detect_up,green,TRUE,FALSE,joint 3 -,TRUE,00:07.0,22.576,0.212,236.8,131.6836395,282.3964539,82.26448822,45,65,51,0.909999847,-20
1.2,50,50,60,go_to_blue_up,blue,TRUE,FALSE,joint 1 +,TRUE,00:07.7,22.31,0.212,236.8,106.7829056,292.7475891,84.95825195,49.95999908,70.27999878,51,0,-20
1.2,50,50,60,go_to_blue_up,blue,TRUE,FALSE,joint 1 +,TRUE,00:09.1,22.215,0.21,236.8,27.58420372,310.391449,84.95825195,64.92151642,84.95594025,51,0,-20
1.2,50,50,60,go_to_pick_up_from_blue,blue,TRUE,FALSE,joint 1 -,FALSE,00:09.8,22.348,0.21,235,71.15745544,303.3815308,84.95825195,56.80000305,76.38999939,51,0,-20
1.2,50,50,60,go_to_pick_up_from_blue,blue,TRUE,FALSE,joint 1 -,FALSE,00:10.6,16.823,0.21,235,186.4467468,249.6824799,84.95825195,33.25,52.75,51,0,-20
1.2,50,50,60,go_to_pick_up_from_blue,blue,TRUE,FALSE,joint 1 -,FALSE,00:12.0,16.823,0.163,236.8,276.6312866,143.4533081,84.95825195,7.410001755,27.03000259,51,0,-20
1.2,50,50,60,moving_belt,blue,FALSE,TRUE,joint 1 -,FALSE,00:12.7,16.785,0.163,236.8,292.822052,106.5785141,84.95825195,0,20,51,0,-20
1.2,50,50,60,moving_belt,blue,FALSE,TRUE,joint 1 -,FALSE,00:14.1,16.918,0.163,236.8,292.822052,106.5785141,84.95825195,0,20,51,0,-20
1.2,50,50,60,moving_belt,blue,FALSE,TRUE,joint 1 -,FALSE,00:14.9,16.918,0.163,236.8,292.822052,106.5785141,84.95825195,0,20,51,0,-20
1.2,50,50,60,moving_belt,blue,FALSE,TRUE,joint 1 -,FALSE,00:15.7,16.519,0.161,236.8,292.822052,106.5785141,84.95825195,0,20,51,0,-20
1.2,50,50,60,moving_belt,blue,FALSE,TRUE,joint 1 -,FALSE,00:17.1,16.538,0.161,236.8,292.822052,106.5785141,84.95825195,0,20,51,0,-20
1.2,50,50,60,go_to_pick_down,blue,TRUE,FALSE,joint 3 +,FALSE,00:17.9,16.367,0.16,236.8,292.2359314,106.3651886,71.43087006,0,20,51,5.609998703,-20
1.2,50,50,60,go_to_pick_down,blue,TRUE,FALSE,joint 3 +,FALSE,00:18.7,16.367,0.16,236.8,278.1037598,101.2214966,18.93128967,0,20,51,26.8999958,-20
1.2,50,50,60,go_to_pick_up_from_pick_down,blue,TRUE,FALSE,joint 3 -,TRUE,00:19.5,16.823,0.16,236.8,278.1037598,101.2214966,18.93128204,0,20,51,26.46999931,-20
1.2,50,50,60,go_to_pick_up_from_pick_down,blue,TRUE,FALSE,joint 3 -,TRUE,00:20.6,16.766,0.163,236.8,292.2359314,106.3651886,71.43086243,0,20,51,4.960002422,-20
1.2,50,50,60,go_to_color_detect_up,blue,TRUE,FALSE,joint 1 +,TRUE,00:22.0,22.633,0.213,236.8,291.0924683,111.2156296,84.95825195,0.910001755,21.05000114,51,0,-20
1.2,50,50,60,go_to_color_detect_up,blue,TRUE,FALSE,joint 1 +,TRUE,00:22.8,22.196,0.213,236.8,243.0234985,195.0469666,84.95825195,18.75,39.25,51,0,-20
1.2,50,50,60,go_to_color_detect_up,blue,TRUE,FALSE,joint 1 +,TRUE,00:24.2,22.329,0.211,236.8,151.3591003,272.3860168,84.95825195,40.94000244,61.22000122,51,0,-20
1.2,50,50,60,go_to_color_detect_up,blue,TRUE,FALSE,joint 3 +,TRUE,00:25.1,22.405,0.211,236.8,131.6765747,282.3812866,81.46931458,45,65,51,1.529999614,-20
1.2,50,50,60,go_to_color_detect_up,blue,TRUE,FALSE,joint 3 +,TRUE,00:25.9,22.102,0.211,236.8,128.0396423,274.5818787,35.28450012,45,65,51,20.24999619,-20
1.2,50,50,60,go_to_color_detect_up,blue,TRUE,FALSE,joint 3 +,TRUE,00:26.8,22.234,0.21,236.8,111.7475662,239.6434174,-22.96974182,45,65,51,47.71999741,-20
1.2,50,50,60,go_to_color_detect_up,blue,TRUE,FALSE,joint 3 +,FALSE,00:28.2,22.196,0.211,236.8,101.5751572,217.8286133,-41.03211975,45,65,51,58.99999619,-20
1.2,50,50,60,go_to_color_detect_up,blue,TRUE,FALSE,joint 3 -,FALSE,00:29.0,22.196,0.211,236.8,109.8830872,235.6450195,-26.88806152,45,65,51,49.10000229,-20
1.2,50,50,60,go_to_color_detect_up,blue,TRUE,FALSE,joint 3 -,FALSE,00:29.7,17.411,0.211,236.8,126.860817,272.053894,28.11174011,45,65,51,22.25,-20
1.2,50,50,60,go_to_color_detect_up,blue,TRUE,FALSE,joint 3 -,FALSE,00:31.1,17.203,0.167,236.8,131.6335144,282.2889709,78.46930695,45,65,51,2.31000042,-20
1.2,50,50,60,detecting_color,blue,FALSE,FALSE,detecting_color,FALSE,00:31.8,17.298,0.167,236.8,131.6940765,282.4188232,84.95825195,45,65,51,0,-20
1.2,50,50,60,go_to_color_detect_down,blue,TRUE,FALSE,joint 3 +,FALSE,00:33.3,16.899,0.165,236.8,131.693985,282.4186401,84.70169067,45,65,51,0.149999946,-20
1.2,50,50,60,go_to_color_detect_down,blue,TRUE,FALSE,joint 3 +,FALSE,00:33.3,16.899,0.165,236.8,129.9137115,278.6008301,50.01843262,45,65,51,14.24999714,-20
1.2,50,50,60,go_to_color_detect_down,blue,TRUE,FALSE,joint 3 +,FALSE,00:35.2,16.842,0.164,236.8,118.3569107,253.8171997,-6.048553467,45,65,51,38.74999619,-20
1.2,50,50,60,go_to_color_detect_down,blue,TRUE,FALSE,joint 3 +,FALSE,00:36.0,16.842,0.164,236.8,102.4075699,219.6137238,-39.82701111,45,65,51,58.21999741,-20
1.2,50,50,60,go_to_color_detect_up,blue,TRUE,FALSE,joint 3 -,TRUE,00:36.7,16.88,0.164,236.8,106.0501785,227.4253235,-34.02753448,45,65,51,53.72000122,-20
1.2,50,50,60,go_to_color_detect_up,blue,TRUE,FALSE,joint 3 -,TRUE,00:38.2,23.165,0.164,236.8,122.3972168,262.4816589,7.604804993,45,65,51,31.25,-20
1.2,50,50,60,go_to_color_detect_up,blue,TRUE,FALSE,joint 3 -,TRUE,00:38.9,22.747,0.215,236.8,131.1192932,281.1862183,65.00805664,45,65,51,7.410000801,-20
1.2,50,50,60,go_to_red_up,red,TRUE,FALSE,joint 1 +,TRUE,00:39.6,22.804,0.215,236.8,127.8372574,284.1854248,84.95825195,45.77999878,65.90999603,51,0,-20
1.2,50,50,60,go_to_red_up,red,TRUE,FALSE,joint 1 +,TRUE,00:41.1,22.272,0.211,236.8,39.32543945,309.1233521,84.95825195,62.75,83.25,51,0,-20
1.2,50,50,60,go_to_red_up,red,TRUE,FALSE,joint 1 +,TRUE,00:41.8,22.481,0.211,236.8,-92.40675354,297.5982666,84.95825195,87.25,107.75,51,0,-20
1.2,50,50,60,go_to_red_up,red,TRUE,FALSE,joint 1 +,TRUE,00:43.2,22.519,0.213,236.8,-175.243454,257.669281,84.95825195,104.2200012,124.340004,51,0,-20
1.2,50,50,60,go_to_pick_up_from_red,red,TRUE,FALSE,joint 1 -,FALSE,00:44.0,22.405,0.213,236.8,-146.150177,275.2160034,84.95825195,97.97000122,117.590004,51,0,-20
1.2,50,50,60,go_to_pick_up_from_red,red,TRUE,FALSE,joint 1 -,FALSE,00:44.6,16.823,0.213,236.8,-25.8042717,310.5444946,84.95825195,74.75,94.25,51,0,-20
1.2,50,50,60,go_to_pick_up_from_red,red,TRUE,FALSE,joint 1 -,FALSE,00:46.1,16.861,0.165,236.8,105.2998352,293.2843018,84.95825195,50.25,69.75,51,0,-20
1.2,50,50,60,go_to_pick_up_from_red,red,TRUE,FALSE,joint 1 -,FALSE,00:46.8,16.861,0.165,236.8,226.9711304,213.5131073,84.95825195,23.25,42.75,51,0,-20
1.2,50,50,60,go_to_pick_up_from_red,red,TRUE,FALSE,joint 1 -,FALSE,00:47.6,16.899,0.164,236.8,287.3503418,120.5550079,84.95825195,2.760004044,22.5300045,51,0,-20
1.2,50,50,60,moving_belt,red,FALSE,TRUE,joint 1 -,FALSE,00:49.2,16.88,0.164,236.8,292.822052,106.5785141,84.95825195,0,20,51,0,-20
1.2,50,50,60,moving_belt,red,FALSE,TRUE,joint 1 -,FALSE,00:49.9,16.975,0.165,236.8,292.822052,106.5785141,84.95825195,0,20,51,0,-20
1.2,50,50,60,moving_belt,red,FALSE,TRUE,joint 1 -,FALSE,00:50.7,16.557,0.165,236.8,292.822052,106.5785141,84.95825195,0,20,51,0,-20
1.2,50,50,60,moving_belt,red,FALSE,TRUE,joint 1 -,FALSE,00:52.2,16.557,0.162,236.8,292.822052,106.5785141,84.95825195,0,20,51,0,-20
1.2,50,50,60,go_to_pick_down,red,TRUE,FALSE,joint 3 +,FALSE,00:53.0,16.557,0.162,236.8,292.822052,106.5785141,84.95825195,0,20,51,0,-20
1.2,50,50,60,go_to_pick_down,red,TRUE,FALSE,joint 3 +,FALSE,00:53.8,16.652,0.162,236.8,288.8634033,105.1376801,50.0184288,0,20,51,14.24999809,-20
1.2,50,50,60,go_to_pick_down,red,TRUE,FALSE,joint 3 +,FALSE,00:54.6,16.709,0.164,236.8,275.8284912,100.393364,14.32039642,0,20,51,28.7899971,-20
1.2,50,50,60,go_to_pick_up_from_pick_down,red,TRUE,FALSE,joint 3 -,TRUE,00:55.8,16.747,0.164,236.8,282.7907104,102.9273987,29.96245575,0,20,51,21.59000015,-20
1.2,50,50,60,go_to_pick_up_from_pick_down,red,TRUE,FALSE,joint 3 -,TRUE,00:56.6,23.127,0.19,236.8,292.7917786,106.5674896,81.87971497,0,20,51,1.05000186,-20
1.2,50,50,60,go_to_color_detect_up,red,TRUE,FALSE,joint 1 +,TRUE,00:58.3,22.196,0.21,236.8,283.2180481,129.9664459,84.95825195,4.650001526,24.96000099,51,0,-20
1.2,50,50,60,go_to_color_detect_up,red,TRUE,FALSE,joint 1 +,TRUE,00:59.1,22.196,0.21,236.8,213.5130768,226.9711304,84.95825195,26.75,47.25,51,0,-20
1.2,50,50,60,go_to_color_detect_up,red,TRUE,FALSE,joint 1 +,TRUE,00:59.8,22.348,0.21,236.8,136.1627502,280.291687,84.95825195,44.09000397,64.22000122,51,0,-20
1.2,50,50,60,go_to_color_detect_up,red,TRUE,FALSE,joint 3 +,TRUE,01:01.2,22.177,0.212,236.8,131.3965149,281.7807312,70.58803558,45,65,51,5.949998856,-20
1.2,50,50,60,go_to_color_detect_up,red,TRUE,FALSE,joint 3 +,TRUE,01:01.9,22.158,0.212,236.8,122.3972168,262.4816589,7.604812622,45,65,51,32.24999619,-20
1.2,50,50,60,go_to_color_detect_up,red,TRUE,FALSE,joint 3 +,TRUE,01:03.2,22.177,0.21,236.8,106.0501785,227.4253235,-34.02753448,45,65,51,54.34999847,-20
1.2,50,50,60,go_to_color_detect_up,red,TRUE,FALSE,joint 3 -,FALSE,01:03.9,22.14,0.21,236.8,102.5363159,219.8898315,-39.63678741,45,65,51,57.79999924,-20
1.2,50,50,60,go_to_color_detect_up,red,TRUE,FALSE,joint 3 -,FALSE,01:04.6,18.722,0.21,236.8,117.3333969,251.6222687,-9.039276123,45,65,51,39.25,-20
1.2,50,50,60,go_to_color_detect_up,red,TRUE,FALSE,joint 3 -,FALSE,01:05.3,18.722,0.21,236.8,130.1622162,279.1337585,52.515728,45,65,51,12.25,-20
1.2,50,50,60,go_to_color_detect_up,red,TRUE,FALSE,joint 3 -,FALSE,01:06.5,17.089,0.21,236.8,131.6940765,282.4188232,84.88128662,45,65,51,0.00999886,-20
1.2,50,50,60,detecting_color,red,FALSE,FALSE,detecting_color,FALSE,01:08.3,16.652,0.168,236.8,131.6940765,282.4188232,84.95825195,45,65,51,0,-20
1.2,50,50,60,go_to_color_detect_down,red,TRUE,FALSE,joint 3 +,FALSE,01:09.0,16.652,0.164,236.8,131.6664124,282.3594971,80.57167053,45,65,51,1.899999499,-20
1.2,50,50,60,go_to_color_detect_down,red,TRUE,FALSE,joint 3 +,FALSE,01:09.8,16.709,0.164,236.8,127.6643524,273.7770691,32.87747574,45,65,51,21.24999619,-20
1.2,50,50,60,go_to_color_detect_down,red,TRUE,FALSE,joint 3 +,FALSE,01:11.2,16.747,0.164,236.8,113.3060226,242.9855347,-19.43899536,45,65,51,45.74999619,-20
1.2,50,50,60,go_to_color_detect_down,red,TRUE,FALSE,joint 3 +,FALSE,01:11.9,16.861,0.164,236.8,101.5658646,217.8086853,-41.04534149,45,65,51,59,-20
1.2,50,50,60,go_to_color_detect_up,red,TRUE,FALSE,joint 3 -,TRUE,01:12.6,16.861,0.164,236.8,110.6124268,237.2091064,-25.3928833,45,65,51,48.19000244,-20
1.2,50,50,60,go_to_color_detect_up,red,TRUE,FALSE,joint 3 -,TRUE,01:14.1,22.652,0.197,236.8,125.9874725,270.1809998,23.41526413,45,65,51,24.25,-20
1.2,50,50,60,go_to_color_detect_up,red,TRUE,FALSE,joint 3 -,TRUE,01:14.9,22.652,0.197,236.8,131.594162,282.2045593,76.62441254,45,65,51,3.000000477,-20
1.2,50,50,60,go_to_green_up,green,TRUE,FALSE,joint 1 +,TRUE,01:15.7,22.557,0.214,236.8,115.471138,289.4307251,84.95825195,48.25,68.51000214,51,0,-20
1.2,50,50,60,go_to_green_up,green,TRUE,FALSE,joint 1 +,TRUE,01:17.2,22.102,0.211,236.8,4.078911304,311.5880127,84.95825195,69.25,89.75,51,0,-20
1.2,50,50,60,go_to_green_up,green,TRUE,FALSE,joint 1 +,TRUE,01:18.0,22.329,0.211,236.8,-79.17996979,301.3872375,84.95825195,84.72000122,104.7900009,51,0,-20
1.2,50,50,60,go_to_pick_up_from_green,green,TRUE,FALSE,joint 1 -,FALSE,01:18.8,22.272,0.211,236.8,-32.4103241,309.9246826,84.95825195,75.97000122,95.54000092,51,0,-20
1.2,50,50,60,go_to_pick_up_from_green,green,TRUE,FALSE,joint 1 -,FALSE,01:20.2,17.279,0.167,236.8,95.00020599,296.7805481,84.95825195,52.25,71.75,51,0,-20
1.2,50,50,60,go_to_pick_up_from_green,green,TRUE,FALSE,joint 1 -,FALSE,01:20.9,16.728,0.167,236.8,209.5193939,230.6628723,84.95825195,27.75,47.25,51,0,-20
1.2,50,50,60,go_to_pick_up_from_green,green,TRUE,FALSE,joint 1 -,FALSE,01:21.7,16.728,0.164,236.8,282.5107117,131.4968872,84.95825195,4.960000992,24.65000153,51,0,-20
1.2,50,50,60,moving_belt,green,FALSE,TRUE,joint 1 -,FALSE,01:22.4,16.861,0.164,236.8,292.822052,106.5785141,84.95825195,0,20,51,0,-20
1.2,50,50,60,moving_belt,green,FALSE,TRUE,joint 1 -,FALSE,01:24.1,16.747,0.164,236.8,292.822052,106.5785141,84.95825195,0,20,51,0,-20
1.2,50,50,60,moving_belt,green,FALSE,TRUE,joint 1 -,FALSE,01:24.8,16.747,0.164,236.8,292.822052,106.5785141,84.95825195,0,20,51,0,-20
1.2,50,50,60,moving_belt,green,FALSE,TRUE,joint 1 -,FALSE,01:26.3,16.671,0.162,236.8,292.822052,106.5785141,84.95825195,0,20,51,0,-20
1.2,50,50,60,moving_belt,green,FALSE,TRUE,joint 1 -,FALSE,01:27.0,16.633,0.162,236.8,292.822052,106.5785141,84.95825195,0,20,51,0,-20
1.2,50,50,60,go_to_pick_down,green,TRUE,FALSE,joint 3 +,FALSE,01:27.8,16.443,0.162,236.8,290.7651367,105.8298569,59.68467712,0,20,51,10.34999847,-20
1.2,50,50,60,go_to_pick_down,green,TRUE,FALSE,joint 3 +,FALSE,01:28.5,16.443,0.163,236.8,276.7095947,100.7140579,16.05922699,0,20,51,28.08999634,-20
1.2,50,50,60,go_to_pick_up_from_pick_down,green,TRUE,FALSE,joint 3 -,TRUE,01:30.1,19.101,0.193,235,282.4542847,102.8049545,29.08325958,0,20,51,21.96999931,-20
1.2,50,50,60,go_to_pick_up_from_pick_down,green,TRUE,FALSE,joint 3 -,TRUE,01:30.9,19.101,0.193,235,292.6618347,106.520195,77.87983704,0,20,51,2.530002356,-20
1.2,50,50,60,go_to_color_detect_up,green,TRUE,FALSE,joint 1 +,TRUE,01:31.7,22.747,0.193,235,288.2883301,118.2944489,84.95825195,2.310001373,22.53000069,51,0,-20
1.2,50,50,60,go_to_color_detect_up,green,TRUE,FALSE,joint 1 +,TRUE,01:33.1,22.196,0.211,235,219.3813477,221.3041992,84.95825195,25.25,45.75,51,0,-20
1.2,50,50,60,go_to_color_detect_up,green,TRUE,FALSE,joint 1 +,TRUE,01:33.8,22.272,0.211,235,138.3599701,279.213623,84.95825195,43.63999939,63.79999924,51,0,-20
1.2,50,50,60,go_to_color_detect_up,green,TRUE,FALSE,joint 3 +,TRUE,01:34.6,22.083,0.211,235,131.5381622,282.0845032,74.55049133,45,65,51,4.349999428,-20
1.2,50,50,60,go_to_color_detect_up,green,TRUE,FALSE,joint 3 +,TRUE,01:36.0,22.083,0.211,235,125.0454025,268.1607361,18.79379272,45,65,51,27.24999619,-20
1.2,50,50,60,go_to_color_detect_up,green,TRUE,FALSE,joint 3 +,TRUE,01:36.8,22.102,0.209,235,107.2161484,229.9257507,-31.97634888,45,65,51,53.04999542,-20
1.2,50,50,60,go_to_color_detect_up,green,TRUE,FALSE,joint 3 -,FALSE,01:37.6,22.177,0.209,235,101.9831009,218.7034607,-40.44682312,45,65,51,58.45000076,-20
1.2,50,50,60,go_to_color_detect_up,green,TRUE,FALSE,joint 3 -,FALSE,01:38.4,21.969,0.209,235,115.5551529,247.8088226,-13.87967682,45,65,51,41.75,-20
1.2,50,50,60,go_to_color_detect_up,green,TRUE,FALSE,joint 3 -,FALSE,01:39.9,21.969,0.209,236.8,128.5691376,275.7173767,38.923172,45,65,51,17.75,-20
1.2,50,50,60,go_to_color_detect_up,green,TRUE,FALSE,joint 3 -,FALSE,01:40.6,16.918,0.166,236.8,131.6936646,282.4179382,84.41947174,45,65,51,0.149999127,-20
1.2,50,50,60,detecting_color,green,FALSE,FALSE,detecting_color,FALSE,01:41.4,16.918,0.166,236.8,131.6940765,282.4188232,84.95825195,45,65,51,0,-20
1.2,50,50,60,go_to_color_detect_down,green,TRUE,FALSE,joint 3 +,FALSE,01:43.2,16.671,0.163,236.8,131.6928406,282.4161987,84.03462982,45,65,51,0.449999869,-20
1.2,50,50,60,go_to_color_detect_down,green,TRUE,FALSE,joint 3 +,FALSE,01:43.9,16.671,0.163,236.8,128.39711,275.3484802,37.70665741,45,65,51,19.24999619,-20
1.2,50,50,60,go_to_color_detect_down,green,TRUE,FALSE,joint 3 +,FALSE,01:44.7,16.652,0.163,236.8,114.8191605,246.2304688,-15.76364136,45,65,51,43.74999619,-20
1.2,50,50,60,go_to_color_detect_down,green,TRUE,FALSE,joint 3 +,FALSE,01:46.1,16.69,0.162,236.8,101.899826,218.5248718,-40.5671463,45,65,51,58.71999741,-20
1.2,50,50,60,go_to_color_detect_up,green,TRUE,FALSE,joint 3 -,TRUE,01:46.9,16.652,0.162,236.8,107.8427048,231.2694244,-30.83193207,45,65,51,51.59000015,-20
1.2,50,50,60,go_to_color_detect_up,green,TRUE,FALSE,joint 3 -,TRUE,01:47.7,22.804,0.19,236.8,125.5249634,269.1891479,21.09479904,45,65,51,25.25,-20
1.2,50,50,60,go_to_color_detect_up,green,TRUE,FALSE,joint 3 -,TRUE,01:48.4,22.519,0.19,236.8,131.5589142,282.1289978,75.26718903,45,65,51,3.510000467,-20
1.2,50,50,60,go_to_blue_up,blue,TRUE,FALSE,joint 1 +,TRUE,01:50.1,22.519,0.213,236.8,124.1064148,285.8344421,84.95825195,46.52999878,66.70999908,51,0,-20
1.2,50,50,60,go_to_blue_up,blue,TRUE,FALSE,joint 1 +,TRUE,01:50.9,22.196,0.213,236.8,34.93008804,309.6508179,84.95825195,63.56396484,83.72839355,51,0,-20
1.2,50,50,60,go_to_pick_up_from_blue,blue,TRUE,FALSE,joint 1 -,FALSE,01:51.7,22.253,0.209,236.8,47.56510544,307.9631348,84.95825195,61.22000122,80.94000244,51,0,-20
1.2,50,50,60,go_to_pick_up_from_blue,blue,TRUE,FALSE,joint 1 -,FALSE,01:53.2,16.633,0.209,236.8,156.9833679,269.1838684,84.95825195,39.75,59.25,51,0,-20
1.2,50,50,60,go_to_pick_up_from_blue,blue,TRUE,FALSE,joint 1 -,FALSE,01:54.0,16.633,0.163,236.8,254.4775085,179.8469391,84.95825195,15.25,34.75,51,0,-20
1.2,50,50,60,go_to_pick_up_from_blue,blue,TRUE,FALSE,joint 1 -,FALSE,01:54.8,16.652,0.163,236.8,292.8034668,106.6296158,84.95825195,0.010000229,20,51,0,-20
1.2,50,50,60,moving_belt,blue,FALSE,TRUE,joint 1 -,FALSE,01:56.2,16.633,0.163,236.8,292.822052,106.5785141,84.95825195,0,20,51,0,-20
1.2,50,50,60,moving_belt,blue,FALSE,TRUE,joint 1 -,FALSE,01:57.0,16.481,0.163,236.8,292.822052,106.5785141,84.95825195,0,20,51,0,-20
1.2,50,50,60,moving_belt,blue,FALSE,TRUE,joint 1 -,FALSE,01:57.8,16.481,0.164,236.8,292.822052,106.5785141,84.95825195,0,20,51,0,-20
1.2,50,50,60,moving_belt,blue,FALSE,TRUE,joint 1 -,FALSE,01:59.3,16.367,0.164,236.8,292.822052,106.5785141,84.95825195,0,20,51,0,-20
1.2,50,50,60,go_to_pick_down,blue,TRUE,FALSE,joint 3 +,FALSE,02:00.0,16.367,0.163,236.8,292.7098083,106.5376587,79.03324127,0,20,51,2.529999733,-20
1.2,50,50,60,go_to_pick_down,blue,TRUE,FALSE,joint 3 +,FALSE,02:00.7,16.633,0.163,236.8,282.7907104,102.9273987,29.96246338,0,20,51,22.33999634,-20
1.2,50,50,60,go_to_pick_up_from_pick_down,blue,TRUE,FALSE,joint 3 -,TRUE,02:02.3,16.633,0.163,236.8,275.6775818,100.3384399,14.02807617,0,20,51,28.78999901,-20
1.2,50,50,60,go_to_pick_up_from_pick_down,blue,TRUE,FALSE,joint 3 -,TRUE,02:03.0,22.121,0.163,236.8,290.3707886,105.6863251,57.38798904,0,20,51,10.35000229,-20
1.2,50,50,60,go_to_color_detect_up,blue,TRUE,FALSE,joint 1 +,TRUE,02:03.8,22.633,0.163,236.8,292.822052,106.5785141,84.95825195,0,20,51,0,-20
1.2,50,50,60,go_to_color_detect_up,blue,TRUE,FALSE,joint 1 +,TRUE,02:04.6,22.272,0.212,236.8,268.9094238,157.4529724,84.95825195,10.35000229,30.81000137,51,0,-20
1.2,50,50,60,go_to_color_detect_up,blue,TRUE,FALSE,joint 1 +,TRUE,02:05.9,22.215,0.212,235,182.3254852,252.7076263,84.95825195,34.19000244,54.65000153,51,0,-20
1.2,50,50,60,go_to_color_detect_up,blue,TRUE,FALSE,joint 3 +,TRUE,02:06.8,22.31,0.211,235,131.6936646,282.4179382,84.41947174,45,65,51,0.279999912,-20
1.2,50,50,60,go_to_color_detect_up,blue,TRUE,FALSE,joint 3 +,TRUE,02:07.9,22.14,0.211,236.8,129.6468048,278.0284729,47.53177261,45,65,51,15.24999714,-20
