demetriskallis/dobot_magician_pick_and_place_and_color_sorting/Sampling/OLD_DATA/sampling_joint_movement_extra/joint_measurements__armv_70_arma_70_belts_70_cube_1.2g.csv
cube/weight,arm/velocity_ratio,arm/acceleration_ratio,belt/speed,dobot/operation,dobot/color,dobot/moving_arm,dobot/moving_belt,dobot/operation2,dobot/suction,meross/sample_timestamp,meross/power,meross/current,meross/voltage,dobot/pose_x,dobot/pose_y,dobot/pose_z,dobot/pose_rHead,dobot/pose_joint1Angle,dobot/pose_joint2Angle,dobot/pose_joint3Angle,dobot/pose_joint4Angle
1.2,70,70,70,homing,,,,homing,,,,,,176.8170929,71.69242096,70.62530518,2.070631027,21.67063141,-0.449152946,25.96964073,-20
1.2,70,70,70,homing,,,,homing,,,,,,190.5591278,9.55542469,70.62530518,-17.12935638,2.470643044,-0.449152946,25.96964073,-20
1.2,70,70,70,homing,,,,homing,,,,,,180.2628784,-62.5250473,70.62530518,-39.12934875,-19.52934837,-0.449152946,25.96964073,-20
1.2,70,70,70,homing,,,,homing,,49:16.3,16.842,0.161,235,149.6735687,-118.3296661,70.62530518,-58.32936096,-38.72936249,-0.449152946,25.96964073,-20
1.2,70,70,70,homing,,,,homing,,49:17.1,16.652,0.161,235,102.4333038,-160.9705048,70.62530518,-77.5294342,-57.92943573,-0.449152946,25.96964073,-20
1.2,70,70,70,homing,,,,homing,,49:17.8,16.652,0.16,235,35.98261261,-187.3748627,70.62530518,-99.1295166,-79.52951813,-0.449152946,25.96964073,-20
1.2,70,70,70,homing,,,,homing,,49:19.4,16.69,0.16,235,-27.64045143,-188.7858429,70.62530518,-118.3295898,-98.72959137,-0.449152946,25.96964073,-20
1.2,70,70,70,homing,,,,homing,,49:19.4,16.69,0.16,235,-89.36762238,-168.5749512,70.62530518,-137.929657,-118.3296661,-0.449152946,25.96964073,-20
1.2,70,70,70,homing,,,,homing,,49:21.3,16.709,0.16,235,-138.834137,-130.8784637,70.62530518,-156.6895599,-136.6695557,-0.449152946,25.96964073,-20
1.2,70,70,70,homing,,,,homing,,49:22.0,16.766,0.16,235,-136.3420868,-133.4725494,70.62530518,-155.6093292,-135.589325,-0.449152946,25.96964073,-20
1.2,70,70,70,homing,,,,homing,,49:22.8,16.766,0.16,235,-119.6515961,-151.3915863,69.32327271,-147.727829,-127.9129105,0.814010143,26.56648636,-19.37098122
1.2,70,70,70,homing,,,,homing,,49:24.3,16.69,0.162,235,-35.26339722,-200.9529572,61.69625092,-116.2676544,-99.35296631,7.129825115,29.55072403,-16.22589111
1.2,70,70,70,homing,,,,homing,,49:25.1,16.69,0.162,235,74.10448456,-209.8818665,44.41436005,-81.2731781,-69.95304108,18.46857452,34.90831375,-10.57953072
1.2,70,70,70,homing,,,,homing,,49:25.9,16.88,0.162,235,178.6638794,-159.4810486,21.26799011,-46.48246384,-41.15311432,30.41635513,40.55366898,-4.629885197
1.2,70,70,70,homing,,,,homing,,49:27.3,16.785,0.163,235,244.5924988,-42.61610413,4.095611572,-10.75452709,-9.402545929,38.05002213,44.16059113,-0.828543305
1.2,70,70,70,homing,,,,homing,,49:28.1,16.88,0.163,235,251.6853485,-0.821816027,-1.959648132,-0.187084481,-0.166640624,40.69199371,45.08795929,0
1.2,70,70,70,homing,,,,homing,,49:28.9,16.88,0.16,235,249.9999847,0.00017966,-7.63E-06,4.12E-05,4.12E-05,39.71385956,44.94676971,0
1.2,70,70,70,homing,,,,homing,,49:30.3,16.595,0.16,235,249.9999847,0.00017966,-7.63E-06,4.12E-05,4.12E-05,39.71385956,44.94676971,0
1.2,70,70,70,homing,,,,homing,,49:31.1,16.595,0.159,235,249.9999847,0.00017966,-7.63E-06,4.12E-05,4.12E-05,39.71385956,44.94676971,0
1.2,70,70,70,homing,,,,homing,,49:31.9,16.576,0.159,235,249.9999847,0.00017966,-7.63E-06,4.12E-05,4.12E-05,39.71385956,44.94676971,0
1.2,70,70,70,homing,,,,homing,,49:33.0,16.481,0.159,235,249.9999847,0.00017966,-7.63E-06,4.12E-05,4.12E-05,39.71385956,44.94676971,0
1.2,70,70,70,homing,,,,homing,,49:34.4,16.652,0.159,235,249.9999847,0.00017966,-7.63E-06,4.12E-05,4.12E-05,39.71385956,44.94676971,0
1.2,70,70,70,homing,,,,homing,,49:35.2,16.595,0.159,235,249.9999847,0.00017966,-7.63E-06,4.12E-05,4.12E-05,39.71385956,44.94676971,0
1.2,70,70,70,homing,,,,homing,,49:36.0,16.595,0.16,235,249.9999847,0.00017966,-7.63E-06,4.12E-05,4.12E-05,39.71385956,44.94676971,0
1.2,70,70,70,homing,,,,homing,,49:37.4,16.386,0.16,235,249.9999847,0.00017966,-7.63E-06,4.12E-05,4.12E-05,39.71385956,44.94676971,0
1.2,70,70,70,homing,,,,homing,,49:38.1,16.386,0.16,235,249.9999847,0.00017966,-7.63E-06,4.12E-05,4.12E-05,39.71385956,44.94676971,0
1.2,70,70,70,homing,,,,homing,,49:39.3,16.5,0.16,233.1,249.9999847,0.00017966,-7.63E-06,4.12E-05,4.12E-05,39.71385956,44.94676971,0
1.2,70,70,70,homing,,,,homing,,49:39.9,16.576,0.161,233.1,250.6331787,3.062026024,1.977386475,4.12E-05,0.826750338,39.2602005,44.0458374,-0.826709151
1.2,70,70,70,homing,,,,homing,,49:41.4,16.994,0.161,233.1,268.9385376,78.13941193,49.3224678,4.20E-05,16.47334862,38.87981033,21.89910126,-16.47330666
1.2,70,70,70,go_to_pick_up_from_homing,nothing,,,go_to_pick_up_from_homing,,49:42.1,17.089,0.166,233.1,280.2781067,104.2459946,69.99617004,3.24E-05,20.38749313,44.77675247,9.903081894,-20.38746262
1.2,70,70,70,moving_belt,nothing,FALSE,TRUE,go_to_pick_up_from_homing,,49:42.8,17.089,0.166,233.1,292.822052,106.5785141,84.95825195,0,20,51,-2.33E-10,-20
1.2,70,70,70,moving_belt,nothing,FALSE,TRUE,go_to_pick_up_from_homing,,49:44.2,16.88,0.162,233.1,292.822052,106.5785141,84.95825195,0,20,51,-2.33E-10,-20
1.2,70,70,70,moving_belt,nothing,FALSE,TRUE,go_to_pick_up_from_homing,,49:45.0,15.873,0.162,233.1,292.822052,106.5785141,84.95825195,0,20,51,-2.33E-10,-20
1.2,70,70,70,moving_belt,nothing,FALSE,TRUE,go_to_pick_up_from_homing,,49:45.8,15.873,0.162,233.1,292.822052,106.5785141,84.95825195,0,20,51,-2.33E-10,-20
1.2,70,70,70,go_to_pick_down,nothing,TRUE,FALSE,joint 3 +,,49:47.3,16.405,0.16,233.1,292.4657593,106.4488373,74.40718079,0,20,51,4.527599335,-20
1.2,70,70,70,go_to_pick_down,nothing,TRUE,FALSE,joint 3 +,,49:48.2,16.405,0.16,233.1,276.3106995,100.5688705,15.2650528,0,20,51,28.45643425,-20
1.2,70,70,70,go_to_pick_up_from_pick_down,nothing,TRUE,FALSE,joint 3 -,TRUE,49:48.9,16.31,0.159,233.1,287.9762268,104.8147736,46.36393356,0,20,51,14.47640896,-20
1.2,70,70,70,go_to_color_detect_up,nothing,TRUE,FALSE,joint 1 +,TRUE,49:50.4,23.07,0.159,233.1,289.8743591,114.3528748,84.95825195,1.528795242,21.78359604,51,0,-20
1.2,70,70,70,go_to_color_detect_up,nothing,TRUE,FALSE,joint 1 +,TRUE,49:51.2,22.823,0.211,233.1,182.6638641,252.4631348,84.95825195,34.11325073,54.7567482,51,0,-20
1.2,70,70,70,go_to_color_detect_up,nothing,TRUE,FALSE,joint 3 +,TRUE,49:52.0,22.823,0.211,233.1,131.6639862,282.3543091,80.38292694,45,65,51,2.058000088,-20
1.2,70,70,70,go_to_color_detect_up,nothing,TRUE,FALSE,joint 3 +,TRUE,49:52.8,22.937,0.211,233.1,119.9853363,257.3093567,-0.93561554,45,65,51,36.69919968,-20
1.2,70,70,70,go_to_color_detect_up,nothing,TRUE,FALSE,joint 3 -,FALSE,49:54.4,22.709,0.21,233.1,101.5658569,217.80867,-41.04534912,45,65,51,59,-20
1.2,70,70,70,go_to_color_detect_up,nothing,TRUE,FALSE,joint 3 -,FALSE,49:55.2,22.367,0.197,233.1,120.465126,258.3382874,0.663536072,45,65,51,34.00999832,-20
1.2,70,70,70,go_to_color_detect_up,nothing,TRUE,FALSE,joint 3 -,FALSE,49:56.2,16.88,0.197,233.1,131.6704254,282.3681335,80.90299225,45,65,51,1.341607213,-20
1.2,70,70,70,detecting_color,nothing,FALSE,FALSE,detecting_color,FALSE,49:57.0,16.88,0.197,233.1,131.6940765,282.4188232,84.95825195,45,65,51,0,-20
1.2,70,70,70,go_to_color_detect_down,nothing,TRUE,FALSE,joint 3 +,FALSE,49:57.8,16.69,0.16,233.1,131.6782532,282.3848877,81.63963318,45,65,51,1.52880013,-20
1.2,70,70,70,go_to_color_detect_down,nothing,TRUE,FALSE,joint 3 +,FALSE,49:59.3,16.386,0.158,233.1,121.1879654,259.8884277,3.161476135,45,65,51,34.7899971,-20
1.2,70,70,70,go_to_color_detect_up,nothing,TRUE,FALSE,joint 3 -,TRUE,50:00.0,16.386,0.158,233.1,101.591507,217.863678,-41.0088501,45,65,51,58.9960022,-20
1.2,70,70,70,go_to_color_detect_up,nothing,TRUE,FALSE,joint 3 -,TRUE,50:00.8,16.481,0.158,233.1,120.465126,258.3382874,0.663536072,45,65,51,34.00999832,-20
1.2,70,70,70,go_to_color_detect_up,nothing,TRUE,FALSE,joint 3 -,TRUE,50:02.2,23.355,0.218,233.1,131.6770477,282.3823242,81.51649475,45,65,51,1.122007251,-20
1.2,70,70,70,go_to_red_up,red,TRUE,FALSE,joint 1 +,TRUE,50:02.9,23.336,0.218,233.1,71.88826752,303.209198,84.95825195,56.66194916,77.34794617,51,0,-20
1.2,70,70,70,go_to_red_up,red,TRUE,FALSE,joint 1 +,TRUE,50:04.2,23.089,0.212,233.1,-138.272049,279.2571716,84.95825195,96.34195709,116.9147568,51,0,-20
1.2,70,70,70,go_to_pick_up_from_red,red,TRUE,FALSE,joint 1 -,FALSE,50:05.1,23.089,0.212,233.1,-159.9524536,267.4302673,84.95825195,100.8840179,120.4724197,51,0,-20
1.2,70,70,70,go_to_pick_up_from_red,red,TRUE,FALSE,joint 1 -,FALSE,50:05.9,22.994,0.196,233.1,41.37472916,308.8557434,84.95825195,62.37000275,81.38999939,51,0,-20
1.2,70,70,70,go_to_pick_up_from_red,red,TRUE,FALSE,joint 1 -,FALSE,50:06.7,16.614,0.196,233.1,251.5032501,183.9832611,84.95825195,16.18675232,35.39995193,51,0,-20
1.2,70,70,70,moving_belt,red,FALSE,TRUE,joint 1 -,FALSE,50:08.3,16.652,0.16,233.1,292.822052,106.5785141,84.95825195,0,20,51,0,-20
1.2,70,70,70,moving_belt,red,FALSE,TRUE,joint 1 -,FALSE,50:09.5,16.747,0.16,233.1,292.822052,106.5785141,84.95825195,0,20,51,0,-20
1.2,70,70,70,moving_belt,red,FALSE,TRUE,joint 1 -,FALSE,50:10.2,16.595,0.16,233.1,292.822052,106.5785141,84.95825195,0,20,51,0,-20
1.2,70,70,70,moving_belt,red,FALSE,TRUE,joint 1 -,FALSE,50:11.0,16.595,0.16,233.1,292.822052,106.5785141,84.95825195,0,20,51,0,-20
1.2,70,70,70,go_to_pick_down,red,TRUE,FALSE,joint 3 +,FALSE,50:11.8,16.386,0.16,233.1,292.6725769,106.5241089,78.12176514,0,20,51,2.998799562,-20
1.2,70,70,70,go_to_pick_down,red,TRUE,FALSE,joint 3 +,FALSE,50:13.5,16.519,0.161,233.1,276.9718323,100.8095016,16.58774567,0,20,51,27.93129349,-20
1.2,70,70,70,go_to_pick_up_from_pick_down,red,TRUE,FALSE,joint 3 -,TRUE,50:14.3,16.462,0.202,233.1,289.2767334,105.2881165,51.86765671,0,20,51,12.30486965,-20
1.2,70,70,70,go_to_color_detect_up,red,TRUE,FALSE,joint 1 +,TRUE,50:15.0,23.545,0.202,233.1,291.1467896,111.0733337,84.95825195,0.881996155,21.0779953,51,0,-20
1.2,70,70,70,go_to_color_detect_up,red,TRUE,FALSE,joint 1 +,TRUE,50:16.4,22.842,0.213,233.1,194.651123,243.3406677,84.95825195,31.34326172,52.06515884,51,0,-20
1.2,70,70,70,go_to_color_detect_up,red,TRUE,FALSE,joint 3 +,TRUE,50:17.1,22.804,0.213,233.1,131.6893616,282.4087524,83.14798737,45,65,51,0.882000089,-20
1.2,70,70,70,go_to_color_detect_up,red,TRUE,FALSE,joint 3 +,TRUE,50:17.8,22.804,0.213,233.1,119.379921,256.0110474,-2.89099884,45,65,51,37.62440109,-20
1.2,70,70,70,go_to_color_detect_up,red,TRUE,FALSE,joint 3 +,FALSE,50:19.4,22.918,0.21,235,101.5658569,217.80867,-41.04534912,45,65,51,59,-20
1.2,70,70,70,go_to_color_detect_up,red,TRUE,FALSE,joint 3 -,FALSE,50:20.1,22.576,0.21,235,116.8386002,250.5611877,-10.4294281,45,65,51,39.59599686,-20
1.2,70,70,70,go_to_color_detect_up,red,TRUE,FALSE,joint 3 -,FALSE,50:20.9,22.576,0.161,235,131.6233826,282.2672424,77.94747925,45,65,51,2.416007042,-20
1.2,70,70,70,detecting_color,red,FALSE,FALSE,detecting_color,FALSE,50:22.4,16.69,0.161,235,131.6940765,282.4188232,84.95825195,45,65,51,0,-20
1.2,70,70,70,go_to_color_detect_down,red,TRUE,FALSE,joint 3 +,FALSE,50:23.2,16.69,0.16,235,131.6912231,282.4127197,83.55025482,45,65,51,0.705600083,-20
1.2,70,70,70,go_to_color_detect_down,red,TRUE,FALSE,joint 3 +,FALSE,50:23.9,16.652,0.16,235,122.8930664,263.5450134,9.533737183,45,65,51,31.84999847,-20
1.2,70,70,70,go_to_color_detect_down,red,TRUE,FALSE,joint 3 +,FALSE,50:25.4,16.405,0.161,235,101.8609238,218.4414368,-40.62319183,45,65,51,58.78399658,-20
1.2,70,70,70,go_to_color_detect_up,red,TRUE,FALSE,joint 3 -,TRUE,50:26.1,16.766,0.161,235,117.4400024,251.8508911,-8.735160828,45,65,51,38.71399689,-20
1.2,70,70,70,go_to_color_detect_up,red,TRUE,FALSE,joint 3 -,TRUE,50:26.9,23.298,0.161,235,131.6048737,282.2275391,77.08345795,45,65,51,2.733607054,-20
1.2,70,70,70,go_to_green_up,green,TRUE,FALSE,joint 1 +,TRUE,50:27.7,23.279,0.214,235,91.32800293,297.9310913,84.95825195,52.95756531,73.52596283,51,0,-20
1.2,70,70,70,go_to_green_up,green,TRUE,FALSE,joint 1 +,TRUE,50:29.4,22.842,0.21,235,-72.11621094,303.1550598,84.95825195,83.3811264,103.6231995,51,0,-20
1.2,70,70,70,go_to_pick_up_from_green,green,TRUE,FALSE,joint 1 -,FALSE,50:30.2,20.431,0.21,235,-2.591346979,311.6039429,84.95825195,70.47646332,89.71206665,51,0,-20
1.2,70,70,70,go_to_pick_up_from_green,green,TRUE,FALSE,joint 1 -,FALSE,50:31.0,20.431,0.21,235,221.3806305,219.3042145,84.95825195,24.73003387,43.75523376,51,0,-20
1.2,70,70,70,moving_belt,green,FALSE,TRUE,joint 1 -,FALSE,50:31.7,16.728,0.16,235,292.7952271,106.6522064,84.95825195,0.014419556,20.00001907,51,0,-20
1.2,70,70,70,moving_belt,green,FALSE,TRUE,joint 1 -,FALSE,50:33.3,16.69,0.16,235,292.822052,106.5785141,84.95825195,0,20,51,0,-20
1.2,70,70,70,moving_belt,green,FALSE,TRUE,joint 1 -,FALSE,50:34.1,16.5,0.162,235,292.822052,106.5785141,84.95825195,0,20,51,0,-20
1.2,70,70,70,moving_belt,green,FALSE,TRUE,joint 1 -,FALSE,50:34.9,16.5,0.162,235,292.822052,106.5785141,84.95825195,0,20,51,0,-20
1.2,70,70,70,go_to_pick_down,green,TRUE,FALSE,joint 3 +,FALSE,50:36.3,16.424,0.159,235,292.8217468,106.5784073,84.65653229,0,20,51,0.19599998,-20
1.2,70,70,70,go_to_pick_down,green,TRUE,FALSE,joint 3 +,FALSE,50:37.0,16.424,0.159,235,279.5751343,101.7570267,22.14249802,0,20,51,25.66852188,-20
1.2,70,70,70,go_to_pick_up_from_pick_down,green,TRUE,FALSE,joint 3 -,TRUE,50:38.4,16.443,0.158,235,283.1295471,103.0507278,30.8649292,0,20,51,21.04240227,-20
1.2,70,70,70,go_to_color_detect_up,green,TRUE,FALSE,joint 1 +,TRUE,50:38.4,16.443,0.158,235,292.822052,106.5785141,84.90052032,0,20,51,0.004254526,-20
1.2,70,70,70,go_to_color_detect_up,green,TRUE,FALSE,joint 1 +,TRUE,50:39.9,21.95,0.158,235,243.7313232,194.1617432,84.95825195,18.54159927,39.40399933,51,0,-20
1.2,70,70,70,go_to_color_detect_up,green,TRUE,FALSE,joint 3 +,TRUE,50:41.3,22.671,0.212,233.1,131.6940765,282.4188232,84.95825195,45,65,51,0.019600002,-20
1.2,70,70,70,go_to_color_detect_up,green,TRUE,FALSE,joint 3 +,TRUE,50:42.1,22.671,0.21,233.1,126.3186874,270.8912964,25.14451981,45,65,51,24.99000168,-20
1.2,70,70,70,go_to_color_detect_up,green,TRUE,FALSE,joint 3 +,TRUE,50:42.8,22.538,0.21,233.1,102.8038864,220.4636383,-39.23815918,45,65,51,57.87799072,-20
1.2,70,70,70,go_to_color_detect_up,green,TRUE,FALSE,joint 3 -,FALSE,50:44.4,22.291,0.21,233.1,111.1352921,238.3303986,-24.29159546,45,65,51,47.33800125,-20
1.2,70,70,70,go_to_color_detect_up,green,TRUE,FALSE,joint 3 -,FALSE,50:45.1,16.937,0.206,233.1,131.1596375,281.2727356,65.71797943,45,65,51,6.987606525,-20
1.2,70,70,70,detecting_color,green,FALSE,FALSE,detecting_color,FALSE,50:46.2,16.937,0.206,233.1,131.6940765,282.4188232,84.95825195,45,65,51,0,-20
1.2,70,70,70,detecting_color,green,FALSE,FALSE,detecting_color,FALSE,50:47.0,16.804,0.163,233.1,131.6940765,282.4188232,84.95825195,45,65,51,0,-20
1.2,70,70,70,go_to_color_detect_down,green,TRUE,FALSE,joint 3 +,FALSE,50:47.7,16.462,0.163,233.1,128.7535706,276.112915,40.26831818,45,65,51,18.54160309,-20
1.2,70,70,70,go_to_color_detect_down,green,TRUE,FALSE,joint 3 +,FALSE,50:49.3,16.405,0.16,233.1,104.372612,223.827774,-36.80858612,45,65,51,56.26638794,-20
1.2,70,70,70,go_to_color_detect_up,green,TRUE,FALSE,joint 3 -,TRUE,50:50.1,16.557,0.16,233.1,107.2764816,230.0551453,-31.86745453,45,65,51,52.12041092,-20
1.2,70,70,70,go_to_color_detect_up,green,TRUE,FALSE,joint 3 -,TRUE,50:50.9,23.431,0.211,233.1,130.2233429,279.2648315,53.16165161,45,65,51,11.80200577,-20
1.2,70,70,70,go_to_blue_up,blue,TRUE,FALSE,joint 1 +,TRUE,50:52.3,23.127,0.211,233.1,118.4172516,288.2378845,84.95825195,47.66558838,67.99878693,51,0,-20
1.2,70,70,70,go_to_pick_up_from_blue,blue,TRUE,FALSE,joint 1 -,FALSE,50:53.1,22.557,0.211,233.1,27.15902901,310.4289246,84.95825195,65,85,51,0,-20
1.2,70,70,70,go_to_pick_up_from_blue,blue,TRUE,FALSE,joint 1 -,FALSE,50:53.8,22.728,0.211,233.1,133.1017303,281.7581482,84.95825195,44.71408844,63.81248856,51,0,-20
1.2,70,70,70,go_to_pick_up_from_blue,blue,TRUE,FALSE,joint 1 -,FALSE,50:54.6,22.728,0.211,233.1,287.3198853,120.627594,84.95825195,2.774478912,24.6684761,51,0,-20
1.2,70,70,70,moving_belt,blue,FALSE,TRUE,joint 1 -,FALSE,50:55.8,16.709,0.162,233.1,292.822052,106.5785141,84.95825195,0,20,51,0,-20
1.2,70,70,70,moving_belt,blue,FALSE,TRUE,joint 1 -,FALSE,50:56.7,16.538,0.162,233.1,292.822052,106.5785141,84.95825195,0,20,51,0,-20
1.2,70,70,70,moving_belt,blue,FALSE,TRUE,joint 1 -,FALSE,50:58.5,16.481,0.162,233.1,292.822052,106.5785141,84.95825195,0,20,51,0,-20
1.2,70,70,70,moving_belt,blue,FALSE,TRUE,joint 1 -,FALSE,50:59.3,16.481,0.16,233.1,292.822052,106.5785141,84.95825195,0,20,51,0,-20
1.2,70,70,70,go_to_pick_down,blue,TRUE,FALSE,joint 3 +,FALSE,51:00.0,16.386,0.16,231.2,290.2861633,105.6555252,56.92041016,0,20,51,11.6619997,-20
1.2,70,70,70,go_to_pick_up_from_pick_down,blue,TRUE,FALSE,joint 3 -,TRUE,51:01.4,16.215,0.16,231.2,276.1385803,100.5062256,14.92596436,0,20,51,28.29440308,-20
1.2,70,70,70,go_to_pick_up_from_pick_down,blue,TRUE,FALSE,joint 3 -,TRUE,51:02.1,19.386,0.16,231.2,292.5337219,106.4735718,75.46551514,0,20,51,3.331486225,-20
1.2,70,70,70,go_to_color_detect_up,blue,TRUE,FALSE,joint 1 +,TRUE,51:02.8,22.975,0.16,235,277.9474182,140.8863525,84.95825195,6.879598618,27.40879822,51,0,-20
1.2,70,70,70,go_to_color_detect_up,blue,TRUE,FALSE,joint 1 +,TRUE,51:04.2,22.291,0.209,235,151.3119507,272.4122314,84.95825195,40.94992447,61.33862305,51,0,-20
1.2,70,70,70,go_to_color_detect_up,blue,TRUE,FALSE,joint 3 +,TRUE,51:05.0,22.481,0.209,235,130.8019562,280.5056763,60.13568497,45,65,51,10.34880161,-20
1.2,70,70,70,go_to_color_detect_up,blue,TRUE,FALSE,joint 3 +,TRUE,51:06.0,22.253,0.208,235,109.6996307,235.2516174,-27.25681305,45,65,51,50.35399246,-20
1.2,70,70,70,go_to_color_detect_up,blue,TRUE,FALSE,joint 3 -,FALSE,51:07.4,22.234,0.208,235,103.2077942,221.3298035,-38.62783051,45,65,51,56.94200897,-20
1.2,70,70,70,go_to_color_detect_up,blue,TRUE,FALSE,joint 3 -,FALSE,51:08.1,22.234,0.188,235,127.0474091,272.4540405,29.17628479,45,65,51,21.37560463,-20
1.2,70,70,70,detecting_color,blue,FALSE,FALSE,detecting_color,FALSE,51:09.0,16.633,0.188,235,131.6940765,282.4188232,84.95825195,45,65,51,0,-20
1.2,70,70,70,detecting_color,blue,FALSE,FALSE,detecting_color,FALSE,51:10.4,16.709,0.16,235,131.6940765,282.4188232,84.95825195,45,65,51,0,-20
1.2,70,70,70,go_to_color_detect_down,blue,TRUE,FALSE,joint 3 +,FALSE,51:11.2,16.367,0.16,235,130.6834564,280.2515564,58.55114365,45,65,51,10.99560165,-20
1.2,70,70,70,go_to_color_detect_down,blue,TRUE,FALSE,joint 3 +,FALSE,51:12.0,16.329,0.158,235,108.7276459,233.1671753,-29.16326141,45,65,51,51.47919083,-20
1.2,70,70,70,go_to_color_detect_up,blue,TRUE,FALSE,joint 3 -,TRUE,51:12.8,16.329,0.158,235,104.007782,223.0453949,-37.38796234,45,65,51,56.00121307,-20
1.2,70,70,70,go_to_color_detect_up,blue,TRUE,FALSE,joint 3 -,TRUE,51:14.4,23.089,0.216,235,128.1002197,274.711792,35.6855278,45,65,51,18.71760559,-20
1.2,70,70,70,go_to_red_up,red,TRUE,FALSE,joint 1 +,TRUE,51:15.1,23.203,0.216,235,131.5974426,282.4638672,84.95825195,45.01959991,65.05879974,51,0,-20
1.2,70,70,70,go_to_red_up,red,TRUE,FALSE,joint 1 +,TRUE,51:15.9,23.203,0.216,235,0.054667305,311.6147156,84.95825195,69.98994446,90.96994781,51,0,-20
1.2,70,70,70,go_to_red_up,red,TRUE,FALSE,joint 1 +,TRUE,51:17.5,22.595,0.209,235,-177.3045197,256.2554016,84.95825195,104.6795731,124.7819748,51,0,-20
1.2,70,70,70,go_to_pick_up_from_red,red,TRUE,FALSE,joint 1 -,FALSE,51:18.2,22.747,0.209,235,-101.0818787,294.7646179,84.95825195,88.92807007,108.1244736,51,0,-20
1.2,70,70,70,go_to_pick_up_from_red,red,TRUE,FALSE,joint 1 -,FALSE,51:19.0,16.481,0.18,235,147.3019867,274.6012573,84.95825195,41.7899437,60.80994415,51,0,-20
1.2,70,70,70,go_to_pick_up_from_red,red,TRUE,FALSE,joint 1 -,FALSE,51:19.7,16.481,0.18,233.1,285.1588745,125.6509018,84.95825195,3.77995491,23.40475464,51,0,-20
1.2,70,70,70,moving_belt,red,FALSE,TRUE,joint 1 -,FALSE,51:21.3,16.519,0.161,235,292.822052,106.5785141,84.95825195,0,20,51,0,-20
1.2,70,70,70,moving_belt,red,FALSE,TRUE,joint 1 -,FALSE,51:22.5,16.519,0.161,235,292.822052,106.5785141,84.95825195,0,20,51,0,-20
1.2,70,70,70,moving_belt,red,FALSE,TRUE,joint 1 -,FALSE,51:23.3,16.462,0.159,235,292.822052,106.5785141,84.95825195,0,20,51,0,-20
1.2,70,70,70,moving_belt,red,FALSE,TRUE,joint 1 -,FALSE,51:24.1,16.386,0.159,235,292.822052,106.5785141,84.95825195,0,20,51,0,-20
1.2,70,70,70,go_to_pick_down,red,TRUE,FALSE,joint 3 +,FALSE,51:25.0,16.386,0.16,235,286.9992371,104.4591827,42.72820663,0,20,51,17.37978363,-20
1.2,70,70,70,go_to_pick_up_from_pick_down,red,TRUE,FALSE,joint 3 -,TRUE,51:25.8,16.272,0.16,233.1,276.5191956,100.6447601,15.67875671,0,20,51,27.9220047,-20
1.2,70,70,70,go_to_pick_up_from_pick_down,red,TRUE,FALSE,joint 3 -,TRUE,51:27.3,23.203,0.212,233.1,292.5337219,106.4735718,75.46551514,0,20,51,3.331486225,-20
1.2,70,70,70,go_to_color_detect_up,red,TRUE,FALSE,joint 1 +,TRUE,51:28.1,22.5,0.212,233.1,268.9127502,157.4472961,84.95825195,10.34879494,30.99559402,51,0,-20
1.2,70,70,70,go_to_color_detect_up,red,TRUE,FALSE,joint 1 +,TRUE,51:28.8,22.5,0.212,233.1,142.9344177,276.8997498,84.95825195,42.69741821,62.9881134,51,0,-20
1.2,70,70,70,go_to_color_detect_up,red,TRUE,FALSE,joint 3 +,TRUE,51:30.4,22.234,0.209,233.1,130.8019562,280.5056763,60.13568497,45,65,51,10.34880161,-20
1.2,70,70,70,go_to_color_detect_up,red,TRUE,FALSE,joint 3 +,TRUE,51:31.1,21.874,0.206,233.1,109.2074966,234.196228,-28.23191833,45,65,51,50.9263916,-20
1.2,70,70,70,go_to_color_detect_up,red,TRUE,FALSE,joint 3 -,FALSE,51:32.5,22.026,0.206,235,103.7242661,222.4373932,-37.83213806,45,65,51,56.33441162,-20
1.2,70,70,70,go_to_color_detect_up,red,TRUE,FALSE,joint 3 -,FALSE,51:33.2,19.101,0.16,235,129.2164307,277.1054993,43.85786057,45,65,51,15.44800568,-20
1.2,70,70,70,detecting_color,red,FALSE,FALSE,detecting_color,FALSE,51:33.9,17.013,0.16,235,131.6940765,282.4188232,84.95825195,45,65,51,0,-20
1.2,70,70,70,detecting_color,red,FALSE,FALSE,detecting_color,FALSE,51:35.4,16.12,0.16,233.1,131.6940765,282.4188232,84.95825195,45,65,51,0,-20
1.2,70,70,70,go_to_color_detect_down,red,TRUE,FALSE,joint 3 +,FALSE,51:36.1,16.12,0.157,233.1,131.4615479,281.9201965,72.25166321,45,65,51,5.409600258,-20
1.2,70,70,70,go_to_color_detect_down,red,TRUE,FALSE,joint 3 +,FALSE,51:37.1,16.291,0.157,233.1,114.5941544,245.7479401,-16.32661438,45,65,51,44.32040405,-20
1.2,70,70,70,go_to_color_detect_up,red,TRUE,FALSE,joint 3 -,TRUE,51:38.5,16.234,0.158,235,102.7598801,220.3692627,-39.30402374,45,65,51,57.47120667,-20
1.2,70,70,70,go_to_color_detect_up,red,TRUE,FALSE,joint 3 -,TRUE,51:39.3,18.893,0.158,235,125.7860794,269.749115,22.39190292,45,65,51,24.2100029,-20
1.2,70,70,70,go_to_green_up,green,TRUE,FALSE,joint 1 +,TRUE,51:40.0,23.108,0.215,235,131.6940308,282.4187622,84.77658844,45,65,51,0.027607661,-20
1.2,70,70,70,go_to_green_up,green,TRUE,FALSE,joint 1 +,TRUE,51:41.4,23.051,0.215,235,11.7722683,311.3922729,84.95825195,67.83494568,88.64542389,51,0,-20
1.2,70,70,70,go_to_pick_up_from_green,green,TRUE,FALSE,joint 1 -,FALSE,51:42.2,22.177,0.208,235,-80.03383636,301.1616211,84.95825195,84.88240051,104.8040009,51,0,-20
1.2,70,70,70,go_to_pick_up_from_green,green,TRUE,FALSE,joint 1 -,FALSE,51:42.9,22.31,0.208,235,64.52192688,304.8616943,84.95825195,58.05007172,77.07006836,51,0,-20
1.2,70,70,70,go_to_pick_up_from_green,green,TRUE,FALSE,joint 1 -,FALSE,51:43.8,16.348,0.208,235,261.73703,169.1078033,84.95825195,12.86642456,32.16602325,51,0,-20
1.2,70,70,70,moving_belt,green,FALSE,TRUE,joint 1 -,FALSE,51:45.3,16.272,0.158,235,292.822052,106.5785141,84.95825195,0,20,51,0,-20
1.2,70,70,70,moving_belt,green,FALSE,TRUE,joint 1 -,FALSE,51:46.1,16.614,0.158,235,292.822052,106.5785141,84.95825195,0,20,51,0,-20
1.2,70,70,70,moving_belt,green,FALSE,TRUE,joint 1 -,FALSE,51:47.2,16.614,0.16,235,292.822052,106.5785141,84.95825195,0,20,51,0,-20
1.2,70,70,70,moving_belt,green,FALSE,TRUE,joint 1 -,FALSE,51:48.0,16.519,0.16,235,292.822052,106.5785141,84.95825195,0,20,51,0,-20
1.2,70,70,70,go_to_pick_down,green,TRUE,FALSE,joint 3 +,FALSE,51:49.5,16.31,0.159,235,291.9692078,106.2681122,68.64881134,0,20,51,6.879598618,-20
1.2,70,70,70,go_to_pick_down,green,TRUE,FALSE,joint 3 +,FALSE,51:50.3,16.31,0.159,235,275.5731201,100.300415,13.82667542,0,20,51,28.97750854,-20
1.2,70,70,70,go_to_pick_up_from_pick_down,green,TRUE,FALSE,joint 3 -,TRUE,51:51.4,16.348,0.158,235,290.5918274,105.766777,58.64975739,0,20,51,9.683886528,-20
1.2,70,70,70,go_to_color_detect_up,green,TRUE,FALSE,joint 1 +,TRUE,51:52.1,22.956,0.158,235,289.3629761,115.6408386,84.95825195,1.783596039,22.05799675,51,0,-20
1.2,70,70,70,go_to_color_detect_up,green,TRUE,FALSE,joint 1 +,TRUE,51:52.9,22.102,0.208,235,182.6638641,252.4631348,84.95825195,34.11325073,54.7567482,51,0,-20
1.2,70,70,70,go_to_color_detect_up,green,TRUE,FALSE,joint 3 +,TRUE,51:54.4,22.462,0.208,235,131.5878143,282.1909485,76.36417389,45,65,51,3.724000216,-20
1.2,70,70,70,go_to_color_detect_up,green,TRUE,FALSE,joint 3 +,TRUE,51:55.2,22.462,0.206,235,116.3634033,249.5421143,-11.7323761,45,65,51,41.95640945,-20
1.2,70,70,70,go_to_color_detect_up,green,TRUE,FALSE,joint 3 -,FALSE,51:56.0,21.95,0.206,235,101.5840759,217.8477325,-41.01942444,45,65,51,58.94120026,-20
1.2,70,70,70,go_to_color_detect_up,green,TRUE,FALSE,joint 3 -,FALSE,51:56.8,21.95,0.206,235,123.8469086,265.5905457,13.44452667,45,65,51,28.13000107,-20
1.2,70,70,70,go_to_color_detect_up,green,TRUE,FALSE,joint 3 -,FALSE,51:57.6,17.506,0.185,235,131.6922455,282.414917,83.83039093,45,65,51,0.318007588,-20
1.2,70,70,70,detecting_color,green,FALSE,FALSE,detecting_color,FALSE,51:59.3,17.203,0.159,235,131.6940765,282.4188232,84.95825195,45,65,51,0,-20
1.2,70,70,70,detecting_color,green,FALSE,FALSE,detecting_color,FALSE,51:59.9,16.31,0.159,233.1,131.6940765,282.4188232,84.95825195,45,65,51,0,-20
1.2,70,70,70,detecting_color,green,FALSE,FALSE,detecting_color,FALSE,52:01.4,16.253,0.16,233.1,131.6940765,282.4188232,84.95825195,45,65,51,0,-20
1.2,70,70,70,detecting_color,green,FALSE,FALSE,detecting_color,FALSE,52:02.1,16.367,0.16,233.1,131.6940765,282.4188232,84.95825195,45,65,51,0,-20
1.2,70,70,70,go_to_color_detect_down,green,TRUE,FALSE,joint 3 +,FALSE,52:02.8,16.367,0.16,233.1,131.6939392,282.4185486,84.65653229,45,65,51,0.19600001,-20
1.2,70,70,70,go_to_color_detect_down,green,TRUE,FALSE,joint 3 +,FALSE,52:04.0,16.424,0.16,233.1,125.4209213,268.9660339,20.58687592,45,65,51,26.95000076,-20
1.2,70,70,70,go_to_color_detect_down,green,TRUE,FALSE,joint 3 +,FALSE,52:05.3,16.272,0.16,233.1,102.4186096,219.6374054,-39.81073761,45,65,51,58.25839233,-20
1.2,70,70,70,go_to_color_detect_up,green,TRUE,FALSE,joint 3 -,TRUE,52:06.1,16.557,0.16,233.1,114.4744568,245.4912415,-16.62371063,45,65,51,42.92799759,-20
1.2,70,70,70,go_to_color_detect_up,green,TRUE,FALSE,joint 3 -,TRUE,52:07.5,22.956,0.16,233.1,131.4528503,281.9015503,72.01651001,45,65,51,4.615606785,-20
1.2,70,70,70,go_to_blue_up,blue,TRUE,FALSE,joint 1 +,TRUE,52:08.2,22.956,0.214,233.1,108.9892502,291.9333191,84.95825195,49.52758026,69.95877838,51,0,-20
1.2,70,70,70,go_to_pick_up_from_blue,blue,TRUE,FALSE,joint 1 -,FALSE,52:09.0,22.121,0.214,233.1,27.79610443,310.3725281,84.95825195,64.88240051,84.80400085,51,0,-20
1.2,70,70,70,go_to_pick_up_from_blue,blue,TRUE,FALSE,joint 1 -,FALSE,52:10.5,16.519,0.192,233.1,191.1193542,246.1242065,84.95825195,32.17009354,51.19009399,51,0,-20
1.2,70,70,70,go_to_pick_up_from_blue,blue,TRUE,FALSE,joint 1 -,FALSE,52:11.2,16.519,0.192,233.1,291.0223694,111.3988953,84.95825195,0.946079254,20.76327896,51,0,-20
