demetriskallis/dobot_magician_pick_and_place_and_color_sorting/Sampling/OLD_DATA/sampling_joint_movement_extra/joint_measurements__armv_80_arma_80_belts_60_cube_1.2g.csv
cube/weight,arm/velocity_ratio,arm/acceleration_ratio,belt/speed,dobot/operation,dobot/color,dobot/moving_arm,dobot/moving_belt,dobot/operation2,dobot/suction,meross/sample_timestamp,meross/power,meross/current,meross/voltage,dobot/pose_x,dobot/pose_y,dobot/pose_z,dobot/pose_rHead,dobot/pose_joint1Angle,dobot/pose_joint2Angle,dobot/pose_joint3Angle,dobot/pose_joint4Angle
1.2,80,80,60,homing,,,,homing,,,,,,191.0514679,59.90437317,75.41274261,-2.591135025,17.00886536,2.581652164,23.85499573,-20
1.2,80,80,60,homing,,,,homing,,,,,,199.687439,-14.63304138,75.41274261,-21.79112816,-2.1911273,2.581652164,23.85499573,-20
1.2,80,80,60,homing,,,,homing,,,,,,183.7677917,-79.48960114,75.41274261,-43.39111328,-23.79111481,2.581652164,23.85499573,-20
1.2,80,80,60,homing,,,,homing,,,,,,146.4548187,-136.5290375,75.41274261,-62.9911499,-43.39115143,2.581652164,23.85499573,-20
1.2,80,80,60,homing,,,,homing,,58:38.2,16.595,0.161,233.1,92.1697464,-177.7468262,75.41274261,-82.59122467,-62.9912262,2.581652164,23.85499573,-20
1.2,80,80,60,homing,,,,homing,,58:38.9,16.595,0.161,233.1,27.20348358,-198.3662567,75.41274261,-102.1912994,-82.59130096,2.581652164,23.85499573,-20
1.2,80,80,60,homing,,,,homing,,58:39.7,16.595,0.161,235,-49.08697128,-194.1125183,75.41274261,-124.1913834,-104.5913849,2.581652164,23.85499573,-20
1.2,80,80,60,homing,,,,homing,,58:41.1,16.557,0.16,235,-110.1939011,-167.1720734,75.41274261,-143.391449,-123.7914581,2.581652164,23.85499573,-20
1.2,80,80,60,homing,,,,homing,,58:41.9,16.652,0.16,235,-144.7335205,-138.352478,75.41274261,-156.291275,-136.2712708,2.581652164,23.85499573,-20
1.2,80,80,60,homing,,,,homing,,58:42.7,16.652,0.16,235,-142.3454895,-140.8082275,75.41274261,-155.3110657,-135.2910614,2.581652164,23.85499573,-20
1.2,80,80,60,homing,,,,homing,,58:44.3,16.576,0.16,235,-101.5297546,-177.6191406,71.701828,-138.405014,-119.152916,5.184269905,25.33333206,-18.5981884
1.2,80,80,60,homing,,,,homing,,58:45.0,16.576,0.162,235,-3.596612453,-216.2156982,60.14216614,-105.8246384,-90.3529892,12.29730892,29.37366867,-14.76699257
1.2,80,80,60,homing,,,,homing,,58:45.8,16.994,0.162,231.2,113.3639679,-204.1194916,36.9074173,-69.42356873,-60.35306549,24.2349205,36.15445709,-8.337203979
1.2,80,80,60,homing,,,,homing,,58:47.3,17.184,0.165,231.2,207.0861206,-130.1726532,14.96334839,-35.41786957,-31.55313683,33.80578995,41.59088135,-3.182181597
1.2,80,80,60,homing,,,,homing,,58:48.1,17.032,0.165,231.2,249.1435089,-14.52964973,1.382667542,-3.631854057,-3.060559273,39.21289444,44.66222,-0.269828409
1.2,80,80,60,homing,,,,homing,,58:49.0,16.595,0.165,231.2,246.4250336,0.000177091,1.932449341,4.12E-05,4.12E-05,38.05204773,45.23683167,0
1.2,80,80,60,homing,,,,homing,,58:49.8,16.595,0.164,231.2,249.9999847,0.00017966,-7.63E-06,4.12E-05,4.12E-05,39.71385956,44.94676971,0
1.2,80,80,60,homing,,,,homing,,58:51.3,16.5,0.164,231.2,249.9999847,0.00017966,-7.63E-06,4.12E-05,4.12E-05,39.71385956,44.94676971,0
1.2,80,80,60,homing,,,,homing,,58:52.1,16.5,0.161,231.2,249.9999847,0.00017966,-7.63E-06,4.12E-05,4.12E-05,39.71385956,44.94676971,0
1.2,80,80,60,homing,,,,homing,,58:52.8,16.462,0.161,231.2,249.9999847,0.00017966,-7.63E-06,4.12E-05,4.12E-05,39.71385956,44.94676971,0
1.2,80,80,60,homing,,,,homing,,58:54.4,16.462,0.16,231.2,249.9999847,0.00017966,-7.63E-06,4.12E-05,4.12E-05,39.71385956,44.94676971,0
1.2,80,80,60,homing,,,,homing,,58:55.1,16.652,0.16,231.2,249.9999847,0.00017966,-7.63E-06,4.12E-05,4.12E-05,39.71385956,44.94676971,0
1.2,80,80,60,homing,,,,homing,,58:55.8,16.652,0.16,231.2,249.9999847,0.00017966,-7.63E-06,4.12E-05,4.12E-05,39.71385956,44.94676971,0
1.2,80,80,60,homing,,,,homing,,58:57.3,16.5,0.162,231.2,249.9999847,0.00017966,-7.63E-06,4.12E-05,4.12E-05,39.71385956,44.94676971,0
1.2,80,80,60,homing,,,,homing,,58:58.1,16.5,0.161,231.2,249.9999847,0.00017966,-7.63E-06,4.12E-05,4.12E-05,39.71385956,44.94676971,0
1.2,80,80,60,homing,,,,homing,,58:58.8,16.272,0.161,231.2,249.9999847,0.00017966,-7.63E-06,4.12E-05,4.12E-05,39.71385956,44.94676971,0
1.2,80,80,60,homing,,,,homing,,59:00.1,16.291,0.161,231.2,249.9999847,0.00017966,-7.63E-06,4.12E-05,4.12E-05,39.71385956,44.94676971,0
1.2,80,80,60,homing,,,,homing,,59:00.9,16.291,0.16,231.2,249.9999847,0.00017966,-7.63E-06,4.12E-05,4.12E-05,39.71385956,44.94676971,0
1.2,80,80,60,homing,,,,homing,,59:02.3,16.405,0.16,231.2,249.9999847,0.00017966,-7.63E-06,4.12E-05,4.12E-05,39.71385956,44.94676971,0
1.2,80,80,60,homing,,,,homing,,59:03.1,16.405,0.16,231.2,253.920929,15.91249847,10.10535431,4.12E-05,3.878925562,38.06697845,40.43552399,-3.878884315
1.2,80,80,60,homing,,,,homing,,59:04.2,16.633,0.16,231.2,273.6262207,97.32408905,61.42222977,4.20E-05,19.70675087,41.50694275,15.46738911,-19.70670891
1.2,80,80,60,go_to_pick_up_from_homing,nothing,,,go_to_pick_up_from_homing,,59:04.9,17.241,0.168,231.2,289.5905762,106.1041183,80.48135376,1.14E-05,20.10733986,49.2760849,2.743272066,-20.10733032
1.2,80,80,60,moving_belt,nothing,FALSE,TRUE,go_to_pick_up_from_homing,,59:05.9,17.241,0.168,231.2,292.822052,106.5785141,84.95825195,0,20,51,0,-20
1.2,80,80,60,moving_belt,nothing,FALSE,TRUE,go_to_pick_up_from_homing,,59:06.7,16.956,0.168,231.2,292.822052,106.5785141,84.95825195,0,20,51,0,-20
1.2,80,80,60,moving_belt,nothing,FALSE,TRUE,go_to_pick_up_from_homing,,59:08.3,16.291,0.159,231.2,292.822052,106.5785141,84.95825195,0,20,51,0,-20
1.2,80,80,60,moving_belt,nothing,FALSE,TRUE,go_to_pick_up_from_homing,,59:09.2,16.291,0.161,231.2,292.822052,106.5785141,84.95825195,0,20,51,0,-20
1.2,80,80,60,go_to_pick_down,nothing,TRUE,FALSE,joint 3 +,,59:09.9,16.671,0.161,233.1,292.815979,106.5763016,83.57898712,0,20,51,0.716799974,-20
1.2,80,80,60,go_to_pick_down,nothing,TRUE,FALSE,joint 3 +,,59:10.7,16.671,0.161,233.1,276.0079956,100.4587021,14.6701355,0,20,51,28.70072746,-20
1.2,80,80,60,go_to_pick_up_from_pick_down,nothing,TRUE,FALSE,joint 3 -,TRUE,59:12.3,16.975,0.157,233.1,290.4514465,105.715683,57.84140778,0,20,51,9.905282974,-20
1.2,80,80,60,go_to_color_detect_up,nothing,TRUE,FALSE,joint 1 +,TRUE,59:13.0,23.431,0.157,233.1,286.6896057,122.1179428,84.95825195,3.072002411,23.48160172,51,0,-20
1.2,80,80,60,go_to_color_detect_up,nothing,TRUE,FALSE,joint 1 +,TRUE,59:13.8,22.956,0.216,233.1,154.828598,270.4289856,84.95825195,40.20758438,60.69020844,51,0,-20
1.2,80,80,60,go_to_color_detect_up,nothing,TRUE,FALSE,joint 3 +,TRUE,59:15.4,23.393,0.208,233.1,129.9732971,278.7286377,50.5998764,45,65,51,14.36159897,-20
1.2,80,80,60,go_to_color_detect_up,nothing,TRUE,FALSE,joint 3 +,TRUE,59:16.0,22.272,0.208,233.1,104.3789444,223.8413544,-36.79843903,45,65,51,56.30649567,-20
1.2,80,80,60,go_to_color_detect_up,nothing,TRUE,FALSE,joint 3 -,FALSE,59:16.8,22.5,0.208,233.1,113.126091,242.5996857,-19.85933685,45,65,51,44.63839722,-20
1.2,80,80,60,go_to_color_detect_up,nothing,TRUE,FALSE,joint 3 -,FALSE,59:18.2,19.785,0.167,233.1,131.6044617,282.2266541,77.06537628,45,65,51,2.693498373,-20
1.2,80,80,60,detecting_color,nothing,FALSE,FALSE,detecting_color,FALSE,59:19.0,17.241,0.167,233.1,131.6940765,282.4188232,84.95825195,45,65,51,0,-20
1.2,80,80,60,go_to_color_detect_down,nothing,TRUE,FALSE,joint 3 +,FALSE,59:19.7,16.386,0.158,233.1,131.6753235,282.3786316,81.34620667,45,65,51,1.689599991,-20
1.2,80,80,60,go_to_color_detect_down,nothing,TRUE,FALSE,joint 3 +,FALSE,59:20.7,16.386,0.158,233.1,115.7827835,248.2969666,-13.28344727,45,65,51,42.85879898,-20
1.2,80,80,60,go_to_color_detect_up,nothing,TRUE,FALSE,joint 3 -,TRUE,59:22.1,16.538,0.16,233.1,102.2295456,219.2319489,-40.0883255,45,65,51,58.07839966,-20
1.2,80,80,60,go_to_color_detect_up,nothing,TRUE,FALSE,joint 3 -,TRUE,59:22.8,16.538,0.16,233.1,127.9539108,274.3980408,34.72308731,45,65,51,18.98389816,-20
1.2,80,80,60,go_to_red_up,red,TRUE,FALSE,joint 1 +,TRUE,59:24.4,23.108,0.215,233.1,129.7983704,283.295105,84.95825195,45.38399506,65.53759766,51,0,-20
1.2,80,80,60,go_to_red_up,red,TRUE,FALSE,joint 1 +,TRUE,59:25.1,22.196,0.215,233.1,-91.96514893,297.7350159,84.95825195,87.16500092,108.1077118,51,0,-20
1.2,80,80,60,go_to_pick_up_from_red,red,TRUE,FALSE,joint 1 -,FALSE,59:25.8,22.766,0.215,233.1,-174.6060944,258.1016235,84.95825195,104.0783997,123.8479996,51,0,-20
1.2,80,80,60,go_to_pick_up_from_red,red,TRUE,FALSE,joint 1 -,FALSE,59:26.5,22.766,0.213,233.1,42.72196198,308.6722717,84.95825195,62.12000275,80.84000397,51,0,-20
1.2,80,80,60,go_to_pick_up_from_red,red,TRUE,FALSE,joint 1 -,FALSE,59:28.4,16.519,0.158,235,275.9015808,144.8517761,84.95825195,7.700031281,27.08483124,51,0,-20
1.2,80,80,60,moving_belt,red,FALSE,TRUE,joint 1 -,FALSE,59:29.1,16.519,0.158,235,292.822052,106.5785141,84.95825195,0,20,51,0,-20
1.2,80,80,60,moving_belt,red,FALSE,TRUE,joint 1 -,FALSE,59:29.7,16.424,0.158,235,292.822052,106.5785141,84.95825195,0,20,51,0,-20
1.2,80,80,60,moving_belt,red,FALSE,TRUE,joint 1 -,FALSE,59:31.3,16.5,0.16,235,292.822052,106.5785141,84.95825195,0,20,51,0,-20
1.2,80,80,60,moving_belt,red,FALSE,TRUE,joint 1 -,FALSE,59:32.0,16.082,0.16,235,292.822052,106.5785141,84.95825195,0,20,51,0,-20
1.2,80,80,60,go_to_pick_down,red,TRUE,FALSE,joint 3 +,FALSE,59:32.8,16.082,0.159,235,292.8219299,106.5784683,84.76120758,0,20,51,0.153599992,-20
1.2,80,80,60,go_to_pick_down,red,TRUE,FALSE,joint 3 +,FALSE,59:34.3,16.367,0.159,235,279.0566406,101.5683136,20.98818207,0,20,51,26.1882,-20
1.2,80,80,60,go_to_pick_up_from_pick_down,red,TRUE,FALSE,joint 3 -,TRUE,59:35.1,16.367,0.157,235,284.4796448,103.5421219,34.64657974,0,20,51,19.32319832,-20
1.2,80,80,60,go_to_color_detect_up,red,TRUE,FALSE,joint 1 +,TRUE,59:35.8,18.589,0.157,233.1,292.342926,107.8857956,84.95825195,0.256000519,20.38400078,51,0,-20
1.2,80,80,60,go_to_color_detect_up,red,TRUE,FALSE,joint 1 +,TRUE,59:37.4,22.215,0.208,233.1,167.8409882,262.5512085,84.95825195,37.41045761,58.02108383,51,0,-20
1.2,80,80,60,go_to_color_detect_up,red,TRUE,FALSE,joint 3 +,TRUE,59:38.2,22.329,0.208,235,131.2223053,281.407135,66.87641907,45,65,51,7.679999828,-20
1.2,80,80,60,go_to_color_detect_up,red,TRUE,FALSE,joint 3 +,TRUE,59:38.9,21.893,0.208,235,108.4031448,232.471283,-29.78239441,45,65,51,51.92559433,-20
1.2,80,80,60,go_to_color_detect_up,red,TRUE,FALSE,joint 3 -,FALSE,59:39.7,21.893,0.206,235,105.9658737,227.2445374,-34.1720047,45,65,51,53.62399673,-20
1.2,80,80,60,go_to_color_detect_up,red,TRUE,FALSE,joint 3 -,FALSE,59:41.2,16.975,0.206,235,130.8082733,280.5192261,60.22302246,45,65,51,8.995498657,-20
1.2,80,80,60,detecting_color,red,FALSE,FALSE,detecting_color,FALSE,59:41.9,16.975,0.164,235,131.6940765,282.4188232,84.95825195,45,65,51,0,-20
1.2,80,80,60,go_to_color_detect_down,red,TRUE,FALSE,joint 3 +,FALSE,59:42.8,16.842,0.164,235,131.6940765,282.4188232,84.95825195,45,65,51,0.025599999,-20
1.2,80,80,60,go_to_color_detect_down,red,TRUE,FALSE,joint 3 +,FALSE,59:43.6,16.196,0.157,235,122.6471786,263.0177002,8.568847656,45,65,51,32.48713303,-20
1.2,80,80,60,go_to_color_detect_up,red,TRUE,FALSE,joint 3 -,TRUE,59:45.4,16.196,0.157,235,101.5658646,217.8086853,-41.04534149,45,65,51,59,-20
1.2,80,80,60,go_to_color_detect_up,red,TRUE,FALSE,joint 3 -,TRUE,59:46.2,16.671,0.169,235,125.7071533,269.579834,21.99635696,45,65,51,24.23373032,-20
1.2,80,80,60,go_to_green_up,green,TRUE,FALSE,joint 1 +,TRUE,59:47.0,23.165,0.169,235,131.6940765,282.4188232,84.95825195,45,65.02559662,51,0,-20
1.2,80,80,60,go_to_green_up,green,TRUE,FALSE,joint 1 +,TRUE,59:47.7,23.241,0.169,235,-20.73101234,310.9243469,84.95825195,73.8145752,94.55843353,51,0,-20
1.2,80,80,60,go_to_pick_up_from_green,green,TRUE,FALSE,joint 1 -,FALSE,59:48.7,22.918,0.213,235,-66.44719696,304.447876,84.95825195,82.31200409,101.9280014,51,0,-20
1.2,80,80,60,go_to_pick_up_from_green,green,TRUE,FALSE,joint 1 -,FALSE,59:50.3,22.918,0.159,235,207.8536835,232.1649933,84.95825195,28.16241074,46.97441101,51,0,-20
1.2,80,80,60,moving_belt,green,FALSE,TRUE,joint 1 -,FALSE,59:51.1,16.234,0.159,235,292.822052,106.5785141,84.95825195,0,20,51,0,-20
1.2,80,80,60,moving_belt,green,FALSE,TRUE,joint 1 -,FALSE,59:51.8,16.329,0.159,235,292.822052,106.5785141,84.95825195,0,20,51,0,-20
1.2,80,80,60,moving_belt,green,FALSE,TRUE,joint 1 -,FALSE,59:53.3,16.329,0.162,233.1,292.822052,106.5785141,84.95825195,0,20,51,0,-20
1.2,80,80,60,moving_belt,green,FALSE,TRUE,joint 1 -,FALSE,59:53.3,16.329,0.162,233.1,292.822052,106.5785141,84.95825195,0,20,51,0,-20
1.2,80,80,60,moving_belt,green,FALSE,TRUE,joint 1 -,FALSE,59:55.2,16.234,0.16,233.1,292.822052,106.5785141,84.95825195,0,20,51,0,-20
1.2,80,80,60,go_to_pick_down,green,TRUE,FALSE,joint 3 +,FALSE,59:55.9,16.234,0.16,233.1,291.5829773,106.1275253,65.31313324,0,20,51,8.319999695,-20
1.2,80,80,60,go_to_pick_up_from_pick_down,green,TRUE,FALSE,joint 3 -,TRUE,59:57.3,16.291,0.16,233.1,275.502655,100.2747726,13.69123077,0,20,51,28.97439957,-20
1.2,80,80,60,go_to_pick_up_from_pick_down,green,TRUE,FALSE,joint 3 -,TRUE,59:58.1,17.487,0.16,233.1,292.7288818,106.5446014,79.560112,0,20,51,1.789238095,-20
1.2,80,80,60,go_to_color_detect_up,green,TRUE,FALSE,joint 1 +,TRUE,59:58.8,23.089,0.215,233.1,257.2354126,175.8796844,84.95825195,14.36159897,35.23199844,51,0,-20
1.2,80,80,60,go_to_color_detect_up,green,TRUE,FALSE,joint 3 +,TRUE,00:00.2,22.367,0.215,233.1,132.0359955,282.2591248,84.95825195,44.93061066,64.97803497,51,0,-20
1.2,80,80,60,go_to_color_detect_up,green,TRUE,FALSE,joint 3 +,TRUE,00:00.8,22.576,0.21,233.1,125.7148132,269.596283,22.03460312,45,65,51,26.49600029,-20
1.2,80,80,60,go_to_color_detect_up,green,TRUE,FALSE,joint 3 -,FALSE,00:01.5,22.121,0.21,233.1,101.5658646,217.8086853,-41.04534149,45,65,51,59,-20
1.2,80,80,60,go_to_color_detect_up,green,TRUE,FALSE,joint 3 -,FALSE,00:03.2,18.361,0.19,233.1,122.6374664,262.9968872,8.531082153,45,65,51,30.12319756,-20
1.2,80,80,60,detecting_color,green,FALSE,FALSE,detecting_color,FALSE,00:04.0,18.361,0.19,233.1,131.6940765,282.4188232,84.95731354,45,65,51,-1.32E-06,-20
1.2,80,80,60,detecting_color,green,FALSE,FALSE,detecting_color,FALSE,00:05.4,17.336,0.16,233.1,131.6940765,282.4188232,84.95825195,45,65,51,0,-20
1.2,80,80,60,go_to_color_detect_down,green,TRUE,FALSE,joint 3 +,FALSE,00:06.2,16.386,0.16,233.1,131.6257172,282.2722473,78.06436157,45,65,51,3.071999788,-20
1.2,80,80,60,go_to_color_detect_down,green,TRUE,FALSE,joint 3 +,FALSE,00:06.9,16.424,0.16,233.1,113.7839737,244.010498,-18.30561066,45,65,51,45.47109604,-20
1.2,80,80,60,go_to_color_detect_up,green,TRUE,FALSE,joint 3 -,TRUE,00:07.8,16.424,0.159,233.1,105.128624,225.4490509,-35.57940674,45,65,51,54.62239838,-20
1.2,80,80,60,go_to_color_detect_up,green,TRUE,FALSE,joint 3 -,TRUE,00:09.4,23.241,0.159,233.1,130.3555145,279.5482788,54.60766602,45,65,51,11.14699841,-20
1.2,80,80,60,go_to_blue_up,blue,TRUE,FALSE,joint 1 +,TRUE,00:10.0,23.165,0.217,233.1,118.3045044,288.2842102,84.95825195,47.68799591,68.0719986,51,0,-20
1.2,80,80,60,go_to_pick_up_from_blue,blue,TRUE,FALSE,joint 1 -,FALSE,00:10.8,22.31,0.217,233.1,28.54574013,310.3045044,84.95825195,64.7440033,84.61600494,51,0,-20
1.2,80,80,60,go_to_pick_up_from_blue,blue,TRUE,FALSE,joint 1 -,FALSE,00:12.3,21.247,0.21,233.1,228.3392639,212.0493164,84.95825195,22.88159561,41.81199646,51,0,-20
1.2,80,80,60,moving_belt,blue,FALSE,TRUE,joint 1 -,FALSE,00:13.1,16.576,0.21,233.1,292.822052,106.5785141,84.95825195,0,20,51,0,-20
1.2,80,80,60,moving_belt,blue,FALSE,TRUE,joint 1 -,FALSE,00:13.9,16.576,0.161,233.1,292.822052,106.5785141,84.95825195,0,20,51,0,-20
1.2,80,80,60,moving_belt,blue,FALSE,TRUE,joint 1 -,FALSE,00:14.8,16.861,0.161,233.1,292.822052,106.5785141,84.95825195,0,20,51,0,-20
1.2,80,80,60,moving_belt,blue,FALSE,TRUE,joint 1 -,FALSE,00:15.6,16.234,0.161,233.1,292.822052,106.5785141,84.95825195,0,20,51,0,-20
1.2,80,80,60,moving_belt,blue,FALSE,TRUE,joint 1 -,FALSE,00:17.4,16.386,0.16,233.1,292.822052,106.5785141,84.95825195,0,20,51,0,-20
1.2,80,80,60,go_to_pick_down,blue,TRUE,FALSE,joint 3 +,FALSE,00:18.2,16.424,0.161,233.1,289.8514099,105.4972916,54.63619614,0,20,51,12.69759941,-20
1.2,80,80,60,go_to_pick_up_from_pick_down,blue,TRUE,FALSE,joint 3 -,TRUE,00:19.0,16.291,0.161,233.1,276.824646,100.7559357,16.29049683,0,20,51,27.59199905,-20
1.2,80,80,60,go_to_pick_up_from_pick_down,blue,TRUE,FALSE,joint 3 -,TRUE,00:19.7,16.291,0.161,233.1,292.8212891,106.5782394,84.47381592,0,20,51,0.103963457,-20
1.2,80,80,60,go_to_color_detect_up,blue,TRUE,FALSE,joint 1 +,TRUE,00:21.2,22.804,0.219,235,231.4234314,208.6790161,84.95825195,22.04159927,43.11302567,51,0,-20
1.2,80,80,60,go_to_color_detect_up,blue,TRUE,FALSE,joint 3 +,TRUE,00:21.9,22.576,0.219,235,131.6938477,282.4183655,84.56417084,45,65,51,0.255999982,-20
1.2,80,80,60,go_to_color_detect_up,blue,TRUE,FALSE,joint 3 +,TRUE,00:23.4,22.291,0.21,235,117.1483841,251.2255096,-9.563171387,45,65,51,40.98926544,-20
1.2,80,80,60,go_to_color_detect_up,blue,TRUE,FALSE,joint 3 -,FALSE,00:24.2,22.14,0.21,235,102.0641022,218.8771515,-40.32941437,45,65,51,58.28319931,-20
1.2,80,80,60,go_to_color_detect_up,blue,TRUE,FALSE,joint 3 -,FALSE,00:24.9,22.215,0.207,235,127.565033,273.5640869,32.26132202,45,65,51,19.98266411,-20
1.2,80,80,60,detecting_color,blue,FALSE,FALSE,detecting_color,FALSE,00:26.3,17.165,0.207,235,131.6940765,282.4188232,84.95825195,45,65,51,0,-20
1.2,80,80,60,detecting_color,blue,FALSE,FALSE,detecting_color,FALSE,00:27.0,16.462,0.162,235,131.6940765,282.4188232,84.95825195,45,65,51,0,-20
1.2,80,80,60,go_to_color_detect_down,blue,TRUE,FALSE,joint 3 +,FALSE,00:27.8,16.462,0.162,235,129.752655,278.2554626,48.49627304,45,65,51,15.2319994,-20
1.2,80,80,60,go_to_color_detect_down,blue,TRUE,FALSE,joint 3 +,FALSE,00:29.1,16.443,0.158,235,102.4212723,219.6431274,-39.80680847,45,65,51,58.28026581,-20
1.2,80,80,60,go_to_color_detect_up,blue,TRUE,FALSE,joint 3 -,TRUE,00:29.9,16.576,0.158,235,116.4531708,249.7346191,-11.48861694,45,65,51,40.03039551,-20
1.2,80,80,60,go_to_color_detect_up,blue,TRUE,FALSE,joint 3 -,TRUE,00:30.6,21.817,0.158,235,131.6669159,282.3606262,80.61270142,45,65,51,1.412031889,-20
1.2,80,80,60,go_to_red_up,red,TRUE,FALSE,joint 1 +,TRUE,00:31.7,23.279,0.216,235,48.05955887,307.8863525,84.95825195,61.12800598,82.04960632,51,0,-20
1.2,80,80,60,go_to_red_up,red,TRUE,FALSE,joint 1 +,TRUE,00:33.3,22.576,0.211,235,-176.4332428,256.8560486,84.95825195,104.4849854,124.6340942,51,0,-20
1.2,80,80,60,go_to_pick_up_from_red,red,TRUE,FALSE,joint 1 -,FALSE,00:34.0,22.519,0.211,233.1,-75.42865753,302.3479004,84.95825195,84.00799561,102.9583969,51,0,-20
1.2,80,80,60,go_to_pick_up_from_red,red,TRUE,FALSE,joint 1 -,FALSE,00:34.9,22.519,0.211,233.1,227.3388367,213.1215515,84.95825195,23.15123367,42.07523346,51,0,-20
1.2,80,80,60,moving_belt,red,FALSE,TRUE,joint 1 -,FALSE,00:36.4,16.557,0.161,235,292.822052,106.5785141,84.95825195,0,20,51,0,-20
1.2,80,80,60,moving_belt,red,FALSE,TRUE,joint 1 -,FALSE,00:37.1,16.557,0.161,235,292.822052,106.5785141,84.95825195,0,20,51,0,-20
1.2,80,80,60,moving_belt,red,FALSE,TRUE,joint 1 -,FALSE,00:37.9,16.424,0.163,235,292.822052,106.5785141,84.95825195,0,20,51,0,-20
1.2,80,80,60,moving_belt,red,FALSE,TRUE,joint 1 -,FALSE,00:39.4,16.158,0.163,235,292.822052,106.5785141,84.95825195,0,20,51,0,-20
1.2,80,80,60,moving_belt,red,FALSE,TRUE,joint 1 -,FALSE,00:40.1,16.367,0.158,235,292.822052,106.5785141,84.95825195,0,20,51,0,-20
1.2,80,80,60,go_to_pick_down,red,TRUE,FALSE,joint 3 +,FALSE,00:40.8,16.367,0.158,235,290.555481,105.7535553,58.43808746,0,20,51,11.13599968,-20
1.2,80,80,60,go_to_pick_up_from_pick_down,red,TRUE,FALSE,joint 3 -,TRUE,00:42.4,16.443,0.158,235,277.7627563,101.0973816,18.21433258,0,20,51,26.67039871,-20
1.2,80,80,60,go_to_pick_up_from_pick_down,red,TRUE,FALSE,joint 3 -,TRUE,00:43.2,16.443,0.158,235,292.8145752,106.5757904,83.42665863,0,20,51,0.435321629,-20
1.2,80,80,60,go_to_color_detect_up,red,TRUE,FALSE,joint 1 +,TRUE,00:43.9,23.146,0.211,235,235.2071686,204.4048157,84.95825195,20.99200058,42.04159927,51,0,-20
1.2,80,80,60,go_to_color_detect_up,red,TRUE,FALSE,joint 3 +,TRUE,00:45.4,22.595,0.211,235,131.6938477,282.4183655,84.56417084,45,65,51,0.255999982,-20
1.2,80,80,60,go_to_color_detect_up,red,TRUE,FALSE,joint 3 +,TRUE,00:46.2,22.14,0.207,235,116.4630737,258.6357727,1.134437561,45,65,51,35.86743164,-20
1.2,80,80,60,go_to_color_detect_up,red,TRUE,FALSE,joint 3 -,FALSE,00:47.0,22.177,0.207,235,102.0641022,218.8771515,-40.32941437,45,65,51,58.28319931,-20
1.2,80,80,60,go_to_color_detect_up,red,TRUE,FALSE,joint 3 -,FALSE,00:48.4,19.443,0.165,235,127.1472015,272.6680298,29.75551987,45,65,51,21.00703049,-20
1.2,80,80,60,go_to_color_detect_up,red,TRUE,FALSE,joint 3 -,FALSE,00:49.2,17.355,0.165,235,131.6669159,282.3606262,80.61270142,45,65,51,1.412031889,-20
1.2,80,80,60,detecting_color,red,FALSE,FALSE,detecting_color,FALSE,00:49.9,17.355,0.165,235,131.6940765,282.4188232,84.95825195,45,65,51,0,-20
1.2,80,80,60,go_to_color_detect_down,red,TRUE,FALSE,joint 3 +,FALSE,00:50.7,16.443,0.159,235,131.6753235,282.3786316,81.34620667,45,65,51,1.689599991,-20
1.2,80,80,60,go_to_color_detect_down,red,TRUE,FALSE,joint 3 +,FALSE,00:51.7,16.215,0.159,235,116.4630737,249.7558594,-11.4616394,45,65,51,41.93683243,-20
1.2,80,80,60,go_to_color_detect_up,red,TRUE,FALSE,joint 3 -,TRUE,00:53.3,16.557,0.159,235,102.0641022,218.8771515,-40.32941437,45,65,51,58.28319931,-20
1.2,80,80,60,go_to_color_detect_up,red,TRUE,FALSE,joint 3 -,TRUE,00:54.0,20.184,0.159,235,129.2450867,277.1669617,44.09146118,45,65,51,15.24483109,-20
1.2,80,80,60,go_to_green_up,green,TRUE,FALSE,joint 1 +,TRUE,00:55.4,23.184,0.214,235,125.9894638,285.0094604,84.95825195,46.15200043,66.40799713,51,0,-20
1.2,80,80,60,go_to_green_up,green,TRUE,FALSE,joint 1 +,TRUE,00:56.2,22.405,0.214,235,-49.00852966,307.7367249,84.95825195,79.04863739,99.58769226,51,0,-20
1.2,80,80,60,go_to_pick_up_from_green,green,TRUE,FALSE,joint 1 -,FALSE,00:56.9,22.595,0.209,235,-46.18439865,308.1732178,84.95825195,78.52320099,97.93440247,51,0,-20
1.2,80,80,60,go_to_pick_up_from_green,green,TRUE,FALSE,joint 1 -,FALSE,00:57.7,19.937,0.209,235,240.8807068,197.6871948,84.95825195,19.37521362,38.39201355,51,0,-20
1.2,80,80,60,moving_belt,green,FALSE,TRUE,joint 1 -,FALSE,00:59.3,16.671,0.161,235,292.822052,106.5785141,84.95825195,0,20,51,0,-20
1.2,80,80,60,moving_belt,green,FALSE,TRUE,joint 1 -,FALSE,01:00.0,16.291,0.161,235,292.822052,106.5785141,84.95825195,0,20,51,0,-20
1.2,80,80,60,moving_belt,green,FALSE,TRUE,joint 1 -,FALSE,01:01.4,16.253,0.159,235,292.822052,106.5785141,84.95825195,0,20,51,0,-20
1.2,80,80,60,moving_belt,green,FALSE,TRUE,joint 1 -,FALSE,01:02.2,16.253,0.159,235,292.822052,106.5785141,84.95825195,0,20,51,0,-20
1.2,80,80,60,moving_belt,green,FALSE,TRUE,joint 1 -,FALSE,01:02.9,16.386,0.159,235,292.822052,106.5785141,84.95825195,0,20,51,0,-20
1.2,80,80,60,go_to_pick_down,green,TRUE,FALSE,joint 3 +,FALSE,01:04.3,16.405,0.157,235,289.4437866,105.3489304,52.64686966,0,20,51,13.51679897,-20
1.2,80,80,60,go_to_pick_up_from_pick_down,green,TRUE,FALSE,joint 3 -,TRUE,01:05.2,16.139,0.157,235,278.1249695,101.2292175,18.97621918,0,20,51,26.31199837,-20
1.2,80,80,60,go_to_pick_up_from_pick_down,green,TRUE,FALSE,joint 3 -,TRUE,01:05.9,22.177,0.164,235,292.8201904,106.5778351,84.19043732,0,20,51,0.188816205,-20
1.2,80,80,60,go_to_color_detect_up,green,TRUE,FALSE,joint 1 +,TRUE,01:07.4,22.367,0.164,235,235.2071686,204.4048157,84.95825195,20.99200058,42.04159927,51,0,-20
1.2,80,80,60,go_to_color_detect_up,green,TRUE,FALSE,joint 3 +,TRUE,01:08.2,22.158,0.208,235,131.6940765,282.4188232,84.8925705,45,65,51,0.076799996,-20
1.2,80,80,60,go_to_color_detect_up,green,TRUE,FALSE,joint 3 +,TRUE,01:08.9,22.158,0.208,235,118.5289612,254.1861572,-5.529762268,45,65,51,39.01733017,-20
1.2,80,80,60,go_to_color_detect_up,green,TRUE,FALSE,joint 3 -,FALSE,01:09.7,21.893,0.208,235,101.7085037,218.1145935,-40.84191895,45,65,51,58.74399567,-20
1.2,80,80,60,go_to_color_detect_up,green,TRUE,FALSE,joint 3 -,FALSE,01:11.2,22.121,0.207,235,126.2195511,270.6786804,24.62063599,45,65,51,23.13256454,-20
1.2,80,80,60,detecting_color,green,FALSE,FALSE,detecting_color,FALSE,01:12.1,16.557,0.166,235,131.6940765,282.4188232,84.95825195,45,65,51,0,-20
1.2,80,80,60,detecting_color,green,FALSE,FALSE,detecting_color,FALSE,01:12.9,16.595,0.166,235,131.6940765,282.4188232,84.95825195,45,65,51,0,-20
1.2,80,80,60,go_to_color_detect_down,green,TRUE,FALSE,joint 3 +,FALSE,01:13.9,16.367,0.166,235,130.3580475,279.5537415,54.63619614,45,65,51,12.69759941,-20
1.2,80,80,60,go_to_color_detect_down,green,TRUE,FALSE,joint 3 +,FALSE,01:14.7,16.367,0.158,235,104.7462311,224.6289978,-36.20597839,45,65,51,55.92213058,-20
1.2,80,80,60,go_to_color_detect_up,green,TRUE,FALSE,joint 3 -,TRUE,01:15.5,16.253,0.158,235,110.0616455,236.0279541,-26.52629852,45,65,51,48.60639572,-20
1.2,80,80,60,go_to_color_detect_up,green,TRUE,FALSE,joint 3 -,TRUE,01:16.5,18.779,0.168,235,131.6254425,282.2716675,78.05026245,45,65,51,2.334731817,-20
1.2,80,80,60,go_to_blue_up,blue,TRUE,FALSE,joint 1 +,TRUE,01:18.3,22.329,0.206,235,68.08099365,304.0867004,84.95825195,57.38034058,77.99222565,51,0,-20
1.2,80,80,60,go_to_pick_up_from_blue,blue,TRUE,FALSE,joint 1 -,FALSE,01:19.1,22.348,0.206,235,56.12401962,306.5188904,84.95825195,59.62400055,79.08640289,51,0,-20
1.2,80,80,60,go_to_pick_up_from_blue,blue,TRUE,FALSE,joint 1 -,FALSE,01:19.9,22.348,0.206,235,260.3375549,171.2544556,84.95825195,13.33759689,32.52399826,51,0,-20
1.2,80,80,60,moving_belt,blue,FALSE,TRUE,joint 1 -,FALSE,01:20.8,16.405,0.159,235,292.822052,106.5785141,84.95825195,0,20,51,0,-20
1.2,80,80,60,moving_belt,blue,FALSE,TRUE,joint 1 -,FALSE,01:22.3,16.158,0.159,233.1,292.822052,106.5785141,84.95825195,0,20,51,0,-20
1.2,80,80,60,moving_belt,blue,FALSE,TRUE,joint 1 -,FALSE,01:23.2,16.443,0.161,233.1,292.822052,106.5785141,84.95825195,0,20,51,0,-20
1.2,80,80,60,moving_belt,blue,FALSE,TRUE,joint 1 -,FALSE,01:24.0,16.31,0.161,233.1,292.822052,106.5785141,84.95825195,0,20,51,0,-20
1.2,80,80,60,moving_belt,blue,FALSE,TRUE,joint 1 -,FALSE,01:25.4,16.481,0.161,233.1,292.822052,106.5785141,84.95825195,0,20,51,0,-20
1.2,80,80,60,go_to_pick_down,blue,TRUE,FALSE,joint 3 +,FALSE,01:26.1,16.481,0.161,233.1,282.9987793,103.0031357,30.51460648,0,20,51,22.3349781,-20
1.2,80,80,60,go_to_pick_up_from_pick_down,blue,TRUE,FALSE,joint 3 -,TRUE,01:27.0,16.272,0.161,233.1,281.2456665,102.3650513,26.05052948,0,20,51,23.08639908,-20
1.2,80,80,60,go_to_color_detect_up,blue,TRUE,FALSE,joint 1 +,TRUE,01:27.9,18.19,0.159,233.1,292.342926,107.8857956,84.95825195,0.256000519,20.38400078,51,0,-20
1.2,80,80,60,go_to_color_detect_up,blue,TRUE,FALSE,joint 1 +,TRUE,01:29.3,22.102,0.208,233.1,190.0471039,246.9530945,84.95825195,32.41928101,53.20910645,51,0,-20
1.2,80,80,60,go_to_color_detect_up,blue,TRUE,FALSE,joint 3 +,TRUE,01:30.0,22.102,0.208,233.1,131.6257172,282.2722473,78.06436157,45,65,51,3.071999788,-20
1.2,80,80,60,go_to_color_detect_up,blue,TRUE,FALSE,joint 3 +,TRUE,01:31.4,21.836,0.206,233.1,110.0700989,236.0460663,-26.50914001,45,65,51,50.00449753,-20
1.2,80,80,60,go_to_color_detect_up,blue,TRUE,FALSE,joint 3 -,FALSE,01:32.2,22.083,0.206,233.1,104.7406616,224.6170502,-36.21502686,45,65,51,55.08319855,-20
1.2,80,80,60,go_to_color_detect_up,blue,TRUE,FALSE,joint 3 -,FALSE,01:33.0,22.083,0.206,233.1,130.3555145,279.5482788,54.60766602,45,65,51,11.14699841,-20
1.2,80,80,60,detecting_color,blue,FALSE,FALSE,detecting_color,FALSE,01:33.8,16.899,0.165,233.1,131.6940765,282.4188232,84.95825195,45,65,51,0,-20
1.2,80,80,60,detecting_color,blue,FALSE,FALSE,detecting_color,FALSE,01:35.5,17.051,0.165,233.1,131.6940765,282.4188232,84.95825195,45,65,51,0,-20
1.2,80,80,60,go_to_color_detect_down,blue,TRUE,FALSE,joint 3 +,FALSE,01:36.2,16.253,0.159,233.1,127.959343,274.409668,34.75844574,45,65,51,20.99200058,-20
1.2,80,80,60,go_to_color_detect_down,blue,TRUE,FALSE,joint 3 +,FALSE,01:37.0,16.405,0.159,233.1,101.6382294,217.9638824,-40.94228363,45,65,51,58.97366714,-20
1.2,80,80,60,go_to_color_detect_up,blue,TRUE,FALSE,joint 3 -,TRUE,01:37.7,16.405,0.159,233.1,119.9036179,257.1341248,-1.203559875,45,65,51,34.78239822,-20
1.2,80,80,60,go_to_color_detect_up,blue,TRUE,FALSE,joint 3 -,TRUE,01:39.3,22.709,0.159,233.1,131.6934357,282.4174805,84.29675293,45,65,51,0.155065209,-20
1.2,80,80,60,go_to_red_up,red,TRUE,FALSE,joint 1 +,TRUE,01:40.1,22.633,0.208,233.1,-1.870892525,311.6091003,84.95825195,70.34400177,91.4960022,51,0,-20
1.2,80,80,60,go_to_red_up,red,TRUE,FALSE,joint 1 +,TRUE,01:40.9,22.177,0.208,233.1,-177.6533966,256.0136719,84.95825195,104.7576065,124.8555145,51,0,-20
1.2,80,80,60,go_to_pick_up_from_red,red,TRUE,FALSE,joint 1 -,FALSE,01:42.4,22.5,0.192,233.1,-75.42865753,302.3479004,84.95825195,84.00799561,102.9583969,51,0,-20
1.2,80,80,60,go_to_pick_up_from_red,red,TRUE,FALSE,joint 1 -,FALSE,01:43.2,16.69,0.192,233.1,248.6069794,187.8784027,84.95825195,17.07923508,36.15683365,51,0,-20
1.2,80,80,60,moving_belt,red,FALSE,TRUE,joint 1 -,FALSE,01:44.0,16.367,0.192,233.1,292.822052,106.5785141,84.95825195,0,20,51,0,-20
1.2,80,80,60,moving_belt,red,FALSE,TRUE,joint 1 -,FALSE,01:44.8,16.367,0.159,233.1,292.822052,106.5785141,84.95825195,0,20,51,0,-20
1.2,80,80,60,moving_belt,red,FALSE,TRUE,joint 1 -,FALSE,01:46.3,16.614,0.159,233.1,292.822052,106.5785141,84.95825195,0,20,51,0,-20
1.2,80,80,60,moving_belt,red,FALSE,TRUE,joint 1 -,FALSE,01:47.1,16.614,0.16,233.1,292.822052,106.5785141,84.95825195,0,20,51,0,-20
1.2,80,80,60,moving_belt,red,FALSE,TRUE,joint 1 -,FALSE,01:47.8,16.348,0.16,233.1,292.822052,106.5785141,84.95825195,0,20,51,0,-20
1.2,80,80,60,go_to_pick_down,red,TRUE,FALSE,joint 3 +,FALSE,01:48.7,16.329,0.159,233.1,288.5053101,105.0073471,48.49627304,0,20,51,15.21445179,-20
1.2,80,80,60,go_to_pick_up_from_pick_down,red,TRUE,FALSE,joint 3 -,TRUE,01:49.8,16.329,0.159,233.1,278.9179993,101.5178528,20.68377686,0,20,51,27.59199905,-20
1.2,80,80,60,go_to_pick_up_from_pick_down,red,TRUE,FALSE,joint 3 -,TRUE,01:51.4,23.222,0.197,233.1,292.8212891,106.5782394,84.47381592,0,20,51,0.103963457,-20
1.2,80,80,60,go_to_color_detect_up,red,TRUE,FALSE,joint 1 +,TRUE,01:52.1,22.785,0.197,235,227.480896,212.9698944,84.95825195,23.11302567,44.15885162,51,0,-20
1.2,80,80,60,go_to_color_detect_up,red,TRUE,FALSE,joint 3 +,TRUE,01:52.9,22.367,0.21,235,131.6934509,282.417511,84.30145264,45,65,51,0.383999974,-20
1.2,80,80,60,go_to_color_detect_up,red,TRUE,FALSE,joint 3 +,TRUE,01:54.3,22.348,0.21,235,115.7827835,248.2969666,-13.28344727,45,65,51,42.85879898,-20
1.2,80,80,60,go_to_color_detect_up,red,TRUE,FALSE,joint 3 -,FALSE,01:55.1,22.177,0.208,235,102.2295456,219.2319489,-40.0883255,45,65,51,58.07839966,-20
1.2,80,80,60,go_to_color_detect_up,red,TRUE,FALSE,joint 3 -,FALSE,01:55.9,22.177,0.208,235,127.565033,273.5640869,32.26132202,45,65,51,19.98266411,-20
1.2,80,80,60,detecting_color,red,FALSE,FALSE,detecting_color,FALSE,01:57.5,16.918,0.167,235,131.6940765,282.4188232,84.95825195,45,65,51,0,-20
1.2,80,80,60,detecting_color,red,FALSE,FALSE,detecting_color,FALSE,01:58.2,16.766,0.167,235,131.6940765,282.4188232,84.95825195,45,65,51,0,-20
1.2,80,80,60,go_to_color_detect_down,red,TRUE,FALSE,joint 3 +,FALSE,01:58.9,16.329,0.167,235,129.752655,278.2554626,48.49627304,45,65,51,15.2319994,-20
1.2,80,80,60,go_to_color_detect_down,red,TRUE,FALSE,joint 3 +,FALSE,02:00.3,16.5,0.159,235,102.2322464,219.2377472,-40.08436584,45,65,51,58.45983124,-20
1.2,80,80,60,go_to_color_detect_up,red,TRUE,FALSE,joint 3 -,TRUE,02:01.0,16.5,0.159,235,115.7729492,248.2758789,-13.30934143,45,65,51,41.00319672,-20
1.2,80,80,60,go_to_color_detect_up,red,TRUE,FALSE,joint 3 -,TRUE,02:02.5,23.165,0.217,233.1,131.6669159,282.3606262,80.61270142,45,65,51,1.412031889,-20
1.2,80,80,60,go_to_green_up,green,TRUE,FALSE,joint 1 +,TRUE,02:03.2,22.31,0.217,233.1,62.03643417,305.3771667,84.95825195,58.51679993,79.36160278,51,0,-20
1.2,80,80,60,go_to_pick_up_from_green,green,TRUE,FALSE,joint 1 -,FALSE,02:03.9,22.614,0.209,233.1,-80.24829102,301.1045532,84.95825195,84.92320251,104.846405,51,0,-20
1.2,80,80,60,go_to_pick_up_from_green,green,TRUE,FALSE,joint 1 -,FALSE,02:05.4,20.829,0.209,233.1,94.43028259,296.9623718,84.95825195,52.35999298,71.0799942,51,0,-20
1.2,80,80,60,go_to_pick_up_from_green,green,TRUE,FALSE,joint 1 -,FALSE,02:06.2,16.633,0.161,233.1,285.4247742,125.0457153,84.95825195,3.658412933,23.23841286,51,0,-20
1.2,80,80,60,moving_belt,green,FALSE,TRUE,joint 1 -,FALSE,02:06.9,16.633,0.161,233.1,292.822052,106.5785141,84.95825195,0,20,51,0,-20
1.2,80,80,60,moving_belt,green,FALSE,TRUE,joint 1 -,FALSE,02:08.4,16.5,0.161,233.1,292.822052,106.5785141,84.95825195,0,20,51,0,-20
1.2,80,80,60,moving_belt,green,FALSE,TRUE,joint 1 -,FALSE,02:09.2,16.5,0.161,233.1,292.822052,106.5785141,84.95825195,0,20,51,0,-20
1.2,80,80,60,moving_belt,green,FALSE,TRUE,joint 1 -,FALSE,02:10.0,16.12,0.161,233.1,292.822052,106.5785141,84.95825195,0,20,51,0,-20
1.2,80,80,60,go_to_pick_down,green,TRUE,FALSE,joint 3 +,FALSE,02:11.5,16.462,0.158,233.1,292.7941589,106.5683594,82.00283813,0,20,51,1.407999992,-20
1.2,80,80,60,go_to_pick_down,green,TRUE,FALSE,joint 3 +,FALSE,02:12.2,16.538,0.158,233.1,276.6497498,100.692276,15.93932343,0,20,51,28.21576881,-20
1.2,80,80,60,go_to_pick_up_from_pick_down,green,TRUE,FALSE,joint 3 -,TRUE,02:13.0,16.538,0.16,233.1,291.0428162,105.9309235,61.44044495,0,20,51,8.532377243,-20
1.2,80,80,60,go_to_color_detect_up,green,TRUE,FALSE,joint 1 +,TRUE,02:13.8,20.924,0.16,233.1,284.8579407,126.3316193,84.95825195,3.916801453,24.37760162,51,0,-20
1.2,80,80,60,go_to_color_detect_up,green,TRUE,FALSE,joint 1 +,TRUE,02:15.3,22.367,0.211,233.1,148.3135681,274.0562134,84.95825195,41.57865906,61.98448563,51,0,-20
1.2,80,80,60,go_to_color_detect_up,green,TRUE,FALSE,joint 3 +,TRUE,02:16.1,22.424,0.211,233.1,130.6747131,280.2328186,58.43808746,45,65,51,11.13599968,-20
1.2,80,80,60,go_to_color_detect_up,green,TRUE,FALSE,joint 3 +,TRUE,02:17.0,22.253,0.207,233.1,105.134491,225.4616241,-35.56971741,45,65,51,55.51216507,-20
1.2,80,80,60,go_to_color_detect_up,green,TRUE,FALSE,joint 3 -,FALSE,02:17.8,22.234,0.207,233.1,110.0616455,236.0279541,-26.52629852,45,65,51,48.60639572,-20
1.2,80,80,60,go_to_color_detect_up,green,TRUE,FALSE,joint 3 -,FALSE,02:19.4,16.994,0.166,233.1,131.6254425,282.2716675,78.05026245,45,65,51,2.334731817,-20
1.2,80,80,60,detecting_color,green,FALSE,FALSE,detecting_color,FALSE,02:20.1,17.127,0.166,233.1,131.6940765,282.4188232,84.95825195,45,65,51,0,-20
1.2,80,80,60,go_to_color_detect_down,green,TRUE,FALSE,joint 3 +,FALSE,02:20.8,17.127,0.166,233.1,131.6913452,282.4129639,83.57898712,45,65,51,0.716799974,-20
1.2,80,80,60,go_to_color_detect_down,green,TRUE,FALSE,joint 3 +,FALSE,02:22.3,16.576,0.161,233.1,114.4420929,245.4218445,-16.70373535,45,65,51,44.62593079,-20
1.2,80,80,60,go_to_color_detect_up,green,TRUE,FALSE,joint 3 -,TRUE,02:23.2,16.5,0.162,233.1,102.6300049,220.090744,-39.49771881,45,65,51,57.59199905,-20
1.2,80,80,60,go_to_color_detect_up,green,TRUE,FALSE,joint 3 -,TRUE,02:23.9,17.241,0.162,233.1,128.315094,275.1726074,37.13879776,45,65,51,18.01073074,-20
1.2,80,80,60,go_to_blue_up,blue,TRUE,FALSE,joint 1 +,TRUE,02:25.5,22.766,0.215,233.1,120.1054688,287.5385437,84.95825195,47.32959747,67.68799591,51,0,-20
1.2,80,80,60,go_to_pick_up_from_blue,blue,TRUE,FALSE,joint 1 -,FALSE,02:26.3,22.443,0.215,233.1,27.57506371,310.3922424,84.95825195,64.92320251,84.84640503,51,0,-20
1.2,80,80,60,go_to_pick_up_from_blue,blue,TRUE,FALSE,joint 1 -,FALSE,02:27.1,22.443,0.215,233.1,190.302536,246.7563019,84.95825195,32.3599968,51.08559799,51,0,-20
1.2,80,80,60,moving_belt,blue,FALSE,TRUE,joint 1 -,FALSE,02:27.8,17.051,0.162,233.1,292.822052,106.5785141,84.95825195,0,20,51,0,-20
1.2,80,80,60,moving_belt,blue,FALSE,TRUE,joint 1 -,FALSE,02:29.3,16.595,0.162,233.1,292.822052,106.5785141,84.95825195,0,20,51,0,-20
1.2,80,80,60,moving_belt,blue,FALSE,TRUE,joint 1 -,FALSE,02:30.0,16.481,0.16,233.1,292.822052,106.5785141,84.95825195,0,20,51,0,-20
1.2,80,80,60,moving_belt,blue,FALSE,TRUE,joint 1 -,FALSE,02:30.8,16.481,0.16,231.2,292.822052,106.5785141,84.95825195,0,20,51,0,-20
1.2,80,80,60,moving_belt,blue,FALSE,TRUE,joint 1 -,FALSE,02:32.4,16.405,0.162,231.2,292.822052,106.5785141,84.95825195,0,20,51,0,-20
1.2,80,80,60,go_to_pick_down,blue,TRUE,FALSE,joint 3 +,FALSE,02:33.1,16.405,0.162,229.3,291.5829773,106.1275253,65.31313324,0,20,51,8.319999695,-20
1.2,80,80,60,go_to_pick_up_from_pick_down,blue,TRUE,FALSE,joint 3 -,TRUE,02:33.9,16.101,0.162,229.3,276.1257019,100.5015411,14.90071106,0,20,51,28.28319931,-20
1.2,80,80,60,go_to_pick_up_from_pick_down,blue,TRUE,FALSE,joint 3 -,TRUE,02:35.5,16.386,0.16,229.3,292.7546997,106.5540085,80.36846924,0,20,51,1.49958539,-20
1.2,80,80,60,go_to_color_detect_up,blue,TRUE,FALSE,joint 1 +,TRUE,02:36.3,23.07,0.212,229.3,254.5340118,179.766983,84.95825195,15.23199844,36.12799835,51,0,-20
1.2,80,80,60,go_to_color_detect_up,blue,TRUE,FALSE,joint 3 +,TRUE,02:37.1,22.177,0.212,231.2,131.6940155,282.4187317,84.76120758,45,65,51,0.153599992,-20
1.2,80,80,60,go_to_color_detect_up,blue,TRUE,FALSE,joint 3 +,TRUE,02:37.8,22.348,0.212,231.2,121.9722748,261.5703735,6.003051758,45,65,51,33.63949966,-20
1.2,80,80,60,go_to_color_detect_up,blue,TRUE,FALSE,joint 3 -,FALSE,02:39.4,22.177,0.208,231.2,101.5658646,217.8086853,-41.04534149,45,65,51,59,-20
1.2,80,80,60,go_to_color_detect_up,blue,TRUE,FALSE,joint 3 -,FALSE,02:40.1,22.177,0.208,231.2,123.3040009,264.4262695,11.18468475,45,65,51,28.89439774,-20
1.2,80,80,60,detecting_color,blue,FALSE,FALSE,detecting_color,FALSE,02:40.9,18.152,0.166,231.2,131.6940765,282.4188232,84.95825195,45,65,51,0,-20
1.2,80,80,60,detecting_color,blue,FALSE,FALSE,detecting_color,FALSE,02:42.4,17.355,0.16,231.2,131.6940765,282.4188232,84.95825195,45,65,51,0,-20
1.2,80,80,60,go_to_color_detect_down,blue,TRUE,FALSE,joint 3 +,FALSE,02:43.1,16.348,0.16,231.2,130.8101501,280.5232544,60.24898529,45,65,51,10.39359951,-20
1.2,80,80,60,go_to_color_detect_down,blue,TRUE,FALSE,joint 3 +,FALSE,02:43.9,16.253,0.16,229.3,103.7086334,222.4038696,-37.85648346,45,65,51,56.99843216,-20
1.2,80,80,60,go_to_color_detect_up,blue,TRUE,FALSE,joint 3 -,TRUE,02:45.4,16.481,0.162,231.2,112.4882965,241.2319183,-21.32216644,45,65,51,45.48319626,-20
1.2,80,80,60,go_to_color_detect_up,blue,TRUE,FALSE,joint 3 -,TRUE,02:46.2,23.108,0.162,231.2,131.6044617,282.2266541,77.06537628,45,65,51,2.693498373,-20
1.2,80,80,60,go_to_red_up,red,TRUE,FALSE,joint 1 +,TRUE,02:47.0,22.709,0.216,231.2,70.60668182,303.5101929,84.95825195,56.90399933,77.69760132,51,0,-20
1.2,80,80,60,go_to_red_up,red,TRUE,FALSE,joint 1 +,TRUE,02:48.5,22.234,0.216,229.3,-169.9579773,261.185791,84.95825195,103.0527267,123.3554382,51,0,-20
1.2,80,80,60,go_to_pick_up_from_red,red,TRUE,FALSE,joint 1 -,FALSE,02:49.3,22.69,0.213,229.3,-109.8345184,291.6163635,84.95825195,90.63839722,109.7679977,51,0,-20
1.2,80,80,60,go_to_pick_up_from_red,red,TRUE,FALSE,joint 1 -,FALSE,02:50.1,17.525,0.213,231.2,188.9212646,247.8154297,84.95825195,32.68003082,51.40003204,51,0,-20
1.2,80,80,60,moving_belt,red,FALSE,TRUE,joint 1 -,FALSE,02:50.9,16.785,0.164,231.2,292.7713928,106.717659,84.95825195,0.027229309,20.0008297,51,0,-20
1.2,80,80,60,moving_belt,red,FALSE,TRUE,joint 1 -,FALSE,02:52.4,16.424,0.164,233.1,292.822052,106.5785141,84.95825195,0,20,51,0,-20
1.2,80,80,60,moving_belt,red,FALSE,TRUE,joint 1 -,FALSE,02:53.2,16.424,0.158,233.1,292.822052,106.5785141,84.95825195,0,20,51,0,-20
1.2,80,80,60,moving_belt,red,FALSE,TRUE,joint 1 -,FALSE,02:54.0,16.367,0.158,235,292.822052,106.5785141,84.95825195,0,20,51,0,-20
1.2,80,80,60,moving_belt,red,FALSE,TRUE,joint 1 -,FALSE,02:54.8,16.367,0.158,235,292.822052,106.5785141,84.95825195,0,20,51,0,-20
1.2,80,80,60,go_to_pick_down,red,TRUE,FALSE,joint 3 +,FALSE,02:56.4,16.367,0.158,233.1,291.3682251,106.0493698,63.68711853,0,20,51,8.985599518,-20
1.2,80,80,60,go_to_pick_up_from_pick_down,red,TRUE,FALSE,joint 3 -,TRUE,02:57.1,16.253,0.158,233.1,275.6817627,100.3399658,14.03617096,0,20,51,28.74399948,-20
1.2,80,80,60,go_to_pick_up_from_pick_down,red,TRUE,FALSE,joint 3 -,TRUE,02:58.0,16.253,0.158,233.1,292.6557617,106.5179825,77.74710846,0,20,51,2.445343494,-20
1.2,80,80,60,go_to_color_detect_up,red,TRUE,FALSE,joint 1 +,TRUE,02:59.4,22.671,0.158,233.1,248.7041473,187.7497864,84.95825195,17.04959869,37.99679947,51,0,-20
1.2,80,80,60,go_to_color_detect_up,red,TRUE,FALSE,joint 3 +,TRUE,03:00.1,22.045,0.208,233.1,131.6940765,282.4188232,84.95825195,45,65,51,0,-20
1.2,80,80,60,go_to_color_detect_up,red,TRUE,FALSE,joint 3 +,TRUE,03:00.9,22.083,0.208,233.1,123.9694748,265.8533936,13.96785736,45,65,51,30.10559845,-20
1.2,80,80,60,go_to_color_detect_up,red,TRUE,FALSE,joint 3 -,FALSE,03:02.4,21.988,0.207,233.1,101.5658646,217.8086853,-41.04534149,45,65,51,59,-20
1.2,80,80,60,go_to_color_detect_up,red,TRUE,FALSE,joint 3 -,FALSE,03:03.1,21.893,0.207,233.1,122.6374664,262.9968872,8.531082153,45,65,51,30.12319756,-20
1.2,80,80,60,detecting_color,red,FALSE,FALSE,detecting_color,FALSE,03:03.8,16.861,0.165,233.1,131.6940765,282.4188232,84.95825195,45,65,51,0,-20
1.2,80,80,60,detecting_color,red,FALSE,FALSE,detecting_color,FALSE,03:05.5,16.481,0.165,233.1,131.6940765,282.4188232,84.95825195,45,65,51,0,-20
1.2,80,80,60,go_to_color_detect_down,red,TRUE,FALSE,joint 3 +,FALSE,03:06.2,16.253,0.159,233.1,131.6753235,282.3786316,81.34620667,45,65,51,1.689599991,-20
1.2,80,80,60,go_to_color_detect_down,red,TRUE,FALSE,joint 3 +,FALSE,03:06.8,16.253,0.159,233.1,115.7827835,248.2969666,-13.28344727,45,65,51,42.85879898,-20
1.2,80,80,60,go_to_color_detect_up,red,TRUE,FALSE,joint 3 -,TRUE,03:07.9,16.215,0.159,233.1,102.2295456,219.2319489,-40.0883255,45,65,51,58.07839966,-20
1.2,80,80,60,go_to_color_detect_up,red,TRUE,FALSE,joint 3 -,TRUE,03:08.8,16.367,0.159,233.1,127.9539108,274.3980408,34.72308731,45,65,51,18.98389816,-20
1.2,80,80,60,go_to_green_up,green,TRUE,FALSE,joint 1 +,TRUE,03:10.3,22.88,0.211,233.1,123.309761,286.1790161,84.95825195,46.68959808,66.99679565,51,0,-20
1.2,80,80,60,go_to_green_up,green,TRUE,FALSE,joint 1 +,TRUE,03:11.1,22.538,0.211,233.1,-57.26318741,306.308136,84.95825195,80.58900452,101.0512619,51,0,-20
1.2,80,80,60,go_to_pick_up_from_green,green,TRUE,FALSE,joint 1 -,FALSE,03:11.9,22.102,0.211,233.1,-32.6504631,309.8994751,84.95825195,76.01439667,95.32319641,51,0,-20
1.2,80,80,60,go_to_pick_up_from_green,green,TRUE,FALSE,joint 1 -,FALSE,03:13.5,16.462,0.197,233.1,229.8257599,210.4373016,84.95825195,22.47841644,41.41841507,51,0,-20
1.2,80,80,60,moving_belt,green,FALSE,TRUE,joint 1 -,FALSE,03:14.3,16.462,0.197,233.1,292.822052,106.5785141,84.95825195,0,20,51,0,-20
1.2,80,80,60,moving_belt,green,FALSE,TRUE,joint 1 -,FALSE,03:15.1,16.348,0.159,233.1,292.822052,106.5785141,84.95825195,0,20,51,0,-20
1.2,80,80,60,moving_belt,green,FALSE,TRUE,joint 1 -,FALSE,03:16.5,16.329,0.159,233.1,292.822052,106.5785141,84.95825195,0,20,51,0,-20
1.2,80,80,60,moving_belt,green,FALSE,TRUE,joint 1 -,FALSE,03:17.2,16.424,0.158,233.1,292.822052,106.5785141,84.95825195,0,20,51,0,-20
1.2,80,80,60,moving_belt,green,FALSE,TRUE,joint 1 -,FALSE,03:17.9,16.424,0.158,233.1,292.822052,106.5785141,84.95825195,0,20,51,0,-20
1.2,80,80,60,go_to_pick_down,green,TRUE,FALSE,joint 3 +,FALSE,03:19.4,16.253,0.16,233.1,286.8961487,104.4216614,42.3640976,0,20,51,17.61940956,-20
1.2,80,80,60,go_to_pick_up_from_pick_down,green,TRUE,FALSE,joint 3 -,TRUE,03:20.1,16.215,0.16,233.1,278.5104065,101.3694992,19.79918671,0,20,51,25.92799759,-20
1.2,80,80,60,go_to_pick_up_from_pick_down,green,TRUE,FALSE,joint 3 -,TRUE,03:20.8,18.456,0.16,233.1,292.8212891,106.5782394,84.47381592,0,20,51,0.103963457,-20
1.2,80,80,60,go_to_color_detect_up,green,TRUE,FALSE,joint 1 +,TRUE,03:21.7,22.975,0.217,233.1,231.4234314,208.6790161,84.95825195,22.04159927,43.11302567,51,0,-20
1.2,80,80,60,go_to_color_detect_up,green,TRUE,FALSE,joint 3 +,TRUE,03:23.4,22.329,0.21,233.1,131.6753235,282.3786316,81.34620667,45,65,51,1.689599991,-20
1.2,80,80,60,go_to_color_detect_up,green,TRUE,FALSE,joint 3 +,TRUE,03:24.1,22.329,0.21,233.1,116.4630737,249.7558594,-11.4616394,45,65,51,41.93683243,-20
1.2,80,80,60,go_to_color_detect_up,green,TRUE,FALSE,joint 3 -,FALSE,03:24.9,21.893,0.21,233.1,102.0641022,218.8771515,-40.32941437,45,65,51,58.28319931,-20
1.2,80,80,60,go_to_color_detect_up,green,TRUE,FALSE,joint 3 -,FALSE,03:26.6,16.994,0.207,233.1,127.1472015,272.6680298,29.75551987,45,65,51,21.00703049,-20
1.2,80,80,60,detecting_color,green,FALSE,FALSE,detecting_color,FALSE,03:27.3,16.994,0.207,233.1,131.6940765,282.4188232,84.95825195,45,65,51,0,-20
1.2,80,80,60,detecting_color,green,FALSE,FALSE,detecting_color,FALSE,03:28.0,17.013,0.164,233.1,131.6940765,282.4188232,84.95825195,45,65,51,0,-20
1.2,80,80,60,go_to_color_detect_down,green,TRUE,FALSE,joint 3 +,FALSE,03:28.9,16.405,0.164,235,129.5116119,277.7385559,46.33722305,45,65,51,16.12800026,-20
1.2,80,80,60,go_to_color_detect_down,green,TRUE,FALSE,joint 3 +,FALSE,03:30.5,16.405,0.158,235,102.2322464,219.2377472,-40.08436584,45,65,51,58.45983124,-20
1.2,80,80,60,go_to_color_detect_up,green,TRUE,FALSE,joint 3 -,TRUE,03:31.3,16.709,0.158,235,115.7729492,248.2758789,-13.30934143,45,65,51,41.00319672,-20
1.2,80,80,60,go_to_color_detect_up,green,TRUE,FALSE,joint 3 -,TRUE,03:32.1,22.994,0.214,235,131.6752014,282.3783569,81.33586121,45,65,51,1.155665159,-20
1.2,80,80,60,go_to_blue_up,blue,TRUE,FALSE,joint 1 +,TRUE,03:32.8,22.994,0.214,235,55.85506058,306.5680237,84.95825195,59.67427063,80.18375397,51,0,-20
1.2,80,80,60,go_to_pick_up_from_blue,blue,TRUE,FALSE,joint 1 -,FALSE,03:34.4,22.234,0.207,235,90.6078949,298.1508789,84.95825195,53.09600067,72.30239868,51,0,-20
1.2,80,80,60,go_to_pick_up_from_blue,blue,TRUE,FALSE,joint 1 -,FALSE,03:35.1,17.184,0.207,235,281.8090515,132.9939575,84.95825195,5.263998032,24.75759888,51,0,-20
1.2,80,80,60,moving_belt,blue,FALSE,TRUE,joint 1 -,FALSE,03:36.3,17.184,0.207,235,292.822052,106.5785141,84.95825195,0,20,51,0,-20
1.2,80,80,60,moving_belt,blue,FALSE,TRUE,joint 1 -,FALSE,03:37.0,16.519,0.16,235,292.822052,106.5785141,84.95825195,0,20,51,0,-20
1.2,80,80,60,moving_belt,blue,FALSE,TRUE,joint 1 -,FALSE,03:37.8,16.443,0.16,235,292.822052,106.5785141,84.95825195,0,20,51,0,-20
1.2,80,80,60,moving_belt,blue,FALSE,TRUE,joint 1 -,FALSE,03:39.5,16.481,0.158,235,292.822052,106.5785141,84.95825195,0,20,51,0,-20
1.2,80,80,60,go_to_pick_down,blue,TRUE,FALSE,joint 3 +,FALSE,03:40.1,16.253,0.158,235,292.8219299,106.5784683,84.76120758,0,20,51,0.153599992,-20
1.2,80,80,60,go_to_pick_down,blue,TRUE,FALSE,joint 3 +,FALSE,03:40.8,16.557,0.158,235,279.4915466,101.7266006,21.95463562,0,20,51,25.79614639,-20
1.2,80,80,60,go_to_pick_up_from_pick_down,blue,TRUE,FALSE,joint 3 -,TRUE,03:42.4,16.595,0.158,235,287.80896,104.7538986,45.71575165,0,20,51,14.63839912,-20
1.2,80,80,60,go_to_color_detect_up,blue,TRUE,FALSE,joint 1 +,TRUE,03:43.1,23.317,0.211,235,290.1148071,113.7414856,84.95825195,1.408000946,21.6896019,51,0,-20
1.2,80,80,60,go_to_color_detect_up,blue,TRUE,FALSE,joint 1 +,TRUE,03:44.1,23.317,0.211,235,165.033371,264.3250122,84.95825195,38.02108383,58.60610962,51,0,-20
1.2,80,80,60,go_to_color_detect_up,blue,TRUE,FALSE,joint 3 +,TRUE,03:45.6,22.595,0.21,235,131.2975769,281.5685425,68.37652588,45,65,51,7.065599918,-20
1.2,80,80,60,go_to_color_detect_up,blue,TRUE,FALSE,joint 3 +,TRUE,03:46.4,22.291,0.21,235,105.9723129,227.2583466,-34.16098022,45,65,51,54.61543274,-20
1.2,80,80,60,go_to_color_detect_up,blue,TRUE,FALSE,joint 3 -,FALSE,03:47.1,22.329,0.209,235,108.3953934,232.4546661,-29.79708862,45,65,51,50.67999649,-20
1.2,80,80,60,go_to_color_detect_up,blue,TRUE,FALSE,joint 3 -,FALSE,03:48.5,20.184,0.209,235,131.2965393,281.5663147,68.35502625,45,65,51,5.921665192,-20
1.2,80,80,60,detecting_color,blue,FALSE,FALSE,detecting_color,FALSE,03:49.3,17.43,0.168,235,131.6940765,282.4188232,84.95825195,45,65,51,0,-20
1.2,80,80,60,go_to_color_detect_down,blue,TRUE,FALSE,joint 3 +,FALSE,03:50.1,16.69,0.168,235,131.6934509,282.417511,84.30145264,45,65,51,0.383999974,-20
1.2,80,80,60,go_to_color_detect_down,blue,TRUE,FALSE,joint 3 +,FALSE,03:51.5,16.709,0.16,235,119.9136276,257.1555786,-1.170791626,45,65,51,36.94299698,-20
1.2,80,80,60,go_to_color_detect_up,blue,TRUE,FALSE,joint 3 -,TRUE,03:52.4,16.785,0.16,235,101.6372223,217.9617157,-40.94373322,45,65,51,58.8463974,-20
1.2,80,80,60,go_to_color_detect_up,blue,TRUE,FALSE,joint 3 -,TRUE,03:53.2,16.785,0.207,235,128.315094,275.1726074,37.13879776,45,65,51,18.01073074,-20
1.2,80,80,60,go_to_red_up,red,TRUE,FALSE,joint 1 +,TRUE,03:54.0,23.393,0.207,235,128.1506348,284.0442505,84.95825195,45.71679688,65.92160034,51,0,-20
1.2,80,80,60,go_to_red_up,red,TRUE,FALSE,joint 1 +,TRUE,03:55.5,22.272,0.208,235,-70.8299942,303.4581604,84.95825195,83.13816071,104.1832733,51,0,-20
1.2,80,80,60,go_to_pick_up_from_red,red,TRUE,FALSE,joint 1 -,FALSE,03:56.4,22.747,0.208,235,-178.3925629,255.4991608,84.95825195,104.9232025,124.846405,51,0,-20
1.2,80,80,60,go_to_pick_up_from_red,red,TRUE,FALSE,joint 1 -,FALSE,03:57.2,20.734,0.208,235,35.816082,309.5495911,84.95825195,63.40000153,82.12000275,51,0,-20
1.2,80,80,60,go_to_pick_up_from_red,red,TRUE,FALSE,joint 1 -,FALSE,03:58.0,20.734,0.163,235,272.5252686,151.1082153,84.95825195,9.007232666,28.34083176,51,0,-20
1.2,80,80,60,moving_belt,red,FALSE,TRUE,joint 1 -,FALSE,03:59.5,16.69,0.161,235,292.822052,106.5785141,84.95825195,0,20,51,0,-20
1.2,80,80,60,moving_belt,red,FALSE,TRUE,joint 1 -,FALSE,04:00.3,16.69,0.161,235,292.822052,106.5785141,84.95825195,0,20,51,0,-20
1.2,80,80,60,moving_belt,red,FALSE,TRUE,joint 1 -,FALSE,04:01.1,16.348,0.161,235,292.822052,106.5785141,84.95825195,0,20,51,0,-20
1.2,80,80,60,moving_belt,red,FALSE,TRUE,joint 1 -,FALSE,04:02.5,16.329,0.157,235,292.822052,106.5785141,84.95825195,0,20,51,0,-20
1.2,80,80,60,go_to_pick_down,red,TRUE,FALSE,joint 3 +,FALSE,04:03.3,16.367,0.157,235,292.822052,106.5785141,84.95825195,0,20,51,0,-20
1.2,80,80,60,go_to_pick_down,red,TRUE,FALSE,joint 3 +,FALSE,04:04.0,16.367,0.158,235,281.411377,102.4253693,26.45536804,0,20,51,23.97193527,-20
1.2,80,80,60,go_to_pick_up_from_pick_down,red,TRUE,FALSE,joint 3 -,TRUE,04:05.5,17.449,0.158,235,282.2857361,102.7436142,28.64880371,0,20,51,21.93439865,-20
1.2,80,80,60,go_to_color_detect_up,red,TRUE,FALSE,joint 1 +,TRUE,04:06.3,23.051,0.217,235,291.8091431,109.3213043,84.95825195,0.537601471,20.71680069,51,0,-20
1.2,80,80,60,go_to_color_detect_up,red,TRUE,FALSE,joint 1 +,TRUE,04:07.0,23.051,0.217,235,180.0158539,254.3580627,84.95825195,34.71195602,55.42498016,51,0,-20
1.2,80,80,60,go_to_color_detect_up,red,TRUE,FALSE,joint 3 +,TRUE,04:07.8,22.253,0.217,235,131.5489655,282.1076355,74.91699982,45,65,51,4.377599716,-20
1.2,80,80,60,go_to_color_detect_up,red,TRUE,FALSE,joint 3 +,TRUE,04:09.4,22.064,0.21,235,111.257164,238.5917358,-24.03131866,45,65,51,48.59576416,-20
1.2,80,80,60,go_to_color_detect_up,red,TRUE,FALSE,joint 3 -,FALSE,04:10.1,22.045,0.207,235,104.3736801,223.8300629,-36.80686951,45,65,51,55.51839828,-20
1.2,80,80,60,go_to_color_detect_up,red,TRUE,FALSE,joint 3 -,FALSE,04:10.8,22.045,0.207,235,130.9299927,280.7802429,61.97379303,45,65,51,8.32953167,-20
1.2,80,80,60,detecting_color,red,FALSE,FALSE,detecting_color,FALSE,04:11.9,18.627,0.207,235,131.6940765,282.4188232,84.95825195,45,65,51,0,-20
1.2,80,80,60,detecting_color,red,FALSE,FALSE,detecting_color,FALSE,04:13.5,16.614,0.164,235,131.6940765,282.4188232,84.95825195,45,65,51,0,-20
1.2,80,80,60,go_to_color_detect_down,red,TRUE,FALSE,joint 3 +,FALSE,04:14.2,16.614,0.164,235,130.9316559,280.783844,61.99887848,45,65,51,9.676799774,-20
1.2,80,80,60,go_to_color_detect_down,red,TRUE,FALSE,joint 3 +,FALSE,04:15.0,16.424,0.159,235,106.8890076,229.2241974,-32.56201172,45,65,51,53.61629868,-20
1.2,80,80,60,go_to_color_detect_up,red,TRUE,FALSE,joint 3 -,TRUE,04:16.5,16.519,0.189,235,110.6479034,237.2851868,-25.31893921,45,65,51,47.8639946,-20
1.2,80,80,60,go_to_color_detect_up,red,TRUE,FALSE,joint 3 -,TRUE,04:17.2,22.804,0.189,235,131.5122528,282.0289307,73.72003937,45,65,51,3.923398256,-20
1.2,80,80,60,go_to_green_up,green,TRUE,FALSE,joint 1 +,TRUE,04:18.0,23.279,0.189,235,85.96791077,299.521698,84.95825195,53.98560333,74.67680359,51,0,-20
1.2,80,80,60,go_to_green_up,green,TRUE,FALSE,joint 1 +,TRUE,04:19.5,22.481,0.207,235,-79.78404236,301.2278748,84.95825195,84.83487701,104.9131317,51,0,-20
1.2,80,80,60,go_to_pick_up_from_green,green,TRUE,FALSE,joint 1 -,FALSE,04:20.2,22.481,0.207,235,26.98565292,310.4440613,84.95825195,65.03199768,84.00799561,51,0,-20
1.2,80,80,60,go_to_pick_up_from_green,green,TRUE,FALSE,joint 1 -,FALSE,04:21.0,18.076,0.16,235,279.73703,137.2986298,84.95825195,6.142414093,25.59441376,51,0,-20
1.2,80,80,60,moving_belt,green,FALSE,TRUE,joint 1 -,FALSE,04:22.6,16.5,0.16,235,292.822052,106.5785141,84.95825195,0,20,51,0,-20
1.2,80,80,60,moving_belt,green,FALSE,TRUE,joint 1 -,FALSE,04:23.3,16.462,0.159,235,292.822052,106.5785141,84.95825195,0,20,51,0,-20
1.2,80,80,60,moving_belt,green,FALSE,TRUE,joint 1 -,FALSE,04:24.1,16.462,0.159,235,292.822052,106.5785141,84.95825195,0,20,51,0,-20
1.2,80,80,60,moving_belt,green,FALSE,TRUE,joint 1 -,FALSE,04:25.6,16.291,0.158,235,292.822052,106.5785141,84.95825195,0,20,51,0,-20
1.2,80,80,60,moving_belt,green,FALSE,TRUE,joint 1 -,FALSE,04:26.4,16.291,0.158,235,292.822052,106.5785141,84.95825195,0,20,51,0,-20
1.2,80,80,60,go_to_pick_down,green,TRUE,FALSE,joint 3 +,FALSE,04:27.2,16.481,0.158,235,289.8514099,105.4972916,54.63619614,0,20,51,12.69759941,-20
1.2,80,80,60,go_to_pick_up_from_pick_down,green,TRUE,FALSE,joint 3 -,TRUE,04:28.0,16.101,0.158,235,276.3309937,100.5762634,15.30523682,0,20,51,28.07839966,-20
1.2,80,80,60,go_to_pick_up_from_pick_down,green,TRUE,FALSE,joint 3 -,TRUE,04:29.4,19.538,0.214,233.1,292.8201904,106.5778351,84.19043732,0,20,51,0.188816205,-20
1.2,80,80,60,go_to_color_detect_up,green,TRUE,FALSE,joint 1 +,TRUE,04:30.2,22.557,0.214,233.1,235.2071686,204.4048157,84.95825195,20.99200058,42.04159927,51,0,-20
1.2,80,80,60,go_to_color_detect_up,green,TRUE,FALSE,joint 3 +,TRUE,04:31.0,22.177,0.214,233.1,131.6938477,282.4183655,84.56417084,45,65,51,0.255999982,-20
1.2,80,80,60,go_to_color_detect_up,green,TRUE,FALSE,joint 3 +,TRUE,04:32.6,21.893,0.207,233.1,120.6038513,258.6357727,1.134437561,45,65,51,35.86743164,-20
1.2,80,80,60,go_to_color_detect_up,green,TRUE,FALSE,joint 3 -,FALSE,04:33.3,21.893,0.207,233.1,101.5658646,217.8086853,-41.04534149,45,65,51,58.97439957,-20
1.2,80,80,60,go_to_color_detect_up,green,TRUE,FALSE,joint 3 -,FALSE,04:34.0,21.817,0.206,233.1,127.9539108,274.3980408,34.72308731,45,65,51,18.98389816,-20
1.2,80,80,60,detecting_color,green,FALSE,FALSE,detecting_color,FALSE,04:35.5,16.614,0.206,233.1,131.6940765,282.4188232,84.95825195,45,65,51,0,-20
1.2,80,80,60,detecting_color,green,FALSE,FALSE,detecting_color,FALSE,04:36.2,16.728,0.161,233.1,131.6940765,282.4188232,84.95825195,45,65,51,0,-20
1.2,80,80,60,go_to_color_detect_down,green,TRUE,FALSE,joint 3 +,FALSE,04:36.9,16.291,0.161,233.1,129.9732971,278.7286377,50.5998764,45,65,51,14.36159897,-20
1.2,80,80,60,go_to_color_detect_down,green,TRUE,FALSE,joint 3 +,FALSE,04:38.5,16.253,0.157,233.1,104.3789444,223.8413544,-36.79843903,45,65,51,56.30649567,-20
1.2,80,80,60,go_to_color_detect_up,green,TRUE,FALSE,joint 3 -,TRUE,04:39.3,16.253,0.157,233.1,110.6479034,237.2851868,-25.31893921,45,65,51,47.8639946,-20
1.2,80,80,60,go_to_color_detect_up,green,TRUE,FALSE,joint 3 -,TRUE,04:39.9,17.544,0.157,233.1,131.5122528,282.0289307,73.72003937,45,65,51,3.923398256,-20
1.2,80,80,60,go_to_blue_up,blue,TRUE,FALSE,joint 1 +,TRUE,04:41.5,22.329,0.213,233.1,64.8296814,304.7964172,84.95825195,53.98560333,74.67680359,51,0,-20
1.2,80,80,60,go_to_pick_up_from_blue,blue,TRUE,FALSE,joint 1 -,FALSE,04:42.2,22.253,0.208,233.1,58.99752426,305.9788208,84.95825195,59.08640289,78.52320099,51,0,-20
1.2,80,80,60,go_to_pick_up_from_blue,blue,TRUE,FALSE,joint 1 -,FALSE,04:42.9,22.253,0.208,233.1,260.3375549,171.2544556,84.95825195,13.33759689,32.52399826,51,0,-20
1.2,80,80,60,moving_belt,blue,FALSE,TRUE,joint 1 -,FALSE,04:44.4,16.291,0.159,233.1,292.822052,106.5785141,84.95825195,0,20,51,0,-20
1.2,80,80,60,moving_belt,blue,FALSE,TRUE,joint 1 -,FALSE,04:45.2,16.291,0.159,233.1,292.822052,106.5785141,84.95825195,0,20,51,0,-20
1.2,80,80,60,moving_belt,blue,FALSE,TRUE,joint 1 -,FALSE,04:45.9,16.386,0.159,233.1,292.822052,106.5785141,84.95825195,0,20,51,0,-20
1.2,80,80,60,moving_belt,blue,FALSE,TRUE,joint 1 -,FALSE,04:46.6,16.386,0.158,233.1,292.822052,106.5785141,84.95825195,0,20,51,0,-20
1.2,80,80,60,moving_belt,blue,FALSE,TRUE,joint 1 -,FALSE,04:48.5,16.5,0.158,233.1,292.822052,106.5785141,84.95825195,0,20,51,0,-20
1.2,80,80,60,go_to_pick_down,blue,TRUE,FALSE,joint 3 +,FALSE,04:49.2,16.31,0.158,233.1,280.907196,102.2418594,25.23374939,0,20,51,24.4663887,-20
1.2,80,80,60,go_to_pick_up_from_pick_down,blue,TRUE,FALSE,joint 3 -,TRUE,04:50.6,17.677,0.158,233.1,284.4796448,103.5421219,34.64657974,0,20,51,19.32319832,-20
1.2,80,80,60,go_to_color_detect_up,blue,TRUE,FALSE,joint 1 +,TRUE,04:51.4,22.671,0.216,233.1,291.8091431,109.3213043,84.95825195,0.537601471,20.71680069,51,0,-20
1.2,80,80,60,go_to_color_detect_up,blue,TRUE,FALSE,joint 1 +,TRUE,04:52.2,22.671,0.216,233.1,186.6249084,249.5493317,84.95825195,33.20910645,53.97333145,51,0,-20
1.2,80,80,60,go_to_color_detect_up,blue,TRUE,FALSE,joint 3 +,TRUE,04:53.0,21.969,0.209,233.1,131.6047974,282.2273865,77.08039856,45,65,51,3.481599808,-20
1.2,80,80,60,go_to_color_detect_up,blue,TRUE,FALSE,joint 3 +,TRUE,04:53.8,22.102,0.209,233.1,108.9426804,233.6283112,-28.7482605,45,65,51,51.31082916,-20
1.2,80,80,60,go_to_color_detect_up,blue,TRUE,FALSE,joint 3 -,FALSE,04:55.5,21.969,0.207,233.1,106.4143143,228.2062225,-33.39766693,45,65,51,53.08639526,-20
1.2,80,80,60,go_to_color_detect_up,blue,TRUE,FALSE,joint 3 -,FALSE,04:56.3,16.823,0.207,233.1,130.9299927,280.7802429,61.97379303,45,65,51,8.32953167,-20
1.2,80,80,60,detecting_color,blue,FALSE,FALSE,detecting_color,FALSE,04:57.1,16.823,0.207,233.1,131.6940765,282.4188232,84.95825195,45,65,51,0,-20
1.2,80,80,60,go_to_color_detect_down,blue,TRUE,FALSE,joint 3 +,FALSE,04:58.0,16.804,0.164,233.1,131.6940765,282.4188232,84.8925705,45,65,51,0.076799996,-20
1.2,80,80,60,go_to_color_detect_down,blue,TRUE,FALSE,joint 3 +,FALSE,04:59.5,16.367,0.16,233.1,122.6471786,263.0177002,8.568847656,45,65,51,32.48713303,-20
1.2,80,80,60,go_to_color_detect_up,blue,TRUE,FALSE,joint 3 -,TRUE,05:00.2,16.405,0.16,233.1,101.5658646,217.8086853,-41.04534149,45,65,51,59,-20
1.2,80,80,60,go_to_color_detect_up,blue,TRUE,FALSE,joint 3 -,TRUE,05:01.0,17.279,0.16,233.1,126.2195511,270.6786804,24.62063599,45,65,51,23.13256454,-20
1.2,80,80,60,go_to_red_up,red,TRUE,FALSE,joint 1 +,TRUE,05:02.5,22.785,0.215,233.1,131.5678711,282.4776611,84.95825195,45.02559662,65.07679749,51,0,-20
1.2,80,80,60,go_to_red_up,red,TRUE,FALSE,joint 1 +,TRUE,05:03.2,22.215,0.215,233.1,-40.82820129,308.9284668,84.95825195,77.52861786,98.70172882,51,0,-20
1.2,80,80,60,go_to_pick_up_from_red,red,TRUE,FALSE,joint 1 -,FALSE,05:03.9,22.215,0.208,233.1,-178.7348633,255.2598114,84.95825195,105,125,51,0,-20
1.2,80,80,60,go_to_pick_up_from_red,red,TRUE,FALSE,joint 1 -,FALSE,05:05.5,22.367,0.208,233.1,8.048406601,311.5107727,84.95825195,68.51999664,87.23999786,51,0,-20
1.2,80,80,60,go_to_pick_up_from_red,red,TRUE,FALSE,joint 1 -,FALSE,05:06.3,16.329,0.159,233.1,264.4691467,164.8022766,84.95825195,11.92883301,31.16003227,51,0,-20
1.2,80,80,60,moving_belt,red,FALSE,TRUE,joint 1 -,FALSE,05:07.0,16.557,0.159,233.1,292.822052,106.5785141,84.95825195,0,20,51,0,-20
1.2,80,80,60,moving_belt,red,FALSE,TRUE,joint 1 -,FALSE,05:08.6,16.481,0.16,233.1,292.822052,106.5785141,84.95825195,0,20,51,0,-20
1.2,80,80,60,moving_belt,red,FALSE,TRUE,joint 1 -,FALSE,05:09.4,16.31,0.16,233.1,292.822052,106.5785141,84.95825195,0,20,51,0,-20
1.2,80,80,60,moving_belt,red,FALSE,TRUE,joint 1 -,FALSE,05:10.0,16.31,0.16,233.1,292.822052,106.5785141,84.95825195,0,20,51,0,-20
1.2,80,80,60,moving_belt,red,FALSE,TRUE,joint 1 -,FALSE,05:11.5,16.367,0.16,233.1,292.822052,106.5785141,84.95825195,0,20,51,0,-20
1.2,80,80,60,go_to_pick_down,red,TRUE,FALSE,joint 3 +,FALSE,05:12.2,16.215,0.159,233.1,281.9291687,102.6138306,27.74230194,0,20,51,23.45188332,-20
1.2,80,80,60,go_to_pick_up_from_pick_down,red,TRUE,FALSE,joint 3 -,TRUE,05:12.9,16.481,0.159,233.1,282.8227844,102.9390793,30.04716873,0,20,51,21.31999779,-20
1.2,80,80,60,go_to_color_detect_up,red,TRUE,FALSE,joint 1 +,TRUE,05:14.4,23.146,0.215,233.1,292.6789246,106.970932,84.95825195,0.0768013,20.15360069,51,0,-20
1.2,80,80,60,go_to_color_detect_up,red,TRUE,FALSE,joint 1 +,TRUE,05:15.1,22.386,0.215,233.1,197.1062469,241.3562927,84.95825195,30.76282883,51.60385513,51,0,-20
1.2,80,80,60,go_to_color_detect_up,red,TRUE,FALSE,joint 3 +,TRUE,05:16.6,22.481,0.209,233.1,131.6563416,282.3379211,79.83622742,45,65,51,2.329599857,-20
1.2,80,80,60,go_to_color_detect_up,red,TRUE,FALSE,joint 3 +,TRUE,05:17.4,22.196,0.209,233.1,110.6565628,237.3037415,-25.30089569,45,65,51,49.31293106,-20
1.2,80,80,60,go_to_color_detect_up,red,TRUE,FALSE,joint 3 -,FALSE,05:18.1,22.177,0.209,233.1,104.3736801,223.8300629,-36.80686951,45,65,51,55.51839828,-20
1.2,80,80,60,go_to_color_detect_up,red,TRUE,FALSE,joint 3 -,FALSE,05:19.6,17.165,0.207,233.1,130.3555145,279.5482788,54.60766602,45,65,51,11.14699841,-20
1.2,80,80,60,detecting_color,red,FALSE,FALSE,detecting_color,FALSE,05:20.4,17.165,0.207,233.1,131.6940765,282.4188232,84.95825195,45,65,51,0,-20
1.2,80,80,60,detecting_color,red,FALSE,FALSE,detecting_color,FALSE,05:21.2,16.481,0.161,233.1,131.6940765,282.4188232,84.95825195,45,65,51,0,-20
1.2,80,80,60,go_to_color_detect_down,red,TRUE,FALSE,joint 3 +,FALSE,05:22.0,16.481,0.161,233.1,128.9637756,276.5636902,41.85792923,45,65,51,17.99680138,-20
1.2,80,80,60,go_to_color_detect_down,red,TRUE,FALSE,joint 3 +,FALSE,05:23.6,16.633,0.16,233.1,102.8683701,220.6019287,-39.1414032,45,65,51,57.84433365,-20
1.2,80,80,60,go_to_color_detect_up,red,TRUE,FALSE,joint 3 -,TRUE,05:24.4,16.633,0.16,233.1,114.4324722,245.4012146,-16.72751617,45,65,51,42.87199783,-20
1.2,80,80,60,go_to_color_detect_up,red,TRUE,FALSE,joint 3 -,TRUE,05:25.2,19.652,0.215,233.1,131.6891785,282.4083252,83.11173248,45,65,51,0.540165305,-20
1.2,80,80,60,go_to_green_up,green,TRUE,FALSE,joint 1 +,TRUE,05:25.9,22.918,0.215,233.1,37.99349213,309.2898865,84.95825195,62.99680328,83.96960449,51,0,-20
1.2,80,80,60,go_to_pick_up_from_green,green,TRUE,FALSE,joint 1 -,FALSE,05:27.4,22.443,0.21,233.1,-80.24829102,301.1045532,84.95825195,84.92320251,104.846405,51,0,-20
1.2,80,80,60,go_to_pick_up_from_green,green,TRUE,FALSE,joint 1 -,FALSE,05:28.2,20.089,0.21,233.1,101.0403595,294.7788696,84.95825195,51.0799942,69.79999542,51,0,-20
1.2,80,80,60,go_to_pick_up_from_green,green,TRUE,FALSE,joint 1 -,FALSE,05:29.0,20.089,0.21,233.1,289.8871155,114.3205795,84.95825195,1.522413254,21.25601387,51,0,-20
1.2,80,80,60,moving_belt,green,FALSE,TRUE,joint 1 -,FALSE,05:29.7,16.633,0.161,233.1,292.822052,106.5785141,84.95825195,0,20,51,0,-20
1.2,80,80,60,moving_belt,green,FALSE,TRUE,joint 1 -,FALSE,05:31.4,16.31,0.161,233.1,292.822052,106.5785141,84.95825195,0,20,51,0,-20
1.2,80,80,60,moving_belt,green,FALSE,TRUE,joint 1 -,FALSE,05:32.3,16.348,0.16,233.1,292.822052,106.5785141,84.95825195,0,20,51,0,-20
1.2,80,80,60,moving_belt,green,FALSE,TRUE,joint 1 -,FALSE,05:33.1,16.481,0.16,233.1,292.822052,106.5785141,84.95825195,0,20,51,0,-20
1.2,80,80,60,go_to_pick_down,green,TRUE,FALSE,joint 3 +,FALSE,05:34.7,16.234,0.159,233.1,292.7619934,106.5566559,80.62398529,0,20,51,1.996799946,-20
1.2,80,80,60,go_to_pick_down,green,TRUE,FALSE,joint 3 +,FALSE,05:35.4,16.538,0.159,233.1,276.4079285,100.6042633,15.45763397,0,20,51,28.40302086,-20
1.2,80,80,60,go_to_pick_up_from_pick_down,green,TRUE,FALSE,joint 3 -,TRUE,05:36.1,16.538,0.161,233.1,291.5162659,106.1032486,64.79373932,0,20,51,7.261871815,-20
1.2,80,80,60,go_to_color_detect_up,green,TRUE,FALSE,joint 1 +,TRUE,05:37.5,22.823,0.161,233.1,282.7306213,131.0233459,84.95825195,4.864002228,25.37600136,51,0,-20
1.2,80,80,60,go_to_color_detect_up,green,TRUE,FALSE,joint 1 +,TRUE,05:38.2,22.386,0.209,233.1,148.3135681,274.0562134,84.95825195,41.57865906,61.98448563,51,0,-20
1.2,80,80,60,go_to_color_detect_up,green,TRUE,FALSE,joint 3 +,TRUE,05:39.1,22.386,0.209,233.1,130.5243683,279.9104004,56.56689453,45,65,51,11.90399933,-20
1.2,80,80,60,go_to_color_detect_up,green,TRUE,FALSE,joint 3 +,TRUE,05:40.1,22.538,0.209,233.1,104.7462311,224.6289978,-36.20597839,45,65,51,55.92213058,-20
1.2,80,80,60,go_to_color_detect_up,green,TRUE,FALSE,joint 3 -,FALSE,05:40.9,22.177,0.208,233.1,114.4324722,245.4012146,-16.72751617,45,65,51,42.87199783,-20
1.2,80,80,60,go_to_color_detect_up,green,TRUE,FALSE,joint 3 -,FALSE,05:42.4,16.842,0.166,233.1,131.6425018,282.3082581,78.969841,45,65,51,2.001565218,-20
1.2,80,80,60,detecting_color,green,FALSE,FALSE,detecting_color,FALSE,05:43.3,17.089,0.166,233.1,131.6940765,282.4188232,84.95825195,45,65,51,0,-20
1.2,80,80,60,go_to_color_detect_down,green,TRUE,FALSE,joint 3 +,FALSE,05:44.0,17.089,0.166,233.1,131.6427307,282.3087158,78.98300171,45,65,51,2.687999725,-20
1.2,80,80,60,go_to_color_detect_down,green,TRUE,FALSE,joint 3 +,FALSE,05:45.5,16.576,0.161,233.1,113.7839737,244.010498,-18.30561066,45,65,51,45.47109604,-20
1.2,80,80,60,go_to_color_detect_up,green,TRUE,FALSE,joint 3 -,TRUE,05:46.2,16.576,0.161,233.1,102.4182358,219.6366119,-39.8112793,45,65,51,57.84799957,-20
1.2,80,80,60,go_to_color_detect_up,green,TRUE,FALSE,joint 3 -,TRUE,05:47.6,23.089,0.162,233.1,129.7492828,278.24823,48.46529388,45,65,51,13.52889824,-20
1.2,80,80,60,go_to_blue_up,blue,TRUE,FALSE,joint 1 +,TRUE,05:48.5,23.089,0.162,233.1,120.1054688,287.5385437,84.95825195,47.32959747,67.68799591,51,0,-20
1.2,80,80,60,go_to_pick_up_from_blue,blue,TRUE,FALSE,joint 1 -,FALSE,05:49.2,22.728,0.212,233.1,27.99108505,310.355011,84.95825195,64.84640503,84.7440033,51,0,-20
1.2,80,80,60,go_to_pick_up_from_blue,blue,TRUE,FALSE,joint 1 -,FALSE,05:50.0,22.443,0.212,233.1,200.9812012,238.1392517,84.95825195,29.83679962,48.61359787,51,0,-20
1.2,80,80,60,moving_belt,blue,FALSE,TRUE,joint 1 -,FALSE,05:51.5,16.918,0.163,233.1,292.822052,106.5784836,84.95825195,-3.81E-06,20,51,0,-20
1.2,80,80,60,moving_belt,blue,FALSE,TRUE,joint 1 -,FALSE,05:52.3,16.652,0.163,233.1,292.822052,106.5785141,84.95825195,0,20,51,0,-20
1.2,80,80,60,moving_belt,blue,FALSE,TRUE,joint 1 -,FALSE,05:53.0,16.5,0.163,233.1,292.822052,106.5785141,84.95825195,0,20,51,0,-20
1.2,80,80,60,moving_belt,blue,FALSE,TRUE,joint 1 -,FALSE,05:54.6,15.949,0.159,231.2,292.822052,106.5785141,84.95825195,0,20,51,0,-20
1.2,80,80,60,moving_belt,blue,FALSE,TRUE,joint 1 -,FALSE,05:55.4,16.31,0.161,231.2,292.822052,106.5785141,84.95825195,0,20,51,0,-20
1.2,80,80,60,go_to_pick_down,blue,TRUE,FALSE,joint 3 +,FALSE,05:56.2,16.31,0.161,231.2,291.1268311,105.9615021,61.99887848,0,20,51,9.676799774,-20
1.2,80,80,60,go_to_pick_up_from_pick_down,blue,TRUE,FALSE,joint 3 -,TRUE,05:56.9,16.367,0.161,231.2,275.6817627,100.3399658,14.03617096,0,20,51,28.74399948,-20
1.2,80,80,60,go_to_pick_up_from_pick_down,blue,TRUE,FALSE,joint 3 -,TRUE,05:58.5,16.576,0.16,233.1,292.6061401,106.4999313,76.74263,0,20,51,2.811796188,-20
1.2,80,80,60,go_to_color_detect_up,blue,TRUE,FALSE,joint 1 +,TRUE,05:59.2,23.108,0.16,233.1,254.5340118,179.766983,84.95825195,15.23199844,36.12799835,51,0,-20
1.2,80,80,60,go_to_color_detect_up,blue,TRUE,FALSE,joint 3 +,TRUE,06:00.0,22.083,0.209,233.1,131.6947479,282.4185181,84.95825195,44.99986267,65,51,0,-20
1.2,80,80,60,go_to_color_detect_up,blue,TRUE,FALSE,joint 3 +,TRUE,06:01.5,21.931,0.209,233.1,124.5874634,267.1786499,16.68644714,45,65,51,28.87679863,-20
1.2,80,80,60,go_to_color_detect_up,blue,TRUE,FALSE,joint 3 -,FALSE,06:02.2,21.931,0.208,233.1,101.589653,217.8596954,-41.0114975,45,65,51,58.9231987,-20
1.2,80,80,60,go_to_color_detect_up,blue,TRUE,FALSE,joint 3 -,FALSE,06:03.6,18.152,0.208,233.1,124.5787811,267.1600342,16.64730072,45,65,51,26.51286316,-20
1.2,80,80,60,detecting_color,blue,FALSE,FALSE,detecting_color,FALSE,06:04.3,18.152,0.165,233.1,131.6940765,282.4188232,84.95825195,45,65,51,0,-20
1.2,80,80,60,detecting_color,blue,FALSE,FALSE,detecting_color,FALSE,06:05.1,17.279,0.165,233.1,131.6940765,282.4188232,84.95825195,45,65,51,0,-20
1.2,80,80,60,go_to_color_detect_down,blue,TRUE,FALSE,joint 3 +,FALSE,06:05.9,16.386,0.165,233.1,130.6747131,280.2328186,58.43808746,45,65,51,11.13599968,-20
1.2,80,80,60,go_to_color_detect_down,blue,TRUE,FALSE,joint 3 +,FALSE,06:07.4,16.196,0.16,233.1,105.9723129,227.2583466,-34.16098022,45,65,51,54.61543274,-20
1.2,80,80,60,go_to_color_detect_up,blue,TRUE,FALSE,joint 3 -,TRUE,06:08.2,16.196,0.16,233.1,112.4882965,241.2319183,-21.32216644,45,65,51,45.48319626,-20
1.2,80,80,60,go_to_color_detect_up,blue,TRUE,FALSE,joint 3 -,TRUE,06:09.4,16.405,0.161,233.1,131.57901,282.1720581,76.01527405,45,65,51,3.077864885,-20
1.2,80,80,60,go_to_red_up,red,TRUE,FALSE,joint 1 +,TRUE,06:10.2,22.633,0.161,233.1,78.58219147,301.5436401,84.95825195,55.39360046,76.13600159,51,0,-20
1.2,80,80,60,go_to_red_up,red,TRUE,FALSE,joint 1 +,TRUE,06:10.9,22.158,0.21,233.1,-159.0874634,267.9457092,84.95825195,100.6988754,121.1551819,51,0,-20
1.2,80,80,60,go_to_pick_up_from_red,red,TRUE,FALSE,joint 1 -,FALSE,06:12.4,22.386,0.203,233.1,-133.2850342,281.6714783,84.95825195,95.32319641,114.6063995,51,0,-20
1.2,80,80,60,go_to_pick_up_from_red,red,TRUE,FALSE,joint 1 -,FALSE,06:13.3,17.26,0.203,233.1,194.4099121,243.5334015,84.95825195,31.40003204,50.14483261,51,0,-20
1.2,80,80,60,go_to_pick_up_from_red,red,TRUE,FALSE,joint 1 -,FALSE,06:14.0,17.26,0.203,233.1,292.7713928,106.717659,84.95825195,0.027229309,20.0008297,51,0,-20
1.2,80,80,60,moving_belt,red,FALSE,TRUE,joint 1 -,FALSE,06:15.6,16.481,0.161,233.1,292.822052,106.5785141,84.95825195,0,20,51,0,-20
1.2,80,80,60,moving_belt,red,FALSE,TRUE,joint 1 -,FALSE,06:16.5,16.481,0.161,233.1,292.822052,106.5785141,84.95825195,0,20,51,0,-20
1.2,80,80,60,moving_belt,red,FALSE,TRUE,joint 1 -,FALSE,06:17.2,16.348,0.161,233.1,292.822052,106.5785141,84.95825195,0,20,51,0,-20
1.2,80,80,60,moving_belt,red,FALSE,TRUE,joint 1 -,FALSE,06:17.9,16.386,0.161,233.1,292.822052,106.5785141,84.95825195,0,20,51,0,-20
1.2,80,80,60,go_to_pick_down,red,TRUE,FALSE,joint 3 +,FALSE,06:19.1,16.386,0.161,233.1,291.9404297,106.2576294,68.37652588,0,20,51,7.065599918,-20
1.2,80,80,60,go_to_pick_up_from_pick_down,red,TRUE,FALSE,joint 3 -,TRUE,06:20.7,16.158,0.157,233.1,275.502655,100.2747726,13.69123077,0,20,51,29,-20
1.2,80,80,60,go_to_pick_up_from_pick_down,red,TRUE,FALSE,joint 3 -,TRUE,06:21.5,22.083,0.19,233.1,292.2904968,106.3850403,72.07463837,0,20,51,4.533607483,-20
1.2,80,80,60,go_to_color_detect_up,red,TRUE,FALSE,joint 1 +,TRUE,06:22.6,22.215,0.19,233.1,262.2341919,168.3358459,84.95825195,12.69760132,33.51679993,51,0,-20
1.2,80,80,60,go_to_color_detect_up,red,TRUE,FALSE,joint 1 +,TRUE,06:23.3,21.475,0.209,233.1,132.3956604,282.0906067,84.95825195,44.85758209,64.93061066,51,0,-20
1.2,80,80,60,go_to_color_detect_up,red,TRUE,FALSE,joint 3 +,TRUE,06:24.1,21.741,0.209,229.3,126.7058411,271.7215271,27.24504852,45,65,51,24.21759987,-20
1.2,80,80,60,go_to_color_detect_up,red,TRUE,FALSE,joint 3 +,TRUE,06:24.9,21.741,0.209,229.3,115.1087265,246.8514557,-15.03025055,45,65,51,43.7551651,-20
1.2,80,80,60,go_to_color_detect_up,red,TRUE,FALSE,joint 3 -,FALSE,06:26.5,21.551,0.209,229.3,110.6479034,237.2851868,-25.31893921,45,65,51,47.8639946,-20
1.2,80,80,60,go_to_color_detect_up,red,TRUE,FALSE,joint 3 -,FALSE,06:27.3,16.728,0.209,229.3,131.5122528,282.0289307,73.72003937,45,65,51,3.923398256,-20
1.2,80,80,60,detecting_color,red,FALSE,FALSE,detecting_color,FALSE,06:28.0,16.728,0.167,229.3,131.6940765,282.4188232,84.95825195,45,65,51,0,-20
1.2,80,80,60,detecting_color,red,FALSE,FALSE,detecting_color,FALSE,06:29.5,16.12,0.167,229.3,131.6940765,282.4188232,84.95825195,45,65,51,0,-20
1.2,80,80,60,go_to_color_detect_down,red,TRUE,FALSE,joint 3 +,FALSE,06:30.2,16.12,0.16,229.3,128.654541,275.9005432,39.54055405,45,65,51,18.96960068,-20
1.2,80,80,60,go_to_color_detect_down,red,TRUE,FALSE,joint 3 +,FALSE,06:31.7,15.873,0.16,229.3,102.8683701,220.6019287,-39.1414032,45,65,51,57.84433365,-20
1.2,80,80,60,go_to_color_detect_up,red,TRUE,FALSE,joint 3 -,TRUE,06:32.5,16.101,0.159,229.3,114.4324722,245.4012146,-16.72751617,45,65,51,42.87199783,-20
1.2,80,80,60,go_to_color_detect_up,red,TRUE,FALSE,joint 3 -,TRUE,06:33.2,22.766,0.159,231.2,131.6913147,282.4129028,83.57240295,45,65,51,0.38619864,-20
1.2,80,80,60,go_to_green_up,green,TRUE,FALSE,joint 1 +,TRUE,06:34.1,22.443,0.209,231.2,32.73698807,309.8903198,84.95825195,63.96960449,84.96800232,51,0,-20
1.2,80,80,60,go_to_pick_up_from_green,green,TRUE,FALSE,joint 1 -,FALSE,06:35.7,21.817,0.209,231.2,-79.84461975,301.2118225,84.95825195,84.84640503,104.7440033,51,0,-20
1.2,80,80,60,go_to_pick_up_from_green,green,TRUE,FALSE,joint 1 -,FALSE,06:36.4,21.817,0.178,231.2,101.0403595,294.7788696,84.95825195,51.0799942,69.79999542,51,0,-20
1.2,80,80,60,go_to_pick_up_from_green,green,TRUE,FALSE,joint 1 -,FALSE,06:37.1,16.177,0.178,231.2,290.4154968,112.9715195,84.95825195,1.25601387,21.01521301,51,0,-20
1.2,80,80,60,moving_belt,green,FALSE,TRUE,joint 1 -,FALSE,06:38.6,16.158,0.16,231.2,292.822052,106.5785141,84.95825195,0,20,51,0,-20
1.2,80,80,60,moving_belt,green,FALSE,TRUE,joint 1 -,FALSE,06:39.4,16.386,0.16,231.2,292.822052,106.5785141,84.95825195,0,20,51,0,-20
1.2,80,80,60,moving_belt,green,FALSE,TRUE,joint 1 -,FALSE,06:40.1,16.386,0.16,231.2,292.822052,106.5785141,84.95825195,0,20,51,0,-20
1.2,80,80,60,moving_belt,green,FALSE,TRUE,joint 1 -,FALSE,06:40.9,16.367,0.161,231.2,292.822052,106.5785141,84.95825195,0,20,51,0,-20
1.2,80,80,60,go_to_pick_down,green,TRUE,FALSE,joint 3 +,FALSE,06:42.5,16.405,0.161,231.2,292.8041687,106.5720139,82.59386444,0,20,51,1.15199995,-20
1.2,80,80,60,go_to_pick_down,green,TRUE,FALSE,joint 3 +,FALSE,06:43.3,16.405,0.162,231.2,275.8508301,100.4014969,14.36375427,0,20,51,28.81118011,-20
1.2,80,80,60,go_to_pick_up_from_pick_down,green,TRUE,FALSE,joint 3 -,TRUE,06:44.0,16.405,0.162,231.2,290.4514465,105.715683,57.84140778,0,20,51,9.905282974,-20
1.2,80,80,60,go_to_color_detect_up,green,TRUE,FALSE,joint 1 +,TRUE,06:45.6,23.013,0.22,231.2,285.8092957,124.1643219,84.95825195,3.481601715,23.91680145,51,0,-20
1.2,80,80,60,go_to_color_detect_up,green,TRUE,FALSE,joint 1 +,TRUE,06:46.4,22.083,0.22,235,141.2357025,277.77005,84.95825195,43.04836273,63.35178757,51,0,-20
1.2,80,80,60,go_to_color_detect_up,green,TRUE,FALSE,joint 3 +,TRUE,06:47.2,22.177,0.209,235,129.5116119,277.7385559,46.33722305,45,65,51,16.12800026,-20
1.2,80,80,60,go_to_color_detect_up,green,TRUE,FALSE,joint 3 +,TRUE,06:48.0,21.95,0.209,235,103.7086334,222.4038696,-37.85648346,45,65,51,56.99843216,-20
1.2,80,80,60,go_to_color_detect_up,green,TRUE,FALSE,joint 3 -,FALSE,06:49.6,22.102,0.207,235,112.4882965,241.2319183,-21.32216644,45,65,51,45.48319626,-20
1.2,80,80,60,go_to_color_detect_up,green,TRUE,FALSE,joint 3 -,FALSE,06:50.3,17.905,0.207,235,131.6044617,282.2266541,77.06537628,45,65,51,2.693498373,-20
1.2,80,80,60,detecting_color,green,FALSE,FALSE,detecting_color,FALSE,06:51.0,17.146,0.165,235,131.6940765,282.4188232,84.95825195,45,65,51,0,-20
1.2,80,80,60,go_to_color_detect_down,green,TRUE,FALSE,joint 3 +,FALSE,06:52.6,16.424,0.165,235,131.689209,282.4084167,83.11925507,45,65,51,0.921599984,-20
1.2,80,80,60,go_to_color_detect_down,green,TRUE,FALSE,joint 3 +,FALSE,06:53.3,16.329,0.159,235,117.1483841,251.2255096,-9.563171387,45,65,51,40.98926544,-20
1.2,80,80,60,go_to_color_detect_up,green,TRUE,FALSE,joint 3 -,TRUE,06:54.2,16.329,0.159,235,103.1220627,221.1459656,-38.75824738,45,65,51,57.00319672,-20
1.2,80,80,60,go_to_color_detect_up,green,TRUE,FALSE,joint 3 -,TRUE,06:54.9,16.462,0.159,235,129.2450867,277.1669617,44.09146118,45,65,51,15.24483109,-20
1.2,80,80,60,go_to_blue_up,blue,TRUE,FALSE,joint 1 +,TRUE,06:56.6,22.709,0.215,235,124.714798,285.569519,84.95825195,46.40799713,66.68959808,51,0,-20
1.2,80,80,60,go_to_pick_up_from_blue,blue,TRUE,FALSE,joint 1 -,FALSE,06:57.4,21.95,0.215,235,27.57506371,310.3922424,84.95825195,64.92320251,84.84640503,51,0,-20
1.2,80,80,60,go_to_pick_up_from_blue,blue,TRUE,FALSE,joint 1 -,FALSE,06:58.1,21.95,0.208,235,190.302536,246.7563019,84.95825195,32.3599968,51.08559799,51,0,-20
1.2,80,80,60,moving_belt,blue,FALSE,TRUE,joint 1 -,FALSE,06:59.5,16.576,0.208,235,292.6998291,106.9136963,84.95825195,0.065597534,20.01999664,51,0,-20
1.2,80,80,60,moving_belt,blue,FALSE,TRUE,joint 1 -,FALSE,07:00.2,16.576,0.161,235,292.822052,106.5785141,84.95825195,0,20,51,0,-20
1.2,80,80,60,moving_belt,blue,FALSE,TRUE,joint 1 -,FALSE,07:01.1,16.671,0.161,235,292.822052,106.5785141,84.95825195,0,20,51,0,-20
1.2,80,80,60,moving_belt,blue,FALSE,TRUE,joint 1 -,FALSE,07:02.5,16.462,0.161,235,292.822052,106.5785141,84.95825195,0,20,51,0,-20
1.2,80,80,60,moving_belt,blue,FALSE,TRUE,joint 1 -,FALSE,07:03.2,16.386,0.161,235,292.822052,106.5785141,84.95825195,0,20,51,0,-20
1.2,80,80,60,go_to_pick_down,blue,TRUE,FALSE,joint 3 +,FALSE,07:04.0,16.386,0.161,235,291.7730713,106.1967163,66.87641907,0,20,51,7.679999828,-20
1.2,80,80,60,go_to_pick_up_from_pick_down,blue,TRUE,FALSE,joint 3 -,TRUE,07:05.6,16.272,0.16,235,275.5923462,100.3074112,13.8636322,0,20,51,28.84639931,-20
1.2,80,80,60,go_to_pick_up_from_pick_down,blue,TRUE,FALSE,joint 3 -,TRUE,07:06.4,16.462,0.188,235,292.6061401,106.4999313,76.74263,0,20,51,2.811796188,-20
1.2,80,80,60,go_to_color_detect_up,blue,TRUE,FALSE,joint 1 +,TRUE,07:07.1,23.127,0.188,235,257.2354126,175.8796844,84.95825195,14.36159897,35.23199844,51,0,-20
1.2,80,80,60,go_to_color_detect_up,blue,TRUE,FALSE,joint 1 +,TRUE,07:08.6,22.614,0.212,235,132.0359955,282.2591248,84.95825195,44.93061066,64.97803497,51,0,-20
1.2,80,80,60,go_to_color_detect_up,blue,TRUE,FALSE,joint 3 +,TRUE,07:09.3,22.215,0.212,235,125.7148132,269.596283,22.03460312,45,65,51,26.49600029,-20
1.2,80,80,60,go_to_color_detect_up,blue,TRUE,FALSE,joint 3 +,TRUE,07:10.1,22.215,0.212,235,101.7098694,218.1175079,-40.83997345,45,65,51,58.92210007,-20
1.2,80,80,60,go_to_color_detect_up,blue,TRUE,FALSE,joint 3 -,FALSE,07:11.7,21.741,0.21,233.1,122.6374664,262.9968872,8.531082153,45,65,51,30.12319756,-20
1.2,80,80,60,go_to_color_detect_up,blue,TRUE,FALSE,joint 3 -,FALSE,07:12.4,17.317,0.17,233.1,131.6940155,282.4187317,84.75839233,45,65,51,0.026331995,-20
1.2,80,80,60,detecting_color,blue,FALSE,FALSE,detecting_color,FALSE,07:13.2,17.317,0.17,233.1,131.6940765,282.4188232,84.95825195,45,65,51,0,-20
1.2,80,80,60,go_to_color_detect_down,blue,TRUE,FALSE,joint 3 +,FALSE,07:14.7,16.424,0.161,233.1,131.1368103,281.2237854,65.31313324,45,65,51,8.319999695,-20
1.2,80,80,60,go_to_color_detect_down,blue,TRUE,FALSE,joint 3 +,FALSE,07:15.5,16.424,0.161,233.1,107.3757172,230.2679596,-31.68774414,45,65,51,53.07833099,-20
1.2,80,80,60,go_to_color_detect_up,blue,TRUE,FALSE,joint 3 -,TRUE,07:16.5,16.728,0.161,233.1,106.8820114,229.2092133,-32.57443237,45,65,51,52.52319336,-20
1.2,80,80,60,go_to_color_detect_up,blue,TRUE,FALSE,joint 3 -,TRUE,07:17.3,22.918,0.186,233.1,131.4200287,281.8311462,71.16596985,45,65,51,4.871331692,-20
1.2,80,80,60,go_to_red_up,red,TRUE,FALSE,joint 1 +,TRUE,07:18.1,23.108,0.186,233.1,92.77023315,297.4851685,84.95825195,52.68000031,73.31999969,51,0,-20
1.2,80,80,60,go_to_red_up,red,TRUE,FALSE,joint 1 +,TRUE,07:19.7,22.652,0.211,233.1,-143.5181122,276.5976868,84.95825195,97.42341614,118.0333252,51,0,-20
1.2,80,80,60,go_to_pick_up_from_red,red,TRUE,FALSE,joint 1 -,FALSE,07:20.4,22.652,0.211,233.1,-133.2850342,281.6714783,84.95825195,95.32319641,114.6063995,51,0,-20
1.2,80,80,60,go_to_pick_up_from_red,red,TRUE,FALSE,joint 1 -,FALSE,07:21.1,22.083,0.174,233.1,160.1201935,267.3298645,84.95825195,39.08002472,57.80002594,51,0,-20
1.2,80,80,60,go_to_pick_up_from_red,red,TRUE,FALSE,joint 1 -,FALSE,07:22.6,16.595,0.174,233.1,291.4534607,110.2661438,84.95825195,0.723230362,20.54323006,51,0,-20
1.2,80,80,60,moving_belt,red,FALSE,TRUE,joint 1 -,FALSE,07:23.3,16.576,0.163,233.1,292.822052,106.5785141,84.95825195,0,20,51,0,-20
1.2,80,80,60,moving_belt,red,FALSE,TRUE,joint 1 -,FALSE,07:24.0,16.462,0.163,233.1,292.822052,106.5785141,84.95825195,0,20,51,0,-20
1.2,80,80,60,moving_belt,red,FALSE,TRUE,joint 1 -,FALSE,07:25.6,16.462,0.162,233.1,292.822052,106.5785141,84.95825195,0,20,51,0,-20
1.2,80,80,60,moving_belt,red,FALSE,TRUE,joint 1 -,FALSE,07:26.2,16.462,0.162,233.1,292.822052,106.5785141,84.95825195,0,20,51,0,-20
1.2,80,80,60,go_to_pick_down,red,TRUE,FALSE,joint 3 +,FALSE,07:27.7,15.892,0.161,233.1,292.5671082,106.4857254,76.03123474,0,20,51,3.916799784,-20
1.2,80,80,60,go_to_pick_up_from_pick_down,red,TRUE,FALSE,joint 3 -,TRUE,07:28.4,16.405,0.161,231.2,275.502655,100.2747726,13.69123077,0,20,51,28.97439957,-20
1.2,80,80,60,go_to_pick_up_from_pick_down,red,TRUE,FALSE,joint 3 -,TRUE,07:29.1,16.975,0.161,231.2,292.4746094,106.4520493,74.53832245,0,20,51,3.621501684,-20
1.2,80,80,60,go_to_color_detect_up,red,TRUE,FALSE,joint 1 +,TRUE,07:30.7,23.051,0.218,231.2,268.7895508,157.6575623,84.95825195,10.39360237,31.13600159,51,0,-20
1.2,80,80,60,go_to_color_detect_up,red,TRUE,FALSE,joint 1 +,TRUE,07:31.4,22.121,0.218,231.2,135.0880432,280.8112183,84.95825195,44.30948639,64.48490906,51,0,-20
1.2,80,80,60,go_to_color_detect_up,red,TRUE,FALSE,joint 3 +,TRUE,07:32.1,22.272,0.212,231.2,125.7148132,269.596283,22.03460312,45,65,51,26.49600029,-20
1.2,80,80,60,go_to_color_detect_up,red,TRUE,FALSE,joint 3 +,TRUE,07:32.9,21.988,0.212,231.2,101.7098694,218.1175079,-40.83997345,45,65,51,58.92210007,-20
1.2,80,80,60,go_to_color_detect_up,red,TRUE,FALSE,joint 3 -,FALSE,07:34.5,22.234,0.209,231.2,118.5189285,254.1646423,-5.560157776,45,65,51,36.95839691,-20
1.2,80,80,60,go_to_color_detect_up,red,TRUE,FALSE,joint 3 -,FALSE,07:35.3,18.133,0.209,231.2,131.6926727,282.4158325,83.96741486,45,65,51,0.257831931,-20
1.2,80,80,60,detecting_color,red,FALSE,FALSE,detecting_color,FALSE,07:36.0,17.393,0.168,231.2,131.6940765,282.4188232,84.95825195,45,65,51,0,-20
1.2,80,80,60,go_to_color_detect_down,red,TRUE,FALSE,joint 3 +,FALSE,07:37.6,16.405,0.168,231.2,131.6047974,282.2273865,77.08039856,45,65,51,3.481599808,-20
1.2,80,80,60,go_to_color_detect_down,red,TRUE,FALSE,joint 3 +,FALSE,07:38.2,16.519,0.162,231.2,113.1354446,242.6197357,-19.83757782,45,65,51,46.29066086,-20
1.2,80,80,60,go_to_color_detect_up,red,TRUE,FALSE,joint 3 -,TRUE,07:39.4,16.519,0.162,233.1,105.5371552,226.3251495,-34.89881134,45,65,51,54.13599777,-20
1.2,80,80,60,go_to_color_detect_up,red,TRUE,FALSE,joint 3 -,TRUE,07:40.1,16.557,0.218,233.1,130.6726379,280.228363,58.4112587,45,65,51,9.687065125,-20
1.2,80,80,60,go_to_green_up,green,TRUE,FALSE,joint 1 +,TRUE,07:41.7,22.918,0.218,231.2,114.3002777,289.8951111,84.95825195,48.4815979,68.91680145,51,0,-20
1.2,80,80,60,go_to_green_up,green,TRUE,FALSE,joint 1 +,TRUE,07:42.5,22.14,0.209,231.2,-75.70082092,302.2798767,84.95825195,84.05958557,104.2658463,51,0,-20
1.2,80,80,60,go_to_pick_up_from_green,green,TRUE,FALSE,joint 1 -,FALSE,07:43.3,22.253,0.209,231.2,1.261767507,311.6121521,84.95825195,69.76799774,88.87199402,51,0,-20
1.2,80,80,60,go_to_pick_up_from_green,green,TRUE,FALSE,joint 1 -,FALSE,07:44.0,22.253,0.209,231.2,258.7652588,173.621048,84.95825195,13.86001587,33.03041458,51,0,-20
1.2,80,80,60,moving_belt,green,FALSE,TRUE,joint 1 -,FALSE,07:45.6,16.652,0.162,233.1,292.822052,106.5785141,84.95825195,0,20,51,0,-20
1.2,80,80,60,moving_belt,green,FALSE,TRUE,joint 1 -,FALSE,07:46.4,16.652,0.162,233.1,292.822052,106.5785141,84.95825195,0,20,51,0,-20
1.2,80,80,60,moving_belt,green,FALSE,TRUE,joint 1 -,FALSE,07:47.2,16.671,0.163,233.1,292.822052,106.5785141,84.95825195,0,20,51,0,-20
1.2,80,80,60,moving_belt,green,FALSE,TRUE,joint 1 -,FALSE,07:48.0,16.291,0.163,231.2,292.822052,106.5785141,84.95825195,0,20,51,0,-20
1.2,80,80,60,moving_belt,green,FALSE,TRUE,joint 1 -,FALSE,07:49.5,16.329,0.161,231.2,292.822052,106.5785141,84.95825195,0,20,51,0,-20
1.2,80,80,60,go_to_pick_down,green,TRUE,FALSE,joint 3 +,FALSE,07:50.2,16.291,0.161,231.2,283.5469971,103.2026749,32.00120926,0,20,51,21.73812485,-20
1.2,80,80,60,go_to_pick_up_from_pick_down,green,TRUE,FALSE,joint 3 -,TRUE,07:51.7,16.272,0.159,231.2,280.7459717,102.1831741,24.84938049,0,20,51,23.62399864,-20
1.2,80,80,60,go_to_color_detect_up,green,TRUE,FALSE,joint 1 +,TRUE,07:52.5,22.861,0.159,231.2,292.5352783,107.3631363,84.95825195,0.153600693,20.25600052,51,0,-20
1.2,80,80,60,go_to_color_detect_up,green,TRUE,FALSE,joint 1 +,TRUE,07:53.2,22.861,0.208,231.2,190.0471039,246.9530945,84.95825195,32.41928101,53.20910645,51,0,-20
1.2,80,80,60,go_to_color_detect_up,green,TRUE,FALSE,joint 3 +,TRUE,07:54.3,21.988,0.208,231.2,131.6047974,282.2273865,77.08039856,45,65,51,3.481599808,-20
1.2,80,80,60,go_to_color_detect_up,green,TRUE,FALSE,joint 3 +,TRUE,07:55.1,21.912,0.207,231.2,113.1354446,242.6197357,-19.83757782,45,65,51,46.29066086,-20
1.2,80,80,60,go_to_color_detect_up,green,TRUE,FALSE,joint 3 -,FALSE,07:56.6,21.855,0.207,231.2,103.7039871,222.3939056,-37.8637085,45,65,51,56.31199646,-20
1.2,80,80,60,go_to_color_detect_up,green,TRUE,FALSE,joint 3 -,FALSE,07:57.5,18.57,0.162,231.2,130.8082733,280.5192261,60.22302246,45,65,51,8.995498657,-20
1.2,80,80,60,detecting_color,green,FALSE,FALSE,detecting_color,FALSE,07:58.2,17.108,0.162,231.2,131.6940765,282.4188232,84.95825195,45,65,51,0,-20
1.2,80,80,60,detecting_color,green,FALSE,FALSE,detecting_color,FALSE,07:59.2,17.108,0.162,231.2,131.6940765,282.4188232,84.95825195,45,65,51,0,-20
1.2,80,80,60,go_to_color_detect_down,green,TRUE,FALSE,joint 3 +,FALSE,08:00.7,16.253,0.16,231.2,130.6747131,280.2328186,58.43808746,45,65,51,11.13599968,-20
1.2,80,80,60,go_to_color_detect_down,green,TRUE,FALSE,joint 3 +,FALSE,08:01.4,16.253,0.16,231.2,105.5433121,226.3383484,-34.88847351,45,65,51,55.07659912,-20
1.2,80,80,60,go_to_color_detect_up,green,TRUE,FALSE,joint 3 -,TRUE,08:02.1,16.405,0.16,231.2,108.3953934,232.4546661,-29.79708862,45,65,51,50.67999649,-20
1.2,80,80,60,go_to_color_detect_up,green,TRUE,FALSE,joint 3 -,TRUE,08:03.5,22.956,0.16,233.1,131.57901,282.1720581,76.01527405,45,65,51,3.077864885,-20
1.2,80,80,60,go_to_blue_up,blue,TRUE,FALSE,joint 1 +,TRUE,08:04.3,22.823,0.214,233.1,82.34838867,300.5369873,84.95825195,54.67680359,75.39109039,51,0,-20
1.2,80,80,60,go_to_pick_up_from_blue,blue,TRUE,FALSE,joint 1 -,FALSE,08:05.0,21.969,0.214,233.1,43.75611496,308.5273743,84.95825195,61.9280014,81.5184021,51,0,-20
1.2,80,80,60,go_to_pick_up_from_blue,blue,TRUE,FALSE,joint 1 -,FALSE,08:06.6,21.836,0.181,233.1,246.258606,190.9461517,84.95825195,17.78959656,36.84799576,51,0,-20
1.2,80,80,60,moving_belt,blue,FALSE,TRUE,joint 1 -,FALSE,08:07.4,16.462,0.181,233.1,292.822052,106.5785141,84.95825195,0,20,51,0,-20
1.2,80,80,60,moving_belt,blue,FALSE,TRUE,joint 1 -,FALSE,08:08.2,16.139,0.181,233.1,292.822052,106.5785141,84.95825195,0,20,51,0,-20
1.2,80,80,60,moving_belt,blue,FALSE,TRUE,joint 1 -,FALSE,08:09.6,16.329,0.158,233.1,292.822052,106.5785141,84.95825195,0,20,51,0,-20
1.2,80,80,60,moving_belt,blue,FALSE,TRUE,joint 1 -,FALSE,08:10.3,16.329,0.158,233.1,292.822052,106.5785141,84.95825195,0,20,51,0,-20
1.2,80,80,60,moving_belt,blue,FALSE,TRUE,joint 1 -,FALSE,08:11.2,16.31,0.161,233.1,292.822052,106.5785141,84.95825195,0,20,51,0,-20
1.2,80,80,60,go_to_pick_down,blue,TRUE,FALSE,joint 3 +,FALSE,08:12.7,16.424,0.159,233.1,285.7829895,104.0165024,38.63122177,0,20,51,19.09471512,-20
1.2,80,80,60,go_to_pick_up_from_pick_down,blue,TRUE,FALSE,joint 3 -,TRUE,08:13.5,16.253,0.159,233.1,281.2456665,102.3650513,26.05052948,0,20,51,23.08639908,-20
1.2,80,80,60,go_to_color_detect_up,blue,TRUE,FALSE,joint 1 +,TRUE,08:14.3,22.842,0.159,233.1,292.822052,106.5785141,84.95825195,0,20,51,0,-20
1.2,80,80,60,go_to_color_detect_up,blue,TRUE,FALSE,joint 1 +,TRUE,08:15.7,22.424,0.212,233.1,204.4213257,235.1928101,84.95825195,29.00397491,49.89620209,51,0,-20
1.2,80,80,60,go_to_color_detect_up,blue,TRUE,FALSE,joint 3 +,TRUE,08:16.7,22.196,0.212,233.1,131.6815186,282.3919373,82.00283813,45,65,51,1.407999992,-20
1.2,80,80,60,go_to_color_detect_up,blue,TRUE,FALSE,joint 3 +,TRUE,08:17.4,22.026,0.207,233.1,116.4630737,249.7558594,-11.4616394,45,65,51,41.93683243,-20
1.2,80,80,60,go_to_color_detect_up,blue,TRUE,FALSE,joint 3 -,FALSE,08:18.1,22.121,0.207,233.1,104.0280075,223.0887756,-37.35607147,45,65,51,55.92799759,-20
1.2,80,80,60,go_to_color_detect_up,blue,TRUE,FALSE,joint 3 -,FALSE,08:19.6,21.779,0.187,233.1,129.5079651,277.7307129,46.30545425,45,65,51,14.37406445,-20
1.2,80,80,60,detecting_color,blue,FALSE,FALSE,detecting_color,FALSE,08:20.3,16.975,0.187,233.1,131.6940765,282.4188232,84.95825195,45,65,51,0,-20
1.2,80,80,60,detecting_color,blue,FALSE,FALSE,detecting_color,FALSE,08:20.3,16.975,0.187,233.1,131.6940765,282.4188232,84.95825195,45,65,51,0,-20
1.2,80,80,60,go_to_color_detect_down,blue,TRUE,FALSE,joint 3 +,FALSE,08:22.7,16.272,0.159,233.1,129.249054,277.1754761,44.12397766,45,65,51,17.0496006,-20
1.2,80,80,60,go_to_color_detect_down,blue,TRUE,FALSE,joint 3 +,FALSE,08:23.4,16.253,0.16,233.1,103.4062424,221.7553864,-38.3241272,45,65,51,57.30599976,-20
1.2,80,80,60,go_to_color_detect_up,blue,TRUE,FALSE,joint 3 -,TRUE,08:24.2,16.253,0.16,233.1,113.7744827,243.9901428,-18.32837677,45,65,51,43.76799774,-20
1.2,80,80,60,go_to_color_detect_up,blue,TRUE,FALSE,joint 3 -,TRUE,08:25.8,22.842,0.215,233.1,131.6859894,282.4014893,82.58540344,45,65,51,0.719731927,-20
1.2,80,80,60,go_to_red_up,red,TRUE,FALSE,joint 1 +,TRUE,08:26.6,22.007,0.215,233.1,48.05955887,307.8863525,84.95825195,61.12800598,82.04960632,51,0,-20
1.2,80,80,60,go_to_red_up,red,TRUE,FALSE,joint 1 +,TRUE,08:27.4,22.31,0.215,233.1,-171.3355408,260.2841797,84.95825195,103.3554382,123.6325455,51,0,-20
1.2,80,80,60,go_to_pick_up_from_red,red,TRUE,FALSE,joint 1 -,FALSE,08:28.1,22.348,0.211,233.1,-109.8345184,291.6163635,84.95825195,90.63839722,109.7679977,51,0,-20
1.2,80,80,60,go_to_pick_up_from_red,red,TRUE,FALSE,joint 1 -,FALSE,08:29.7,16.367,0.211,233.1,223.1994629,217.4528198,84.95825195,24.25283432,43.15123367,51,0,-20
1.2,80,80,60,moving_belt,red,FALSE,TRUE,joint 1 -,FALSE,08:30.4,16.367,0.16,233.1,292.822052,106.5785141,84.95825195,0,20,51,0,-20
1.2,80,80,60,moving_belt,red,FALSE,TRUE,joint 1 -,FALSE,08:31.2,16.538,0.16,233.1,292.822052,106.5785141,84.95825195,0,20,51,0,-20
1.2,80,80,60,moving_belt,red,FALSE,TRUE,joint 1 -,FALSE,08:31.9,16.728,0.16,233.1,292.822052,106.5785141,84.95825195,0,20,51,0,-20
1.2,80,80,60,moving_belt,red,FALSE,TRUE,joint 1 -,FALSE,08:33.6,16.272,0.161,235,292.822052,106.5785141,84.95825195,0,20,51,0,-20
1.2,80,80,60,moving_belt,red,FALSE,TRUE,joint 1 -,FALSE,08:34.3,16.405,0.16,235,292.822052,106.5785141,84.95825195,0,20,51,0,-20
1.2,80,80,60,go_to_pick_down,red,TRUE,FALSE,joint 3 +,FALSE,08:35.1,16.405,0.16,235,291.5829773,106.1275253,65.31313324,0,20,51,8.319999695,-20
1.2,80,80,60,go_to_pick_up_from_pick_down,red,TRUE,FALSE,joint 3 -,TRUE,08:36.5,16.31,0.16,235,275.6817627,100.3399658,14.03617096,0,20,51,28.74399948,-20
1.2,80,80,60,go_to_pick_up_from_pick_down,red,TRUE,FALSE,joint 3 -,TRUE,08:37.3,16.443,0.16,235,292.8011475,106.5709076,82.40023804,0,20,51,0.784227133,-20
1.2,80,80,60,go_to_color_detect_up,red,TRUE,FALSE,joint 1 +,TRUE,08:38.1,23.241,0.16,235,245.5664673,191.8354645,84.95825195,17.99679947,38.96960068,51,0,-20
1.2,80,80,60,go_to_color_detect_up,red,TRUE,FALSE,joint 3 +,TRUE,08:39.6,22.443,0.208,235,131.6940765,282.4188232,84.95825195,45,65,51,0,-20
1.2,80,80,60,go_to_color_detect_up,red,TRUE,FALSE,joint 3 +,TRUE,08:40.4,22.121,0.208,235,123.3135681,264.4467773,11.22374725,45,65,51,31.30916595,-20
1.2,80,80,60,go_to_color_detect_up,red,TRUE,FALSE,joint 3 -,FALSE,08:41.1,22.121,0.205,235,101.6372223,217.9617157,-40.94373322,45,65,51,58.8463974,-20
1.2,80,80,60,go_to_color_detect_up,red,TRUE,FALSE,joint 3 -,FALSE,08:42.8,20.886,0.205,235,125.1606522,268.4078674,19.33763885,45,65,51,25.36049652,-20
1.2,80,80,60,detecting_color,red,FALSE,FALSE,detecting_color,FALSE,08:43.7,17.222,0.163,235,131.6940765,282.4188232,84.95825195,45,65,51,0,-20
1.2,80,80,60,detecting_color,red,FALSE,FALSE,detecting_color,FALSE,08:44.5,17.222,0.163,233.1,131.6940765,282.4188232,84.95825195,45,65,51,0,-20
1.2,80,80,60,go_to_color_detect_down,red,TRUE,FALSE,joint 3 +,FALSE,08:45.2,16.538,0.163,233.1,131.2975769,281.5685425,68.37652588,45,65,51,7.065599918,-20
1.2,80,80,60,go_to_color_detect_down,red,TRUE,FALSE,joint 3 +,FALSE,08:46.7,16.519,0.163,233.1,108.9426804,233.6283112,-28.7482605,45,65,51,51.31082916,-20
1.2,80,80,60,go_to_color_detect_up,red,TRUE,FALSE,joint 3 -,TRUE,08:47.4,16.595,0.162,233.1,108.9346848,233.6111755,-28.76374817,45,65,51,50.01439667,-20
1.2,80,80,60,go_to_color_detect_up,red,TRUE,FALSE,joint 3 -,TRUE,08:48.1,22.918,0.162,233.1,131.2965393,281.5663147,68.35502625,45,65,51,5.921665192,-20
1.2,80,80,60,go_to_green_up,green,TRUE,FALSE,joint 1 +,TRUE,08:49.5,23.051,0.214,233.1,98.99643707,295.4715576,84.95825195,51.47679901,72.06559753,51,0,-20
1.2,80,80,60,go_to_green_up,green,TRUE,FALSE,joint 1 +,TRUE,08:50.2,22.045,0.214,233.1,-80.19541931,301.1186218,84.95825195,84.91313171,104.9657898,51,0,-20
1.2,80,80,60,go_to_pick_up_from_green,green,TRUE,FALSE,joint 1 -,FALSE,08:51.7,22.443,0.207,233.1,38.20084381,309.2643127,84.95825195,62.95839691,81.88319397,51,0,-20
1.2,80,80,60,go_to_pick_up_from_green,green,TRUE,FALSE,joint 1 -,FALSE,08:52.4,17.525,0.207,233.1,271.8389587,152.3394623,84.95825195,9.266414642,28.59041405,51,0,-20
1.2,80,80,60,moving_belt,green,FALSE,TRUE,joint 1 -,FALSE,08:53.2,16.747,0.207,233.1,292.822052,106.5785141,84.95825195,0,20,51,0,-20
1.2,80,80,60,moving_belt,green,FALSE,TRUE,joint 1 -,FALSE,08:54.6,16.671,0.161,233.1,292.822052,106.5785141,84.95825195,0,20,51,0,-20
1.2,80,80,60,moving_belt,green,FALSE,TRUE,joint 1 -,FALSE,08:55.5,16.367,0.161,233.1,292.822052,106.5785141,84.95825195,0,20,51,0,-20
1.2,80,80,60,moving_belt,green,FALSE,TRUE,joint 1 -,FALSE,08:56.3,16.367,0.159,233.1,292.822052,106.5785141,84.95825195,0,20,51,0,-20
1.2,80,80,60,go_to_pick_down,green,TRUE,FALSE,joint 3 +,FALSE,08:57.0,16.291,0.159,233.1,292.822052,106.5785141,84.95825195,0,20,51,0,-20
1.2,80,80,60,go_to_pick_down,green,TRUE,FALSE,joint 3 +,FALSE,08:58.6,16.063,0.157,233.1,278.642395,101.4175415,20.08405304,0,20,51,26.55465317,-20
1.2,80,80,60,go_to_pick_up_from_pick_down,green,TRUE,FALSE,joint 3 -,TRUE,08:59.3,16.671,0.157,233.1,285.6021423,103.9506836,38.05567551,0,20,51,17.86399841,-20
1.2,80,80,60,go_to_color_detect_up,green,TRUE,FALSE,joint 1 +,TRUE,09:00.8,23.45,0.217,233.1,291.0699463,111.2745514,84.95825195,0.921600342,21.15200043,51,0,-20
1.2,80,80,60,go_to_color_detect_up,green,TRUE,FALSE,joint 1 +,TRUE,09:01.5,22.576,0.217,233.1,176.8366089,256.5785217,84.95825195,35.42498016,56.11240387,51,0,-20
1.2,80,80,60,go_to_color_detect_up,green,TRUE,FALSE,joint 3 +,TRUE,09:02.3,22.557,0.211,233.1,131.5128326,282.0301819,73.737854,45,65,51,4.863999844,-20
1.2,80,80,60,go_to_color_detect_up,green,TRUE,FALSE,joint 3 +,TRUE,09:03.6,22.083,0.211,233.1,107.3757172,230.2679596,-31.68774414,45,65,51,53.07833099,-20
1.2,80,80,60,go_to_color_detect_up,green,TRUE,FALSE,joint 3 -,FALSE,09:04.6,22.045,0.21,233.1,106.4143143,228.2062225,-33.39766693,45,65,51,53.08639526,-20
1.2,80,80,60,go_to_color_detect_up,green,TRUE,FALSE,joint 3 -,FALSE,09:05.4,22.045,0.21,233.1,130.9299927,280.7802429,61.97379303,45,65,51,8.32953167,-20
1.2,80,80,60,detecting_color,green,FALSE,FALSE,detecting_color,FALSE,09:06.2,17.165,0.169,233.1,131.6940765,282.4188232,84.95825195,45,65,51,0,-20
1.2,80,80,60,detecting_color,green,FALSE,FALSE,detecting_color,FALSE,09:07.7,16.785,0.169,233.1,131.6940765,282.4188232,84.95825195,45,65,51,0,-20
1.2,80,80,60,go_to_color_detect_down,green,TRUE,FALSE,joint 3 +,FALSE,09:08.5,16.633,0.162,233.1,127.5708771,273.5765991,32.29732513,45,65,51,22.04160118,-20
1.2,80,80,60,go_to_color_detect_down,green,TRUE,FALSE,joint 3 +,FALSE,09:09.2,16.633,0.162,233.1,101.590332,217.8611603,-41.01052856,45,65,51,58.99963379,-20
1.2,80,80,60,go_to_color_detect_up,green,TRUE,FALSE,joint 3 -,TRUE,09:10.6,19.215,0.202,233.1,120.5938797,258.6144104,1.100448608,45,65,51,33.65599823,-20
1.2,80,80,60,go_to_color_detect_up,green,TRUE,FALSE,joint 3 -,TRUE,09:11.4,23.07,0.202,233.1,131.6940155,282.4187317,84.75839233,45,65,51,0.026331995,-20
1.2,80,80,60,go_to_blue_up,blue,TRUE,FALSE,joint 1 +,TRUE,09:12.1,22.462,0.202,233.1,39.57870102,309.0910034,84.95825195,62.70305634,83.03334045,51,0,-20
1.2,80,80,60,go_to_pick_up_from_blue,blue,TRUE,FALSE,joint 1 -,FALSE,09:13.6,22.329,0.208,233.1,94.72873688,296.8673096,84.95825195,52.30239868,71.48320007,51,0,-20
1.2,80,80,60,go_to_pick_up_from_blue,blue,TRUE,FALSE,joint 1 -,FALSE,09:14.3,16.766,0.208,233.1,281.8090515,132.9939575,84.95825195,5.263998032,24.75759888,51,0,-20
1.2,80,80,60,moving_belt,blue,FALSE,TRUE,joint 1 -,FALSE,09:15.7,16.728,0.164,233.1,292.822052,106.5785141,84.95825195,0,20,51,0,-20
1.2,80,80,60,moving_belt,blue,FALSE,TRUE,joint 1 -,FALSE,09:16.5,16.728,0.164,233.1,292.822052,106.5785141,84.95825195,0,20,51,0,-20
1.2,80,80,60,moving_belt,blue,FALSE,TRUE,joint 1 -,FALSE,09:17.7,16.462,0.159,233.1,292.822052,106.5785141,84.95825195,0,20,51,0,-20
1.2,80,80,60,moving_belt,blue,FALSE,TRUE,joint 1 -,FALSE,09:18.4,16.5,0.159,235,292.822052,106.5785141,84.95825195,0,20,51,0,-20
1.2,80,80,60,go_to_pick_down,blue,TRUE,FALSE,joint 3 +,FALSE,09:19.2,16.158,0.159,235,292.8112488,106.5745773,83.11925507,0,20,51,0.921599984,-20
1.2,80,80,60,go_to_pick_down,blue,TRUE,FALSE,joint 3 +,FALSE,09:20.8,16.481,0.159,235,277.5347595,101.014389,17.74030304,0,20,51,27.50041008,-20
1.2,80,80,60,go_to_pick_up_from_pick_down,blue,TRUE,FALSE,joint 3 -,TRUE,09:21.5,17.525,0.16,235,290.4514465,105.715683,57.84140778,0,20,51,9.905282974,-20
1.2,80,80,60,go_to_color_detect_up,blue,TRUE,FALSE,joint 1 +,TRUE,09:22.3,17.525,0.16,235,285.8092957,124.1643219,84.95825195,3.481601715,23.91680145,51,0,-20
1.2,80,80,60,go_to_color_detect_up,blue,TRUE,FALSE,joint 1 +,TRUE,09:23.7,22.102,0.208,235,152.5451813,271.7235718,84.95825195,40.69020844,61.14723206,51,0,-20
1.2,80,80,60,go_to_color_detect_up,blue,TRUE,FALSE,joint 3 +,TRUE,09:24.5,22.443,0.208,235,130.8101501,280.5232544,60.24898529,45,65,51,10.39359951,-20
1.2,80,80,60,go_to_color_detect_up,blue,TRUE,FALSE,joint 3 +,TRUE,09:25.7,21.95,0.207,235,104.0329666,223.099411,-37.34825134,45,65,51,56.66526413,-20
1.2,80,80,60,go_to_color_detect_up,blue,TRUE,FALSE,joint 3 -,FALSE,09:26.5,22.102,0.207,235,111.2483292,238.5727997,-24.05024719,45,65,51,47.09599304,-20
1.2,80,80,60,go_to_color_detect_up,blue,TRUE,FALSE,joint 3 -,FALSE,09:27.3,17.582,0.207,235,131.5122528,282.0289307,73.72003937,45,65,51,3.923398256,-20
1.2,80,80,60,detecting_color,blue,FALSE,FALSE,detecting_color,FALSE,09:28.1,17.127,0.167,235,131.6940765,282.4188232,84.95825195,45,65,51,0,-20
1.2,80,80,60,go_to_color_detect_down,blue,TRUE,FALSE,joint 3 +,FALSE,09:29.6,16.462,0.167,235,131.6913452,282.4129639,83.57898712,45,65,51,0.716799974,-20
1.2,80,80,60,go_to_color_detect_down,blue,TRUE,FALSE,joint 3 +,FALSE,09:30.4,16.462,0.159,235,119.2214966,255.6713104,-3.391723633,45,65,51,37.99296188,-20
1.2,80,80,60,go_to_color_detect_up,blue,TRUE,FALSE,joint 3 -,TRUE,09:31.1,16.329,0.159,235,102.4182358,219.6366119,-39.8112793,45,65,51,57.84799957,-20
1.2,80,80,60,go_to_color_detect_up,blue,TRUE,FALSE,joint 3 -,TRUE,09:31.8,16.405,0.159,235,127.9539108,274.3980408,34.72308731,45,65,51,18.98389816,-20
1.2,80,80,60,go_to_red_up,red,TRUE,FALSE,joint 1 +,TRUE,09:32.8,23.165,0.163,235,130.4309235,283.004425,84.95825195,45.2559967,65.38399506,51,0,-20
1.2,80,80,60,go_to_red_up,red,TRUE,FALSE,joint 1 +,TRUE,09:34.0,23.165,0.163,235,-91.96514893,297.7350159,84.95825195,87.16500092,108.1077118,51,0,-20
1.2,80,80,60,go_to_pick_up_from_red,red,TRUE,FALSE,joint 1 -,FALSE,09:35.7,22.367,0.208,235,-175.5275269,257.4758301,84.95825195,104.2832031,124.0783997,51,0,-20
1.2,80,80,60,go_to_pick_up_from_red,red,TRUE,FALSE,joint 1 -,FALSE,09:36.4,22.367,0.194,235,21.95415497,310.8403931,84.95825195,65.95999908,84.68000031,51,0,-20
1.2,80,80,60,go_to_pick_up_from_red,red,TRUE,FALSE,joint 1 -,FALSE,09:37.1,17.43,0.194,235,270.6804199,154.3885956,84.95825195,9.699232101,29.00723267,51,0,-20
