demetriskallis/dobot_magician_pick_and_place_and_color_sorting/Sampling/OLD_DATA/sampling_joint_movement_extra/old_measurements/joint_measurements__armv_80_arma_80_belts_60_cube_1.2g.csv
cube/weight,arm/velocity_ratio,arm/acceleration_ratio,belt/speed,dobot/operation,dobot/color,dobot/moving_arm,dobot/moving_belt,dobot/operation2,dobot/suction,meross/sample_timestamp,meross/power,meross/current,meross/voltage,dobot/pose_x,dobot/pose_y,dobot/pose_z,dobot/pose_rHead,dobot/pose_joint1Angle,dobot/pose_joint2Angle,dobot/pose_joint3Angle,dobot/pose_joint4Angle
1.2,80,80,60,homing,,,,homing,,,,,,183.6515808,66.6730957,85.73659515,-0.047016144,19.55298424,-1.201354504,19.567873,-20
1.2,80,80,60,homing,,,,homing,,,,,,195.2989197,-5.615547657,85.73659515,-21.64700699,-2.04700613,-1.201354504,19.567873,-20
1.2,80,80,60,homing,,,,homing,,,,,,182.0990753,-70.8034668,85.73659515,-41.24699402,-21.64699554,-1.201354504,19.567873,-20
1.2,80,80,60,homing,,,,homing,,36:38.1,16.462,0.16,227.4,148.6851196,-126.7514801,85.73659515,-60.44701767,-40.8470192,-1.201354504,19.567873,-20
1.2,80,80,60,homing,,,,homing,,36:39.5,16.443,0.16,227.4,97.55072021,-169.2839508,85.73659515,-80.04708862,-60.44709396,-1.201354504,19.567873,-20
1.2,80,80,60,homing,,,,homing,,36:40.2,16.443,0.161,227.4,28.38250351,-193.3071136,85.73659515,-101.647171,-82.04717255,-1.201354504,19.567873,-20
1.2,80,80,60,homing,,,,homing,,36:40.9,16.424,0.161,227.4,-35.42822266,-192.140686,85.73659515,-120.4472427,-100.8472443,-1.201354504,19.567873,-20
1.2,80,80,60,homing,,,,homing,,36:42.3,16.519,0.162,227.4,-96.64645386,-169.8018341,85.73659515,-139.6473083,-120.0473175,-1.201354504,19.567873,-20
1.2,80,80,60,homing,,,,homing,,36:43.0,16.652,0.162,229.3,-141.0341644,-135.2130432,85.73659515,-156.2071686,-136.1871643,-1.201354504,19.567873,-20
1.2,80,80,60,homing,,,,homing,,36:44.4,16.424,0.16,229.3,-138.7004547,-137.6059113,85.73659515,-155.2269592,-135.206955,-1.201354504,19.567873,-20
1.2,80,80,60,homing,,,,homing,,36:45.1,16.424,0.16,229.3,-104.4344482,-170.3086243,82.09422302,-140.3244171,-120.9409103,1.342008352,21.14547539,-18.75676346
1.2,80,80,60,homing,,,,homing,,36:46.5,16.405,0.163,229.3,3.172059298,-214.557724,67.43363953,-103.707489,-88.55299377,10.15943241,26.61474419,-14.44666862
1.2,80,80,60,homing,,,,homing,,36:47.2,16.69,0.163,229.3,112.9798431,-203.4278717,42.20458984,-69.42356873,-60.35306549,22.6579361,34.3673172,-8.337203979
1.2,80,80,60,homing,,,,homing,,36:47.9,16.861,0.163,229.3,208.5432129,-128.0616302,16.69431305,-34.73531723,-30.95313644,33.37060165,41.01216125,-3.100686073
1.2,80,80,60,homing,,,,homing,,36:49.3,16.652,0.163,229.3,249.155426,-14.53034401,1.580635071,-3.631854057,-3.060559273,39.1618576,44.60438156,-0.269828409
1.2,80,80,60,homing,,,,homing,,36:50.3,16.652,0.163,229.3,250.3105621,-0.048298083,0.744941711,-0.011055371,-0.007382574,39.62721252,44.74509048,0
1.2,80,80,60,homing,,,,homing,,36:51.0,16.538,0.159,229.3,249.4649963,0.000179276,-1.051048279,4.12E-05,4.12E-05,39.84295273,45.31698227,0
1.2,80,80,60,homing,,,,homing,,36:52.3,16.405,0.159,229.3,249.8808136,0.000179574,-0.241279602,4.12E-05,4.12E-05,39.74346924,45.02921677,0
1.2,80,80,60,homing,,,,homing,,36:53.0,16.272,0.159,229.3,250.030426,0.000179682,0.011390686,4.12E-05,4.12E-05,39.71448517,44.94556427,0
1.2,80,80,60,homing,,,,homing,,36:54.4,16.158,0.159,229.3,249.8072662,0.000179522,-0.123321533,4.12E-05,4.12E-05,39.69783401,45.01210022,0
1.2,80,80,60,homing,,,,homing,,36:55.1,16.158,0.159,229.3,250.000412,0.00017966,0.000495911,4.12E-05,4.12E-05,39.71385956,44.94676971,0
1.2,80,80,60,homing,,,,homing,,36:56.6,16.234,0.159,229.3,249.8610992,0.00017956,-0.030212402,4.12E-05,4.12E-05,39.69603729,44.97059631,0
1.2,80,80,60,homing,,,,homing,,36:57.2,16.234,0.159,229.3,249.9999847,0.00017966,-7.63E-06,4.12E-05,4.12E-05,39.71385956,44.94676971,0
1.2,80,80,60,homing,,,,homing,,36:57.9,16.234,0.159,229.3,249.8879242,0.00017958,-0.103172302,4.12E-05,4.12E-05,39.71206665,44.98586273,0
1.2,80,80,60,homing,,,,homing,,36:59.3,16.215,0.159,229.3,249.9999847,0.00017966,-7.63E-06,4.12E-05,4.12E-05,39.71385956,44.94676971,0
1.2,80,80,60,homing,,,,homing,,37:00.0,16.215,0.156,229.3,249.9999847,0.00017966,-7.63E-06,4.12E-05,4.12E-05,39.71385956,44.94676971,0
1.2,80,80,60,homing,,,,homing,,37:01.4,16.101,0.156,229.3,249.9999847,0,-7.63E-06,0,0,39.71385956,44.94676971,0
1.2,80,80,60,homing,,,,homing,,37:02.1,16.082,0.157,229.3,249.9999847,0,-7.63E-06,0,0,39.71385956,44.94676971,0
1.2,80,80,60,homing,,,,homing,,37:03.4,16.272,0.157,229.3,249.9999847,-1.02E-09,-7.63E-06,-2.33E-10,-2.33E-10,39.71385956,44.94676971,0
1.2,80,80,60,homing,,,,homing,,37:04.1,16.177,0.159,229.3,249.9999847,5.08E-10,-7.63E-06,1.16E-10,1.16E-10,39.71385956,44.94676971,0
1.2,80,80,60,homing,,,,homing,,37:05.5,16.158,0.159,229.3,249.9998627,0.00017966,-0.0001297,4.12E-05,4.12E-05,39.71385956,44.94683838,0
1.2,80,80,60,homing,,,,homing,,37:06.3,16.158,0.159,229.3,255.9221191,24.65130234,15.56242371,4.10E-05,5.85717392,37.48256683,38.01288986,-5.857132912
1.2,80,80,60,homing,,,,homing,,37:07.0,16.348,0.158,229.3,274.2677002,99.99247742,63.10225677,4.20E-05,20.12121201,41.95569229,14.55899143,-20.12117004
1.2,80,80,60,go_to_pick_up_from_homing,nothing,,,go_to_pick_up_from_homing,,37:08.4,17.222,0.158,229.3,292.432373,106.5285721,84.38269043,1.91E-06,20.01074219,50.82749557,0.274511397,-20.01074028
1.2,80,80,60,moving_belt,nothing,FALSE,TRUE,go_to_pick_up_from_homing,,37:09.1,16.671,0.161,229.3,292.822052,106.5785141,84.95825195,0,20,51,0,-20
1.2,80,80,60,moving_belt,nothing,FALSE,TRUE,go_to_pick_up_from_homing,,37:10.5,16.405,0.161,229.3,292.822052,106.5785141,84.95825195,0,20,51,0,-20
1.2,80,80,60,moving_belt,nothing,FALSE,TRUE,go_to_pick_up_from_homing,,37:11.1,16.272,0.161,229.3,292.822052,106.5785141,84.95825195,0,20,51,0,-20
1.2,80,80,60,moving_belt,nothing,FALSE,TRUE,go_to_pick_up_from_homing,,37:12.5,16.329,0.161,229.3,292.822052,106.5785141,84.95825195,0,20,51,0,-20
1.2,80,80,60,go_to_pick_down,nothing,TRUE,FALSE,joint 3 +,,37:13.2,16.329,0.159,229.3,292.6700439,106.5231934,78.06436157,0,20,51,3.071999788,-20
1.2,80,80,60,go_to_pick_up_from_pick_down,nothing,TRUE,FALSE,joint 3 -,TRUE,37:13.9,16.139,0.159,229.3,283.2434998,103.0922089,31.17234039,0,20,51,21.28319931,-20
1.2,80,80,60,go_to_pick_up_from_pick_down,nothing,TRUE,FALSE,joint 3 -,TRUE,37:15.3,18.57,0.204,229.3,292.8210449,106.5781479,84.39208984,0,20,51,0.12773858,-20
1.2,80,80,60,go_to_color_detect_up,nothing,TRUE,FALSE,joint 1 +,TRUE,37:16.0,23.108,0.204,229.3,235.2071686,204.4048157,84.95825195,20.99200058,42.04159927,51,0,-20
1.2,80,80,60,go_to_color_detect_up,nothing,TRUE,FALSE,joint 3 +,TRUE,37:17.4,22.443,0.212,229.3,131.6860352,282.4016113,82.59386444,45,65,51,1.15200007,-20
1.2,80,80,60,go_to_color_detect_up,nothing,TRUE,FALSE,joint 3 +,TRUE,37:18.1,22.728,0.212,229.3,119.5738068,256.4268494,-2.272117615,45,65,51,37.15675354,-20
1.2,80,80,60,go_to_color_detect_up,nothing,TRUE,FALSE,joint 3 -,FALSE,37:19.1,22.253,0.212,229.3,113.5532761,243.5157776,-18.85574341,45,65,51,44.51839828,-20
1.2,80,80,60,go_to_color_detect_up,nothing,TRUE,FALSE,joint 3 -,FALSE,37:20.4,17.241,0.209,229.3,131.5613403,282.1341858,75.35387421,45,65,51,3.321113586,-20
1.2,80,80,60,detecting_color,nothing,FALSE,FALSE,detecting_color,FALSE,37:21.1,17.241,0.209,229.3,131.6940765,282.4188232,84.95825195,45,65,51,0,-20
1.2,80,80,60,go_to_color_detect_down,nothing,TRUE,FALSE,joint 3 +,FALSE,37:22.5,16.652,0.161,229.3,131.6860352,282.4016113,82.59386444,45,65,51,1.15200007,-20
1.2,80,80,60,go_to_color_detect_down,nothing,TRUE,FALSE,joint 3 +,FALSE,37:23.2,16.443,0.161,229.3,119.5738068,256.4268494,-2.272117615,45,65,51,37.15675354,-20
1.2,80,80,60,go_to_color_detect_up,nothing,TRUE,FALSE,joint 3 -,TRUE,37:23.9,16.443,0.161,229.3,113.258255,242.8830872,-19.55091095,45,65,51,44.92799759,-20
1.2,80,80,60,go_to_color_detect_up,nothing,TRUE,FALSE,joint 3 -,TRUE,37:25.3,23.564,0.161,229.3,131.5274963,282.0615845,74.20051575,45,65,51,3.746138573,-20
1.2,80,80,60,go_to_red_up,red,TRUE,FALSE,joint 1 +,TRUE,37:26.0,23.127,0.216,229.3,82.34838867,300.5369873,84.95825195,54.67680359,75.39360046,51,0,-20
1.2,80,80,60,go_to_red_up,red,TRUE,FALSE,joint 1 +,TRUE,37:27.4,22.519,0.216,229.3,-149.2516479,273.5464783,84.95825195,98.61763763,119.1763458,51,0,-20
1.2,80,80,60,go_to_pick_up_from_red,red,TRUE,FALSE,joint 1 -,FALSE,37:28.1,22.975,0.212,229.3,-126.0690536,284.9742432,84.95825195,93.86399841,113.0960007,51,0,-20
1.2,80,80,60,go_to_pick_up_from_red,red,TRUE,FALSE,joint 1 -,FALSE,37:29.4,17.962,0.212,229.3,166.0519409,263.6863403,84.95825195,37.80002594,56.52002716,51,0,-20
1.2,80,80,60,go_to_pick_up_from_red,red,TRUE,FALSE,joint 1 -,FALSE,37:30.1,16.595,0.162,229.3,291.7984009,109.3499756,84.95825195,0.543230057,20.38883018,51,0,-20
1.2,80,80,60,moving_belt,red,FALSE,TRUE,joint 1 -,FALSE,37:30.9,16.595,0.162,229.3,292.822052,106.5785141,84.95825195,0,20,51,0,-20
1.2,80,80,60,moving_belt,red,FALSE,TRUE,joint 1 -,FALSE,37:32.4,16.31,0.158,229.3,292.822052,106.5785141,84.95825195,0,20,51,0,-20
1.2,80,80,60,moving_belt,red,FALSE,TRUE,joint 1 -,FALSE,37:33.0,16.31,0.158,229.3,292.822052,106.5785141,84.95825195,0,20,51,0,-20
1.2,80,80,60,moving_belt,red,FALSE,TRUE,joint 1 -,FALSE,37:34.4,16.215,0.158,229.3,292.822052,106.5785141,84.95825195,0,20,51,0,-20
1.2,80,80,60,go_to_pick_down,red,TRUE,FALSE,joint 3 +,FALSE,37:35.1,16.31,0.158,229.3,292.214447,106.3573608,71.1856308,0,20,51,5.913599968,-20
1.2,80,80,60,go_to_pick_up_from_pick_down,red,TRUE,FALSE,joint 3 -,TRUE,37:36.5,16.443,0.158,229.3,283.5793457,103.214447,32.0904274,0,20,51,20.84799957,-20
1.2,80,80,60,go_to_color_detect_up,red,TRUE,FALSE,joint 1 +,TRUE,37:37.2,23.355,0.158,229.3,292.7744141,106.7093353,84.95825195,0.025600433,20.0768013,51,0,-20
1.2,80,80,60,go_to_color_detect_up,red,TRUE,FALSE,joint 1 +,TRUE,37:38.6,22.576,0.158,229.3,200.7342072,238.3474731,84.95825195,29.89620209,50.76282883,51,0,-20
1.2,80,80,60,go_to_color_detect_up,red,TRUE,FALSE,joint 3 +,TRUE,37:39.3,22.69,0.21,229.3,131.6047974,282.2273865,77.08039856,45,65,51,3.481600523,-20
1.2,80,80,60,go_to_color_detect_up,red,TRUE,FALSE,joint 3 +,TRUE,37:40.0,22.386,0.21,229.3,116.3370819,249.4856567,-11.8036499,45,65,51,41.7447319,-20
1.2,80,80,60,go_to_color_detect_up,red,TRUE,FALSE,joint 3 -,FALSE,37:41.3,22.405,0.208,229.3,115.6742401,248.0641937,-13.56855774,45,65,51,41.52319336,-20
1.2,80,80,60,go_to_color_detect_up,red,TRUE,FALSE,joint 3 -,FALSE,37:42.0,19.956,0.208,229.3,131.5613403,282.1341858,75.35387421,45,65,51,3.321113586,-20
1.2,80,80,60,detecting_color,red,FALSE,FALSE,detecting_color,FALSE,37:43.4,17.222,0.165,229.3,131.6940765,282.4188232,84.95825195,45,65,51,0,-20
1.2,80,80,60,detecting_color,red,FALSE,FALSE,detecting_color,FALSE,37:44.1,16.595,0.165,229.3,131.6940765,282.4188232,84.95825195,45,65,51,0,-20
1.2,80,80,60,detecting_color,red,FALSE,FALSE,detecting_color,FALSE,37:45.5,16.367,0.16,229.3,131.6940765,282.4188232,84.95825195,45,65,51,0,-20
1.2,80,80,60,detecting_color,red,FALSE,FALSE,detecting_color,FALSE,37:46.1,16.367,0.16,229.3,131.6940765,282.4188232,84.95825195,45,65,51,0,-20
1.2,80,80,60,go_to_color_detect_down,red,TRUE,FALSE,joint 3 +,FALSE,37:47.6,16.348,0.158,229.3,131.6934509,282.417511,84.30145264,45,65,51,0.384000003,-20
1.2,80,80,60,go_to_color_detect_down,red,TRUE,FALSE,joint 3 +,FALSE,37:48.2,16.348,0.158,229.3,121.6054764,260.783783,4.656272888,45,65,51,33.97185516,-20
1.2,80,80,60,go_to_color_detect_up,red,TRUE,FALSE,joint 3 -,TRUE,37:48.9,16.405,0.158,229.3,113.5532761,243.5157776,-18.85574341,45,65,51,44.51839828,-20
1.2,80,80,60,go_to_color_detect_up,red,TRUE,FALSE,joint 3 -,TRUE,37:50.3,22.709,0.171,229.3,131.2527008,281.4723206,67.46653748,45,65,51,6.255264282,-20
1.2,80,80,60,go_to_green_up,green,TRUE,FALSE,joint 1 +,TRUE,37:51.0,23.469,0.171,229.3,98.99643707,295.4715576,84.95825195,51.47679901,72.06559753,51,0,-20
1.2,80,80,60,go_to_green_up,green,TRUE,FALSE,joint 1 +,TRUE,37:52.4,22.557,0.209,229.3,-80.19541931,301.1186218,84.95825195,84.91313171,104.9657898,51,0,-20
1.2,80,80,60,go_to_pick_up_from_green,green,TRUE,FALSE,joint 1 -,FALSE,37:53.1,22.652,0.209,229.3,43.99737167,308.493042,84.95825195,61.88319397,80.78239441,51,0,-20
1.2,80,80,60,go_to_pick_up_from_green,green,TRUE,FALSE,joint 1 -,FALSE,37:54.4,16.766,0.159,229.3,273.6173706,149.1216583,84.95825195,8.590414047,27.94001389,51,0,-20
1.2,80,80,60,moving_belt,green,FALSE,TRUE,joint 1 -,FALSE,37:55.1,16.576,0.159,229.3,292.822052,106.5785141,84.95825195,0,20,51,0,-20
1.2,80,80,60,moving_belt,green,FALSE,TRUE,joint 1 -,FALSE,37:56.5,16.652,0.159,229.3,292.822052,106.5785141,84.95825195,0,20,51,0,-20
1.2,80,80,60,moving_belt,green,FALSE,TRUE,joint 1 -,FALSE,37:57.2,16.652,0.159,229.3,292.822052,106.5785141,84.95825195,0,20,51,0,-20
1.2,80,80,60,moving_belt,green,FALSE,TRUE,joint 1 -,FALSE,37:58.6,16.177,0.156,229.3,292.822052,106.5785141,84.95825195,0,20,51,0,-20
1.2,80,80,60,go_to_pick_down,green,TRUE,FALSE,joint 3 +,FALSE,37:59.3,16.177,0.156,227.4,292.8219299,106.5784683,84.76120758,0,20,51,0.153599992,-20
1.2,80,80,60,go_to_pick_down,green,TRUE,FALSE,joint 3 +,FALSE,38:00.0,16.291,0.156,227.4,283.7070313,103.26091,32.44428253,0,20,51,21.15159416,-20
1.2,80,80,60,go_to_pick_up_from_pick_down,green,TRUE,FALSE,joint 3 -,TRUE,38:01.4,16.481,0.157,227.4,292.5884399,106.4934845,76.41265869,0,20,51,2.932536125,-20
1.2,80,80,60,go_to_color_detect_up,green,TRUE,FALSE,joint 1 +,TRUE,38:02.0,23.013,0.157,227.4,268.7895508,157.6575623,84.95825195,10.39360237,31.13600159,51,0,-20
1.2,80,80,60,go_to_color_detect_up,green,TRUE,FALSE,joint 1 +,TRUE,38:03.4,22.064,0.207,227.4,135.0880432,280.8112183,84.95825195,44.30948639,64.48490906,51,0,-20
1.2,80,80,60,go_to_color_detect_up,green,TRUE,FALSE,joint 3 +,TRUE,38:04.1,22.177,0.207,227.4,125.7313995,269.6318359,22.11756516,45,65,51,26.37325287,-20
1.2,80,80,60,go_to_color_detect_up,green,TRUE,FALSE,joint 3 -,FALSE,38:05.5,21.893,0.206,227.4,111.2624588,238.6031036,-24.0199585,45,65,51,47.74399567,-20
1.2,80,80,60,go_to_color_detect_up,green,TRUE,FALSE,joint 3 -,FALSE,38:06.2,21.893,0.206,227.4,130.5848694,280.0401306,57.30422974,45,65,51,10.11101532,-20
1.2,80,80,60,detecting_color,green,FALSE,FALSE,detecting_color,FALSE,38:07.6,16.785,0.166,227.4,131.6940765,282.4188232,84.95825195,45,65,51,0,-20
1.2,80,80,60,detecting_color,green,FALSE,FALSE,detecting_color,FALSE,38:08.3,16.329,0.166,227.4,131.6940765,282.4188232,84.95825195,45,65,51,0,-20
1.2,80,80,60,go_to_color_detect_down,green,TRUE,FALSE,joint 3 +,FALSE,38:09.0,16.329,0.166,227.4,129.5116119,277.7385559,46.33721924,45,65,51,16.12800026,-20
1.2,80,80,60,go_to_color_detect_down,green,TRUE,FALSE,joint 3 +,FALSE,38:10.3,16.329,0.161,227.4,111.3138962,238.7134094,-23.90966797,45,65,51,47.87460709,-20
1.2,80,80,60,go_to_color_detect_up,green,TRUE,FALSE,joint 3 -,TRUE,38:11.0,16.329,0.161,227.4,124.9189377,267.8894958,18.20336914,45,65,51,25.9583931,-20
1.2,80,80,60,go_to_blue_up,blue,TRUE,FALSE,joint 1 +,TRUE,38:12.4,22.899,0.196,227.4,130.4309235,283.004425,84.95825195,45.2559967,65.38399506,51,0,-20
1.2,80,80,60,go_to_blue_up,blue,TRUE,FALSE,joint 1 +,TRUE,38:13.1,22.899,0.196,227.4,27.95053673,310.3586731,84.95825195,64.85388947,84.92817688,51,0,-20
1.2,80,80,60,go_to_pick_up_from_blue,blue,TRUE,FALSE,joint 1 -,FALSE,38:13.8,21.988,0.207,227.4,146.8548279,274.8406677,84.95825195,41.88319778,60.78239822,51,0,-20
1.2,80,80,60,go_to_pick_up_from_blue,blue,TRUE,FALSE,joint 1 -,FALSE,38:15.5,16.443,0.16,227.4,292.3851013,107.7714615,84.95825195,0.233596802,20.13679695,51,0,-20
1.2,80,80,60,moving_belt,blue,FALSE,TRUE,joint 1 -,FALSE,38:16.1,16.443,0.16,227.4,292.822052,106.5785141,84.95825195,0,20,51,0,-20
1.2,80,80,60,moving_belt,blue,FALSE,TRUE,joint 1 -,FALSE,38:17.6,16.5,0.16,227.4,292.822052,106.5785141,84.95825195,0,20,51,0,-20
1.2,80,80,60,moving_belt,blue,FALSE,TRUE,joint 1 -,FALSE,38:18.2,16.101,0.159,227.4,292.822052,106.5785141,84.95825195,0,20,51,0,-20
1.2,80,80,60,moving_belt,blue,FALSE,TRUE,joint 1 -,FALSE,38:19.0,16.101,0.159,227.4,292.822052,106.5785141,84.95825195,0,20,51,0,-20
1.2,80,80,60,go_to_pick_down,blue,TRUE,FALSE,joint 3 +,FALSE,38:20.3,16.31,0.157,227.4,292.6235352,106.5062637,77.08039856,0,20,51,3.481599808,-20
1.2,80,80,60,go_to_pick_up_from_pick_down,blue,TRUE,FALSE,joint 3 -,TRUE,38:21.0,16.31,0.157,227.4,282.7636108,102.9175491,29.89107895,0,20,51,22,-20
1.2,80,80,60,go_to_pick_up_from_pick_down,blue,TRUE,FALSE,joint 3 -,TRUE,38:22.0,16.215,0.157,227.4,292.7194214,106.541153,79.29199219,0,20,51,1.885736585,-20
1.2,80,80,60,go_to_color_detect_up,blue,TRUE,FALSE,joint 1 +,TRUE,38:23.4,21.969,0.179,227.4,242.2741394,195.9769745,84.95825195,18.96960068,39.96800232,51,0,-20
1.2,80,80,60,go_to_color_detect_up,blue,TRUE,FALSE,joint 3 +,TRUE,38:24.1,21.969,0.208,227.4,131.6940765,282.4188232,84.95825195,45,65,51,0.025600001,-20
1.2,80,80,60,go_to_color_detect_up,blue,TRUE,FALSE,joint 3 +,TRUE,38:25.5,21.931,0.208,227.4,123.6854019,265.2441711,12.76248169,45,65,51,30.37735367,-20
1.2,80,80,60,go_to_color_detect_up,blue,TRUE,FALSE,joint 3 -,FALSE,38:26.2,21.741,0.205,227.4,112.7222672,241.7336731,-20.79039001,45,65,51,45.6703949,-20
1.2,80,80,60,go_to_color_detect_up,blue,TRUE,FALSE,joint 3 -,FALSE,38:26.9,21.741,0.205,227.4,130.9754181,280.8776855,62.66365433,45,65,51,8.067939758,-20
1.2,80,80,60,detecting_color,blue,FALSE,FALSE,detecting_color,FALSE,38:28.6,16.557,0.159,227.4,131.6940765,282.4188232,84.95825195,45,65,51,0,-20
1.2,80,80,60,detecting_color,blue,FALSE,FALSE,detecting_color,FALSE,38:29.3,16.557,0.159,227.4,131.6940765,282.4188232,84.95825195,45,65,51,0,-20
1.2,80,80,60,go_to_color_detect_down,blue,TRUE,FALSE,joint 3 +,FALSE,38:30.0,16.101,0.159,227.4,130.3580475,279.5537415,54.63619232,45,65,51,12.69760036,-20
1.2,80,80,60,go_to_color_detect_down,blue,TRUE,FALSE,joint 3 +,FALSE,38:31.4,16.139,0.158,227.4,111.8132172,239.7841949,-22.82589722,45,65,51,47.352108,-20
1.2,80,80,60,go_to_color_detect_up,blue,TRUE,FALSE,joint 3 -,TRUE,38:32.1,16.139,0.158,229.3,125.4264297,268.9778442,20.61365509,45,65,51,24.88319397,-20
1.2,80,80,60,go_to_red_up,red,TRUE,FALSE,joint 1 +,TRUE,38:33.5,22.747,0.212,229.3,131.5678711,282.4776611,84.95825195,45.02559662,65.07679749,51,0,-20
1.2,80,80,60,go_to_red_up,red,TRUE,FALSE,joint 1 +,TRUE,38:34.2,22.064,0.212,229.3,-70.8299942,303.4581604,84.95825195,83.13816071,104.1832733,51,0,-20
1.2,80,80,60,go_to_pick_up_from_red,red,TRUE,FALSE,joint 1 -,FALSE,38:35.6,22.291,0.207,229.3,-178.3925629,255.4991608,84.95825195,104.9232025,124.846405,51,0,-20
1.2,80,80,60,go_to_pick_up_from_red,red,TRUE,FALSE,joint 1 -,FALSE,38:36.3,22.102,0.207,229.3,-12.8316555,311.3504028,84.95825195,72.35999298,91.0799942,51,0,-20
1.2,80,80,60,go_to_pick_up_from_red,red,TRUE,FALSE,joint 1 -,FALSE,38:37.6,16.234,0.159,229.3,270.6804199,154.3885956,84.95825195,9.699232101,29.00723267,51,0,-20
1.2,80,80,60,moving_belt,red,FALSE,TRUE,joint 1 -,FALSE,38:38.3,16.329,0.159,229.3,292.822052,106.5785141,84.95825195,0,20,51,0,-20
1.2,80,80,60,moving_belt,red,FALSE,TRUE,joint 1 -,FALSE,38:39.3,16.329,0.159,229.3,292.822052,106.5785141,84.95825195,0,20,51,0,-20
1.2,80,80,60,moving_belt,red,FALSE,TRUE,joint 1 -,FALSE,38:40.0,16.519,0.162,229.3,292.822052,106.5785141,84.95825195,0,20,51,0,-20
1.2,80,80,60,moving_belt,red,FALSE,TRUE,joint 1 -,FALSE,38:41.4,16.234,0.159,229.3,292.822052,106.5785141,84.95825195,0,20,51,0,-20
1.2,80,80,60,moving_belt,red,FALSE,TRUE,joint 1 -,FALSE,38:42.1,16.196,0.159,229.3,292.822052,106.5785141,84.95825195,0,20,51,0,-20
1.2,80,80,60,go_to_pick_down,red,TRUE,FALSE,joint 3 +,FALSE,38:43.5,16.31,0.159,229.3,286.5634155,104.3005524,41.21149445,0,20,51,17.79026222,-20
1.2,80,80,60,go_to_pick_up_from_pick_down,red,TRUE,FALSE,joint 3 -,TRUE,38:44.2,16.31,0.159,229.3,290.9578552,105.9000015,60.88926315,0,20,51,8.741999626,-20
1.2,80,80,60,go_to_color_detect_up,red,TRUE,FALSE,joint 1 +,TRUE,38:45.6,22.766,0.159,229.3,282.7306213,131.0233459,84.95825195,4.864002228,25.37600136,51,0,-20
1.2,80,80,60,go_to_color_detect_up,red,TRUE,FALSE,joint 1 +,TRUE,38:46.2,22.196,0.207,229.3,148.3135681,274.0562134,84.95825195,41.57865906,61.98448563,51,0,-20
1.2,80,80,60,go_to_color_detect_up,red,TRUE,FALSE,joint 3 +,TRUE,38:47.6,22.196,0.207,229.3,129.752655,278.2554626,48.49627304,45,65,51,15.23200035,-20
1.2,80,80,60,go_to_color_detect_up,red,TRUE,FALSE,joint 3 +,TRUE,38:48.3,21.836,0.208,229.3,111.4084244,238.9161224,-23.70631409,45,65,51,47.78238297,-20
1.2,80,80,60,go_to_color_detect_up,red,TRUE,FALSE,joint 3 -,FALSE,38:49.0,21.931,0.208,229.3,127.3207703,273.0402527,30.78015137,45,65,51,20.58731842,-20
1.2,80,80,60,detecting_color,red,FALSE,FALSE,detecting_color,FALSE,38:50.4,16.994,0.165,229.3,131.6940765,282.4188232,84.95825195,45,65,51,0,-20
1.2,80,80,60,detecting_color,red,FALSE,FALSE,detecting_color,FALSE,38:51.1,16.994,0.165,229.3,131.6940765,282.4188232,84.95825195,45,65,51,0,-20
1.2,80,80,60,detecting_color,red,FALSE,FALSE,detecting_color,FALSE,38:52.5,16.367,0.159,229.3,131.6940765,282.4188232,84.95825195,45,65,51,0,-20
1.2,80,80,60,go_to_color_detect_down,red,TRUE,FALSE,joint 3 +,FALSE,38:53.2,16.367,0.159,229.3,128.3201599,275.1834412,37.1734848,45,65,51,19.96800041,-20
1.2,80,80,60,go_to_color_detect_up,red,TRUE,FALSE,joint 3 -,TRUE,38:54.6,16.443,0.16,229.3,111.1594772,238.3822632,-24.24007416,45,65,51,47.9231987,-20
1.2,80,80,60,go_to_color_detect_up,red,TRUE,FALSE,joint 3 -,TRUE,38:55.3,16.633,0.16,229.3,128.7786255,276.1666565,40.45450592,45,65,51,16.68561745,-20
1.2,80,80,60,go_to_green_up,green,TRUE,FALSE,joint 1 +,TRUE,38:56.6,22.462,0.212,229.3,127.1345139,284.5005188,84.95825195,45.92160034,66.15200043,51,0,-20
1.2,80,80,60,go_to_green_up,green,TRUE,FALSE,joint 1 +,TRUE,38:57.3,22.462,0.212,229.3,-62.0616188,305.3720703,84.95825195,81.48792267,101.8989792,51,0,-20
1.2,80,80,60,go_to_pick_up_from_green,green,TRUE,FALSE,joint 1 -,FALSE,38:58.0,22.329,0.212,229.3,-32.6504631,309.8994751,84.95825195,76.01439667,95.32319641,51,0,-20
1.2,80,80,60,go_to_pick_up_from_green,green,TRUE,FALSE,joint 1 -,FALSE,38:59.4,20.298,0.2,229.3,229.8257599,210.4373016,84.95825195,22.47841644,41.41841507,51,0,-20
1.2,80,80,60,moving_belt,green,FALSE,TRUE,joint 1 -,FALSE,39:00.1,16.329,0.2,229.3,292.822052,106.5785141,84.95825195,0,20,51,0,-20
1.2,80,80,60,moving_belt,green,FALSE,TRUE,joint 1 -,FALSE,39:01.5,16.519,0.159,229.3,292.822052,106.5785141,84.95825195,0,20,51,0,-20
1.2,80,80,60,moving_belt,green,FALSE,TRUE,joint 1 -,FALSE,39:02.1,16.12,0.159,229.3,292.822052,106.5785141,84.95825195,0,20,51,0,-20
1.2,80,80,60,moving_belt,green,FALSE,TRUE,joint 1 -,FALSE,39:03.5,16.329,0.158,229.3,292.822052,106.5785141,84.95825195,0,20,51,0,-20
1.2,80,80,60,moving_belt,green,FALSE,TRUE,joint 1 -,FALSE,39:04.2,16.329,0.158,229.3,292.822052,106.5785141,84.95825195,0,20,51,0,-20
1.2,80,80,60,go_to_pick_down,green,TRUE,FALSE,joint 3 +,FALSE,39:05.6,16.234,0.158,229.3,288.7687988,105.1032486,49.60953903,0,20,51,14.54466438,-20
1.2,80,80,60,go_to_pick_up_from_pick_down,green,TRUE,FALSE,joint 3 -,TRUE,39:06.3,16.329,0.158,229.3,288.9034119,105.1522446,50.19290161,0,20,51,13.01439857,-20
1.2,80,80,60,go_to_color_detect_up,green,TRUE,FALSE,joint 1 +,TRUE,39:07.0,23.241,0.158,229.3,288.9306641,116.7168045,84.95825195,1.996801376,22.32960129,51,0,-20
1.2,80,80,60,go_to_color_detect_up,green,TRUE,FALSE,joint 1 +,TRUE,39:08.4,22.272,0.214,229.3,165.033371,264.3250122,84.95825195,38.02108383,58.60610962,51,0,-20
1.2,80,80,60,go_to_color_detect_up,green,TRUE,FALSE,joint 3 +,TRUE,39:09.1,22.348,0.214,229.3,131.3634796,281.7098694,69.81304169,45,65,51,6.476800919,-20
1.2,80,80,60,go_to_color_detect_up,green,TRUE,FALSE,joint 3 +,TRUE,39:10.5,21.893,0.206,229.3,112.396019,241.0340271,-21.53040314,45,65,51,46.69142914,-20
1.2,80,80,60,go_to_color_detect_up,green,TRUE,FALSE,joint 3 -,FALSE,39:11.2,22.007,0.206,229.3,121.291275,260.1099548,3.527664185,45,65,51,32.76799393,-20
1.2,80,80,60,go_to_color_detect_up,green,TRUE,FALSE,joint 3 -,FALSE,39:12.5,18.703,0.193,229.3,131.6930084,282.4165649,84.09764862,45,65,51,0.217612416,-20
1.2,80,80,60,detecting_color,green,FALSE,FALSE,detecting_color,FALSE,39:13.2,17.013,0.193,229.3,131.6940765,282.4188232,84.95825195,45,65,51,0,-20
1.2,80,80,60,go_to_color_detect_down,green,TRUE,FALSE,joint 3 +,FALSE,39:14.6,16.329,0.16,229.3,131.6047974,282.2273865,77.08039856,45,65,51,3.481600523,-20
1.2,80,80,60,go_to_color_detect_down,green,TRUE,FALSE,joint 3 +,FALSE,39:15.3,16.386,0.16,229.3,114.4060364,245.3445129,-16.79278564,45,65,51,44.25385666,-20
1.2,80,80,60,go_to_color_detect_up,green,TRUE,FALSE,joint 3 -,TRUE,39:16.0,16.386,0.16,229.3,118.3077316,253.7117462,-6.195968628,45,65,51,37.60639572,-20
1.2,80,80,60,go_to_color_detect_up,green,TRUE,FALSE,joint 3 -,TRUE,39:17.4,22.956,0.16,229.3,131.6778717,282.3840942,81.60124969,45,65,51,1.062737942,-20
1.2,80,80,60,go_to_blue_up,blue,TRUE,FALSE,joint 1 +,TRUE,39:18.1,22.367,0.212,229.3,43.55315399,308.5560608,84.95825195,61.96569061,82.3471756,51,0,-20
1.2,80,80,60,go_to_pick_up_from_blue,blue,TRUE,FALSE,joint 1 -,FALSE,39:19.5,22.234,0.212,229.3,90.6078949,298.1508789,84.95825195,53.09600067,72.30239868,51,0,-20
1.2,80,80,60,go_to_pick_up_from_blue,blue,TRUE,FALSE,joint 1 -,FALSE,39:20.2,16.348,0.164,229.3,279.2290955,138.3287659,84.95825195,6.353597641,25.79599762,51,0,-20
1.2,80,80,60,moving_belt,blue,FALSE,TRUE,joint 1 -,FALSE,39:21.6,16.348,0.164,229.3,292.822052,106.5785141,84.95825195,0,20,51,0,-20
1.2,80,80,60,moving_belt,blue,FALSE,TRUE,joint 1 -,FALSE,39:22.3,16.348,0.159,229.3,292.822052,106.5785141,84.95825195,0,20,51,0,-20
1.2,80,80,60,moving_belt,blue,FALSE,TRUE,joint 1 -,FALSE,39:23.0,16.424,0.159,229.3,292.822052,106.5785141,84.95825195,0,20,51,0,-20
1.2,80,80,60,moving_belt,blue,FALSE,TRUE,joint 1 -,FALSE,39:24.4,16.405,0.156,229.3,292.822052,106.5785141,84.95825195,0,20,51,0,-20
1.2,80,80,60,go_to_pick_down,blue,TRUE,FALSE,joint 3 +,FALSE,39:25.1,16.348,0.156,229.3,292.8215637,106.5783386,84.56417084,0,20,51,0.255999982,-20
1.2,80,80,60,go_to_pick_down,blue,TRUE,FALSE,joint 3 +,FALSE,39:26.5,16.405,0.158,229.3,283.3450928,103.1291809,31.44816208,0,20,51,21.51666069,-20
1.2,80,80,60,go_to_pick_up_from_pick_down,blue,TRUE,FALSE,joint 3 -,TRUE,39:27.5,16.405,0.158,229.3,292.6411438,106.5126724,77.43772125,0,20,51,2.558002949,-20
1.2,80,80,60,go_to_color_detect_up,blue,TRUE,FALSE,joint 1 +,TRUE,39:28.1,22.026,0.158,229.3,264.5405579,164.6876373,84.95825195,11.90400124,32.69760132,51,0,-20
1.2,80,80,60,go_to_color_detect_up,blue,TRUE,FALSE,joint 1 +,TRUE,39:29.5,22.462,0.205,229.3,133.4918213,281.5735474,84.95825195,44.63473511,64.75895691,51,0,-20
1.2,80,80,60,go_to_color_detect_up,blue,TRUE,FALSE,joint 3 +,TRUE,39:30.2,21.95,0.205,229.3,124.7182922,267.4592285,17.28000641,45,65,51,28.42650223,-20
1.2,80,80,60,go_to_color_detect_up,blue,TRUE,FALSE,joint 3 -,FALSE,39:31.6,22.026,0.205,229.3,111.2624588,238.6031036,-24.0199585,45,65,51,47.74399567,-20
1.2,80,80,60,go_to_color_detect_up,blue,TRUE,FALSE,joint 3 -,FALSE,39:32.3,20.165,0.205,229.3,129.6084442,277.946167,47.18857193,45,65,51,14.02814102,-20
1.2,80,80,60,detecting_color,blue,FALSE,FALSE,detecting_color,FALSE,39:33.0,20.165,0.164,229.3,131.6940765,282.4188232,84.95825195,45,65,51,0,-20
1.2,80,80,60,detecting_color,blue,FALSE,FALSE,detecting_color,FALSE,39:34.4,16.386,0.164,229.3,131.6940765,282.4188232,84.95825195,45,65,51,0,-20
1.2,80,80,60,go_to_color_detect_down,blue,TRUE,FALSE,joint 3 +,FALSE,39:35.1,16.386,0.157,229.3,128.654541,275.9005432,39.54055405,45,65,51,18.96960068,-20
1.2,80,80,60,go_to_color_detect_up,blue,TRUE,FALSE,joint 3 -,TRUE,39:36.5,16.519,0.157,229.3,111.1594772,238.3822632,-24.24007416,45,65,51,47.9231987,-20
1.2,80,80,60,go_to_color_detect_up,blue,TRUE,FALSE,joint 3 -,TRUE,39:37.2,16.5,0.194,229.3,128.7786255,276.1666565,40.45450592,45,65,51,16.68561745,-20
1.2,80,80,60,go_to_red_up,red,TRUE,FALSE,joint 1 +,TRUE,39:38.6,22.424,0.194,229.3,127.1345139,284.5005188,84.95825195,45.92160034,66.15200043,51,0,-20
1.2,80,80,60,go_to_red_up,red,TRUE,FALSE,joint 1 +,TRUE,39:39.3,22.424,0.207,229.3,-106.1507721,292.9773865,84.95825195,89.91632843,110.7822342,51,0,-20
1.2,80,80,60,go_to_pick_up_from_red,red,TRUE,FALSE,joint 1 -,FALSE,39:40.6,22.424,0.207,229.3,-173.5667572,258.8016663,84.95825195,103.8479996,123.5920029,51,0,-20
1.2,80,80,60,go_to_pick_up_from_red,red,TRUE,FALSE,joint 1 -,FALSE,39:41.3,22.424,0.207,229.3,35.816082,309.5495911,84.95825195,63.40000153,82.12000275,51,0,-20
1.2,80,80,60,go_to_pick_up_from_red,red,TRUE,FALSE,joint 1 -,FALSE,39:42.0,16.31,0.158,229.3,281.5092773,133.6272888,84.95825195,5.392831802,24.88003159,51,0,-20
1.2,80,80,60,moving_belt,red,FALSE,TRUE,joint 1 -,FALSE,39:43.4,16.557,0.158,227.4,292.822052,106.5785141,84.95825195,0,20,51,0,-20
1.2,80,80,60,moving_belt,red,FALSE,TRUE,joint 1 -,FALSE,39:44.1,16.576,0.162,227.4,292.822052,106.5785141,84.95825195,0,20,51,0,-20
1.2,80,80,60,moving_belt,red,FALSE,TRUE,joint 1 -,FALSE,39:45.5,16.348,0.162,227.4,292.822052,106.5785141,84.95825195,0,20,51,0,-20
1.2,80,80,60,moving_belt,red,FALSE,TRUE,joint 1 -,FALSE,39:46.2,16.348,0.16,227.4,292.822052,106.5785141,84.95825195,0,20,51,0,-20
1.2,80,80,60,go_to_pick_down,red,TRUE,FALSE,joint 3 +,FALSE,39:47.7,16.481,0.16,227.4,292.822052,106.5785141,84.95825195,0,20,51,0.025599999,-20
1.2,80,80,60,go_to_pick_down,red,TRUE,FALSE,joint 3 +,FALSE,39:48.3,16.481,0.158,227.4,282.9619446,102.9897308,30.4164238,0,20,51,21.87226105,-20
1.2,80,80,60,go_to_pick_up_from_pick_down,red,TRUE,FALSE,joint 3 -,TRUE,39:49.0,16.082,0.158,227.4,292.5884399,106.4934845,76.41265869,0,20,51,2.932536125,-20
1.2,80,80,60,go_to_color_detect_up,red,TRUE,FALSE,joint 1 +,TRUE,39:50.4,22.899,0.213,227.4,268.7895508,157.6575623,84.95825195,10.39360237,31.13600159,51,0,-20
1.2,80,80,60,go_to_color_detect_up,red,TRUE,FALSE,joint 1 +,TRUE,39:51.1,21.95,0.213,227.4,131.8023071,282.3683472,84.95825195,44.97803497,64.99986267,51,0,-20
1.2,80,80,60,go_to_color_detect_up,red,TRUE,FALSE,joint 3 +,TRUE,39:52.5,21.874,0.206,227.4,125.7313995,269.6318359,22.11756516,45,65,51,26.37325287,-20
1.2,80,80,60,go_to_color_detect_up,red,TRUE,FALSE,joint 3 -,FALSE,39:53.2,21.817,0.206,227.4,111.2006989,238.4706573,-24.15210724,45,65,51,47.8463974,-20
1.2,80,80,60,go_to_color_detect_up,red,TRUE,FALSE,joint 3 -,FALSE,39:54.6,21.836,0.161,227.4,130.4249573,279.6972046,55.39711761,45,65,51,10.84324074,-20
1.2,80,80,60,detecting_color,red,FALSE,FALSE,detecting_color,FALSE,39:55.3,16.652,0.161,227.4,131.6940765,282.4188232,84.95825195,45,65,51,0,-20
1.2,80,80,60,detecting_color,red,FALSE,FALSE,detecting_color,FALSE,39:56.0,16.386,0.161,227.4,131.6940765,282.4188232,84.95825195,45,65,51,0,-20
1.2,80,80,60,detecting_color,red,FALSE,FALSE,detecting_color,FALSE,39:57.5,16.272,0.158,227.4,131.6940765,282.4188232,84.95825195,45,65,51,0,-20
1.2,80,80,60,detecting_color,red,FALSE,FALSE,detecting_color,FALSE,39:58.2,16.272,0.158,227.4,131.6940765,282.4188232,84.95825195,45,65,51,0,-20
1.2,80,80,60,go_to_color_detect_down,red,TRUE,FALSE,joint 3 +,FALSE,39:59.6,16.234,0.158,227.4,131.579422,282.1729431,76.03123474,45,65,51,3.916800499,-20
1.2,80,80,60,go_to_color_detect_down,red,TRUE,FALSE,joint 3 +,FALSE,40:00.3,16.234,0.158,227.4,113.7436295,243.9239807,-18.4022522,45,65,51,45.07830811,-20
1.2,80,80,60,go_to_color_detect_up,red,TRUE,FALSE,joint 3 -,TRUE,40:01.7,16.348,0.159,227.4,118.7858582,254.7370911,-4.746086121,45,65,51,36.8639946,-20
1.2,80,80,60,go_to_color_detect_up,red,TRUE,FALSE,joint 3 -,TRUE,40:02.3,22.994,0.159,227.4,131.6778717,282.3840942,81.60124969,45,65,51,1.062737942,-20
1.2,80,80,60,go_to_green_up,green,TRUE,FALSE,joint 1 +,TRUE,40:03.0,22.595,0.208,227.4,21.91150284,310.8434143,84.95825195,65.96785736,86.94211578,51,0,-20
1.2,80,80,60,go_to_pick_up_from_green,green,TRUE,FALSE,joint 1 -,FALSE,40:04.5,21.931,0.208,227.4,-77.82413483,301.7401733,84.95825195,84.46240234,104.2832031,51,0,-20
1.2,80,80,60,go_to_pick_up_from_green,green,TRUE,FALSE,joint 1 -,FALSE,40:05.1,22.026,0.208,227.4,120.5549698,287.3503418,84.95825195,47.23999786,65.95999908,51,0,-20
1.2,80,80,60,go_to_pick_up_from_green,green,TRUE,FALSE,joint 1 -,FALSE,40:06.5,16.348,0.165,227.4,290.8877563,111.7499771,84.95825195,1.015213013,20.80001259,51,0,-20
1.2,80,80,60,moving_belt,green,FALSE,TRUE,joint 1 -,FALSE,40:07.2,16.272,0.165,227.4,292.822052,106.5785141,84.95825195,0,20,51,0,-20
1.2,80,80,60,moving_belt,green,FALSE,TRUE,joint 1 -,FALSE,40:08.6,16.481,0.16,227.4,292.822052,106.5785141,84.95825195,0,20,51,0,-20
1.2,80,80,60,moving_belt,green,FALSE,TRUE,joint 1 -,FALSE,40:09.3,16.481,0.16,227.4,292.822052,106.5785141,84.95825195,0,20,51,0,-20
1.2,80,80,60,moving_belt,green,FALSE,TRUE,joint 1 -,FALSE,40:10.7,16.386,0.16,227.4,292.822052,106.5785141,84.95825195,0,20,51,0,-20
1.2,80,80,60,go_to_pick_down,green,TRUE,FALSE,joint 3 +,FALSE,40:11.4,16.386,0.16,227.4,292.5671082,106.4857254,76.03123474,0,20,51,3.916799784,-20
1.2,80,80,60,go_to_pick_up_from_pick_down,green,TRUE,FALSE,joint 3 -,TRUE,40:12.1,16.234,0.159,227.4,282.901886,102.967865,30.25666428,0,20,51,21.74399948,-20
1.2,80,80,60,go_to_pick_up_from_pick_down,green,TRUE,FALSE,joint 3 -,TRUE,40:13.4,19.025,0.159,227.4,292.8130798,106.5752487,83.28274536,0,20,51,0.483337939,-20
1.2,80,80,60,go_to_color_detect_up,green,TRUE,FALSE,joint 1 +,TRUE,40:14.1,22.652,0.211,227.4,219.6551208,221.0324707,84.95825195,25.17907715,46.17370224,51,0,-20
1.2,80,80,60,go_to_color_detect_up,green,TRUE,FALSE,joint 3 +,TRUE,40:15.5,22.026,0.211,229.3,131.6913452,282.4129639,83.57898712,45,65,51,0.716800034,-20
1.2,80,80,60,go_to_color_detect_up,green,TRUE,FALSE,joint 3 +,TRUE,40:16.2,21.893,0.203,229.3,120.5789719,258.582428,1.049705505,45,65,51,35.61550522,-20
1.2,80,80,60,go_to_color_detect_up,green,TRUE,FALSE,joint 3 -,FALSE,40:17.6,21.418,0.203,229.3,114.9037552,246.4118805,-15.55041504,45,65,51,42.62399673,-20
1.2,80,80,60,go_to_color_detect_up,green,TRUE,FALSE,joint 3 -,FALSE,40:18.3,21.418,0.162,229.3,131.4875641,281.9759827,72.98236084,45,65,51,4.196763515,-20
1.2,80,80,60,detecting_color,green,FALSE,FALSE,detecting_color,FALSE,40:19.0,17.165,0.162,229.3,131.6940765,282.4188232,84.95825195,45,65,51,0,-20
1.2,80,80,60,go_to_color_detect_down,green,TRUE,FALSE,joint 3 +,FALSE,40:20.4,16.253,0.159,229.3,131.6913452,282.4129639,83.57898712,45,65,51,0.716800034,-20
1.2,80,80,60,go_to_color_detect_down,green,TRUE,FALSE,joint 3 +,FALSE,40:21.1,16.253,0.159,229.3,120.5789719,258.582428,1.049705505,45,65,51,35.61550522,-20
1.2,80,80,60,go_to_color_detect_up,green,TRUE,FALSE,joint 3 -,TRUE,40:22.5,16.234,0.159,229.3,114.9037552,246.4118805,-15.55041504,45,65,51,42.62399673,-20
1.2,80,80,60,go_to_color_detect_up,green,TRUE,FALSE,joint 3 -,TRUE,40:23.2,16.234,0.161,229.3,131.4875641,281.9759827,72.98236084,45,65,51,4.196763515,-20
1.2,80,80,60,go_to_blue_up,blue,TRUE,FALSE,joint 1 +,TRUE,40:24.6,22.272,0.161,229.3,82.34838867,300.5369873,84.95825195,54.67680359,75.39109039,51,0,-20
1.2,80,80,60,go_to_pick_up_from_blue,blue,TRUE,FALSE,joint 1 -,FALSE,40:25.3,21.931,0.203,229.3,65.13725281,304.730835,84.95825195,57.93440247,77.31999969,51,0,-20
1.2,80,80,60,go_to_pick_up_from_blue,blue,TRUE,FALSE,joint 1 -,FALSE,40:26.7,16.405,0.203,229.3,269.2200012,156.9213715,84.95825195,10.23679924,29.52559853,51,0,-20
1.2,80,80,60,moving_belt,blue,FALSE,TRUE,joint 1 -,FALSE,40:27.4,16.405,0.159,229.3,292.822052,106.5785141,84.95825195,0,20,51,0,-20
1.2,80,80,60,moving_belt,blue,FALSE,TRUE,joint 1 -,FALSE,40:28.1,16.367,0.159,229.3,292.822052,106.5785141,84.95825195,0,20,51,0,-20
1.2,80,80,60,moving_belt,blue,FALSE,TRUE,joint 1 -,FALSE,40:29.5,16.519,0.159,229.3,292.822052,106.5785141,84.95825195,0,20,51,0,-20
1.2,80,80,60,moving_belt,blue,FALSE,TRUE,joint 1 -,FALSE,40:30.2,16.12,0.159,229.3,292.822052,106.5785141,84.95825195,0,20,51,0,-20
1.2,80,80,60,moving_belt,blue,FALSE,TRUE,joint 1 -,FALSE,40:31.6,16.272,0.159,229.3,292.822052,106.5785141,84.95825195,0,20,51,0,-20
1.2,80,80,60,go_to_pick_down,blue,TRUE,FALSE,joint 3 +,FALSE,40:32.3,16.272,0.159,229.3,284.6630249,103.6088715,35.18568039,0,20,51,20.11426163,-20
1.2,80,80,60,go_to_pick_up_from_pick_down,blue,TRUE,FALSE,joint 3 -,TRUE,40:33.6,21.855,0.177,229.3,290.9578552,105.9000015,60.88926315,0,20,51,8.741999626,-20
1.2,80,80,60,go_to_color_detect_up,blue,TRUE,FALSE,joint 1 +,TRUE,40:34.3,21.855,0.177,229.3,274.3180847,147.8286438,84.95825195,8.320001602,28.98560143,51,0,-20
1.2,80,80,60,go_to_color_detect_up,blue,TRUE,FALSE,joint 1 +,TRUE,40:35.1,22.443,0.177,229.3,138.4105988,279.1885376,84.95825195,43.62961197,63.88183594,51,0,-20
1.2,80,80,60,go_to_color_detect_up,blue,TRUE,FALSE,joint 3 +,TRUE,40:36.5,22.064,0.208,229.3,129.249054,277.1754761,44.12397766,45,65,51,17.0496006,-20
1.2,80,80,60,go_to_color_detect_up,blue,TRUE,FALSE,joint 3 -,FALSE,40:37.2,22.064,0.208,229.3,111.1388397,238.3379974,-24.28404236,45,65,51,48,-20
1.2,80,80,60,go_to_color_detect_up,blue,TRUE,FALSE,joint 3 -,FALSE,40:38.6,19.994,0.208,229.3,128.1040344,274.7199707,35.7109375,45,65,51,18.58526802,-20
1.2,80,80,60,detecting_color,blue,FALSE,FALSE,detecting_color,FALSE,40:39.3,19.994,0.208,229.3,131.6940765,282.4188232,84.95825195,45,65,51,0,-20
1.2,80,80,60,detecting_color,blue,FALSE,FALSE,detecting_color,FALSE,40:40.7,16.481,0.161,229.3,131.6940765,282.4188232,84.95825195,45,65,51,0,-20
1.2,80,80,60,go_to_color_detect_down,blue,TRUE,FALSE,joint 3 +,FALSE,40:41.4,16.481,0.161,229.3,131.2975769,281.5685425,68.37651825,45,65,51,7.065600872,-20
1.2,80,80,60,go_to_color_detect_down,blue,TRUE,FALSE,joint 3 +,FALSE,40:42.1,16.5,0.16,229.3,113.7436295,243.9239807,-18.4022522,45,65,51,45.07830811,-20
1.2,80,80,60,go_to_color_detect_up,blue,TRUE,FALSE,joint 3 -,TRUE,40:43.5,16.5,0.16,229.3,122.8482895,263.4489746,9.356773376,45,65,51,30.0031929,-20
1.2,80,80,60,go_to_color_detect_up,blue,TRUE,FALSE,joint 3 -,TRUE,40:44.2,23.127,0.213,229.3,131.694046,282.4187927,84.80748749,45,65,51,0.017737228,-20
1.2,80,80,60,go_to_red_up,red,TRUE,FALSE,joint 1 +,TRUE,40:45.5,22.557,0.213,229.3,10.2402668,311.4464111,84.95825195,68.11680603,89.21760559,51,0,-20
1.2,80,80,60,go_to_pick_up_from_red,red,TRUE,FALSE,joint 1 -,FALSE,40:46.2,22.367,0.209,229.3,-178.7154541,255.273407,84.95825195,104.9956436,125,51,0,-20
1.2,80,80,60,go_to_pick_up_from_red,red,TRUE,FALSE,joint 1 -,FALSE,40:47.6,22.424,0.209,229.3,-46.08105469,308.1886902,84.95825195,78.50399017,97.32639313,51,0,-20
1.2,80,80,60,go_to_pick_up_from_red,red,TRUE,FALSE,joint 1 -,FALSE,40:48.3,16.462,0.161,229.3,242.1672668,196.109024,84.95825195,19.00083542,38.02723694,51,0,-20
1.2,80,80,60,moving_belt,red,FALSE,TRUE,joint 1 -,FALSE,40:49.7,16.576,0.161,229.3,292.822052,106.5785141,84.95825195,0,20,51,0,-20
1.2,80,80,60,moving_belt,red,FALSE,TRUE,joint 1 -,FALSE,40:50.4,16.557,0.161,229.3,292.822052,106.5785141,84.95825195,0,20,51,0,-20
1.2,80,80,60,moving_belt,red,FALSE,TRUE,joint 1 -,FALSE,40:51.1,16.557,0.161,229.3,292.822052,106.5785141,84.95825195,0,20,51,0,-20
1.2,80,80,60,moving_belt,red,FALSE,TRUE,joint 1 -,FALSE,40:52.5,16.101,0.161,229.3,292.822052,106.5785141,84.95825195,0,20,51,0,-20
1.2,80,80,60,moving_belt,red,FALSE,TRUE,joint 1 -,FALSE,40:53.5,16.367,0.158,229.3,292.822052,106.5785141,84.95825195,0,20,51,0,-20
1.2,80,80,60,go_to_pick_down,red,TRUE,FALSE,joint 3 +,FALSE,40:54.2,16.177,0.158,229.3,287.6495972,104.6959,45.10852814,0,20,51,16.28266335,-20
1.2,80,80,60,go_to_pick_up_from_pick_down,red,TRUE,FALSE,joint 3 -,TRUE,40:55.6,16.557,0.16,229.3,289.9975891,105.5504913,55.38371658,0,20,51,10.86399841,-20
1.2,80,80,60,go_to_color_detect_up,red,TRUE,FALSE,joint 1 +,TRUE,40:56.3,23.222,0.16,229.3,286.6896057,122.1179428,84.95825195,3.072002411,23.48160172,51,0,-20
1.2,80,80,60,go_to_color_detect_up,red,TRUE,FALSE,joint 1 +,TRUE,40:57.7,22.215,0.208,229.3,157.2212372,269.0449829,84.95825195,39.69935989,60.20758438,51,0,-20
1.2,80,80,60,go_to_color_detect_up,red,TRUE,FALSE,joint 3 +,TRUE,40:58.4,22.519,0.208,229.3,130.1747284,279.160614,52.64686584,45,65,51,13.51679993,-20
1.2,80,80,60,go_to_color_detect_up,red,TRUE,FALSE,joint 3 +,TRUE,40:59.1,22.102,0.206,229.3,111.523262,239.162384,-23.45814514,45,65,51,47.66455841,-20
1.2,80,80,60,go_to_color_detect_up,red,TRUE,FALSE,joint 3 -,FALSE,41:00.5,22.083,0.206,229.3,124.4059219,266.7893372,15.87346649,45,65,51,27.0079937,-20
1.2,80,80,60,detecting_color,red,FALSE,FALSE,detecting_color,FALSE,41:01.2,17.127,0.206,229.3,131.6940765,282.4188232,84.95825195,45,65,51,0,-20
1.2,80,80,60,detecting_color,red,FALSE,FALSE,detecting_color,FALSE,41:02.6,16.842,0.166,227.4,131.6940765,282.4188232,84.95825195,45,65,51,0,-20
1.2,80,80,60,detecting_color,red,FALSE,FALSE,detecting_color,FALSE,41:03.2,16.424,0.166,227.4,131.6940765,282.4188232,84.95825195,45,65,51,0,-20
1.2,80,80,60,detecting_color,red,FALSE,FALSE,detecting_color,FALSE,41:04.6,16.386,0.161,227.4,131.6940765,282.4188232,84.95825195,45,65,51,0,-20
1.2,80,80,60,go_to_color_detect_down,red,TRUE,FALSE,joint 3 +,FALSE,41:05.3,16.386,0.161,227.4,131.6940765,282.4188232,84.95825195,45,65,51,0.025600001,-20
1.2,80,80,60,go_to_color_detect_down,red,TRUE,FALSE,joint 3 +,FALSE,41:06.7,16.557,0.161,227.4,120.5789719,258.582428,1.049705505,45,65,51,35.61550522,-20
1.2,80,80,60,go_to_color_detect_up,red,TRUE,FALSE,joint 3 -,TRUE,41:07.4,16.538,0.161,227.4,112.7222672,241.7336731,-20.79039001,45,65,51,45.6703949,-20
1.2,80,80,60,go_to_color_detect_up,red,TRUE,FALSE,joint 3 -,TRUE,41:08.1,19.5,0.175,227.4,130.9754181,280.8776855,62.66365433,45,65,51,8.067939758,-20
1.2,80,80,60,go_to_green_up,green,TRUE,FALSE,joint 1 +,TRUE,41:09.4,23.184,0.175,227.4,89.44155884,298.5028381,84.95825195,53.31999969,73.98560333,51,0,-20
1.2,80,80,60,go_to_green_up,green,TRUE,FALSE,joint 1 +,TRUE,41:10.1,22.291,0.209,227.4,-78.55673218,301.550293,84.95825195,84.6015625,104.7310181,51,0,-20
1.2,80,80,60,go_to_pick_up_from_green,green,TRUE,FALSE,joint 1 -,FALSE,41:11.5,22.5,0.209,227.4,21.57221222,310.8671265,84.95825195,66.03039551,85.03199768,51,0,-20
1.2,80,80,60,go_to_pick_up_from_green,green,TRUE,FALSE,joint 1 -,FALSE,41:12.2,17.924,0.161,227.4,276.8682251,142.9954834,84.95825195,7.315214157,26.71601486,51,0,-20
1.2,80,80,60,moving_belt,green,FALSE,TRUE,joint 1 -,FALSE,41:13.6,16.709,0.161,227.4,292.822052,106.5785141,84.95825195,0,20,51,0,-20
1.2,80,80,60,moving_belt,green,FALSE,TRUE,joint 1 -,FALSE,41:14.3,16.405,0.16,227.4,292.822052,106.5785141,84.95825195,0,20,51,0,-20
1.2,80,80,60,moving_belt,green,FALSE,TRUE,joint 1 -,FALSE,41:15.6,16.272,0.16,227.4,292.822052,106.5785141,84.95825195,0,20,51,0,-20
1.2,80,80,60,moving_belt,green,FALSE,TRUE,joint 1 -,FALSE,41:16.3,16.272,0.161,227.4,292.822052,106.5785141,84.95825195,0,20,51,0,-20
1.2,80,80,60,go_to_pick_down,green,TRUE,FALSE,joint 3 +,FALSE,41:17.7,16.481,0.161,227.4,292.822052,106.5785141,84.95825195,0,20,51,0,-20
1.2,80,80,60,go_to_pick_down,green,TRUE,FALSE,joint 3 +,FALSE,41:18.4,16.481,0.161,227.4,283.3450928,103.1291809,31.44816208,0,20,51,21.51666069,-20
1.2,80,80,60,go_to_pick_up_from_pick_down,green,TRUE,FALSE,joint 3 -,TRUE,41:19.1,16.31,0.159,227.4,292.2558899,106.3724518,71.66285706,0,20,51,4.686668396,-20
1.2,80,80,60,go_to_color_detect_up,green,TRUE,FALSE,joint 1 +,TRUE,41:20.4,23.184,0.159,227.4,274.3180847,147.8286438,84.95825195,8.320001602,28.98560143,51,0,-20
1.2,80,80,60,go_to_color_detect_up,green,TRUE,FALSE,joint 1 +,TRUE,41:21.1,21.836,0.207,227.4,132.881012,281.8623047,84.95825195,44.75895691,64.85758209,51,0,-20
1.2,80,80,60,go_to_color_detect_up,green,TRUE,FALSE,joint 3 +,TRUE,41:22.5,22.14,0.207,227.4,127.5708771,273.5765991,32.29732513,45,65,51,22.04160118,-20
1.2,80,80,60,go_to_color_detect_up,green,TRUE,FALSE,joint 3 -,FALSE,41:23.2,21.722,0.206,227.4,111.1388397,238.3379974,-24.28404236,45,65,51,48,-20
1.2,80,80,60,go_to_color_detect_up,green,TRUE,FALSE,joint 3 -,FALSE,41:24.6,16.785,0.206,227.4,129.3544922,277.4015808,44.99677277,45,65,51,14.8883667,-20
1.2,80,80,60,detecting_color,green,FALSE,FALSE,detecting_color,FALSE,41:25.3,16.785,0.166,227.4,131.6940765,282.4188232,84.95825195,45,65,51,0,-20
1.2,80,80,60,detecting_color,green,FALSE,FALSE,detecting_color,FALSE,41:26.6,16.633,0.166,227.4,131.6940765,282.4188232,84.95825195,45,65,51,0,-20
1.2,80,80,60,go_to_color_detect_down,green,TRUE,FALSE,joint 3 +,FALSE,41:27.6,16.291,0.159,227.4,130.1747284,279.160614,52.64686584,45,65,51,13.51679993,-20
1.2,80,80,60,go_to_color_detect_down,green,TRUE,FALSE,joint 3 +,FALSE,41:28.3,16.348,0.159,227.4,111.6582413,239.4518585,-23.16481781,45,65,51,47.52113342,-20
1.2,80,80,60,go_to_color_detect_up,green,TRUE,FALSE,joint 3 -,TRUE,41:29.7,19.994,0.178,227.4,126.4186554,271.1056824,25.67842484,45,65,51,22.69176865,-20
1.2,80,80,60,go_to_blue_up,blue,TRUE,FALSE,joint 1 +,TRUE,41:30.4,22.956,0.178,227.4,131.3153992,282.5951233,84.95825195,45.07679749,65.15359497,51,0,-20
1.2,80,80,60,go_to_blue_up,blue,TRUE,FALSE,joint 1 +,TRUE,41:31.1,22.956,0.178,227.4,28.49154663,310.3094788,84.95825195,64.75400543,84.85388947,51,0,-20
1.2,80,80,60,go_to_pick_up_from_blue,blue,TRUE,FALSE,joint 1 -,FALSE,41:32.5,21.798,0.211,227.4,162.7996979,265.7065735,84.95825195,38.5039978,57.32639694,51,0,-20
1.2,80,80,60,go_to_pick_up_from_blue,blue,TRUE,FALSE,joint 1 -,FALSE,41:33.2,21.798,0.211,227.4,291.5411682,110.033989,84.95825195,0.677597046,20.5039978,51,0,-20
1.2,80,80,60,moving_belt,blue,FALSE,TRUE,joint 1 -,FALSE,41:34.5,16.443,0.161,229.3,292.822052,106.5785141,84.95825195,0,20,51,0,-20
1.2,80,80,60,moving_belt,blue,FALSE,TRUE,joint 1 -,FALSE,41:35.2,16.443,0.161,229.3,292.822052,106.5785141,84.95825195,0,20,51,0,-20
1.2,80,80,60,moving_belt,blue,FALSE,TRUE,joint 1 -,FALSE,41:36.6,16.025,0.157,229.3,292.822052,106.5785141,84.95825195,0,20,51,0,-20
1.2,80,80,60,moving_belt,blue,FALSE,TRUE,joint 1 -,FALSE,41:37.3,16.443,0.157,229.3,292.822052,106.5785141,84.95825195,0,20,51,0,-20
1.2,80,80,60,go_to_pick_down,blue,TRUE,FALSE,joint 3 +,FALSE,41:38.7,16.253,0.158,229.3,292.324585,106.3974533,72.49398804,0,20,51,5.375999928,-20
1.2,80,80,60,go_to_pick_up_from_pick_down,blue,TRUE,FALSE,joint 3 -,TRUE,41:39.4,16.253,0.158,229.3,283.2434998,103.0922089,31.17234039,0,20,51,21.28319931,-20
1.2,80,80,60,go_to_pick_up_from_pick_down,blue,TRUE,FALSE,joint 3 -,TRUE,41:40.7,22.918,0.205,229.3,292.8210449,106.5781479,84.39208984,0,20,51,0.12773858,-20
1.2,80,80,60,go_to_color_detect_up,blue,TRUE,FALSE,joint 1 +,TRUE,41:41.4,21.855,0.205,229.3,235.2071686,204.4048157,84.95825195,20.99200058,42.04159927,51,0,-20
1.2,80,80,60,go_to_color_detect_up,blue,TRUE,FALSE,joint 3 +,TRUE,41:42.1,21.855,0.205,229.3,131.689209,282.4084167,83.11925507,45,65,51,0.921600044,-20
1.2,80,80,60,go_to_color_detect_up,blue,TRUE,FALSE,joint 3 +,TRUE,41:43.5,21.703,0.206,229.3,120.0731888,257.4977722,-0.64616394,45,65,51,36.3989296,-20
1.2,80,80,60,go_to_color_detect_up,blue,TRUE,FALSE,joint 3 -,FALSE,41:44.2,21.855,0.206,229.3,114.9037552,246.4118805,-15.55041504,45,65,51,42.62399673,-20
1.2,80,80,60,go_to_color_detect_up,blue,TRUE,FALSE,joint 3 -,FALSE,41:45.6,17.165,0.203,229.3,131.4875641,281.9759827,72.98236084,45,65,51,4.196763515,-20
1.2,80,80,60,detecting_color,blue,FALSE,FALSE,detecting_color,FALSE,41:46.3,17.165,0.203,229.3,131.6940765,282.4188232,84.95825195,45,65,51,0,-20
1.2,80,80,60,go_to_color_detect_down,blue,TRUE,FALSE,joint 3 +,FALSE,41:47.6,16.367,0.159,229.3,131.6934509,282.417511,84.30145264,45,65,51,0.384000003,-20
1.2,80,80,60,go_to_color_detect_down,blue,TRUE,FALSE,joint 3 +,FALSE,41:48.3,16.367,0.159,229.3,121.6054764,260.783783,4.656272888,45,65,51,33.97185516,-20
1.2,80,80,60,go_to_color_detect_up,blue,TRUE,FALSE,joint 3 -,TRUE,41:49.7,16.348,0.157,229.3,112.0586395,240.3105164,-22.28440857,45,65,51,46.59199905,-20
1.2,80,80,60,go_to_color_detect_up,blue,TRUE,FALSE,joint 3 -,TRUE,41:50.4,19.671,0.157,229.3,131.2527008,281.4723206,67.46653748,45,65,51,6.255264282,-20
1.2,80,80,60,go_to_red_up,red,TRUE,FALSE,joint 1 +,TRUE,41:51.2,22.747,0.211,229.3,98.99643707,295.4715576,84.95825195,51.47679901,72.06559753,51,0,-20
1.2,80,80,60,go_to_red_up,red,TRUE,FALSE,joint 1 +,TRUE,41:52.5,22.083,0.211,229.3,-137.2223663,279.7744751,84.95825195,96.12680054,116.7879105,51,0,-20
1.2,80,80,60,go_to_pick_up_from_red,red,TRUE,FALSE,joint 1 -,FALSE,41:53.2,22.177,0.208,229.3,-139.9172211,278.4365234,84.95825195,96.68000031,116.0143967,51,0,-20
1.2,80,80,60,go_to_pick_up_from_red,red,TRUE,FALSE,joint 1 -,FALSE,41:54.6,20.943,0.208,229.3,141.8575439,277.4530029,84.95825195,42.92002106,61.64002228,51,0,-20
1.2,80,80,60,go_to_pick_up_from_red,red,TRUE,FALSE,joint 1 -,FALSE,41:55.3,16.253,0.159,229.3,290.09729,113.7861862,84.95825195,1.416830063,21.16003036,51,0,-20
1.2,80,80,60,moving_belt,red,FALSE,TRUE,joint 1 -,FALSE,41:56.7,16.234,0.159,229.3,292.822052,106.5785141,84.95825195,0,20,51,0,-20
1.2,80,80,60,moving_belt,red,FALSE,TRUE,joint 1 -,FALSE,41:57.4,16.348,0.157,229.3,292.822052,106.5785141,84.95825195,0,20,51,0,-20
1.2,80,80,60,moving_belt,red,FALSE,TRUE,joint 1 -,FALSE,41:58.1,16.348,0.157,229.3,292.822052,106.5785141,84.95825195,0,20,51,0,-20
1.2,80,80,60,moving_belt,red,FALSE,TRUE,joint 1 -,FALSE,41:59.5,16.405,0.156,229.3,292.822052,106.5785141,84.95825195,0,20,51,0,-20
1.2,80,80,60,go_to_pick_down,red,TRUE,FALSE,joint 3 +,FALSE,42:00.2,16.234,0.156,229.3,292.6235352,106.5062637,77.08039856,0,20,51,3.481599808,-20
1.2,80,80,60,go_to_pick_up_from_pick_down,red,TRUE,FALSE,joint 3 -,TRUE,42:01.6,16.329,0.156,229.3,282.8328552,102.9427414,30.07382584,0,20,51,21.84639931,-20
1.2,80,80,60,go_to_pick_up_from_pick_down,red,TRUE,FALSE,joint 3 -,TRUE,42:02.3,19.652,0.16,229.3,292.821991,106.5784912,84.80327606,0,20,51,0.018672422,-20
1.2,80,80,60,go_to_color_detect_up,red,TRUE,FALSE,joint 1 +,TRUE,42:03.6,22.614,0.16,229.3,223.5558319,217.0864258,84.95825195,24.15885162,45.17907715,51,0,-20
1.2,80,80,60,go_to_color_detect_up,red,TRUE,FALSE,joint 3 +,TRUE,42:04.3,22.234,0.207,229.3,131.6934509,282.417511,84.30145264,45,65,51,0.384000003,-20
1.2,80,80,60,go_to_color_detect_up,red,TRUE,FALSE,joint 3 +,TRUE,42:05.7,22.064,0.207,229.3,118.1240387,253.3178101,-6.743232727,45,65,51,39.2766304,-20
1.2,80,80,60,go_to_color_detect_up,red,TRUE,FALSE,joint 3 -,FALSE,42:06.4,22.064,0.206,229.3,114.1953659,244.892746,-17.3099823,45,65,51,43.62239838,-20
1.2,80,80,60,go_to_color_detect_up,red,TRUE,FALSE,joint 3 -,FALSE,42:07.1,21.627,0.206,229.3,131.3866577,281.759613,70.35253143,45,65,51,5.174813747,-20
1.2,80,80,60,detecting_color,red,FALSE,FALSE,detecting_color,FALSE,42:08.5,17.089,0.166,229.3,131.6940765,282.4188232,84.95825195,45,65,51,0,-20
1.2,80,80,60,detecting_color,red,FALSE,FALSE,detecting_color,FALSE,42:09.2,16.272,0.166,229.3,131.6940765,282.4188232,84.95825195,45,65,51,0,-20
1.2,80,80,60,detecting_color,red,FALSE,FALSE,detecting_color,FALSE,42:10.6,16.386,0.161,229.3,131.6940765,282.4188232,84.95825195,45,65,51,0,-20
1.2,80,80,60,detecting_color,red,FALSE,FALSE,detecting_color,FALSE,42:11.6,16.386,0.161,229.3,131.6940765,282.4188232,84.95825195,45,65,51,0,-20
1.2,80,80,60,go_to_color_detect_down,red,TRUE,FALSE,joint 3 +,FALSE,42:12.2,16.367,0.161,229.3,131.6427307,282.3087158,78.98299408,45,65,51,2.688000441,-20
1.2,80,80,60,go_to_color_detect_down,red,TRUE,FALSE,joint 3 +,FALSE,42:13.6,16.31,0.16,229.3,116.7657242,250.4048767,-10.63128662,45,65,51,41.16610718,-20
1.2,80,80,60,go_to_color_detect_up,red,TRUE,FALSE,joint 3 -,TRUE,42:14.3,16.462,0.16,229.3,115.281517,247.2220001,-14.58782959,45,65,51,42.08639526,-20
1.2,80,80,60,go_to_color_detect_up,red,TRUE,FALSE,joint 3 -,TRUE,42:15.7,23.07,0.17,229.3,131.6607513,282.3473511,80.14338684,45,65,51,1.579988241,-20
1.2,80,80,60,go_to_green_up,green,TRUE,FALSE,joint 1 +,TRUE,42:16.4,22.709,0.17,229.3,57.5271759,306.2586365,84.95825195,59.36160278,80.23200226,51,0,-20
1.2,80,80,60,go_to_pick_up_from_green,green,TRUE,FALSE,joint 1 -,FALSE,42:17.7,22.196,0.207,229.3,-80.65180969,300.9967041,84.95825195,85,105,51,0,-20
1.2,80,80,60,go_to_pick_up_from_green,green,TRUE,FALSE,joint 1 -,FALSE,42:18.4,22.196,0.207,229.3,107.6000137,292.4482422,84.95825195,49.79999542,68.51999664,51,0,-20
1.2,80,80,60,go_to_pick_up_from_green,green,TRUE,FALSE,joint 1 -,FALSE,42:19.1,16.443,0.161,229.3,286.3337402,122.9500885,84.95825195,3.238412857,22.84401321,51,0,-20
1.2,80,80,60,moving_belt,green,FALSE,TRUE,joint 1 -,FALSE,42:20.5,16.424,0.161,229.3,292.822052,106.5785141,84.95825195,0,20,51,0,-20
1.2,80,80,60,moving_belt,green,FALSE,TRUE,joint 1 -,FALSE,42:21.2,16.424,0.16,229.3,292.822052,106.5785141,84.95825195,0,20,51,0,-20
1.2,80,80,60,moving_belt,green,FALSE,TRUE,joint 1 -,FALSE,42:22.6,16.462,0.16,229.3,292.822052,106.5785141,84.95825195,0,20,51,0,-20
1.2,80,80,60,moving_belt,green,FALSE,TRUE,joint 1 -,FALSE,42:23.2,16.462,0.16,229.3,292.822052,106.5785141,84.95825195,0,20,51,0,-20
1.2,80,80,60,go_to_pick_down,green,TRUE,FALSE,joint 3 +,FALSE,42:24.7,16.386,0.159,229.3,292.7941589,106.5683594,82.00283813,0,20,51,1.407999992,-20
1.2,80,80,60,go_to_pick_up_from_pick_down,green,TRUE,FALSE,joint 3 -,TRUE,42:25.4,16.462,0.159,229.3,282.7804565,102.9236755,29.93550873,0,20,51,21.99745941,-20
1.2,80,80,60,go_to_pick_up_from_pick_down,green,TRUE,FALSE,joint 3 -,TRUE,42:26.1,17.582,0.161,229.3,292.6411438,106.5126724,77.43772125,0,20,51,2.558002949,-20
1.2,80,80,60,go_to_color_detect_up,green,TRUE,FALSE,joint 1 +,TRUE,42:27.5,22.918,0.161,229.3,248.7041473,187.7497864,84.95825195,17.04959869,37.99679947,51,0,-20
1.2,80,80,60,go_to_color_detect_up,green,TRUE,FALSE,joint 3 +,TRUE,42:28.2,22.31,0.208,229.3,131.6940765,282.4188232,84.95825195,45,65,51,0,-20
1.2,80,80,60,go_to_color_detect_up,green,TRUE,FALSE,joint 3 +,TRUE,42:29.5,22.196,0.208,229.3,125.2280655,268.5524597,19.65835571,45,65,51,27.41267776,-20
1.2,80,80,60,go_to_color_detect_up,green,TRUE,FALSE,joint 3 -,FALSE,42:30.2,22.064,0.206,229.3,112.0586395,240.3105164,-22.28440857,45,65,51,46.59199905,-20
1.2,80,80,60,go_to_color_detect_up,green,TRUE,FALSE,joint 3 -,FALSE,42:31.6,22.121,0.206,229.3,130.5848694,280.0401306,57.30422974,45,65,51,10.11101532,-20
1.2,80,80,60,detecting_color,green,FALSE,FALSE,detecting_color,FALSE,42:32.3,17.127,0.167,229.3,131.6940765,282.4188232,84.95825195,45,65,51,0,-20
1.2,80,80,60,detecting_color,green,FALSE,FALSE,detecting_color,FALSE,42:33.7,16.709,0.167,229.3,131.6940765,282.4188232,84.95825195,45,65,51,0,-20
1.2,80,80,60,go_to_color_detect_down,green,TRUE,FALSE,joint 3 +,FALSE,42:34.4,16.576,0.16,229.3,129.249054,277.1754761,44.12397766,45,65,51,17.0496006,-20
1.2,80,80,60,go_to_color_detect_up,green,TRUE,FALSE,joint 3 -,TRUE,42:35.1,16.576,0.16,229.3,111.1388397,238.3379974,-24.28404236,45,65,51,47.97439957,-20
1.2,80,80,60,go_to_color_detect_up,green,TRUE,FALSE,joint 3 -,TRUE,42:36.5,23.165,0.194,229.3,128.4542847,275.4710999,38.10705948,45,65,51,17.62264252,-20
1.2,80,80,60,go_to_blue_up,blue,TRUE,FALSE,joint 1 +,TRUE,42:37.2,23.165,0.194,229.3,127.1345139,284.5005188,84.95825195,45.92160034,66.15200043,51,0,-20
1.2,80,80,60,go_to_pick_up_from_blue,blue,TRUE,FALSE,joint 1 -,FALSE,42:38.6,22.215,0.208,229.3,27.99108505,310.355011,84.95825195,64.84640503,84.7440033,51,0,-20
1.2,80,80,60,go_to_pick_up_from_blue,blue,TRUE,FALSE,joint 1 -,FALSE,42:39.3,19.899,0.208,227.4,195.7434692,242.4628448,84.95825195,31.08559799,49.83679962,51,0,-20
1.2,80,80,60,moving_belt,blue,FALSE,TRUE,joint 1 -,FALSE,42:40.6,16.595,0.163,227.4,292.822052,106.5785141,84.95825195,0,20,51,0,-20
1.2,80,80,60,moving_belt,blue,FALSE,TRUE,joint 1 -,FALSE,42:41.3,16.595,0.163,227.4,292.822052,106.5785141,84.95825195,0,20,51,0,-20
1.2,80,80,60,moving_belt,blue,FALSE,TRUE,joint 1 -,FALSE,42:42.7,16.367,0.159,229.3,292.822052,106.5785141,84.95825195,0,20,51,0,-20
1.2,80,80,60,moving_belt,blue,FALSE,TRUE,joint 1 -,FALSE,42:43.4,16.272,0.159,229.3,292.822052,106.5785141,84.95825195,0,20,51,0,-20
1.2,80,80,60,moving_belt,blue,FALSE,TRUE,joint 1 -,FALSE,42:44.2,16.253,0.159,229.3,292.822052,106.5785141,84.95825195,0,20,51,0,-20
1.2,80,80,60,go_to_pick_down,blue,TRUE,FALSE,joint 3 +,FALSE,42:45.6,16.101,0.161,229.3,291.3682251,106.0493698,63.68711853,0,20,51,8.985599518,-20
1.2,80,80,60,go_to_pick_up_from_pick_down,blue,TRUE,FALSE,joint 3 -,TRUE,42:46.3,16.101,0.161,227.4,284.4888611,103.5454865,34.67358017,0,20,51,19.67039871,-20
1.2,80,80,60,go_to_color_detect_up,blue,TRUE,FALSE,joint 1 +,TRUE,42:47.7,23.127,0.216,227.4,292.342926,107.8857956,84.95825195,0.256000519,20.38400078,51,0,-20
1.2,80,80,60,go_to_color_detect_up,blue,TRUE,FALSE,joint 1 +,TRUE,42:48.4,22.064,0.216,227.4,190.0471039,246.9530945,84.95825195,32.41928101,53.20910645,51,0,-20
1.2,80,80,60,go_to_color_detect_up,blue,TRUE,FALSE,joint 3 +,TRUE,42:49.8,22.234,0.212,227.4,131.6257172,282.2722473,78.06435394,45,65,51,3.072000504,-20
1.2,80,80,60,go_to_color_detect_up,blue,TRUE,FALSE,joint 3 +,TRUE,42:50.4,21.931,0.212,227.4,114.4060364,245.3445129,-16.79278564,45,65,51,44.25385666,-20
1.2,80,80,60,go_to_color_detect_up,blue,TRUE,FALSE,joint 3 -,FALSE,42:51.2,22.007,0.212,227.4,117.8394699,252.70755,-7.580551147,45,65,51,38.32319641,-20
1.2,80,80,60,go_to_color_detect_up,blue,TRUE,FALSE,joint 3 -,FALSE,42:52.6,16.823,0.21,225.6,131.6919098,282.4141846,83.72968292,45,65,51,0.335437417,-20
1.2,80,80,60,detecting_color,blue,FALSE,FALSE,detecting_color,FALSE,42:53.2,16.823,0.21,225.6,131.6940765,282.4188232,84.95825195,45,65,51,0,-20
1.2,80,80,60,go_to_color_detect_down,blue,TRUE,FALSE,joint 3 +,FALSE,42:54.6,16.443,0.164,227.4,131.6753235,282.3786316,81.34619904,45,65,51,1.68960011,-20
1.2,80,80,60,go_to_color_detect_down,blue,TRUE,FALSE,joint 3 +,FALSE,42:55.3,16.443,0.164,227.4,118.5982819,254.3348236,-5.319351196,45,65,51,38.59560394,-20
1.2,80,80,60,go_to_color_detect_up,blue,TRUE,FALSE,joint 3 -,TRUE,42:56.7,16.538,0.162,227.4,113.8658066,244.1859894,-18.10907745,45,65,51,44.08319855,-20
1.2,80,80,60,go_to_color_detect_up,blue,TRUE,FALSE,joint 3 -,TRUE,42:57.4,20.45,0.162,227.4,131.5613403,282.1341858,75.35387421,45,65,51,3.321113586,-20
1.2,80,80,60,go_to_red_up,red,TRUE,FALSE,joint 1 +,TRUE,42:58.8,22.14,0.216,227.4,78.58219147,301.5436401,84.95825195,55.39360046,76.13600159,51,0,-20
1.2,80,80,60,go_to_red_up,red,TRUE,FALSE,joint 1 +,TRUE,42:59.5,22.14,0.216,227.4,-154.4369049,270.6528625,84.95825195,99.7094574,120.2169647,51,0,-20
1.2,80,80,60,go_to_pick_up_from_red,red,TRUE,FALSE,joint 1 -,FALSE,43:00.2,22.405,0.213,227.4,-118.2561951,288.3040161,84.95825195,92.30239868,111.4832001,51,0,-20
1.2,80,80,60,go_to_pick_up_from_red,red,TRUE,FALSE,joint 1 -,FALSE,43:01.5,21.323,0.213,227.4,177.6639099,256.0063782,84.95825195,35.24002838,53.9600296,51,0,-20
1.2,80,80,60,go_to_pick_up_from_red,red,TRUE,FALSE,joint 1 -,FALSE,43:02.2,16.462,0.163,227.4,292.822052,106.5785141,84.95825195,0,20,51,0,-20
1.2,80,80,60,moving_belt,red,FALSE,TRUE,joint 1 -,FALSE,43:03.6,16.481,0.163,227.4,292.822052,106.5785141,84.95825195,0,20,51,0,-20
1.2,80,80,60,moving_belt,red,FALSE,TRUE,joint 1 -,FALSE,43:04.3,16.443,0.162,227.4,292.822052,106.5785141,84.95825195,0,20,51,0,-20
1.2,80,80,60,moving_belt,red,FALSE,TRUE,joint 1 -,FALSE,43:05.6,16.196,0.162,227.4,292.822052,106.5785141,84.95825195,0,20,51,0,-20
1.2,80,80,60,moving_belt,red,FALSE,TRUE,joint 1 -,FALSE,43:06.3,16.196,0.159,227.4,292.822052,106.5785141,84.95825195,0,20,51,0,-20
1.2,80,80,60,go_to_pick_down,red,TRUE,FALSE,joint 3 +,FALSE,43:07.7,16.272,0.159,227.4,292.0869751,106.3109665,69.81304169,0,20,51,6.476799965,-20
1.2,80,80,60,go_to_pick_up_from_pick_down,red,TRUE,FALSE,joint 3 -,TRUE,43:08.4,16.025,0.159,227.4,285.0494385,103.7495193,36.34358215,0,20,51,18.92799759,-20
1.2,80,80,60,go_to_color_detect_up,red,TRUE,FALSE,joint 1 +,TRUE,43:09.8,19.367,0.16,227.4,292.7744141,106.7093353,84.95825195,0.025600433,20.0768013,51,0,-20
1.2,80,80,60,go_to_color_detect_up,red,TRUE,FALSE,joint 1 +,TRUE,43:10.5,22.31,0.16,227.4,200.7342072,238.3474731,84.95825195,29.89620209,50.76282883,51,0,-20
1.2,80,80,60,go_to_color_detect_up,red,TRUE,FALSE,joint 3 +,TRUE,43:11.2,22.007,0.207,227.4,131.579422,282.1729431,76.03123474,45,65,51,3.916800499,-20
1.2,80,80,60,go_to_color_detect_up,red,TRUE,FALSE,joint 3 +,TRUE,43:12.5,21.893,0.207,227.4,115.9217224,248.5949249,-12.91627502,45,65,51,42.2977562,-20
1.2,80,80,60,go_to_color_detect_up,red,TRUE,FALSE,joint 3 -,FALSE,43:13.2,21.779,0.206,227.4,118.3077316,253.7117462,-6.195968628,45,65,51,37.60639572,-20
1.2,80,80,60,go_to_color_detect_up,red,TRUE,FALSE,joint 3 -,FALSE,43:14.6,21.209,0.206,227.4,131.6704559,282.3681946,80.90509033,45,65,51,1.308563113,-20
1.2,80,80,60,detecting_color,red,FALSE,FALSE,detecting_color,FALSE,43:15.3,17.07,0.166,227.4,131.6940765,282.4188232,84.95825195,45,65,51,0,-20
1.2,80,80,60,detecting_color,red,FALSE,FALSE,detecting_color,FALSE,43:16.7,16.101,0.166,227.4,131.6940765,282.4188232,84.95825195,45,65,51,0,-20
1.2,80,80,60,detecting_color,red,FALSE,FALSE,detecting_color,FALSE,43:17.4,16.196,0.162,227.4,131.6940765,282.4188232,84.95825195,45,65,51,0,-20
1.2,80,80,60,go_to_color_detect_down,red,TRUE,FALSE,joint 3 +,FALSE,43:18.8,16.291,0.162,229.3,131.6427307,282.3087158,78.98299408,45,65,51,2.688000441,-20
1.2,80,80,60,go_to_color_detect_down,red,TRUE,FALSE,joint 3 +,FALSE,43:19.5,16.291,0.157,229.3,117.2069244,251.3510437,-9.397926331,45,65,51,40.56188202,-20
1.2,80,80,60,go_to_color_detect_up,red,TRUE,FALSE,joint 3 -,TRUE,43:20.2,16.253,0.157,229.3,117.3819046,251.7262878,-8.901130676,45,65,51,39.01439667,-20
1.2,80,80,60,go_to_color_detect_up,red,TRUE,FALSE,joint 3 -,TRUE,43:21.6,20.336,0.211,229.3,131.6607513,282.3473511,80.14338684,45,65,51,1.579988241,-20
1.2,80,80,60,go_to_green_up,green,TRUE,FALSE,joint 1 +,TRUE,43:22.3,22.785,0.211,229.3,62.03643417,305.3771667,84.95825195,58.51679993,79.36160278,51,0,-20
1.2,80,80,60,go_to_pick_up_from_green,green,TRUE,FALSE,joint 1 -,FALSE,43:23.2,21.798,0.211,229.3,-79.84461975,301.2118225,84.95825195,84.84640503,104.7440033,51,0,-20
1.2,80,80,60,go_to_pick_up_from_green,green,TRUE,FALSE,joint 1 -,FALSE,43:24.6,22.121,0.206,229.3,101.0403595,294.7788696,84.95825195,51.0799942,69.79999542,51,0,-20
1.2,80,80,60,go_to_pick_up_from_green,green,TRUE,FALSE,joint 1 -,FALSE,43:25.3,16.5,0.206,229.3,285.4247742,125.0457153,84.95825195,3.658412933,23.23841286,51,0,-20
1.2,80,80,60,moving_belt,green,FALSE,TRUE,joint 1 -,FALSE,43:26.7,16.424,0.158,229.3,292.822052,106.5785141,84.95825195,0,20,51,0,-20
1.2,80,80,60,moving_belt,green,FALSE,TRUE,joint 1 -,FALSE,43:27.4,16.538,0.158,229.3,292.822052,106.5785141,84.95825195,0,20,51,0,-20
1.2,80,80,60,moving_belt,green,FALSE,TRUE,joint 1 -,FALSE,43:28.7,16.31,0.158,229.3,292.822052,106.5785141,84.95825195,0,20,51,0,-20
1.2,80,80,60,moving_belt,green,FALSE,TRUE,joint 1 -,FALSE,43:29.4,16.31,0.158,229.3,292.822052,106.5785141,84.95825195,0,20,51,0,-20
1.2,80,80,60,go_to_pick_down,green,TRUE,FALSE,joint 3 +,FALSE,43:30.8,16.139,0.16,229.3,292.8041687,106.5720139,82.59386444,0,20,51,1.15199995,-20
1.2,80,80,60,go_to_pick_up_from_pick_down,green,TRUE,FALSE,joint 3 -,TRUE,43:31.5,16.139,0.16,229.3,282.8180847,102.9373703,30.03480911,0,20,51,21.98132706,-20
1.2,80,80,60,go_to_pick_up_from_pick_down,green,TRUE,FALSE,joint 3 -,TRUE,43:32.2,16.272,0.16,229.3,292.7979736,106.5697556,82.2148819,0,20,51,0.848404169,-20
1.2,80,80,60,go_to_color_detect_up,green,TRUE,FALSE,joint 1 +,TRUE,43:33.6,22.709,0.186,229.3,248.7041473,187.7497864,84.95825195,17.04959869,37.99679947,51,0,-20
1.2,80,80,60,go_to_color_detect_up,green,TRUE,FALSE,joint 3 +,TRUE,43:34.3,21.855,0.186,229.3,131.6940765,282.4188232,84.95825195,45,65,51,0,-20
1.2,80,80,60,go_to_color_detect_up,green,TRUE,FALSE,joint 3 +,TRUE,43:35.6,21.646,0.206,229.3,121.6054764,260.783783,4.656272888,45,65,51,33.97185516,-20
1.2,80,80,60,go_to_color_detect_up,green,TRUE,FALSE,joint 3 -,FALSE,43:36.3,21.646,0.206,229.3,112.2607269,240.7438965,-21.83411407,45,65,51,46.3103981,-20
1.2,80,80,60,go_to_color_detect_up,green,TRUE,FALSE,joint 3 -,FALSE,43:37.7,16.766,0.203,231.2,130.7292328,280.3497314,59.15151978,45,65,51,9.404390335,-20
1.2,80,80,60,detecting_color,green,FALSE,FALSE,detecting_color,FALSE,43:38.4,16.766,0.203,231.2,131.6940765,282.4188232,84.95825195,45,65,51,0,-20
1.2,80,80,60,go_to_color_detect_down,green,TRUE,FALSE,joint 3 +,FALSE,43:39.8,16.405,0.161,231.2,131.6940765,282.4188232,84.95825195,45,65,51,0,-20
1.2,80,80,60,go_to_color_detect_down,green,TRUE,FALSE,joint 3 +,FALSE,43:40.5,16.177,0.161,231.2,125.7313995,269.6318359,22.11756516,45,65,51,26.37325287,-20
1.2,80,80,60,go_to_color_detect_up,green,TRUE,FALSE,joint 3 -,TRUE,43:41.2,16.177,0.157,231.2,112.0586395,240.3105164,-22.28440857,45,65,51,46.59199905,-20
1.2,80,80,60,go_to_color_detect_up,green,TRUE,FALSE,joint 3 -,TRUE,43:42.5,22.975,0.157,229.3,130.5848694,280.0401306,57.30422974,45,65,51,10.11101532,-20
1.2,80,80,60,go_to_blue_up,blue,TRUE,FALSE,joint 1 +,TRUE,43:43.2,22.975,0.211,229.3,114.3002777,289.8951111,84.95825195,48.4815979,68.91680145,51,0,-20
1.2,80,80,60,go_to_pick_up_from_blue,blue,TRUE,FALSE,joint 1 -,FALSE,43:44.6,21.969,0.211,229.3,37.95894623,309.2941284,84.95825195,63.00320435,82.67040253,51,0,-20
1.2,80,80,60,go_to_pick_up_from_blue,blue,TRUE,FALSE,joint 1 -,FALSE,43:45.3,17.279,0.176,229.3,236.0045013,203.4837036,84.95825195,20.76799774,39.74959946,51,0,-20
1.2,80,80,60,moving_belt,blue,FALSE,TRUE,joint 1 -,FALSE,43:46.7,16.348,0.176,231.2,292.822052,106.5785141,84.95825195,0,20,51,0,-20
1.2,80,80,60,moving_belt,blue,FALSE,TRUE,joint 1 -,FALSE,43:47.3,16.348,0.159,231.2,292.822052,106.5785141,84.95825195,0,20,51,0,-20
1.2,80,80,60,moving_belt,blue,FALSE,TRUE,joint 1 -,FALSE,43:48.7,16.5,0.159,231.2,292.822052,106.5785141,84.95825195,0,20,51,0,-20
1.2,80,80,60,moving_belt,blue,FALSE,TRUE,joint 1 -,FALSE,43:49.4,16.272,0.159,231.2,292.822052,106.5785141,84.95825195,0,20,51,0,-20
1.2,80,80,60,moving_belt,blue,FALSE,TRUE,joint 1 -,FALSE,43:50.8,16.272,0.159,229.3,292.822052,106.5785141,84.95825195,0,20,51,0,-20
1.2,80,80,60,go_to_pick_down,blue,TRUE,FALSE,joint 3 +,FALSE,43:51.5,16.329,0.159,229.3,288.7687988,105.1032486,49.60953903,0,20,51,14.54466438,-20
1.2,80,80,60,go_to_pick_up_from_pick_down,blue,TRUE,FALSE,joint 3 -,TRUE,43:52.2,16.329,0.16,229.3,287.0484314,104.4770813,42.9030571,0,20,51,16.08639908,-20
1.2,80,80,60,go_to_color_detect_up,blue,TRUE,FALSE,joint 1 +,TRUE,43:53.6,22.918,0.16,229.3,287.5016174,120.1937943,84.95825195,2.688001633,23.07200241,51,0,-20
1.2,80,80,60,go_to_color_detect_up,blue,TRUE,FALSE,joint 1 +,TRUE,43:54.3,22.918,0.208,229.3,159.7210541,267.568512,84.95825195,39.16553497,59.69935989,51,0,-20
1.2,80,80,60,go_to_color_detect_up,blue,TRUE,FALSE,joint 3 +,TRUE,43:55.6,22.177,0.208,231.2,131.0402374,281.0166626,63.68711853,45,65,51,8.985600471,-20
1.2,80,80,60,go_to_color_detect_up,blue,TRUE,FALSE,joint 3 +,TRUE,43:56.3,21.855,0.205,231.2,111.6582413,239.4518585,-23.16481781,45,65,51,47.52113342,-20
1.2,80,80,60,go_to_color_detect_up,blue,TRUE,FALSE,joint 3 -,FALSE,43:57.7,22.064,0.205,229.3,123.888855,265.680481,13.62304688,45,65,51,28.03199387,-20
1.2,80,80,60,detecting_color,blue,FALSE,FALSE,detecting_color,FALSE,43:58.4,17.26,0.165,229.3,131.6940765,282.4188232,84.95231628,45,65,51,0,-20
1.2,80,80,60,detecting_color,blue,FALSE,FALSE,detecting_color,FALSE,43:59.8,16.614,0.165,229.3,131.6940765,282.4188232,84.95825195,45,65,51,0,-20
1.2,80,80,60,go_to_color_detect_down,blue,TRUE,FALSE,joint 3 +,FALSE,44:00.4,16.614,0.162,229.3,131.1368103,281.2237854,65.31313324,45,65,51,8.320000648,-20
1.2,80,80,60,go_to_color_detect_down,blue,TRUE,FALSE,joint 3 +,FALSE,44:01.8,16.462,0.162,229.3,111.8132172,239.7841949,-22.82589722,45,65,51,47.352108,-20
1.2,80,80,60,go_to_color_detect_up,blue,TRUE,FALSE,joint 3 -,TRUE,44:02.5,16.443,0.18,229.3,122.8482895,263.4489746,9.356773376,45,65,51,30.0031929,-20
1.2,80,80,60,go_to_red_up,red,TRUE,FALSE,joint 1 +,TRUE,44:03.2,23.07,0.18,229.3,131.694046,282.4187927,84.80748749,45,65,51,0.017737228,-20
1.2,80,80,60,go_to_red_up,red,TRUE,FALSE,joint 1 +,TRUE,44:04.6,22.481,0.207,229.3,-40.82820129,308.9284668,84.95825195,77.52861786,98.70172882,51,0,-20
1.2,80,80,60,go_to_pick_up_from_red,red,TRUE,FALSE,joint 1 -,FALSE,44:05.3,22.31,0.207,229.3,-178.7348633,255.2598114,84.95825195,105,125,51,0,-20
1.2,80,80,60,go_to_pick_up_from_red,red,TRUE,FALSE,joint 1 -,FALSE,44:06.6,16.747,0.207,229.3,-39.7375679,309.0706482,84.95825195,77.32639313,96.12319183,51,0,-20
1.2,80,80,60,go_to_pick_up_from_red,red,TRUE,FALSE,joint 1 -,FALSE,44:07.4,16.747,0.16,229.3,264.4691467,164.8022766,84.95825195,11.92883301,31.16003227,51,0,-20
1.2,80,80,60,moving_belt,red,FALSE,TRUE,joint 1 -,FALSE,44:08.7,16.519,0.16,229.3,292.822052,106.5785141,84.95825195,0,20,51,0,-20
1.2,80,80,60,moving_belt,red,FALSE,TRUE,joint 1 -,FALSE,44:09.4,16.481,0.161,229.3,292.822052,106.5785141,84.95825195,0,20,51,0,-20
1.2,80,80,60,moving_belt,red,FALSE,TRUE,joint 1 -,FALSE,44:10.8,16.196,0.161,229.3,292.822052,106.5785141,84.95825195,0,20,51,0,-20
1.2,80,80,60,moving_belt,red,FALSE,TRUE,joint 1 -,FALSE,44:11.5,16.196,0.159,229.3,292.822052,106.5785141,84.95825195,0,20,51,0,-20
1.2,80,80,60,moving_belt,red,FALSE,TRUE,joint 1 -,FALSE,44:12.2,16.367,0.159,229.3,292.822052,106.5785141,84.95825195,0,20,51,0,-20
1.2,80,80,60,go_to_pick_down,red,TRUE,FALSE,joint 3 +,FALSE,44:13.5,16.272,0.159,229.3,285.5552063,103.9335938,37.90754318,0,20,51,19.06746292,-20
1.2,80,80,60,go_to_pick_up_from_pick_down,red,TRUE,FALSE,joint 3 -,TRUE,44:14.2,16.405,0.159,229.3,290.3463135,105.6774216,57.25192642,0,20,51,10.13106537,-20
1.2,80,80,60,go_to_color_detect_up,red,TRUE,FALSE,joint 1 +,TRUE,44:15.6,23.241,0.213,229.3,285.8092957,124.1643219,84.95825195,3.481601715,23.91680145,51,0,-20
1.2,80,80,60,go_to_color_detect_up,red,TRUE,FALSE,joint 1 +,TRUE,44:16.3,22.386,0.213,229.3,142.8284912,276.9544067,84.95825195,42.71933746,63.04836273,51,0,-20
1.2,80,80,60,go_to_color_detect_up,red,TRUE,FALSE,joint 3 +,TRUE,44:17.7,22.557,0.209,229.3,130.1747284,279.160614,52.64686584,45,65,51,13.51679993,-20
1.2,80,80,60,go_to_color_detect_up,red,TRUE,FALSE,joint 3 +,TRUE,44:18.4,22.196,0.209,229.3,111.1531448,238.3686829,-24.25357056,45,65,51,47.99768066,-20
1.2,80,80,60,go_to_color_detect_up,red,TRUE,FALSE,joint 3 -,FALSE,44:19.8,17.696,0.163,229.3,126.8852005,272.1061707,28.24954224,45,65,51,21.62674332,-20
1.2,80,80,60,detecting_color,red,FALSE,FALSE,detecting_color,FALSE,44:20.5,17.696,0.163,229.3,131.6940765,282.4188232,84.95825195,45,65,51,0,-20
1.2,80,80,60,detecting_color,red,FALSE,FALSE,detecting_color,FALSE,44:21.2,16.956,0.163,229.3,131.6940765,282.4188232,84.95825195,45,65,51,0,-20
1.2,80,80,60,go_to_color_detect_down,red,TRUE,FALSE,joint 3 +,FALSE,44:22.6,16.538,0.16,229.3,131.6815186,282.3919373,82.00283813,45,65,51,1.408000112,-20
1.2,80,80,60,go_to_color_detect_down,red,TRUE,FALSE,joint 3 +,FALSE,44:23.3,16.443,0.16,229.3,119.0818558,255.3718414,-3.829421997,45,65,51,37.88897705,-20
1.2,80,80,60,go_to_color_detect_up,red,TRUE,FALSE,joint 3 -,TRUE,44:24.7,16.557,0.162,229.3,116.0813141,248.9371643,-12.49146271,45,65,51,40.93439484,-20
1.2,80,80,60,go_to_color_detect_up,red,TRUE,FALSE,joint 3 -,TRUE,44:25.4,23.241,0.162,229.3,131.5897369,282.1950684,76.44226074,45,65,51,2.921688557,-20
1.2,80,80,60,go_to_green_up,green,TRUE,FALSE,joint 1 +,TRUE,44:26.9,22.728,0.213,229.3,78.58219147,301.5436401,84.95825195,55.39360046,76.13600159,51,0,-20
1.2,80,80,60,go_to_pick_up_from_green,green,TRUE,FALSE,joint 1 -,FALSE,44:26.9,22.728,0.213,229.3,-80.65180969,300.9967041,84.95825195,85,105,51,0,-20
1.2,80,80,60,go_to_pick_up_from_green,green,TRUE,FALSE,joint 1 -,FALSE,44:28.8,22.253,0.193,229.3,81.20645905,300.8475647,84.95825195,54.89439392,73.63999176,51,0,-20
1.2,80,80,60,go_to_pick_up_from_green,green,TRUE,FALSE,joint 1 -,FALSE,44:29.5,16.576,0.193,229.3,282.2531128,132.0489349,84.95825195,5.072013855,24.57521439,51,0,-20
1.2,80,80,60,moving_belt,green,FALSE,TRUE,joint 1 -,FALSE,44:30.2,16.576,0.193,229.3,292.822052,106.5785141,84.95825195,0,20,51,0,-20
1.2,80,80,60,moving_belt,green,FALSE,TRUE,joint 1 -,FALSE,44:31.6,16.481,0.162,231.2,292.822052,106.5785141,84.95825195,0,20,51,0,-20
1.2,80,80,60,moving_belt,green,FALSE,TRUE,joint 1 -,FALSE,44:32.3,16.272,0.162,231.2,292.822052,106.5785141,84.95825195,0,20,51,0,-20
1.2,80,80,60,moving_belt,green,FALSE,TRUE,joint 1 -,FALSE,44:33.6,16.405,0.16,229.3,292.822052,106.5785141,84.95825195,0,20,51,0,-20
1.2,80,80,60,go_to_pick_down,green,TRUE,FALSE,joint 3 +,FALSE,44:34.3,16.215,0.16,229.3,292.815979,106.5763016,83.57898712,0,20,51,0.716799974,-20
1.2,80,80,60,go_to_pick_down,green,TRUE,FALSE,joint 3 +,FALSE,44:35.7,16.329,0.159,229.3,282.9619446,102.9897308,30.4164238,0,20,51,21.87226105,-20
1.2,80,80,60,go_to_pick_up_from_pick_down,green,TRUE,FALSE,joint 3 -,TRUE,44:36.4,16.329,0.159,229.3,292.7472534,106.5512924,80.12101746,0,20,51,1.588003516,-20
1.2,80,80,60,go_to_color_detect_up,green,TRUE,FALSE,joint 1 +,TRUE,44:37.8,22.291,0.212,227.4,257.2354126,175.8796844,84.95825195,14.36159897,35.23199844,51,0,-20
1.2,80,80,60,go_to_color_detect_up,green,TRUE,FALSE,joint 3 +,TRUE,44:38.5,22.14,0.212,227.4,131.8023071,282.3683472,84.95825195,44.97803497,64.99986267,51,0,-20
1.2,80,80,60,go_to_color_detect_up,green,TRUE,FALSE,joint 3 +,TRUE,44:39.8,21.931,0.213,227.4,123.1651764,264.12854,10.62140656,45,65,51,31.31437874,-20
1.2,80,80,60,go_to_color_detect_up,green,TRUE,FALSE,joint 3 -,FALSE,44:40.5,21.893,0.213,227.4,111.8760529,239.9189453,-22.68782043,45,65,51,46.84799957,-20
1.2,80,80,60,go_to_color_detect_up,green,TRUE,FALSE,joint 3 -,FALSE,44:41.2,19.538,0.192,227.4,130.4249573,279.6972046,55.39711761,45,65,51,10.84324074,-20
1.2,80,80,60,detecting_color,green,FALSE,FALSE,detecting_color,FALSE,44:42.6,17.051,0.192,227.4,131.6940765,282.4188232,84.95825195,45,65,51,0,-20
1.2,80,80,60,detecting_color,green,FALSE,FALSE,detecting_color,FALSE,44:43.3,17.051,0.161,227.4,131.6940765,282.4188232,84.95825195,45,65,51,0,-20
1.2,80,80,60,go_to_color_detect_down,green,TRUE,FALSE,joint 3 +,FALSE,44:44.7,16.31,0.161,227.4,131.1368103,281.2237854,65.31313324,45,65,51,8.320000648,-20
1.2,80,80,60,go_to_color_detect_down,green,TRUE,FALSE,joint 3 +,FALSE,44:45.4,16.386,0.161,227.4,113.1500931,242.6511536,-19.80345154,45,65,51,45.80035782,-20
1.2,80,80,60,go_to_color_detect_up,green,TRUE,FALSE,joint 3 -,TRUE,44:46.7,16.215,0.16,227.4,119.7680283,256.8433533,-1.645309448,45,65,51,35.30239105,-20
1.2,80,80,60,go_to_color_detect_up,green,TRUE,FALSE,joint 3 -,TRUE,44:47.4,22.88,0.215,227.4,131.694046,282.4187927,84.80748749,45,65,51,0.017737228,-20
1.2,80,80,60,go_to_blue_up,blue,TRUE,FALSE,joint 1 +,TRUE,44:48.8,21.988,0.215,227.4,37.79626465,309.3140564,84.95825195,63.03334045,83.33802032,51,0,-20
1.2,80,80,60,go_to_pick_up_from_blue,blue,TRUE,FALSE,joint 1 -,FALSE,44:49.5,21.988,0.215,227.4,103.3092651,293.9913635,84.95825195,50.63839722,69.76799774,51,0,-20
1.2,80,80,60,go_to_pick_up_from_blue,blue,TRUE,FALSE,joint 1 -,FALSE,44:50.9,17.07,0.186,227.4,288.3980408,118.0267029,84.95825195,2.256797791,21.92959785,51,0,-20
1.2,80,80,60,moving_belt,blue,FALSE,TRUE,joint 1 -,FALSE,44:51.5,16.405,0.186,227.4,292.822052,106.5785141,84.95825195,0,20,51,0,-20
1.2,80,80,60,moving_belt,blue,FALSE,TRUE,joint 1 -,FALSE,44:52.2,16.405,0.162,227.4,292.822052,106.5785141,84.95825195,0,20,51,0,-20
1.2,80,80,60,moving_belt,blue,FALSE,TRUE,joint 1 -,FALSE,44:53.6,16.424,0.162,227.4,292.822052,106.5785141,84.95825195,0,20,51,0,-20
1.2,80,80,60,moving_belt,blue,FALSE,TRUE,joint 1 -,FALSE,44:54.3,16.424,0.158,227.4,292.822052,106.5785141,84.95825195,0,20,51,0,-20
1.2,80,80,60,go_to_pick_down,blue,TRUE,FALSE,joint 3 +,FALSE,44:55.7,16.405,0.158,229.3,292.8041687,106.5720139,82.59386444,0,20,51,1.15199995,-20
1.2,80,80,60,go_to_pick_up_from_pick_down,blue,TRUE,FALSE,joint 3 -,TRUE,44:56.4,16.272,0.159,229.3,282.7636108,102.9175491,29.89107895,0,20,51,22,-20
1.2,80,80,60,go_to_pick_up_from_pick_down,blue,TRUE,FALSE,joint 3 -,TRUE,44:57.7,17.696,0.159,227.4,292.785614,106.5652542,81.58250427,0,20,51,1.069337249,-20
1.2,80,80,60,go_to_color_detect_up,blue,TRUE,FALSE,joint 1 +,TRUE,44:58.4,22.348,0.208,227.4,254.5340118,179.766983,84.95825195,15.23199844,36.12799835,51,0,-20
1.2,80,80,60,go_to_color_detect_up,blue,TRUE,FALSE,joint 3 +,TRUE,44:59.8,21.665,0.208,227.4,131.6940155,282.4187317,84.76120758,45,65,51,0.153600007,-20
1.2,80,80,60,go_to_color_detect_up,blue,TRUE,FALSE,joint 3 +,TRUE,45:00.5,21.665,0.204,227.4,122.6442413,263.0114136,8.557418823,45,65,51,32.22580338,-20
1.2,80,80,60,go_to_color_detect_up,blue,TRUE,FALSE,joint 3 -,FALSE,45:01.9,21.513,0.204,227.4,112.0586395,240.3105164,-22.28440857,45,65,51,46.59199905,-20
1.2,80,80,60,go_to_color_detect_up,blue,TRUE,FALSE,joint 3 -,FALSE,45:02.6,21.513,0.16,227.4,131.2527008,281.4723206,67.46653748,45,65,51,6.255264282,-20
1.2,80,80,60,detecting_color,blue,FALSE,FALSE,detecting_color,FALSE,45:03.3,16.842,0.16,227.4,131.6940765,282.4188232,84.95825195,45,65,51,0,-20
1.2,80,80,60,detecting_color,blue,FALSE,FALSE,detecting_color,FALSE,45:04.6,15.987,0.16,227.4,131.6940765,282.4188232,84.95825195,45,65,51,0,-20
1.2,80,80,60,go_to_color_detect_down,blue,TRUE,FALSE,joint 3 +,FALSE,45:05.3,15.987,0.155,227.4,127.5708771,273.5765991,32.29732513,45,65,51,22.04160118,-20
1.2,80,80,60,go_to_color_detect_up,blue,TRUE,FALSE,joint 3 -,TRUE,45:06.7,16.025,0.155,227.4,111.1388397,238.3379974,-24.28404236,45,65,51,48,-20
1.2,80,80,60,go_to_color_detect_up,blue,TRUE,FALSE,joint 3 -,TRUE,45:07.4,16.025,0.156,227.4,129.3544922,277.4015808,44.99677277,45,65,51,14.8883667,-20
1.2,80,80,60,go_to_red_up,red,TRUE,FALSE,joint 1 +,TRUE,45:08.8,22.367,0.156,227.4,125.9894638,285.0094604,84.95825195,46.15200043,66.40799713,51,0,-20
1.2,80,80,60,go_to_red_up,red,TRUE,FALSE,joint 1 +,TRUE,45:09.5,22.367,0.203,227.4,-81.71663666,300.7093811,84.95825195,85.20278168,106.1966934,51,0,-20
1.2,80,80,60,go_to_pick_up_from_red,red,TRUE,FALSE,joint 1 -,FALSE,45:10.9,21.893,0.203,229.3,-169.7321777,261.3325806,84.95825195,103.0032043,122.6704025,51,0,-20
1.2,80,80,60,go_to_pick_up_from_red,red,TRUE,FALSE,joint 1 -,FALSE,45:11.6,16.044,0.181,229.3,49.60652161,307.6408997,84.95825195,60.84000397,79.56000519,51,0,-20
1.2,80,80,60,go_to_pick_up_from_red,red,TRUE,FALSE,joint 1 -,FALSE,45:12.3,16.044,0.181,229.3,275.9015808,144.8517761,84.95825195,7.700031281,27.08483124,51,0,-20
1.2,80,80,60,moving_belt,red,FALSE,TRUE,joint 1 -,FALSE,45:13.6,16.253,0.155,229.3,292.822052,106.5785141,84.95825195,0,20,51,0,-20
1.2,80,80,60,moving_belt,red,FALSE,TRUE,joint 1 -,FALSE,45:14.3,16.462,0.155,229.3,292.822052,106.5785141,84.95825195,0,20,51,0,-20
1.2,80,80,60,moving_belt,red,FALSE,TRUE,joint 1 -,FALSE,45:15.7,16.405,0.158,229.3,292.822052,106.5785141,84.95825195,0,20,51,0,-20
1.2,80,80,60,moving_belt,red,FALSE,TRUE,joint 1 -,FALSE,45:16.4,16.405,0.158,229.3,292.822052,106.5785141,84.95825195,0,20,51,0,-20
1.2,80,80,60,go_to_pick_down,red,TRUE,FALSE,joint 3 +,FALSE,45:17.8,16.158,0.159,229.3,292.8219299,106.5784683,84.76120758,0,20,51,0.153599992,-20
1.2,80,80,60,go_to_pick_down,red,TRUE,FALSE,joint 3 +,FALSE,45:18.5,16.367,0.159,229.3,282.8786621,102.9594116,30.19508362,0,20,51,21.93959427,-20
1.2,80,80,60,go_to_pick_up_from_pick_down,red,TRUE,FALSE,joint 3 -,TRUE,45:19.9,16.234,0.211,229.3,292.5884399,106.4934845,76.41265869,0,20,51,2.932536125,-20
1.2,80,80,60,go_to_color_detect_up,red,TRUE,FALSE,joint 1 +,TRUE,45:20.6,22.975,0.211,229.3,268.7895508,157.6575623,84.95825195,10.39360237,31.13600159,51,0,-20
1.2,80,80,60,go_to_color_detect_up,red,TRUE,FALSE,joint 1 +,TRUE,45:21.2,21.988,0.211,229.3,135.0880432,280.8112183,84.95825195,44.30948639,64.48490906,51,0,-20
1.2,80,80,60,go_to_color_detect_up,red,TRUE,FALSE,joint 3 +,TRUE,45:22.6,22.121,0.203,229.3,125.7313995,269.6318359,22.11756516,45,65,51,26.37325287,-20
1.2,80,80,60,go_to_color_detect_up,red,TRUE,FALSE,joint 3 -,FALSE,45:23.3,21.741,0.203,229.3,111.2624588,238.6031036,-24.0199585,45,65,51,47.74399567,-20
1.2,80,80,60,go_to_color_detect_up,red,TRUE,FALSE,joint 3 -,FALSE,45:24.7,21.779,0.202,229.3,129.3544922,277.4015808,44.99677277,45,65,51,14.8883667,-20
1.2,80,80,60,detecting_color,red,FALSE,FALSE,detecting_color,FALSE,45:25.4,16.766,0.202,229.3,131.6940765,282.4188232,84.95825195,45,65,51,0,-20
1.2,80,80,60,detecting_color,red,FALSE,FALSE,detecting_color,FALSE,45:26.8,16.576,0.156,229.3,131.6940765,282.4188232,84.95825195,45,65,51,0,-20
1.2,80,80,60,go_to_color_detect_down,red,TRUE,FALSE,joint 3 +,FALSE,45:27.5,16.272,0.156,229.3,131.6940765,282.4188232,84.95825195,45,65,51,0,-20
1.2,80,80,60,go_to_color_detect_down,red,TRUE,FALSE,joint 3 +,FALSE,45:28.9,16.348,0.156,229.3,125.7313995,269.6318359,22.11756516,45,65,51,26.37325287,-20
1.2,80,80,60,go_to_color_detect_up,red,TRUE,FALSE,joint 3 -,TRUE,45:29.5,16.348,0.156,229.3,111.2624588,238.6031036,-24.0199585,45,65,51,47.74399567,-20
1.2,80,80,60,go_to_color_detect_up,red,TRUE,FALSE,joint 3 -,TRUE,45:30.2,16.253,0.156,229.3,130.5848694,280.0401306,57.30422974,45,65,51,10.11101532,-20
1.2,80,80,60,go_to_green_up,green,TRUE,FALSE,joint 1 +,TRUE,45:31.6,22.5,0.211,229.3,116.3697586,289.0706177,84.95825195,48.0719986,68.4815979,51,0,-20
1.2,80,80,60,go_to_green_up,green,TRUE,FALSE,joint 1 +,TRUE,45:32.3,22.5,0.211,229.3,-64.25081635,304.9189453,84.95825195,81.89897919,102.2844391,51,0,-20
1.2,80,80,60,go_to_pick_up_from_green,green,TRUE,FALSE,joint 1 -,FALSE,45:33.7,21.969,0.203,229.3,1.261767507,311.6121521,84.95825195,69.76799774,88.87199402,51,0,-20
1.2,80,80,60,go_to_pick_up_from_green,green,TRUE,FALSE,joint 1 -,FALSE,45:34.4,21.969,0.203,229.3,258.7652588,173.621048,84.95825195,13.86001587,33.03041458,51,0,-20
1.2,80,80,60,moving_belt,green,FALSE,TRUE,joint 1 -,FALSE,45:35.8,16.329,0.157,229.3,292.822052,106.5785141,84.95825195,0,20,51,0,-20
1.2,80,80,60,moving_belt,green,FALSE,TRUE,joint 1 -,FALSE,45:36.5,16.329,0.157,229.3,292.822052,106.5785141,84.95825195,0,20,51,0,-20
1.2,80,80,60,moving_belt,green,FALSE,TRUE,joint 1 -,FALSE,45:37.9,16.348,0.158,229.3,292.822052,106.5785141,84.95825195,0,20,51,0,-20
1.2,80,80,60,moving_belt,green,FALSE,TRUE,joint 1 -,FALSE,45:38.6,16.158,0.158,229.3,292.822052,106.5785141,84.95825195,0,20,51,0,-20
1.2,80,80,60,moving_belt,green,FALSE,TRUE,joint 1 -,FALSE,45:39.4,16.158,0.156,229.3,292.822052,106.5785141,84.95825195,0,20,51,0,-20
1.2,80,80,60,go_to_pick_down,green,TRUE,FALSE,joint 3 +,FALSE,45:40.8,16.367,0.156,229.3,285.5552063,103.9335938,37.90754318,0,20,51,19.06746292,-20
1.2,80,80,60,go_to_pick_up_from_pick_down,green,TRUE,FALSE,joint 3 -,TRUE,45:41.5,16.367,0.158,229.3,289.9975891,105.5504913,55.38371658,0,20,51,10.86399841,-20
1.2,80,80,60,go_to_color_detect_up,green,TRUE,FALSE,joint 1 +,TRUE,45:42.9,22.462,0.158,229.3,280.2831116,136.1804199,84.95825195,5.913600922,26.47680092,51,0,-20
1.2,80,80,60,go_to_color_detect_up,green,TRUE,FALSE,joint 1 +,TRUE,45:43.6,22.329,0.206,229.3,144.5399017,276.0651245,84.95825195,42.36471176,62.71933746,51,0,-20
1.2,80,80,60,go_to_color_detect_up,green,TRUE,FALSE,joint 3 +,TRUE,45:44.3,22.329,0.206,229.3,130.3580475,279.5537415,54.63619232,45,65,51,12.69760036,-20
1.2,80,80,60,go_to_color_detect_up,green,TRUE,FALSE,joint 3 +,TRUE,45:45.6,21.969,0.204,229.3,111.1861877,238.4395294,-24.18309021,45,65,51,47.98225403,-20
1.2,80,80,60,go_to_color_detect_up,green,TRUE,FALSE,joint 3 -,FALSE,45:46.3,21.304,0.204,229.3,125.926857,270.0509949,23.10510254,45,65,51,23.78239441,-20
1.2,80,80,60,detecting_color,green,FALSE,FALSE,detecting_color,FALSE,45:47.7,17.184,0.164,229.3,131.6940765,282.4188232,84.95825195,45,65,51,0,-20
1.2,80,80,60,detecting_color,green,FALSE,FALSE,detecting_color,FALSE,45:48.4,17.184,0.164,229.3,131.6940765,282.4188232,84.95825195,45,65,51,0,-20
1.2,80,80,60,go_to_color_detect_down,green,TRUE,FALSE,joint 3 +,FALSE,45:49.8,16.557,0.164,229.3,130.5243683,279.9104004,56.56689072,45,65,51,11.90400028,-20
1.2,80,80,60,go_to_color_detect_down,green,TRUE,FALSE,joint 3 +,FALSE,45:50.5,16.481,0.161,229.3,111.9879837,240.1589966,-22.44089508,45,65,51,47.15748215,-20
1.2,80,80,60,go_to_color_detect_up,green,TRUE,FALSE,joint 3 -,TRUE,45:51.8,16.576,0.22,229.3,125.926857,270.0509949,23.10510254,45,65,51,23.78239441,-20
1.2,80,80,60,go_to_blue_up,blue,TRUE,FALSE,joint 1 +,TRUE,45:52.5,23.203,0.22,229.3,131.5678711,282.4776611,84.95825195,45.02559662,65.07679749,51,0,-20
1.2,80,80,60,go_to_blue_up,blue,TRUE,FALSE,joint 1 +,TRUE,45:53.9,22.348,0.22,229.3,30.94540405,310.0743713,84.95825195,64.30075836,84.47743988,51,0,-20
1.2,80,80,60,go_to_pick_up_from_blue,blue,TRUE,FALSE,joint 1 -,FALSE,45:54.6,22.348,0.205,229.3,152.1077881,271.9686584,84.95825195,40.78239822,59.65599823,51,0,-20
1.2,80,80,60,go_to_pick_up_from_blue,blue,TRUE,FALSE,joint 1 -,FALSE,45:55.3,16.633,0.205,231.2,290.7189331,112.1884155,84.95825195,1.101596832,20.87679672,51,0,-20
1.2,80,80,60,moving_belt,blue,FALSE,TRUE,joint 1 -,FALSE,45:56.6,16.576,0.158,231.2,292.822052,106.5785141,84.95825195,0,20,51,0,-20
1.2,80,80,60,moving_belt,blue,FALSE,TRUE,joint 1 -,FALSE,45:57.3,16.576,0.158,229.3,292.822052,106.5785141,84.95825195,0,20,51,0,-20
1.2,80,80,60,moving_belt,blue,FALSE,TRUE,joint 1 -,FALSE,45:58.7,16.253,0.154,229.3,292.822052,106.5785141,84.95825195,0,20,51,0,-20
1.2,80,80,60,moving_belt,blue,FALSE,TRUE,joint 1 -,FALSE,45:59.4,16.253,0.154,231.2,292.822052,106.5785141,84.95825195,0,20,51,0,-20
1.2,80,80,60,go_to_pick_down,blue,TRUE,FALSE,joint 3 +,FALSE,46:00.8,16.5,0.155,231.2,292.6235352,106.5062637,77.08039856,0,20,51,3.481599808,-20
1.2,80,80,60,go_to_pick_up_from_pick_down,blue,TRUE,FALSE,joint 3 -,TRUE,46:01.5,16.291,0.155,231.2,282.8328552,102.9427414,30.07382584,0,20,51,21.84639931,-20
1.2,80,80,60,go_to_pick_up_from_pick_down,blue,TRUE,FALSE,joint 3 -,TRUE,46:02.8,19.063,0.212,231.2,292.821991,106.5784912,84.80327606,0,20,51,0.018672422,-20
1.2,80,80,60,go_to_color_detect_up,blue,TRUE,FALSE,joint 1 +,TRUE,46:03.5,22.595,0.212,229.3,223.5558319,217.0864258,84.95825195,24.15885162,45.17907715,51,0,-20
1.2,80,80,60,go_to_color_detect_up,blue,TRUE,FALSE,joint 3 +,TRUE,46:04.9,22.14,0.204,229.3,131.6815186,282.3919373,82.00283813,45,65,51,1.408000112,-20
1.2,80,80,60,go_to_color_detect_up,blue,TRUE,FALSE,joint 3 +,TRUE,46:05.6,22.14,0.204,229.3,119.0818558,255.3718414,-3.829421997,45,65,51,37.88897705,-20
1.2,80,80,60,go_to_color_detect_up,blue,TRUE,FALSE,joint 3 -,FALSE,46:06.3,22.045,0.204,229.3,113.5532761,243.5157776,-18.85574341,45,65,51,44.51839828,-20
1.2,80,80,60,go_to_color_detect_up,blue,TRUE,FALSE,joint 3 -,FALSE,46:07.7,21.969,0.195,229.3,131.5613403,282.1341858,75.35387421,45,65,51,3.321113586,-20
1.2,80,80,60,detecting_color,blue,FALSE,FALSE,detecting_color,FALSE,46:08.4,17.146,0.195,229.3,131.6940765,282.4188232,84.95825195,45,65,51,0,-20
1.2,80,80,60,go_to_color_detect_down,blue,TRUE,FALSE,joint 3 +,FALSE,46:09.7,16.538,0.16,229.3,131.6940765,282.4188232,84.95825195,45,65,51,0.025600001,-20
1.2,80,80,60,go_to_color_detect_down,blue,TRUE,FALSE,joint 3 +,FALSE,46:10.4,16.576,0.16,229.3,124.2035828,266.3554382,14.98168182,45,65,51,29.41472816,-20
1.2,80,80,60,go_to_color_detect_up,blue,TRUE,FALSE,joint 3 -,TRUE,46:11.8,16.5,0.16,229.3,111.4473343,238.9995575,-23.62236023,45,65,51,47.46239853,-20
1.2,80,80,60,go_to_color_detect_up,blue,TRUE,FALSE,joint 3 -,TRUE,46:12.5,16.5,0.16,229.3,130.8591003,280.6282349,60.93822479,45,65,51,8.72336483,-20
1.2,80,80,60,go_to_red_up,red,TRUE,FALSE,joint 1 +,TRUE,46:13.9,22.69,0.21,229.3,109.7530746,291.6470337,84.95825195,49.37760162,69.86399841,51,0,-20
1.2,80,80,60,go_to_red_up,red,TRUE,FALSE,joint 1 +,TRUE,46:14.6,22.14,0.21,229.3,-122.8898926,286.3595886,84.95825195,93.22636414,113.9898758,51,0,-20
1.2,80,80,60,go_to_pick_up_from_red,red,TRUE,FALSE,joint 1 -,FALSE,46:15.2,22.386,0.21,229.3,-151.4846191,272.3162537,84.95825195,99.08640289,118.523201,51,0,-20
1.2,80,80,60,go_to_pick_up_from_red,red,TRUE,FALSE,joint 1 -,FALSE,46:16.6,16.88,0.206,227.4,116.5311203,289.0055847,84.95825195,48.04001617,66.7600174,51,0,-20
1.2,80,80,60,go_to_pick_up_from_red,red,TRUE,FALSE,joint 1 -,FALSE,46:17.3,16.88,0.206,227.4,287.4763794,120.254158,84.95825195,2.700031281,22.34083176,51,0,-20
1.2,80,80,60,moving_belt,red,FALSE,TRUE,joint 1 -,FALSE,46:18.7,16.5,0.162,227.4,292.822052,106.5785141,84.95825195,0,20,51,0,-20
1.2,80,80,60,moving_belt,red,FALSE,TRUE,joint 1 -,FALSE,46:19.4,16.5,0.162,227.4,292.822052,106.5785141,84.95825195,0,20,51,0,-20
1.2,80,80,60,moving_belt,red,FALSE,TRUE,joint 1 -,FALSE,46:20.7,16.386,0.161,227.4,292.822052,106.5785141,84.95825195,0,20,51,0,-20
1.2,80,80,60,moving_belt,red,FALSE,TRUE,joint 1 -,FALSE,46:21.4,16.348,0.161,227.4,292.822052,106.5785141,84.95825195,0,20,51,0,-20
1.2,80,80,60,go_to_pick_down,red,TRUE,FALSE,joint 3 +,FALSE,46:22.9,16.234,0.159,227.4,292.7381592,106.5479813,79.83622742,0,20,51,2.329599857,-20
1.2,80,80,60,go_to_pick_up_from_pick_down,red,TRUE,FALSE,joint 3 -,TRUE,46:23.6,16.234,0.159,227.4,283.1075439,103.0427246,30.8057785,0,20,51,21.46239853,-20
1.2,80,80,60,go_to_pick_up_from_pick_down,red,TRUE,FALSE,joint 3 -,TRUE,46:24.3,16.101,0.178,227.4,292.8196411,106.5776367,84.08798218,0,20,51,0.220671624,-20
1.2,80,80,60,go_to_color_detect_up,red,TRUE,FALSE,joint 1 +,TRUE,46:25.6,21.836,0.178,227.4,235.2071686,204.4048157,84.95825195,20.99200058,42.04159927,51,0,-20
1.2,80,80,60,go_to_color_detect_up,red,TRUE,FALSE,joint 3 +,TRUE,46:26.4,21.836,0.206,227.4,131.6860352,282.4016113,82.59386444,45,65,51,1.15200007,-20
1.2,80,80,60,go_to_color_detect_up,red,TRUE,FALSE,joint 3 +,TRUE,46:27.1,22.045,0.206,227.4,119.5738068,256.4268494,-2.272117615,45,65,51,37.15675354,-20
1.2,80,80,60,go_to_color_detect_up,red,TRUE,FALSE,joint 3 -,FALSE,46:28.8,21.779,0.204,227.4,113.258255,242.8830872,-19.55091095,45,65,51,44.92799759,-20
1.2,80,80,60,go_to_color_detect_up,red,TRUE,FALSE,joint 3 -,FALSE,46:29.6,16.766,0.204,227.4,131.5274963,282.0615845,74.20051575,45,65,51,3.746138573,-20
1.2,80,80,60,detecting_color,red,FALSE,FALSE,detecting_color,FALSE,46:30.3,16.766,0.204,227.4,131.6940765,282.4188232,84.95825195,45,65,51,0,-20
1.2,80,80,60,detecting_color,red,FALSE,FALSE,detecting_color,FALSE,46:31.6,16.595,0.161,227.4,131.6940765,282.4188232,84.95825195,45,65,51,0,-20
1.2,80,80,60,go_to_color_detect_down,red,TRUE,FALSE,joint 3 +,FALSE,46:32.3,16.177,0.161,227.4,128.3201599,275.1834412,37.1734848,45,65,51,19.96800041,-20
1.2,80,80,60,go_to_color_detect_up,red,TRUE,FALSE,joint 3 -,TRUE,46:33.8,16.082,0.159,227.4,111.1407089,238.3420105,-24.28006744,45,65,51,48,-20
1.2,80,80,60,go_to_color_detect_up,red,TRUE,FALSE,joint 3 -,TRUE,46:34.4,17.829,0.159,227.4,127.7266235,273.910614,33.2679863,45,65,51,19.57349396,-20
1.2,80,80,60,go_to_green_up,green,TRUE,FALSE,joint 1 +,TRUE,46:35.8,22.728,0.212,227.4,124.714798,285.569519,84.95825195,46.40799713,66.68959808,51,0,-20
1.2,80,80,60,go_to_green_up,green,TRUE,FALSE,joint 1 +,TRUE,46:36.5,21.95,0.212,227.4,-51.90161514,307.2620239,84.95825195,79.58769226,100.1011505,51,0,-20
1.2,80,80,60,go_to_pick_up_from_green,green,TRUE,FALSE,joint 1 -,FALSE,46:37.9,22.026,0.207,227.4,-46.18439865,308.1732178,84.95825195,78.52320099,97.93440247,51,0,-20
1.2,80,80,60,go_to_pick_up_from_green,green,TRUE,FALSE,joint 1 -,FALSE,46:38.6,18.209,0.207,227.4,237.3628845,201.8974915,84.95825195,20.38401413,39.37521362,51,0,-20
1.2,80,80,60,moving_belt,green,FALSE,TRUE,joint 1 -,FALSE,46:39.9,16.253,0.157,227.4,292.822052,106.5785141,84.95825195,0,20,51,0,-20
1.2,80,80,60,moving_belt,green,FALSE,TRUE,joint 1 -,FALSE,46:40.7,16.557,0.157,227.4,292.822052,106.5785141,84.95825195,0,20,51,0,-20
1.2,80,80,60,moving_belt,green,FALSE,TRUE,joint 1 -,FALSE,46:41.4,16.557,0.159,227.4,292.822052,106.5785141,84.95825195,0,20,51,0,-20
1.2,80,80,60,moving_belt,green,FALSE,TRUE,joint 1 -,FALSE,46:42.7,16.044,0.159,227.4,292.822052,106.5785141,84.95825195,0,20,51,0,-20
1.2,80,80,60,moving_belt,green,FALSE,TRUE,joint 1 -,FALSE,46:43.4,16.291,0.159,227.4,292.822052,106.5785141,84.95825195,0,20,51,0,-20
1.2,80,80,60,go_to_pick_down,green,TRUE,FALSE,joint 3 +,FALSE,46:44.8,16.177,0.159,227.4,288.7687988,105.1032486,49.60953903,0,20,51,14.54466438,-20
1.2,80,80,60,go_to_pick_up_from_pick_down,green,TRUE,FALSE,joint 3 -,TRUE,46:45.5,16.329,0.159,227.4,286.6899719,104.3466263,41.64605713,0,20,51,16.62399864,-20
1.2,80,80,60,go_to_color_detect_up,green,TRUE,FALSE,joint 1 +,TRUE,46:46.9,23.089,0.163,227.4,288.2478333,118.3930664,84.95825195,2.329601288,22.68800163,51,0,-20
1.2,80,80,60,go_to_color_detect_up,green,TRUE,FALSE,joint 1 +,TRUE,46:47.6,21.798,0.163,227.4,162.3258972,265.9963074,84.95825195,38.60610962,59.16553497,51,0,-20
1.2,80,80,60,go_to_color_detect_up,green,TRUE,FALSE,joint 3 +,TRUE,46:48.3,22.158,0.208,227.4,131.2223053,281.407135,66.87641907,45,65,51,7.680000782,-20
1.2,80,80,60,go_to_color_detect_up,green,TRUE,FALSE,joint 3 +,TRUE,46:49.7,21.589,0.208,229.3,111.9879837,240.1589966,-22.44089508,45,65,51,47.15748215,-20
1.2,80,80,60,go_to_color_detect_up,green,TRUE,FALSE,joint 3 -,FALSE,46:50.4,21.741,0.203,229.3,122.8482895,263.4489746,9.356773376,45,65,51,30.0031929,-20
1.2,80,80,60,detecting_color,green,FALSE,FALSE,detecting_color,FALSE,46:51.8,16.595,0.203,229.3,131.6940765,282.4188232,84.95825195,45,65,51,0,-20
1.2,80,80,60,detecting_color,green,FALSE,FALSE,detecting_color,FALSE,46:52.5,16.424,0.163,229.3,131.6940765,282.4188232,84.95825195,45,65,51,0,-20
1.2,80,80,60,go_to_color_detect_down,green,TRUE,FALSE,joint 3 +,FALSE,46:53.9,16.196,0.163,229.3,130.6747131,280.2328186,58.43808746,45,65,51,11.13600063,-20
1.2,80,80,60,go_to_color_detect_down,green,TRUE,FALSE,joint 3 +,FALSE,46:54.5,16.196,0.158,229.3,111.9879837,240.1589966,-22.44089508,45,65,51,47.15748215,-20
1.2,80,80,60,go_to_color_detect_up,green,TRUE,FALSE,joint 3 -,TRUE,46:55.9,22.956,0.158,231.2,122.3274918,262.3321533,7.338829041,45,65,51,30.95039368,-20
1.2,80,80,60,go_to_blue_up,blue,TRUE,FALSE,joint 1 +,TRUE,46:56.6,22.956,0.21,231.2,131.693924,282.4185181,84.6365509,45,65,51,0.058762312,-20
1.2,80,80,60,go_to_blue_up,blue,TRUE,FALSE,joint 1 +,TRUE,46:57.3,22.576,0.21,229.3,29.98908043,310.168335,84.95825195,64.47743988,84.62852478,51,0,-20
1.2,80,80,60,go_to_pick_up_from_blue,blue,TRUE,FALSE,joint 1 -,FALSE,46:58.7,18.627,0.197,229.3,131.5363159,282.4923401,84.95825195,45.03199768,64.00799561,51,0,-20
1.2,80,80,60,go_to_pick_up_from_blue,blue,TRUE,FALSE,joint 1 -,FALSE,46:59.3,18.627,0.197,229.3,291.5411682,110.033989,84.95825195,0.677597046,20.5039978,51,0,-20
1.2,80,80,60,moving_belt,blue,FALSE,TRUE,joint 1 -,FALSE,47:00.7,16.367,0.159,229.3,292.822052,106.5785141,84.95825195,0,20,51,0,-20
1.2,80,80,60,moving_belt,blue,FALSE,TRUE,joint 1 -,FALSE,47:01.4,16.633,0.159,229.3,292.822052,106.5785141,84.95825195,0,20,51,0,-20
1.2,80,80,60,moving_belt,blue,FALSE,TRUE,joint 1 -,FALSE,47:02.8,16.272,0.159,229.3,292.822052,106.5785141,84.95825195,0,20,51,0,-20
1.2,80,80,60,moving_belt,blue,FALSE,TRUE,joint 1 -,FALSE,47:03.5,16.272,0.159,229.3,292.822052,106.5785141,84.95825195,0,20,51,0,-20
1.2,80,80,60,go_to_pick_down,blue,TRUE,FALSE,joint 3 +,FALSE,47:04.8,16.386,0.159,229.3,292.6700439,106.5231934,78.06436157,0,20,51,3.071999788,-20
1.2,80,80,60,go_to_pick_up_from_pick_down,blue,TRUE,FALSE,joint 3 -,TRUE,47:05.5,16.386,0.157,229.3,283.4009399,103.1495132,31.60047913,0,20,51,21.07839966,-20
1.2,80,80,60,go_to_pick_up_from_pick_down,blue,TRUE,FALSE,joint 3 -,TRUE,47:06.9,23.184,0.157,229.3,292.8217163,106.5783844,84.63052368,0,20,51,0.060405515,-20
1.2,80,80,60,go_to_color_detect_up,blue,TRUE,FALSE,joint 1 +,TRUE,47:07.6,23.184,0.21,229.3,223.5558319,217.0864258,84.95825195,24.15885162,45.17907715,51,0,-20
1.2,80,80,60,go_to_color_detect_up,blue,TRUE,FALSE,joint 3 +,TRUE,47:08.3,22.386,0.21,229.3,131.6563416,282.3379211,79.83622742,45,65,51,2.329600334,-20
1.2,80,80,60,go_to_color_detect_up,blue,TRUE,FALSE,joint 3 +,TRUE,47:09.7,22.14,0.207,229.3,117.6599655,252.3226013,-8.102325439,45,65,51,39.93205643,-20
1.2,80,80,60,go_to_color_detect_up,blue,TRUE,FALSE,joint 3 -,FALSE,47:10.4,22.14,0.207,229.3,114.5415344,245.6351013,-16.45742798,45,65,51,43.13599777,-20
1.2,80,80,60,go_to_color_detect_up,blue,TRUE,FALSE,joint 3 -,FALSE,47:11.7,16.937,0.161,229.3,131.6326752,282.2871399,78.42352295,45,65,51,2.199638367,-20
1.2,80,80,60,detecting_color,blue,FALSE,FALSE,detecting_color,FALSE,47:12.4,16.937,0.161,229.3,131.6940765,282.4188232,84.95825195,45,65,51,0,-20
1.2,80,80,60,go_to_color_detect_down,blue,TRUE,FALSE,joint 3 +,FALSE,47:13.8,16.538,0.158,229.3,131.689209,282.4084167,83.11925507,45,65,51,0.921600044,-20
1.2,80,80,60,go_to_color_detect_down,blue,TRUE,FALSE,joint 3 +,FALSE,47:14.5,16.348,0.158,229.3,117.2069244,251.3510437,-9.397926331,45,65,51,40.56188202,-20
1.2,80,80,60,go_to_color_detect_up,blue,TRUE,FALSE,joint 3 -,TRUE,47:15.9,16.5,0.175,229.3,114.9037552,246.4118805,-15.55041504,45,65,51,42.62399673,-20
1.2,80,80,60,go_to_color_detect_up,blue,TRUE,FALSE,joint 3 -,TRUE,47:16.6,23.241,0.175,229.3,131.4875641,281.9759827,72.98236084,45,65,51,4.196763515,-20
1.2,80,80,60,go_to_red_up,red,TRUE,FALSE,joint 1 +,TRUE,47:18.0,22.861,0.207,229.3,62.03643417,305.3771667,84.95825195,58.51679993,79.36160278,51,0,-20
1.2,80,80,60,go_to_red_up,red,TRUE,FALSE,joint 1 +,TRUE,47:18.7,22.367,0.207,229.3,-163.2163696,265.4508362,84.95825195,101.5858917,121.9909973,51,0,-20
1.2,80,80,60,go_to_pick_up_from_red,red,TRUE,FALSE,joint 1 -,FALSE,47:19.3,22.728,0.207,229.3,-133.2850342,281.6714783,84.95825195,95.32319641,114.6063995,51,0,-20
1.2,80,80,60,go_to_pick_up_from_red,red,TRUE,FALSE,joint 1 -,FALSE,47:20.7,18.513,0.159,229.3,188.9212646,247.8154297,84.95825195,32.68003082,51.40003204,51,0,-20
1.2,80,80,60,go_to_pick_up_from_red,red,TRUE,FALSE,joint 1 -,FALSE,47:21.4,16.576,0.159,229.3,292.6743774,106.9833374,84.95825195,0.079229355,20.02722931,51,0,-20
1.2,80,80,60,moving_belt,red,FALSE,TRUE,joint 1 -,FALSE,47:22.8,16.595,0.16,229.3,292.822052,106.5785141,84.95825195,0,20,51,0,-20
1.2,80,80,60,moving_belt,red,FALSE,TRUE,joint 1 -,FALSE,47:23.5,16.595,0.16,229.3,292.822052,106.5785141,84.95825195,0,20,51,0,-20
1.2,80,80,60,moving_belt,red,FALSE,TRUE,joint 1 -,FALSE,47:24.2,16.253,0.16,229.3,292.822052,106.5785141,84.95825195,0,20,51,0,-20
1.2,80,80,60,moving_belt,red,FALSE,TRUE,joint 1 -,FALSE,47:25.9,16.386,0.16,229.3,292.822052,106.5785141,84.95825195,0,20,51,0,-20
1.2,80,80,60,go_to_pick_down,red,TRUE,FALSE,joint 3 +,FALSE,47:26.7,16.329,0.16,229.3,291.9404297,106.2576294,68.37652588,0,20,51,7.065599918,-20
1.2,80,80,60,go_to_pick_up_from_pick_down,red,TRUE,FALSE,joint 3 -,TRUE,47:27.9,16.462,0.157,229.3,283.5793457,103.214447,32.0904274,0,20,51,20.84799957,-20
1.2,80,80,60,go_to_color_detect_up,red,TRUE,FALSE,joint 1 +,TRUE,47:28.6,22.538,0.157,229.3,292.7744141,106.7093353,84.95825195,0.025600433,20.0768013,51,0,-20
1.2,80,80,60,go_to_color_detect_up,red,TRUE,FALSE,joint 1 +,TRUE,47:29.3,22.557,0.211,229.3,200.7342072,238.3474731,84.95825195,29.89620209,50.76282883,51,0,-20
1.2,80,80,60,go_to_color_detect_up,red,TRUE,FALSE,joint 3 +,TRUE,47:30.7,22.462,0.211,229.3,131.6753235,282.3786316,81.34619904,45,65,51,1.68960011,-20
1.2,80,80,60,go_to_color_detect_up,red,TRUE,FALSE,joint 3 +,TRUE,47:31.4,22.121,0.205,229.3,115.9217224,248.5949249,-12.91627502,45,65,51,42.2977562,-20
1.2,80,80,60,go_to_color_detect_up,red,TRUE,FALSE,joint 3 -,FALSE,47:32.8,22.064,0.205,229.3,115.6742401,248.0641937,-13.56855774,45,65,51,41.52319336,-20
1.2,80,80,60,go_to_color_detect_up,red,TRUE,FALSE,joint 3 -,FALSE,47:33.5,20.165,0.163,229.3,131.5613403,282.1341858,75.35387421,45,65,51,3.321113586,-20
1.2,80,80,60,detecting_color,red,FALSE,FALSE,detecting_color,FALSE,47:34.9,17.336,0.163,229.3,131.6940765,282.4188232,84.95825195,45,65,51,0,-20
1.2,80,80,60,detecting_color,red,FALSE,FALSE,detecting_color,FALSE,47:35.6,16.576,0.159,229.3,131.6940765,282.4188232,84.95825195,45,65,51,0,-20
1.2,80,80,60,go_to_color_detect_down,red,TRUE,FALSE,joint 3 +,FALSE,47:36.3,16.576,0.159,229.3,131.6934509,282.417511,84.30145264,45,65,51,0.384000003,-20
1.2,80,80,60,go_to_color_detect_down,red,TRUE,FALSE,joint 3 +,FALSE,47:37.7,16.595,0.161,229.3,121.6054764,260.783783,4.656272888,45,65,51,33.97185516,-20
