demetriskallis/dobot_magician_pick_and_place_and_color_sorting/Sampling/OLD_DATA/sampling_joint_movement_extra/old_measurements/joint_measurements__armv_50_arma_50_belts_60_cube_1.2g.csv
cube/weight,arm/velocity_ratio,arm/acceleration_ratio,belt/speed,dobot/operation,dobot/color,dobot/moving_arm,dobot/moving_belt,dobot/operation2,dobot/suction,meross/sample_timestamp,meross/power,meross/current,meross/voltage,dobot/pose_x,dobot/pose_y,dobot/pose_z,dobot/pose_rHead,dobot/pose_joint1Angle,dobot/pose_joint2Angle,dobot/pose_joint3Angle,dobot/pose_joint4Angle
1.2,50,50,60,homing,,,,homing,,,,,,177.795166,62.25289154,62.46580505,-0.702896118,18.89710426,0.347535133,29.56515503,-20
1.2,50,50,60,homing,,,,homing,,,,,,188.3784485,0.319291621,62.46580505,-19.90288734,-0.302886724,0.347535133,29.56515503,-20
1.2,50,50,60,homing,,,,homing,,,,,,178.0051727,-61.64983368,62.46580505,-39.10287857,-19.50287819,0.347535133,29.56515503,-20
1.2,50,50,60,homing,,,,homing,,42:04.9,16.785,0.166,229.3,142.8101654,-122.8487015,62.46580505,-60.70289993,-41.10290146,0.347535133,29.56515503,-20
1.2,50,50,60,homing,,,,homing,,42:05.6,16.785,0.165,229.3,94.46547699,-162.9810333,62.46580505,-79.90296936,-60.3029747,0.347535133,29.56515503,-20
1.2,50,50,60,homing,,,,homing,,42:07.1,16.861,0.165,229.3,34.31944656,-185.2261353,62.46580505,-99.50304413,-79.90304565,0.347535133,29.56515503,-20
1.2,50,50,60,homing,,,,homing,,42:07.8,16.861,0.165,229.3,-34.98576736,-185.1014404,62.46580505,-120.703125,-101.1031265,0.347535133,29.56515503,-20
1.2,50,50,60,homing,,,,homing,,42:09.2,16.766,0.165,229.3,-95.05137634,-162.6400146,62.46580505,-140.3031921,-120.7032013,0.347535133,29.56515503,-20
1.2,50,50,60,homing,,,,homing,,42:09.9,16.766,0.165,229.3,-136.787735,-129.5208893,62.46580505,-156.5630646,-136.5430603,0.347535133,29.56515503,-20
1.2,50,50,60,homing,,,,homing,,42:11.3,16.766,0.165,229.3,-134.598053,-131.7949371,62.46580505,-155.6028595,-135.5828552,0.347535133,29.56515503,-20
1.2,50,50,60,homing,,,,homing,,42:12.0,16.766,0.165,229.3,-115.0800018,-152.3789673,61.20140076,-146.356842,-126.6169128,1.810373783,30.13673019,-19.25680733
1.2,50,50,60,homing,,,,homing,,42:12.7,16.766,0.165,229.3,-32.82645798,-199.3036957,54.84532166,-115.5788574,-98.75296783,7.953046799,32.5368576,-16.1360321
1.2,50,50,60,homing,,,,homing,,42:14.0,16.88,0.165,229.3,73.46086884,-208.0589905,40.08351135,-81.2731781,-69.95304108,18.89000511,36.81025696,-10.57953072
1.2,50,50,60,homing,,,,homing,,42:14.7,17.013,0.167,229.3,188.72258,-148.2601776,17.15000153,-42.30152893,-37.55312347,31.73179245,41.82793045,-4.055281639
1.2,50,50,60,homing,,,,homing,,42:16.0,17.013,0.167,229.3,244.3800812,-42.57909775,3.757278442,-10.75452709,-9.402545929,38.08303452,44.30955124,-0.828543305
1.2,50,50,60,homing,,,,homing,,42:16.7,16.956,0.167,229.3,254.5189362,-0.748142302,-2.116981506,-0.168416828,-0.159998775,41.61451721,44.44799805,0
1.2,50,50,60,homing,,,,homing,,42:18.1,16.671,0.167,229.3,249.9999847,0,-7.63E-06,0,0,39.71385956,44.94676971,0
1.2,50,50,60,homing,,,,homing,,42:18.8,16.671,0.164,229.3,249.9999847,0.00017966,-7.63E-06,4.12E-05,4.12E-05,39.71385956,44.94676971,0
1.2,50,50,60,homing,,,,homing,,42:20.2,16.519,0.164,229.3,249.9999847,0.00017966,-7.63E-06,4.12E-05,4.12E-05,39.71385956,44.94676971,0
1.2,50,50,60,homing,,,,homing,,42:20.9,16.519,0.162,229.3,249.9999847,0.00017966,-7.63E-06,4.12E-05,4.12E-05,39.71385956,44.94676971,0
1.2,50,50,60,homing,,,,homing,,42:22.3,16.519,0.162,229.3,249.9999847,0.00017966,-7.63E-06,4.12E-05,4.12E-05,39.71385956,44.94676971,0
1.2,50,50,60,homing,,,,homing,,42:23.0,16.671,0.165,229.3,249.9999847,0.00017966,-7.63E-06,4.12E-05,4.12E-05,39.71385956,44.94676971,0
1.2,50,50,60,homing,,,,homing,,42:23.7,16.671,0.165,229.3,249.9999847,0.00017966,-7.63E-06,4.12E-05,4.12E-05,39.71385956,44.94676971,0
1.2,50,50,60,homing,,,,homing,,42:25.1,16.633,0.164,229.3,249.9999847,0.00017966,-7.63E-06,4.12E-05,4.12E-05,39.71385956,44.94676971,0
1.2,50,50,60,homing,,,,homing,,42:25.7,16.633,0.164,229.3,250.5358887,2.188243866,1.491416931,4.12E-05,0.591167808,39.38858414,44.26027298,-0.591126621
1.2,50,50,60,homing,,,,homing,,42:27.1,16.462,0.164,229.3,266.2514038,66.94867706,42.28866577,4.10E-05,14.40427208,37.8851738,25.50450516,-14.40423107
1.2,50,50,60,go_to_pick_up_from_homing,nothing,,,go_to_pick_up_from_homing,,42:27.8,17.317,0.169,229.3,275.0000305,103,65,4.20E-05,20.53320694,42.43653107,13.62708092,-20.53316498
1.2,50,50,60,go_to_pick_up_from_homing,nothing,,,go_to_pick_up_from_homing,,42:29.2,17.07,0.169,229.3,288.9080505,105.9890671,79.60906982,1.53E-05,20.1356144,48.82203293,3.465807676,-20.13559914
1.2,50,50,60,moving_belt,nothing,FALSE,TRUE,go_to_pick_up_from_homing,,42:29.9,16.937,0.166,229.3,292.822052,106.5785141,84.95825195,0,20,51,0,-20
1.2,50,50,60,moving_belt,nothing,FALSE,TRUE,go_to_pick_up_from_homing,,42:31.3,17.146,0.166,229.3,292.822052,106.5785141,84.95825195,0,20,51,0,-20
1.2,50,50,60,moving_belt,nothing,FALSE,TRUE,go_to_pick_up_from_homing,,42:32.0,17.146,0.164,229.3,292.822052,106.5785141,84.95825195,0,20,51,0,-20
1.2,50,50,60,moving_belt,nothing,FALSE,TRUE,go_to_pick_up_from_homing,,42:32.7,16.747,0.164,229.3,292.822052,106.5785141,84.95825195,0,20,51,0,-20
1.2,50,50,60,go_to_pick_down,nothing,TRUE,FALSE,joint 3 +,,42:34.0,16.728,0.161,229.3,292.822052,106.5785141,84.95825195,0,20,51,0,-20
1.2,50,50,60,go_to_pick_down,nothing,TRUE,FALSE,joint 3 +,,42:34.8,16.899,0.161,229.3,290.1546021,105.6076431,56.20931244,0,20,51,11.736166,-20
1.2,50,50,60,go_to_pick_up_from_pick_down,nothing,TRUE,FALSE,joint 3 -,TRUE,42:36.2,16.842,0.165,229.3,282.817749,102.9372406,30.03384399,0,20,51,21.89999771,-20
1.2,50,50,60,go_to_pick_up_from_pick_down,nothing,TRUE,FALSE,joint 3 -,TRUE,42:36.8,21.893,0.165,229.3,291.1403503,105.9664307,62.09014893,0,20,51,8.531500816,-20
1.2,50,50,60,go_to_color_detect_up,nothing,TRUE,FALSE,joint 1 +,TRUE,42:38.2,23.355,0.221,229.3,291.9759521,108.8750305,84.95825195,0.450000763,20.55000114,51,0,-20
1.2,50,50,60,go_to_color_detect_up,nothing,TRUE,FALSE,joint 1 +,TRUE,42:38.9,22.823,0.221,229.3,251.2999878,184.260788,84.95825195,16.25,36.75,51,0,-20
1.2,50,50,60,go_to_color_detect_up,nothing,TRUE,FALSE,joint 1 +,TRUE,42:40.3,22.956,0.22,229.3,160.2602692,267.2459106,84.95825195,39.04999924,59.38999939,51,0,-20
1.2,50,50,60,go_to_color_detect_up,nothing,TRUE,FALSE,joint 3 +,TRUE,42:41.0,22.956,0.22,229.3,131.6765747,282.3812866,81.46931458,45,65,51,1.529999733,-20
1.2,50,50,60,go_to_color_detect_up,nothing,TRUE,FALSE,joint 3 +,TRUE,42:42.3,22.861,0.22,229.3,128.2206116,274.9699707,36.49372864,45,65,51,19.74999809,-20
1.2,50,50,60,go_to_color_detect_up,nothing,TRUE,FALSE,joint 3 +,TRUE,42:42.3,22.861,0.22,229.3,115.4529572,247.5896606,-14.14525604,45,65,51,42.72000122,-20
1.2,50,50,60,go_to_color_detect_up,nothing,TRUE,FALSE,joint 3 -,FALSE,42:44.3,22.88,0.218,229.3,112.2229004,240.6627655,-21.91872406,45,65,51,46.47000122,-20
1.2,50,50,60,go_to_color_detect_up,nothing,TRUE,FALSE,joint 3 -,FALSE,42:44.9,17.336,0.213,229.3,124.2944183,266.5502319,15.38025665,45,65,51,27.75,-20
1.2,50,50,60,go_to_color_detect_up,nothing,TRUE,FALSE,joint 3 -,FALSE,42:45.6,17.336,0.213,229.3,131.3965149,281.7807312,70.58802795,45,65,51,5.280000687,-20
1.2,50,50,60,detecting_color,nothing,FALSE,FALSE,detecting_color,FALSE,42:47.0,17.317,0.169,229.3,131.6940765,282.4188232,84.95825195,45,65,51,0,-20
1.2,50,50,60,detecting_color,nothing,FALSE,FALSE,detecting_color,FALSE,42:47.7,16.956,0.169,229.3,131.6940765,282.4188232,84.95825195,45,65,51,0,-20
1.2,50,50,60,go_to_color_detect_down,nothing,TRUE,FALSE,joint 3 +,FALSE,42:49.1,16.88,0.166,229.3,130.8492126,280.6070251,60.79748154,45,65,51,9.899998665,-20
1.2,50,50,60,go_to_color_detect_down,nothing,TRUE,FALSE,joint 3 +,FALSE,42:49.8,16.88,0.166,229.3,121.5233612,260.607666,4.359146118,45,65,51,33.75,-20
1.2,50,50,60,go_to_color_detect_down,nothing,TRUE,FALSE,joint 3 +,FALSE,42:51.2,16.861,0.165,229.3,111.2595749,238.5969086,-24.02616119,45,65,51,47.90000153,-20
1.2,50,50,60,go_to_color_detect_up,nothing,TRUE,FALSE,joint 3 -,TRUE,42:51.9,19.31,0.165,229.3,118.7569962,254.6751862,-4.834693909,45,65,51,37.19000244,-20
1.2,50,50,60,go_to_color_detect_up,nothing,TRUE,FALSE,joint 3 -,TRUE,42:52.8,19.31,0.165,229.3,129.9137115,278.6008301,50.01842499,45,65,51,13.25,-20
1.2,50,50,60,go_to_color_detect_up,nothing,TRUE,FALSE,joint 3 -,TRUE,42:54.2,23.241,0.222,229.3,131.693985,282.4186401,84.70169067,45,65,51,0.05999919,-20
1.2,50,50,60,go_to_red_up,red,TRUE,FALSE,joint 1 +,TRUE,42:54.9,23.032,0.222,229.3,76.3886795,302.106781,84.95825195,55.80999756,76.27999878,51,0,-20
1.2,50,50,60,go_to_red_up,red,TRUE,FALSE,joint 1 +,TRUE,42:56.3,22.899,0.218,229.3,-52.77180862,307.1137695,84.95825195,79.75,100.25,51,0,-20
1.2,50,50,60,go_to_red_up,red,TRUE,FALSE,joint 1 +,TRUE,42:56.9,22.899,0.218,229.3,-161.517868,266.4877319,84.95825195,101.2200012,121.4899979,51,0,-20
1.2,50,50,60,go_to_pick_up_from_red,red,TRUE,FALSE,joint 1 -,FALSE,42:58.3,22.956,0.22,231.2,-168.3011017,262.2565002,84.95825195,102.6900024,122.4700012,51,0,-20
1.2,50,50,60,go_to_pick_up_from_red,red,TRUE,FALSE,joint 1 -,FALSE,42:59.0,22.956,0.22,231.2,-68.77256012,303.9310303,84.95825195,82.75,102.25,51,0,-20
1.2,50,50,60,go_to_pick_up_from_red,red,TRUE,FALSE,joint 1 -,FALSE,42:59.7,16.842,0.165,231.2,60.79298782,305.6271362,84.95825195,58.75,78.25,51,0,-20
1.2,50,50,60,go_to_pick_up_from_red,red,TRUE,FALSE,joint 1 -,FALSE,43:01.1,16.937,0.165,231.2,179.8469086,254.4775238,84.95825195,34.75,54.25,51,0,-20
1.2,50,50,60,go_to_pick_up_from_red,red,TRUE,FALSE,joint 1 -,FALSE,43:01.8,16.766,0.166,231.2,274.6271057,147.2537842,84.95825195,8.200000763,27.80000114,51,0,-20
1.2,50,50,60,moving_belt,red,FALSE,TRUE,joint 1 -,FALSE,43:03.1,16.88,0.166,231.2,292.822052,106.5785141,84.95825195,0,20,51,0,-20
1.2,50,50,60,moving_belt,red,FALSE,TRUE,joint 1 -,FALSE,43:03.8,16.975,0.167,231.2,292.822052,106.5785141,84.95825195,0,20,51,0,-20
1.2,50,50,60,moving_belt,red,FALSE,TRUE,joint 1 -,FALSE,43:05.2,16.652,0.167,231.2,292.822052,106.5785141,84.95825195,0,20,51,0,-20
1.2,50,50,60,moving_belt,red,FALSE,TRUE,joint 1 -,FALSE,43:05.9,16.652,0.166,231.2,292.822052,106.5785141,84.95825195,0,20,51,0,-20
1.2,50,50,60,moving_belt,red,FALSE,TRUE,joint 1 -,FALSE,43:07.3,16.804,0.166,231.2,292.822052,106.5785141,84.95825195,0,20,51,0,-20
1.2,50,50,60,go_to_pick_down,red,TRUE,FALSE,joint 3 +,FALSE,43:08.0,16.671,0.165,231.2,292.1604309,106.3377075,70.58802795,0,20,51,5.950000286,-20
1.2,50,50,60,go_to_pick_down,red,TRUE,FALSE,joint 3 +,FALSE,43:08.7,16.709,0.165,231.2,283.4361572,103.1623306,31.69681549,0,20,51,21.36099243,-20
1.2,50,50,60,go_to_pick_up_from_pick_down,red,TRUE,FALSE,joint 3 -,TRUE,43:10.1,17.279,0.206,231.2,288.6014099,105.0423203,48.89806747,0,20,51,13.79999924,-20
1.2,50,50,60,go_to_pick_up_from_pick_down,red,TRUE,FALSE,joint 3 -,TRUE,43:10.8,23.279,0.206,231.2,292.821228,106.5782089,84.4487381,0,20,51,0.140507817,-20
1.2,50,50,60,go_to_color_detect_up,red,TRUE,FALSE,joint 1 +,TRUE,43:12.1,22.956,0.218,229.3,274.6271057,147.2537842,84.95825195,8.200000763,28.61000061,51,0,-20
1.2,50,50,60,go_to_color_detect_up,red,TRUE,FALSE,joint 1 +,TRUE,43:13.3,22.69,0.218,229.3,180.2907867,254.163269,84.95825195,34.65000153,55.10000229,51,0,-20
1.2,50,50,60,go_to_color_detect_up,red,TRUE,FALSE,joint 3 +,TRUE,43:14.0,23.032,0.218,229.3,131.6940765,282.4188232,84.95825195,45,65,51,0.009999998,-20
1.2,50,50,60,go_to_color_detect_up,red,TRUE,FALSE,joint 3 +,TRUE,43:14.7,22.861,0.218,229.3,130.2795563,279.3854065,53.76813507,45,65,51,12.74999809,-20
1.2,50,50,60,go_to_color_detect_up,red,TRUE,FALSE,joint 3 +,TRUE,43:16.1,22.709,0.218,231.2,117.869751,252.7724915,-7.492027283,45,65,51,39.38999939,-20
1.2,50,50,60,go_to_color_detect_up,red,TRUE,FALSE,joint 3 -,FALSE,43:16.8,22.709,0.217,231.2,111.146904,238.3552856,-24.26689148,45,65,51,47.97000122,-20
1.2,50,50,60,go_to_color_detect_up,red,TRUE,FALSE,joint 3 -,FALSE,43:18.2,19.386,0.217,229.3,119.988121,257.3153381,-0.926452637,45,65,51,35.25,-20
1.2,50,50,60,go_to_color_detect_up,red,TRUE,FALSE,joint 3 -,FALSE,43:18.9,19.386,0.167,229.3,130.924118,280.7676697,61.8863678,45,65,51,8.61000061,-20
1.2,50,50,60,detecting_color,red,FALSE,FALSE,detecting_color,FALSE,43:20.3,17.089,0.167,231.2,131.6940765,282.4188232,84.95825195,45,65,51,0,-20
1.2,50,50,60,detecting_color,red,FALSE,FALSE,detecting_color,FALSE,43:20.9,17.089,0.166,231.2,131.6940765,282.4188232,84.95825195,45,65,51,0,-20
1.2,50,50,60,detecting_color,red,FALSE,FALSE,detecting_color,FALSE,43:22.3,16.88,0.166,229.3,131.6940765,282.4188232,84.95825195,45,65,51,0,-20
1.2,50,50,60,detecting_color,red,FALSE,FALSE,detecting_color,FALSE,43:23.0,16.823,0.166,229.3,131.6940765,282.4188232,84.95825195,45,65,51,0,-20
1.2,50,50,60,detecting_color,red,FALSE,FALSE,detecting_color,FALSE,43:23.8,16.785,0.166,231.2,131.6940765,282.4188232,84.95825195,45,65,51,0,-20
1.2,50,50,60,detecting_color,red,FALSE,FALSE,detecting_color,FALSE,43:25.1,16.785,0.166,231.2,131.6940765,282.4188232,84.95825195,45,65,51,0,-20
1.2,50,50,60,go_to_color_detect_down,red,TRUE,FALSE,joint 3 +,FALSE,43:25.8,16.785,0.166,231.2,131.2270355,281.4172668,66.96707153,45,65,51,7.409998894,-20
1.2,50,50,60,go_to_color_detect_down,red,TRUE,FALSE,joint 3 +,FALSE,43:27.2,16.766,0.165,231.2,123.2348709,264.2780151,10.9034729,45,65,51,30.74999809,-20
1.2,50,50,60,go_to_color_detect_down,red,TRUE,FALSE,joint 3 +,FALSE,43:27.9,16.956,0.165,231.2,111.7634811,239.6775513,-22.93490601,45,65,51,47.34000015,-20
1.2,50,50,60,go_to_color_detect_up,red,TRUE,FALSE,joint 3 -,TRUE,43:29.3,16.842,0.221,231.2,115.210968,247.0707092,-14.76892853,45,65,51,42.38999939,-20
1.2,50,50,60,go_to_color_detect_up,red,TRUE,FALSE,joint 3 -,TRUE,43:30.0,23.772,0.221,231.2,128.8996887,276.4262695,41.366642,45,65,51,16.75,-20
1.2,50,50,60,go_to_color_detect_up,red,TRUE,FALSE,joint 3 -,TRUE,43:30.7,23.222,0.221,231.2,131.688324,282.4064941,82.9571228,45,65,51,0.659999609,-20
1.2,50,50,60,go_to_green_up,green,TRUE,FALSE,joint 1 +,TRUE,43:32.1,22.766,0.222,229.3,103.4549789,293.9401245,84.95825195,50.61000061,70.94999695,51,0,-20
1.2,50,50,60,go_to_green_up,green,TRUE,FALSE,joint 1 +,TRUE,43:32.8,22.766,0.222,229.3,-30.08354187,310.1591797,84.95825195,75.54000092,95.97000122,51,0,-20
1.2,50,50,60,go_to_pick_up_from_green,green,TRUE,FALSE,joint 1 -,FALSE,43:34.2,22.956,0.218,231.2,-80.49421692,301.0389099,84.95825195,84.97000122,104.9400024,51,0,-20
1.2,50,50,60,go_to_pick_up_from_green,green,TRUE,FALSE,joint 1 -,FALSE,43:34.8,19.044,0.218,231.2,-12.23395538,311.3744507,84.95825195,72.25,91.75,51,0,-20
1.2,50,50,60,go_to_pick_up_from_green,green,TRUE,FALSE,joint 1 -,FALSE,43:36.2,16.709,0.166,231.2,132.9250946,281.8415222,84.95825195,44.75,64.25,51,0,-20
1.2,50,50,60,go_to_pick_up_from_green,green,TRUE,FALSE,joint 1 -,FALSE,43:36.9,16.709,0.166,231.2,236.0684052,203.4095612,84.95825195,20.75,40.25,51,0,-20
1.2,50,50,60,go_to_pick_up_from_green,green,TRUE,FALSE,joint 1 -,FALSE,43:38.3,16.861,0.165,231.2,289.511261,115.2690735,84.95825195,1.710000992,21.53000069,51,0,-20
1.2,50,50,60,moving_belt,green,FALSE,TRUE,joint 1 -,FALSE,43:39.0,16.747,0.165,231.2,292.822052,106.5785141,84.95825195,0,20,51,0,-20
1.2,50,50,60,moving_belt,green,FALSE,TRUE,joint 1 -,FALSE,43:39.7,17.051,0.165,231.2,292.822052,106.5785141,84.95825195,0,20,51,0,-20
1.2,50,50,60,moving_belt,green,FALSE,TRUE,joint 1 -,FALSE,43:41.1,16.709,0.161,231.2,292.822052,106.5785141,84.95825195,0,20,51,0,-20
1.2,50,50,60,moving_belt,green,FALSE,TRUE,joint 1 -,FALSE,43:41.8,16.709,0.161,231.2,292.822052,106.5785141,84.95825195,0,20,51,0,-20
1.2,50,50,60,go_to_pick_down,green,TRUE,FALSE,joint 3 +,FALSE,43:43.1,16.633,0.163,231.2,292.8156738,106.5761948,83.54717255,0,20,51,0.660000026,-20
1.2,50,50,60,go_to_pick_down,green,TRUE,FALSE,joint 3 +,FALSE,43:43.8,16.804,0.163,231.2,287.6246948,104.6868286,45.01453781,0,20,51,16.11507988,-20
1.2,50,50,60,go_to_pick_up_from_pick_down,green,TRUE,FALSE,joint 3 -,TRUE,43:45.2,16.5,0.163,231.2,283.8192139,103.3017426,32.7575264,0,20,51,20.63999939,-20
1.2,50,50,60,go_to_pick_up_from_pick_down,green,TRUE,FALSE,joint 3 -,TRUE,43:45.9,20.886,0.163,231.2,292.3785706,106.4170914,73.18797302,0,20,51,4.294503212,-20
1.2,50,50,60,go_to_color_detect_up,green,TRUE,FALSE,joint 1 +,TRUE,43:47.3,22.823,0.218,231.2,288.7199707,117.23703,84.95825195,2.100002289,22.31000137,51,0,-20
1.2,50,50,60,go_to_color_detect_up,green,TRUE,FALSE,joint 1 +,TRUE,43:48.0,22.595,0.218,231.2,232.4824677,207.4985199,84.95825195,21.75,42.25,51,0,-20
1.2,50,50,60,go_to_color_detect_up,green,TRUE,FALSE,joint 1 +,TRUE,43:49.4,22.652,0.216,229.3,145.1404572,275.7498474,84.95825195,42.24000168,62.47000122,51,0,-20
1.2,50,50,60,go_to_color_detect_up,green,TRUE,FALSE,joint 3 +,TRUE,43:50.0,22.424,0.216,229.3,131.5589142,282.1289978,75.26718903,45,65,51,4.059999466,-20
1.2,50,50,60,go_to_color_detect_up,green,TRUE,FALSE,joint 3 +,TRUE,43:50.7,22.424,0.214,229.3,125.7583694,269.6896667,22.2526474,45,65,51,25.74999809,-20
1.2,50,50,60,go_to_color_detect_up,green,TRUE,FALSE,joint 3 +,TRUE,43:51.7,22.196,0.214,231.2,113.1362839,242.6215363,-19.83560944,45,65,51,45.69000244,-20
1.2,50,50,60,go_to_color_detect_up,green,TRUE,FALSE,joint 3 -,FALSE,43:53.1,22.31,0.214,231.2,114.0920486,244.6711731,-17.5617981,45,65,51,43.94000244,-20
1.2,50,50,60,go_to_color_detect_up,green,TRUE,FALSE,joint 3 -,FALSE,43:53.8,22.31,0.214,231.2,126.860817,272.053894,28.11174011,45,65,51,22.25,-20
1.2,50,50,60,go_to_color_detect_up,green,TRUE,FALSE,joint 3 -,FALSE,43:55.2,17.051,0.168,231.2,131.6765747,282.3812866,81.46931458,45,65,51,1.200000048,-20
1.2,50,50,60,detecting_color,green,FALSE,FALSE,detecting_color,FALSE,43:55.8,17.051,0.168,229.3,131.6940765,282.4188232,84.95825195,45,65,51,0,-20
1.2,50,50,60,detecting_color,green,FALSE,FALSE,detecting_color,FALSE,43:57.2,16.671,0.164,229.3,131.6940765,282.4188232,84.95825195,45,65,51,0,-20
1.2,50,50,60,go_to_color_detect_down,green,TRUE,FALSE,joint 3 +,FALSE,43:57.9,16.728,0.164,231.2,130.7689819,280.4349976,59.68467712,45,65,51,10.34999847,-20
1.2,50,50,60,go_to_color_detect_down,green,TRUE,FALSE,joint 3 +,FALSE,43:59.3,16.728,0.163,231.2,121.224144,259.9660034,3.289428711,45,65,51,34.25,-20
1.2,50,50,60,go_to_color_detect_down,green,TRUE,FALSE,joint 3 +,FALSE,44:00.0,16.69,0.163,229.3,111.1388397,238.3379974,-24.28404236,45,65,51,48,-20
1.2,50,50,60,go_to_color_detect_up,green,TRUE,FALSE,joint 3 -,TRUE,44:01.4,19.918,0.221,229.3,118.7569962,254.6751862,-4.834693909,45,65,51,37.19000244,-20
1.2,50,50,60,go_to_color_detect_up,green,TRUE,FALSE,joint 3 -,TRUE,44:02.0,23.089,0.221,229.3,129.9137115,278.6008301,50.01842499,45,65,51,13.25,-20
1.2,50,50,60,go_to_blue_up,blue,TRUE,FALSE,joint 1 +,TRUE,44:02.7,22.937,0.221,229.3,131.6940765,282.4188232,84.95825195,45,65,51,0,-20
1.2,50,50,60,go_to_blue_up,blue,TRUE,FALSE,joint 1 +,TRUE,44:04.1,22.614,0.217,231.2,78.84095001,301.4761047,84.95825195,55.34442902,75.77885437,51,0,-20
1.2,50,50,60,go_to_pick_up_from_blue,blue,TRUE,FALSE,joint 1 -,FALSE,44:04.8,22.424,0.217,231.2,27.2131691,310.4241943,84.95825195,64.98999786,84.97000122,51,0,-20
1.2,50,50,60,go_to_pick_up_from_blue,blue,TRUE,FALSE,joint 1 -,FALSE,44:06.2,22.5,0.215,231.2,107.8551636,292.3542175,84.95825195,49.75,69.25,51,0,-20
1.2,50,50,60,go_to_pick_up_from_blue,blue,TRUE,FALSE,joint 1 -,FALSE,44:06.9,16.576,0.215,231.2,217.4417725,223.2102203,84.95825195,25.75,45.25,51,0,-20
1.2,50,50,60,go_to_pick_up_from_blue,blue,TRUE,FALSE,joint 1 -,FALSE,44:08.4,16.557,0.164,231.2,284.5413208,127.0431747,84.95825195,4.060001373,23.78000069,51,0,-20
1.2,50,50,60,moving_belt,blue,FALSE,TRUE,joint 1 -,FALSE,44:09.1,16.633,0.164,231.2,292.822052,106.5785141,84.95825195,0,20,51,0,-20
1.2,50,50,60,moving_belt,blue,FALSE,TRUE,joint 1 -,FALSE,44:09.8,16.633,0.167,231.2,292.822052,106.5785141,84.95825195,0,20,51,0,-20
1.2,50,50,60,moving_belt,blue,FALSE,TRUE,joint 1 -,FALSE,44:11.2,16.69,0.167,231.2,292.822052,106.5785141,84.95825195,0,20,51,0,-20
1.2,50,50,60,moving_belt,blue,FALSE,TRUE,joint 1 -,FALSE,44:11.9,16.785,0.161,231.2,292.822052,106.5785141,84.95825195,0,20,51,0,-20
1.2,50,50,60,go_to_pick_down,blue,TRUE,FALSE,joint 3 +,FALSE,44:13.3,16.804,0.161,231.2,292.822052,106.5785141,84.95825195,0,20,51,0,-20
1.2,50,50,60,go_to_pick_down,blue,TRUE,FALSE,joint 3 +,FALSE,44:14.0,16.785,0.164,231.2,290.3707886,105.6863251,57.38799286,0,20,51,11.27808285,-20
1.2,50,50,60,go_to_pick_up_from_pick_down,blue,TRUE,FALSE,joint 3 -,TRUE,44:15.4,16.424,0.164,231.2,282.817749,102.9372406,30.03384399,0,20,51,21.89999771,-20
1.2,50,50,60,go_to_pick_up_from_pick_down,blue,TRUE,FALSE,joint 3 -,TRUE,44:16.1,23.26,0.224,231.2,291.1403503,105.9664307,62.09014893,0,20,51,8.531500816,-20
1.2,50,50,60,go_to_color_detect_up,blue,TRUE,FALSE,joint 1 +,TRUE,44:16.8,23.26,0.224,231.2,292.7102966,106.8851013,84.95825195,0.060001373,20.10000229,51,0,-20
1.2,50,50,60,go_to_color_detect_up,blue,TRUE,FALSE,joint 1 +,TRUE,44:18.1,22.443,0.215,231.2,251.2999878,184.260788,84.95825195,16.25,36.75,51,0,-20
1.2,50,50,60,go_to_color_detect_up,blue,TRUE,FALSE,joint 1 +,TRUE,44:18.8,22.557,0.215,231.2,160.2602692,267.2459106,84.95825195,39.04999924,59.38999939,51,0,-20
1.2,50,50,60,go_to_color_detect_up,blue,TRUE,FALSE,joint 3 +,TRUE,44:20.2,22.69,0.215,231.2,131.6912079,282.4126892,83.54717255,45,65,51,0.659999847,-20
1.2,50,50,60,go_to_color_detect_up,blue,TRUE,FALSE,joint 3 +,TRUE,44:20.9,22.595,0.215,231.2,128.0396423,274.5818787,35.28449631,45,65,51,20.24999809,-20
1.2,50,50,60,go_to_color_detect_up,blue,TRUE,FALSE,joint 3 +,TRUE,44:22.3,22.405,0.214,231.2,115.4529572,247.5896606,-14.14525604,45,65,51,42.72000122,-20
1.2,50,50,60,go_to_color_detect_up,blue,TRUE,FALSE,joint 3 -,FALSE,44:23.0,22.405,0.214,231.2,111.5801086,239.2843018,-23.33481598,45,65,51,47.34000015,-20
1.2,50,50,60,go_to_color_detect_up,blue,TRUE,FALSE,joint 3 -,FALSE,44:24.4,16.861,0.166,231.2,124.2944183,266.5502319,15.38025665,45,65,51,27.75,-20
1.2,50,50,60,go_to_color_detect_up,blue,TRUE,FALSE,joint 3 -,FALSE,44:25.1,16.861,0.166,231.2,131.3965149,281.7807312,70.58802795,45,65,51,5.280000687,-20
1.2,50,50,60,detecting_color,blue,FALSE,FALSE,detecting_color,FALSE,44:25.8,17.184,0.166,231.2,131.6940765,282.4188232,84.95825195,45,65,51,0,-20
1.2,50,50,60,detecting_color,blue,FALSE,FALSE,detecting_color,FALSE,44:27.2,16.69,0.164,231.2,131.6940765,282.4188232,84.95825195,45,65,51,0,-20
1.2,50,50,60,go_to_color_detect_down,blue,TRUE,FALSE,joint 3 +,FALSE,44:27.9,16.652,0.164,231.2,131.2748413,281.5198059,67.90958405,45,65,51,7.029998779,-20
1.2,50,50,60,go_to_color_detect_down,blue,TRUE,FALSE,joint 3 +,FALSE,44:28.6,16.652,0.164,231.2,121.818634,261.2408752,5.434997559,45,65,51,33.25,-20
1.2,50,50,60,go_to_color_detect_down,blue,TRUE,FALSE,joint 3 +,FALSE,44:29.8,16.595,0.163,231.2,111.3639755,238.8208008,-23.80205536,45,65,51,47.79000092,-20
1.2,50,50,60,go_to_color_detect_up,blue,TRUE,FALSE,joint 3 -,TRUE,44:31.2,16.633,0.178,231.2,116.4767685,249.7852325,-11.42433167,45,65,51,40.59000015,-20
1.2,50,50,60,go_to_color_detect_up,blue,TRUE,FALSE,joint 3 -,TRUE,44:31.9,23.45,0.178,231.2,129.6468048,278.0284729,47.53176498,45,65,51,14.25,-20
1.2,50,50,60,go_to_color_detect_up,blue,TRUE,FALSE,joint 3 -,TRUE,44:33.3,22.899,0.218,231.2,131.6936646,282.4179382,84.41947174,45,65,51,0.149999335,-20
1.2,50,50,60,go_to_red_up,red,TRUE,FALSE,joint 1 +,TRUE,44:34.0,22.5,0.218,231.2,81.17702484,300.8554993,84.95825195,54.90000153,75.34999847,51,0,-20
1.2,50,50,60,go_to_red_up,red,TRUE,FALSE,joint 1 +,TRUE,44:35.4,22.576,0.215,231.2,-47.40389252,307.9880066,84.95825195,78.75,99.25,51,0,-20
1.2,50,50,60,go_to_red_up,red,TRUE,FALSE,joint 1 +,TRUE,44:36.1,22.614,0.215,231.2,-158.8588257,268.0813293,84.95825195,100.6500015,120.9400024,51,0,-20
1.2,50,50,60,go_to_pick_up_from_red,red,TRUE,FALSE,joint 1 -,FALSE,44:36.8,22.69,0.215,231.2,-170.1733856,261.0454712,84.95825195,103.0999985,122.9000015,51,0,-20
1.2,50,50,60,go_to_pick_up_from_red,red,TRUE,FALSE,joint 1 -,FALSE,44:38.2,18.931,0.215,231.2,-74.06645966,302.6844788,84.95825195,83.75,103.25,51,0,-20
1.2,50,50,60,go_to_pick_up_from_red,red,TRUE,FALSE,joint 1 -,FALSE,44:38.9,16.766,0.215,231.2,55.44979477,306.641571,84.95825195,59.75,79.25,51,0,-20
1.2,50,50,60,go_to_pick_up_from_red,red,TRUE,FALSE,joint 1 -,FALSE,44:39.6,16.766,0.164,231.2,188.6184998,248.0459442,84.95825195,32.75,52.25,51,0,-20
1.2,50,50,60,go_to_pick_up_from_red,red,TRUE,FALSE,joint 1 -,FALSE,44:40.8,16.671,0.164,231.2,272.46521,151.216507,84.95825195,9.030000687,28.61000061,51,0,-20
1.2,50,50,60,moving_belt,red,FALSE,TRUE,joint 1 -,FALSE,44:42.2,16.69,0.163,231.2,292.822052,106.5785141,84.95825195,0,20,51,0,-20
1.2,50,50,60,moving_belt,red,FALSE,TRUE,joint 1 -,FALSE,44:42.9,16.481,0.163,231.2,292.822052,106.5785141,84.95825195,0,20,51,0,-20
1.2,50,50,60,moving_belt,red,FALSE,TRUE,joint 1 -,FALSE,44:44.2,16.69,0.164,231.2,292.822052,106.5785141,84.95825195,0,20,51,0,-20
1.2,50,50,60,moving_belt,red,FALSE,TRUE,joint 1 -,FALSE,44:45.0,16.595,0.164,231.2,292.822052,106.5785141,84.95825195,0,20,51,0,-20
1.2,50,50,60,moving_belt,red,FALSE,TRUE,joint 1 -,FALSE,44:46.4,16.671,0.165,231.2,292.822052,106.5785141,84.95825195,0,20,51,0,-20
1.2,50,50,60,go_to_pick_down,red,TRUE,FALSE,joint 3 +,FALSE,44:47.2,16.671,0.165,231.2,292.1604309,106.3377075,70.58802795,0,20,51,5.950000286,-20
1.2,50,50,60,go_to_pick_down,red,TRUE,FALSE,joint 3 +,FALSE,44:47.9,16.481,0.165,231.2,283.4361572,103.1623306,31.69681549,0,20,51,21.36099243,-20
1.2,50,50,60,go_to_pick_up_from_pick_down,red,TRUE,FALSE,joint 3 -,TRUE,44:49.3,16.367,0.162,231.2,288.6014099,105.0423203,48.89806747,0,20,51,13.79999924,-20
1.2,50,50,60,go_to_pick_up_from_pick_down,red,TRUE,FALSE,joint 3 -,TRUE,44:50.0,23.222,0.162,231.2,292.821228,106.5782089,84.4487381,0,20,51,0.140507817,-20
1.2,50,50,60,go_to_color_detect_up,red,TRUE,FALSE,joint 1 +,TRUE,44:51.4,22.253,0.216,231.2,274.6271057,147.2537842,84.95825195,8.200000763,28.61000061,51,0,-20
1.2,50,50,60,go_to_color_detect_up,red,TRUE,FALSE,joint 1 +,TRUE,44:52.1,22.253,0.216,231.2,180.2907867,254.163269,84.95825195,34.65000153,55.10000229,51,0,-20
1.2,50,50,60,go_to_color_detect_up,red,TRUE,FALSE,joint 3 +,TRUE,44:52.8,22.386,0.214,231.2,131.6940765,282.4188232,84.95825195,45,65,51,0.009999998,-20
1.2,50,50,60,go_to_color_detect_up,red,TRUE,FALSE,joint 3 +,TRUE,44:54.2,22.14,0.214,231.2,130.3900604,279.6223755,54.99779892,45,65,51,12.24999809,-20
1.2,50,50,60,go_to_color_detect_up,red,TRUE,FALSE,joint 3 +,TRUE,44:54.9,22.007,0.211,231.2,118.1616211,253.3983917,-6.631698608,45,65,51,38.97000122,-20
1.2,50,50,60,go_to_color_detect_up,red,TRUE,FALSE,joint 3 -,FALSE,44:56.3,21.969,0.211,231.2,111.146904,238.3552856,-24.26689148,45,65,51,47.97000122,-20
1.2,50,50,60,go_to_color_detect_up,red,TRUE,FALSE,joint 3 -,FALSE,44:57.0,20.488,0.211,231.2,119.988121,257.3153381,-0.926452637,45,65,51,35.25,-20
1.2,50,50,60,go_to_color_detect_up,red,TRUE,FALSE,joint 3 -,FALSE,44:58.4,16.709,0.211,231.2,130.924118,280.7676697,61.8863678,45,65,51,8.61000061,-20
1.2,50,50,60,detecting_color,red,FALSE,FALSE,detecting_color,FALSE,44:59.0,16.709,0.166,231.2,131.6940765,282.4188232,84.95825195,45,65,51,0,-20
1.2,50,50,60,detecting_color,red,FALSE,FALSE,detecting_color,FALSE,44:59.8,16.728,0.166,231.2,131.6940765,282.4188232,84.95825195,45,65,51,0,-20
1.2,50,50,60,detecting_color,red,FALSE,FALSE,detecting_color,FALSE,45:01.2,16.405,0.163,231.2,131.6940765,282.4188232,84.95825195,45,65,51,0,-20
1.2,50,50,60,detecting_color,red,FALSE,FALSE,detecting_color,FALSE,45:01.9,16.538,0.163,231.2,131.6940765,282.4188232,84.95825195,45,65,51,0,-20
1.2,50,50,60,detecting_color,red,FALSE,FALSE,detecting_color,FALSE,45:03.3,16.462,0.162,231.2,131.6940765,282.4188232,84.95825195,45,65,51,0,-20
1.2,50,50,60,go_to_color_detect_down,red,TRUE,FALSE,joint 3 +,FALSE,45:04.0,16.405,0.162,231.2,131.6335144,282.2889709,78.46930695,45,65,51,2.759999752,-20
1.2,50,50,60,go_to_color_detect_down,red,TRUE,FALSE,joint 3 +,FALSE,45:05.4,16.557,0.162,231.2,125.5249634,269.1891479,21.09479904,45,65,51,26.24999809,-20
1.2,50,50,60,go_to_color_detect_down,red,TRUE,FALSE,joint 3 +,FALSE,45:06.1,16.557,0.162,231.2,112.9659119,242.2561646,-20.23066711,45,65,51,45.90000153,-20
1.2,50,50,60,go_to_color_detect_up,red,TRUE,FALSE,joint 3 -,TRUE,45:06.8,16.348,0.162,231.2,113.4981155,243.3974762,-18.98644257,45,65,51,44.75,-20
1.2,50,50,60,go_to_color_detect_up,red,TRUE,FALSE,joint 3 -,TRUE,45:08.2,22.728,0.176,231.2,126.2123032,270.663147,24.58258438,45,65,51,23.75,-20
1.2,50,50,60,go_to_color_detect_up,red,TRUE,FALSE,joint 3 -,TRUE,45:08.9,22.709,0.176,231.2,131.6599274,282.3455811,80.08444214,45,65,51,1.710000277,-20
1.2,50,50,60,go_to_green_up,green,TRUE,FALSE,joint 1 +,TRUE,45:09.6,22.671,0.221,231.2,116.7329102,288.9241333,84.95825195,48,68.25,51,0,-20
1.2,50,50,60,go_to_green_up,green,TRUE,FALSE,joint 1 +,TRUE,45:11.2,22.291,0.219,231.2,-9.516283989,311.4693909,84.95825195,71.75,92.25,51,0,-20
1.2,50,50,60,go_to_green_up,green,TRUE,FALSE,joint 1 +,TRUE,45:11.9,22.291,0.219,231.2,-80.33659363,301.0809937,84.95825195,84.94000244,104.9700012,51,0,-20
1.2,50,50,60,go_to_pick_up_from_green,green,TRUE,FALSE,joint 1 -,FALSE,45:13.3,20.184,0.219,231.2,-32.4103241,309.9246826,84.95825195,75.97000122,95.54000092,51,0,-20
1.2,50,50,60,go_to_pick_up_from_green,green,TRUE,FALSE,joint 1 -,FALSE,45:14.0,20.184,0.168,231.2,110.4022903,291.4019165,84.95825195,49.25,68.75,51,0,-20
1.2,50,50,60,go_to_pick_up_from_green,green,TRUE,FALSE,joint 1 -,FALSE,45:15.3,16.462,0.168,231.2,219.3813477,221.3041992,84.95825195,25.25,44.75,51,0,-20
1.2,50,50,60,go_to_pick_up_from_green,green,TRUE,FALSE,joint 1 -,FALSE,45:16.0,16.462,0.163,231.2,285.158783,125.6511307,84.95825195,3.780000687,23.51000023,51,0,-20
1.2,50,50,60,moving_belt,green,FALSE,TRUE,joint 1 -,FALSE,45:17.4,16.595,0.163,231.2,292.822052,106.5785141,84.95825195,0,20,51,0,-20
1.2,50,50,60,moving_belt,green,FALSE,TRUE,joint 1 -,FALSE,45:18.1,16.975,0.167,231.2,292.822052,106.5785141,84.95825195,0,20,51,0,-20
1.2,50,50,60,moving_belt,green,FALSE,TRUE,joint 1 -,FALSE,45:18.8,16.975,0.167,231.2,292.822052,106.5785141,84.95825195,0,20,51,0,-20
1.2,50,50,60,moving_belt,green,FALSE,TRUE,joint 1 -,FALSE,45:20.2,16.671,0.163,231.2,292.822052,106.5785141,84.95825195,0,20,51,0,-20
1.2,50,50,60,go_to_pick_down,green,TRUE,FALSE,joint 3 +,FALSE,45:20.9,16.576,0.163,231.2,292.822052,106.5785141,84.9325943,0,20,51,0.029999999,-20
1.2,50,50,60,go_to_pick_down,green,TRUE,FALSE,joint 3 +,FALSE,45:22.3,16.671,0.162,231.2,289.9342957,105.5274582,55.05766296,0,20,51,12.18424892,-20
1.2,50,50,60,go_to_pick_up_from_pick_down,green,TRUE,FALSE,joint 3 -,TRUE,45:23.0,16.386,0.162,231.2,282.8986511,102.9666901,30.24809647,0,20,51,21.78999901,-20
1.2,50,50,60,go_to_pick_up_from_pick_down,green,TRUE,FALSE,joint 3 -,TRUE,45:23.7,16.386,0.162,231.2,291.4360046,106.074028,64.18629456,0,20,51,7.725334644,-20
1.2,50,50,60,go_to_color_detect_up,green,TRUE,FALSE,joint 1 +,TRUE,45:25.2,22.709,0.221,231.2,292.6355896,107.0894394,84.95825195,0.100002289,20.15000153,51,0,-20
1.2,50,50,60,go_to_color_detect_up,green,TRUE,FALSE,joint 1 +,TRUE,45:25.9,22.367,0.221,231.2,257.5775146,175.3782959,84.95825195,14.25,34.75,51,0,-20
1.2,50,50,60,go_to_color_detect_up,green,TRUE,FALSE,joint 1 +,TRUE,45:27.3,22.348,0.213,231.2,157.1242828,269.1016235,84.95825195,39.72000122,60.04000092,51,0,-20
1.2,50,50,60,go_to_color_detect_up,green,TRUE,FALSE,joint 3 +,TRUE,45:27.9,22.272,0.213,231.2,131.6862488,282.4020386,82.62362671,45,65,51,1.049999833,-20
1.2,50,50,60,go_to_color_detect_up,green,TRUE,FALSE,joint 3 +,TRUE,45:28.6,22.158,0.212,231.2,127.4700699,273.3604431,31.67986298,45,65,51,21.74999809,-20
1.2,50,50,60,go_to_color_detect_up,green,TRUE,FALSE,joint 3 +,TRUE,45:30.3,22.177,0.212,231.2,114.9748688,246.5643921,-15.3705368,45,65,51,43.35000229,-20
1.2,50,50,60,go_to_color_detect_up,green,TRUE,FALSE,joint 3 -,FALSE,45:31.0,22.177,0.212,231.2,111.97789,240.1373444,-22.46321869,45,65,51,46.79999924,-20
1.2,50,50,60,go_to_color_detect_up,green,TRUE,FALSE,joint 3 -,FALSE,45:32.3,16.614,0.212,231.2,125.2873077,268.6794739,19.94181061,45,65,51,25.75,-20
1.2,50,50,60,go_to_color_detect_up,green,TRUE,FALSE,joint 3 -,FALSE,45:33.0,16.614,0.17,231.2,131.5151062,282.0350342,73.80846405,45,65,51,4.06000042,-20
1.2,50,50,60,detecting_color,green,FALSE,FALSE,detecting_color,FALSE,45:34.4,16.937,0.17,231.2,131.6940765,282.4188232,84.95825195,45,65,51,0,-20
1.2,50,50,60,detecting_color,green,FALSE,FALSE,detecting_color,FALSE,45:35.1,16.766,0.168,231.2,131.6940765,282.4188232,84.95825195,45,65,51,0,-20
1.2,50,50,60,go_to_color_detect_down,green,TRUE,FALSE,joint 3 +,FALSE,45:35.8,16.519,0.168,231.2,131.6862488,282.4020386,82.62362671,45,65,51,1.049999833,-20
1.2,50,50,60,go_to_color_detect_down,green,TRUE,FALSE,joint 3 +,FALSE,45:37.2,16.519,0.163,231.2,128.5691376,275.7173767,38.92317581,45,65,51,18.74999809,-20
1.2,50,50,60,go_to_color_detect_down,green,TRUE,FALSE,joint 3 +,FALSE,45:37.9,16.519,0.163,231.2,114.520874,245.5907898,-16.50868988,45,65,51,43.94000244,-20
1.2,50,50,60,go_to_color_detect_up,green,TRUE,FALSE,joint 3 -,TRUE,45:39.2,16.595,0.162,231.2,112.0965958,240.3919067,-22.20013428,45,65,51,46.63999939,-20
1.2,50,50,60,go_to_color_detect_up,green,TRUE,FALSE,joint 3 -,TRUE,45:39.9,16.975,0.162,231.2,123.7729034,265.4318542,13.13093567,45,65,51,28.75,-20
1.2,50,50,60,go_to_color_detect_up,green,TRUE,FALSE,joint 3 -,TRUE,45:41.3,22.671,0.217,231.2,131.5151062,282.0350342,73.80846405,45,65,51,4.06000042,-20
1.2,50,50,60,go_to_blue_up,blue,TRUE,FALSE,joint 1 +,TRUE,45:42.0,22.576,0.217,231.2,125.7506714,285.1148987,84.95825195,46.19999695,66.36000061,51,0,-20
1.2,50,50,60,go_to_blue_up,blue,TRUE,FALSE,joint 1 +,TRUE,45:43.4,22.177,0.214,231.2,37.91860962,309.2990723,84.95825195,63.01068115,83.20510864,51,0,-20
1.2,50,50,60,go_to_pick_up_from_blue,blue,TRUE,FALSE,joint 1 -,FALSE,45:44.1,22.519,0.214,231.2,44.71440506,308.3899231,84.95825195,61.75,81.48999786,51,0,-20
1.2,50,50,60,go_to_pick_up_from_blue,blue,TRUE,FALSE,joint 1 -,FALSE,45:44.8,22.519,0.214,231.2,152.2615356,271.8825989,84.95825195,40.75,60.25,51,0,-20
1.2,50,50,60,go_to_pick_up_from_blue,blue,TRUE,FALSE,joint 1 -,FALSE,45:46.1,16.595,0.163,231.2,259.098175,173.1238708,84.95825195,13.75,33.25,51,0,-20
1.2,50,50,60,go_to_pick_up_from_blue,blue,TRUE,FALSE,joint 1 -,FALSE,45:46.9,16.595,0.163,231.2,292.6355896,107.0894394,84.95825195,0.100002289,20.06000137,51,0,-20
1.2,50,50,60,moving_belt,blue,FALSE,TRUE,joint 1 -,FALSE,45:48.3,16.633,0.163,231.2,292.822052,106.5785141,84.95825195,0,20,51,0,-20
1.2,50,50,60,moving_belt,blue,FALSE,TRUE,joint 1 -,FALSE,45:49.0,17.032,0.163,231.2,292.822052,106.5785141,84.95825195,0,20,51,0,-20
1.2,50,50,60,moving_belt,blue,FALSE,TRUE,joint 1 -,FALSE,45:50.4,16.31,0.164,231.2,292.822052,106.5785141,84.95825195,0,20,51,0,-20
1.2,50,50,60,moving_belt,blue,FALSE,TRUE,joint 1 -,FALSE,45:51.0,16.538,0.164,231.2,292.822052,106.5785141,84.95825195,0,20,51,0,-20
1.2,50,50,60,go_to_pick_down,blue,TRUE,FALSE,joint 3 +,FALSE,45:52.4,16.538,0.168,231.2,292.7098083,106.5376587,79.03324127,0,20,51,2.529999971,-20
1.2,50,50,60,go_to_pick_down,blue,TRUE,FALSE,joint 3 +,FALSE,45:53.1,16.538,0.168,231.2,285.2601929,103.8262253,36.9883728,0,20,51,19.28399467,-20
1.2,50,50,60,go_to_pick_up_from_pick_down,blue,TRUE,FALSE,joint 3 -,TRUE,45:53.8,16.405,0.168,231.2,284.7452087,103.6387863,35.42940521,0,20,51,19.46999931,-20
1.2,50,50,60,go_to_pick_up_from_pick_down,blue,TRUE,FALSE,joint 3 -,TRUE,45:55.2,20.81,0.179,231.2,292.7630005,106.5570221,80.65991974,0,20,51,1.497505665,-20
1.2,50,50,60,go_to_color_detect_up,blue,TRUE,FALSE,joint 1 +,TRUE,45:55.9,22.614,0.179,231.2,285.158783,125.6511307,84.95825195,3.780000687,24.06000137,51,0,-20
1.2,50,50,60,go_to_color_detect_up,blue,TRUE,FALSE,joint 1 +,TRUE,45:57.3,22.158,0.217,231.2,219.3813477,221.3041992,84.95825195,25.25,45.75,51,0,-20
1.2,50,50,60,go_to_color_detect_up,blue,TRUE,FALSE,joint 1 +,TRUE,45:58.0,22.158,0.217,231.2,134.3989563,281.1416931,84.95825195,44.45000458,64.55000305,51,0,-20
1.2,50,50,60,go_to_color_detect_up,blue,TRUE,FALSE,joint 3 +,TRUE,45:59.3,22.177,0.213,231.2,131.3593903,281.7011108,69.72015381,45,65,51,6.29999876,-20
1.2,50,50,60,go_to_color_detect_up,blue,TRUE,FALSE,joint 3 +,TRUE,46:00.0,21.931,0.213,231.2,124.0357437,265.9954834,14.2529068,45,65,51,29.24999809,-20
1.2,50,50,60,go_to_color_detect_up,blue,TRUE,FALSE,joint 3 +,TRUE,46:01.4,22.083,0.212,231.2,111.5001602,239.112854,-23.50814056,45,65,51,47.63999939,-20
1.2,50,50,60,go_to_color_detect_up,blue,TRUE,FALSE,joint 3 -,FALSE,46:02.4,22.121,0.212,231.2,115.700676,248.1208954,-13.49924469,45,65,51,41.70000076,-20
1.2,50,50,60,go_to_color_detect_up,blue,TRUE,FALSE,joint 3 -,FALSE,46:03.0,16.633,0.17,231.2,128.2206116,274.9699707,36.49372482,45,65,51,18.75,-20
1.2,50,50,60,go_to_color_detect_up,blue,TRUE,FALSE,joint 3 -,FALSE,46:04.4,16.918,0.17,231.2,131.6921692,282.4147339,83.8037262,45,65,51,0.359999537,-20
1.2,50,50,60,detecting_color,blue,FALSE,FALSE,detecting_color,FALSE,46:05.1,16.918,0.164,231.2,131.6940765,282.4188232,84.95825195,45,65,51,0,-20
1.2,50,50,60,go_to_color_detect_down,blue,TRUE,FALSE,joint 3 +,FALSE,46:05.8,16.443,0.164,231.2,131.6938629,282.418396,84.57341003,45,65,51,0.209999964,-20
1.2,50,50,60,go_to_color_detect_down,blue,TRUE,FALSE,joint 3 +,FALSE,46:07.2,16.405,0.163,231.2,128.8996887,276.4262695,41.366642,45,65,51,17.74999809,-20
1.2,50,50,60,go_to_color_detect_down,blue,TRUE,FALSE,joint 3 +,FALSE,46:08.1,16.462,0.163,231.2,116.7458878,250.3623505,-10.6860733,45,65,51,40.97000122,-20
1.2,50,50,60,go_to_color_detect_up,blue,TRUE,FALSE,joint 3 -,TRUE,46:08.8,16.462,0.163,231.2,111.2193604,238.5106812,-24.11220551,45,65,51,47.85000229,-20
1.2,50,50,60,go_to_color_detect_up,blue,TRUE,FALSE,joint 3 -,TRUE,46:10.2,23.127,0.162,231.2,122.680481,263.0891418,8.69858551,45,65,51,30.75,-20
1.2,50,50,60,go_to_color_detect_up,blue,TRUE,FALSE,joint 3 -,TRUE,46:10.9,22.557,0.162,231.2,131.1192932,281.1862183,65.00805664,45,65,51,7.410000801,-20
1.2,50,50,60,go_to_red_up,red,TRUE,FALSE,joint 1 +,TRUE,46:12.2,22.595,0.217,231.2,129.4719238,283.444458,84.95825195,45.44999695,65.54999542,51,0,-20
1.2,50,50,60,go_to_red_up,red,TRUE,FALSE,joint 1 +,TRUE,46:12.9,22.215,0.217,231.2,47.40386581,307.9880066,84.95825195,61.25,81.75,51,0,-20
1.2,50,50,60,go_to_red_up,red,TRUE,FALSE,joint 1 +,TRUE,46:14.3,22.177,0.213,231.2,-81.9644165,300.6419373,84.95825195,85.25,105.75,51,0,-20
1.2,50,50,60,go_to_red_up,red,TRUE,FALSE,joint 1 +,TRUE,46:15.1,22.253,0.213,231.2,-176.2763824,256.9637146,84.95825195,104.4500046,124.5500031,51,0,-20
1.2,50,50,60,go_to_pick_up_from_red,red,TRUE,FALSE,joint 1 -,FALSE,46:16.4,18.551,0.214,231.2,-154.4867249,270.6244202,84.95825195,99.72000122,119.3899994,51,0,-20
1.2,50,50,60,go_to_pick_up_from_red,red,TRUE,FALSE,joint 1 -,FALSE,46:17.1,18.551,0.214,231.2,-39.32546616,309.1233215,84.95825195,77.25,96.75,51,0,-20
1.2,50,50,60,go_to_pick_up_from_red,red,TRUE,FALSE,joint 1 -,FALSE,46:17.8,16.405,0.162,231.2,105.2998352,293.2843018,84.95825195,50.25,69.75,51,0,-20
1.2,50,50,60,go_to_pick_up_from_red,red,TRUE,FALSE,joint 1 -,FALSE,46:19.2,16.538,0.162,231.2,215.4856415,225.0992432,84.95825195,26.25,45.75,51,0,-20
1.2,50,50,60,go_to_pick_up_from_red,red,TRUE,FALSE,joint 1 -,FALSE,46:19.9,16.538,0.163,231.2,283.8946533,128.4817505,84.95825195,4.350004196,24.06000519,51,0,-20
1.2,50,50,60,moving_belt,red,FALSE,TRUE,joint 1 -,FALSE,46:21.3,16.443,0.163,231.2,292.822052,106.5785141,84.95825195,0,20,51,0,-20
1.2,50,50,60,moving_belt,red,FALSE,TRUE,joint 1 -,FALSE,46:22.0,16.443,0.166,231.2,292.822052,106.5785141,84.95825195,0,20,51,0,-20
1.2,50,50,60,moving_belt,red,FALSE,TRUE,joint 1 -,FALSE,46:23.4,16.538,0.166,231.2,292.822052,106.5785141,84.95825195,0,20,51,0,-20
1.2,50,50,60,moving_belt,red,FALSE,TRUE,joint 1 -,FALSE,46:24.1,16.69,0.166,231.2,292.822052,106.5785141,84.95825195,0,20,51,0,-20
1.2,50,50,60,go_to_pick_down,red,TRUE,FALSE,joint 3 +,FALSE,46:24.8,16.69,0.165,231.2,292.822052,106.5785141,84.95825195,0,20,51,0,-20
1.2,50,50,60,go_to_pick_down,red,TRUE,FALSE,joint 3 +,FALSE,46:26.3,16.5,0.165,231.2,290.5744324,105.7604446,58.54811859,0,20,51,10.80999947,-20
1.2,50,50,60,go_to_pick_up_from_pick_down,red,TRUE,FALSE,joint 3 -,TRUE,46:27.0,16.5,0.161,231.2,282.7907104,102.9273987,29.96245575,0,20,51,21.93999863,-20
1.2,50,50,60,go_to_pick_up_from_pick_down,red,TRUE,FALSE,joint 3 -,TRUE,46:28.4,22.785,0.161,231.2,290.9759827,105.906601,61.005867,0,20,51,8.949584007,-20
1.2,50,50,60,go_to_color_detect_up,red,TRUE,FALSE,joint 1 +,TRUE,46:29.1,22.785,0.216,231.2,292.7662048,106.7318192,84.95825195,0.030000687,20.06000137,51,0,-20
1.2,50,50,60,go_to_color_detect_up,red,TRUE,FALSE,joint 1 +,TRUE,46:29.8,22.348,0.216,229.3,254.4775085,179.8469391,84.95825195,15.25,35.75,51,0,-20
1.2,50,50,60,go_to_color_detect_up,red,TRUE,FALSE,joint 1 +,TRUE,46:31.2,22.026,0.212,229.3,163.5595703,265.239502,84.95825195,38.34000015,58.70000076,51,0,-20
1.2,50,50,60,go_to_color_detect_up,red,TRUE,FALSE,joint 3 +,TRUE,46:32.0,22.064,0.212,231.2,131.6912079,282.4126892,83.54717255,45,65,51,0.659999847,-20
1.2,50,50,60,go_to_color_detect_up,red,TRUE,FALSE,joint 3 +,TRUE,46:33.4,21.95,0.211,231.2,128.0396423,274.5818787,35.28449631,45,65,51,20.24999809,-20
1.2,50,50,60,go_to_color_detect_up,red,TRUE,FALSE,joint 3 +,TRUE,46:34.1,21.855,0.211,231.2,115.4529572,247.5896606,-14.14525604,45,65,51,42.72000122,-20
1.2,50,50,60,go_to_color_detect_up,red,TRUE,FALSE,joint 3 -,FALSE,46:34.8,21.817,0.21,231.2,111.5801086,239.2843018,-23.33481598,45,65,51,47.34000015,-20
1.2,50,50,60,go_to_color_detect_up,red,TRUE,FALSE,joint 3 -,FALSE,46:36.2,19.576,0.21,231.2,124.2944183,266.5502319,15.38025665,45,65,51,27.75,-20
1.2,50,50,60,go_to_color_detect_up,red,TRUE,FALSE,joint 3 -,FALSE,46:37.0,16.823,0.17,231.2,131.3965149,281.7807312,70.58802795,45,65,51,5.280000687,-20
1.2,50,50,60,detecting_color,red,FALSE,FALSE,detecting_color,FALSE,46:37.9,16.823,0.17,231.2,131.6940765,282.4188232,84.95825195,45,65,51,0,-20
1.2,50,50,60,detecting_color,red,FALSE,FALSE,detecting_color,FALSE,46:39.3,16.329,0.166,231.2,131.6940765,282.4188232,84.95825195,45,65,51,0,-20
1.2,50,50,60,detecting_color,red,FALSE,FALSE,detecting_color,FALSE,46:40.0,16.329,0.166,231.2,131.6940765,282.4188232,84.95825195,45,65,51,0,-20
1.2,50,50,60,detecting_color,red,FALSE,FALSE,detecting_color,FALSE,46:41.4,16.348,0.161,231.2,131.6940765,282.4188232,84.95825195,45,65,51,0,-20
1.2,50,50,60,detecting_color,red,FALSE,FALSE,detecting_color,FALSE,46:42.1,16.386,0.161,231.2,131.6940765,282.4188232,84.95825195,45,65,51,0,-20
1.2,50,50,60,detecting_color,red,FALSE,FALSE,detecting_color,FALSE,46:42.8,16.386,0.161,231.2,131.6940765,282.4188232,84.95825195,45,65,51,0,-20
1.2,50,50,60,go_to_color_detect_down,red,TRUE,FALSE,joint 3 +,FALSE,46:44.4,16.348,0.161,231.2,131.430481,281.8535461,71.43087006,45,65,51,5.609998703,-20
1.2,50,50,60,go_to_color_detect_down,red,TRUE,FALSE,joint 3 +,FALSE,46:45.1,16.348,0.161,231.2,124.5489502,267.0960693,16.51292419,45,65,51,28.24999809,-20
1.2,50,50,60,go_to_color_detect_down,red,TRUE,FALSE,joint 3 +,FALSE,46:45.8,16.31,0.161,231.2,112.35672,240.9497528,-21.61878204,45,65,51,46.63999939,-20
1.2,50,50,60,go_to_color_detect_up,red,TRUE,FALSE,joint 3 -,TRUE,46:47.2,16.272,0.161,231.2,115.210968,247.0707092,-14.76892853,45,65,51,42.38999939,-20
1.2,50,50,60,go_to_color_detect_up,red,TRUE,FALSE,joint 3 -,TRUE,46:47.9,22.88,0.22,231.2,127.8542175,274.1842346,34.07904434,45,65,51,19.75,-20
1.2,50,50,60,go_to_color_detect_up,red,TRUE,FALSE,joint 3 -,TRUE,46:49.3,22.386,0.22,231.2,131.6765747,282.3812866,81.46931458,45,65,51,1.200000048,-20
1.2,50,50,60,go_to_green_up,green,TRUE,FALSE,joint 1 +,TRUE,46:50.0,22.367,0.214,231.2,111.3680191,291.0341797,84.95825195,49.05999756,69.34999847,51,0,-20
1.2,50,50,60,go_to_green_up,green,TRUE,FALSE,joint 1 +,TRUE,46:51.4,22.14,0.214,231.2,-20.21778297,310.9581604,84.95825195,73.72000122,94.19000244,51,0,-20
1.2,50,50,60,go_to_pick_up_from_green,green,TRUE,FALSE,joint 1 -,FALSE,46:52.1,22.14,0.212,231.2,-80.65180969,300.9967041,84.95825195,85,105,51,0,-20
1.2,50,50,60,go_to_pick_up_from_green,green,TRUE,FALSE,joint 1 -,FALSE,46:53.5,16.918,0.212,231.2,-12.23395538,311.3744507,84.95825195,72.25,91.75,51,0,-20
1.2,50,50,60,go_to_pick_up_from_green,green,TRUE,FALSE,joint 1 -,FALSE,46:54.2,16.918,0.161,231.2,115.471138,289.4307251,84.95825195,48.25,67.75,51,0,-20
1.2,50,50,60,go_to_pick_up_from_green,green,TRUE,FALSE,joint 1 -,FALSE,46:54.9,16.329,0.161,231.2,221.3041992,219.3813477,84.95825195,24.75,44.25,51,0,-20
1.2,50,50,60,go_to_pick_up_from_green,green,TRUE,FALSE,joint 1 -,FALSE,46:55.5,16.329,0.161,231.2,288.7199707,117.23703,84.95825195,2.100002289,21.90000153,51,0,-20
1.2,50,50,60,moving_belt,green,FALSE,TRUE,joint 1 -,FALSE,46:57.5,16.367,0.161,231.2,292.822052,106.5785141,84.95825195,0,20,51,0,-20
1.2,50,50,60,moving_belt,green,FALSE,TRUE,joint 1 -,FALSE,46:58.1,16.367,0.161,231.2,292.822052,106.5785141,84.95825195,0,20,51,0,-20
1.2,50,50,60,moving_belt,green,FALSE,TRUE,joint 1 -,FALSE,46:58.8,16.595,0.165,231.2,292.822052,106.5785141,84.95825195,0,20,51,0,-20
1.2,50,50,60,moving_belt,green,FALSE,TRUE,joint 1 -,FALSE,47:00.2,16.538,0.165,231.2,292.822052,106.5785141,84.95825195,0,20,51,0,-20
1.2,50,50,60,go_to_pick_down,green,TRUE,FALSE,joint 3 +,FALSE,47:00.9,16.443,0.163,231.2,292.822052,106.5785141,84.95825195,0,20,51,0.01,-20
1.2,50,50,60,go_to_pick_down,green,TRUE,FALSE,joint 3 +,FALSE,47:02.3,16.386,0.163,231.2,288.5571289,105.026207,48.71238708,0,20,51,14.66274738,-20
1.2,50,50,60,go_to_pick_up_from_pick_down,green,TRUE,FALSE,joint 3 -,TRUE,47:03.0,16.31,0.161,231.2,282.9523926,102.9862595,30.39100266,0,20,51,21.71999931,-20
1.2,50,50,60,go_to_pick_up_from_pick_down,green,TRUE,FALSE,joint 3 -,TRUE,47:04.4,22.975,0.161,231.2,291.5683289,106.1222,65.19787598,0,20,51,7.337251663,-20
1.2,50,50,60,go_to_color_detect_up,green,TRUE,FALSE,joint 1 +,TRUE,47:05.1,22.31,0.215,231.2,291.3440552,110.5548782,84.95825195,0.780002594,20.91000175,51,0,-20
1.2,50,50,60,go_to_color_detect_up,green,TRUE,FALSE,joint 1 +,TRUE,47:06.4,22.31,0.215,231.2,246.3905182,190.7759247,84.95825195,17.75,38.25,51,0,-20
1.2,50,50,60,go_to_color_detect_up,green,TRUE,FALSE,joint 1 +,TRUE,47:07.1,22.026,0.213,231.2,155.6189117,269.9749756,84.95825195,40.04000092,60.35000229,51,0,-20
1.2,50,50,60,go_to_color_detect_up,green,TRUE,FALSE,joint 3 +,TRUE,47:07.9,21.969,0.213,231.2,131.6523438,282.3293457,79.57162476,45,65,51,2.309999704,-20
1.2,50,50,60,go_to_color_detect_up,green,TRUE,FALSE,joint 3 +,TRUE,47:08.7,21.969,0.213,231.2,127.4700699,273.3604431,31.67986298,45,65,51,21.74999809,-20
1.2,50,50,60,go_to_color_detect_up,green,TRUE,FALSE,joint 3 +,TRUE,47:10.4,21.912,0.212,231.2,114.7447968,246.0709991,-15.95037079,45,65,51,43.65000153,-20
1.2,50,50,60,go_to_color_detect_up,green,TRUE,FALSE,joint 3 -,FALSE,47:11.1,21.912,0.215,231.2,112.8026962,241.9061432,-20.60631561,45,65,51,45.69000244,-20
1.2,50,50,60,go_to_color_detect_up,green,TRUE,FALSE,joint 3 -,FALSE,47:12.5,20.564,0.215,231.2,125.2873077,268.6794739,19.94181061,45,65,51,25.75,-20
1.2,50,50,60,go_to_color_detect_up,green,TRUE,FALSE,joint 3 -,FALSE,47:13.2,16.728,0.215,231.2,131.5381622,282.0845032,74.55049133,45,65,51,3.780000448,-20
1.2,50,50,60,detecting_color,green,FALSE,FALSE,detecting_color,FALSE,47:13.9,16.728,0.17,231.2,131.6940765,282.4188232,84.95825195,45,65,51,0,-20
1.2,50,50,60,detecting_color,green,FALSE,FALSE,detecting_color,FALSE,47:15.2,16.424,0.17,231.2,131.6940765,282.4188232,84.95825195,45,65,51,0,-20
1.2,50,50,60,go_to_color_detect_down,green,TRUE,FALSE,joint 3 +,FALSE,47:15.9,16.424,0.166,231.2,131.4895782,281.9803162,73.04114532,45,65,51,4.959999084,-20
1.2,50,50,60,go_to_color_detect_down,green,TRUE,FALSE,joint 3 +,FALSE,47:17.3,16.481,0.166,231.2,125.0454025,268.1607361,18.7937851,45,65,51,27.24999809,-20
1.2,50,50,60,go_to_color_detect_down,green,TRUE,FALSE,joint 3 +,FALSE,47:18.0,16.367,0.166,231.2,112.6466904,241.5715942,-20.96276093,45,65,51,46.29000092,-20
1.2,50,50,60,go_to_color_detect_up,green,TRUE,FALSE,joint 3 -,TRUE,47:19.4,16.367,0.166,231.2,114.7447968,246.0709991,-15.95037079,45,65,51,43.04000092,-20
1.2,50,50,60,go_to_color_detect_up,green,TRUE,FALSE,joint 3 -,TRUE,47:19.4,16.367,0.166,231.2,127.6643524,273.7770691,32.87746811,45,65,51,20.25,-20
1.2,50,50,60,go_to_color_detect_up,green,TRUE,FALSE,joint 3 -,TRUE,47:21.4,22.386,0.224,231.2,131.6664124,282.3594971,80.57167053,45,65,51,1.53000021,-20
1.2,50,50,60,go_to_blue_up,blue,TRUE,FALSE,joint 1 +,TRUE,47:22.0,22.5,0.218,231.2,105.1462708,293.339386,84.95825195,50.27999878,70.61000061,51,0,-20
1.2,50,50,60,go_to_blue_up,blue,TRUE,FALSE,joint 1 +,TRUE,47:23.4,22.045,0.218,231.2,29.32886314,310.2314453,84.95825195,64.59938049,84.68380737,51,0,-20
1.2,50,50,60,go_to_pick_up_from_blue,blue,TRUE,FALSE,joint 1 -,FALSE,47:24.1,22.045,0.216,231.2,62.97845078,305.1842957,84.95825195,58.34000397,77.97000122,51,0,-20
1.2,50,50,60,go_to_pick_up_from_blue,blue,TRUE,FALSE,joint 1 -,FALSE,47:24.8,17.677,0.216,231.2,190.7759094,246.3905182,84.95825195,32.25,51.75,51,0,-20
1.2,50,50,60,go_to_pick_up_from_blue,blue,TRUE,FALSE,joint 1 -,FALSE,47:26.2,16.386,0.166,231.2,273.5663757,149.2151794,84.95825195,8.61000061,28.20000076,51,0,-20
1.2,50,50,60,moving_belt,blue,FALSE,TRUE,joint 1 -,FALSE,47:26.9,16.405,0.166,231.2,292.822052,106.5785141,84.95825195,0,20,51,0,-20
1.2,50,50,60,moving_belt,blue,FALSE,TRUE,joint 1 -,FALSE,47:28.3,16.747,0.171,231.2,292.822052,106.5785141,84.95825195,0,20,51,0,-20
1.2,50,50,60,moving_belt,blue,FALSE,TRUE,joint 1 -,FALSE,47:29.0,16.747,0.171,231.2,292.822052,106.5785141,84.95825195,0,20,51,0,-20
1.2,50,50,60,moving_belt,blue,FALSE,TRUE,joint 1 -,FALSE,47:30.2,16.538,0.171,231.2,292.822052,106.5785141,84.95825195,0,20,51,0,-20
1.2,50,50,60,moving_belt,blue,FALSE,TRUE,joint 1 -,FALSE,47:30.9,16.614,0.168,231.2,292.822052,106.5785141,84.95825195,0,20,51,0,-20
1.2,50,50,60,go_to_pick_down,blue,TRUE,FALSE,joint 3 +,FALSE,47:32.3,16.728,0.168,231.2,292.1604309,106.3377075,70.58802795,0,20,51,5.950000286,-20
1.2,50,50,60,go_to_pick_down,blue,TRUE,FALSE,joint 3 +,FALSE,47:33.0,16.519,0.166,231.2,283.3327637,103.1246948,31.4145546,0,20,51,21.46907616,-20
1.2,50,50,60,go_to_pick_up_from_pick_down,blue,TRUE,FALSE,joint 3 -,TRUE,47:34.3,18.152,0.166,231.2,287.4376831,104.6187668,44.31626129,0,20,51,15.69999886,-20
1.2,50,50,60,go_to_pick_up_from_pick_down,blue,TRUE,FALSE,joint 3 -,TRUE,47:35.0,22.747,0.225,231.2,292.8216553,106.5783691,84.59776306,0,20,51,0.092424661,-20
1.2,50,50,60,go_to_color_detect_up,blue,TRUE,FALSE,joint 1 +,TRUE,47:36.4,22.291,0.225,231.2,274.6271057,147.2537842,84.95825195,8.200000763,28.61000061,51,0,-20
1.2,50,50,60,go_to_color_detect_up,blue,TRUE,FALSE,joint 1 +,TRUE,47:37.1,22.329,0.217,231.2,192.9187927,244.7163086,84.95825195,31.75,52.25,51,0,-20
1.2,50,50,60,go_to_color_detect_up,blue,TRUE,FALSE,joint 3 +,TRUE,47:38.5,22.291,0.217,231.2,131.6940765,282.4188232,84.95825195,45,65,51,0.009999998,-20
1.2,50,50,60,go_to_color_detect_up,blue,TRUE,FALSE,joint 3 +,TRUE,47:39.2,22.253,0.217,231.2,130.3900604,279.6223755,54.99779892,45,65,51,12.24999809,-20
1.2,50,50,60,go_to_color_detect_up,blue,TRUE,FALSE,joint 3 +,TRUE,47:39.9,22.007,0.217,231.2,118.1616211,253.3983917,-6.631698608,45,65,51,38.97000122,-20
1.2,50,50,60,go_to_color_detect_up,blue,TRUE,FALSE,joint 3 -,FALSE,47:41.5,22.121,0.216,231.2,111.1388397,238.3379974,-24.28404236,45,65,51,47.99000168,-20
1.2,50,50,60,go_to_color_detect_up,blue,TRUE,FALSE,joint 3 -,FALSE,47:42.2,22.121,0.216,231.2,119.988121,257.3153381,-0.926452637,45,65,51,35.25,-20
1.2,50,50,60,go_to_color_detect_up,blue,TRUE,FALSE,joint 3 -,FALSE,47:42.9,16.671,0.216,231.2,130.3900604,279.6223755,54.9977951,45,65,51,11.28000069,-20
1.2,50,50,60,detecting_color,blue,FALSE,FALSE,detecting_color,FALSE,47:44.3,16.994,0.17,231.2,131.6940765,282.4188232,84.95825195,45,65,51,0,-20
1.2,50,50,60,detecting_color,blue,FALSE,FALSE,detecting_color,FALSE,47:45.0,16.728,0.17,231.2,131.6940765,282.4188232,84.95825195,45,65,51,0,-20
1.2,50,50,60,go_to_color_detect_down,blue,TRUE,FALSE,joint 3 +,FALSE,47:46.4,16.576,0.168,231.2,131.430481,281.8535461,71.43087006,45,65,51,5.609998703,-20
1.2,50,50,60,go_to_color_detect_down,blue,TRUE,FALSE,joint 3 +,FALSE,47:47.3,16.576,0.168,231.2,124.2944183,266.5502319,15.38025665,45,65,51,28.74999809,-20
1.2,50,50,60,go_to_color_detect_down,blue,TRUE,FALSE,joint 3 +,FALSE,47:48.0,16.367,0.167,231.2,112.2229004,240.6627655,-21.91872406,45,65,51,46.79999924,-20
1.2,50,50,60,go_to_color_detect_up,blue,TRUE,FALSE,joint 3 -,TRUE,47:49.4,16.443,0.205,231.2,115.4529572,247.5896606,-14.14525604,45,65,51,42.04999924,-20
1.2,50,50,60,go_to_color_detect_up,blue,TRUE,FALSE,joint 3 -,TRUE,47:50.1,22.842,0.205,231.2,128.0396423,274.5818787,35.28449249,45,65,51,19.25,-20
1.2,50,50,60,go_to_color_detect_up,blue,TRUE,FALSE,joint 3 -,TRUE,47:51.5,22.557,0.221,231.2,131.6765747,282.3812866,81.46931458,45,65,51,1.200000048,-20
1.2,50,50,60,go_to_red_up,red,TRUE,FALSE,joint 1 +,TRUE,47:52.1,22.291,0.221,231.2,103.4549789,293.9401245,84.95825195,50.61000061,70.94999695,51,0,-20
1.2,50,50,60,go_to_red_up,red,TRUE,FALSE,joint 1 +,TRUE,47:52.8,22.291,0.221,231.2,-17.66633224,311.1135559,84.95825195,73.25,93.75,51,0,-20
1.2,50,50,60,go_to_red_up,red,TRUE,FALSE,joint 1 +,TRUE,47:54.3,22.272,0.218,231.2,-142.4384766,277.1552124,84.95825195,97.20000458,117.590004,51,0,-20
1.2,50,50,60,go_to_pick_up_from_red,red,TRUE,FALSE,joint 1 -,FALSE,47:55.0,22.367,0.218,231.2,-178.2891083,255.5713501,84.95825195,104.9000015,124.8499985,51,0,-20
1.2,50,50,60,go_to_pick_up_from_red,red,TRUE,FALSE,joint 1 -,FALSE,47:56.4,19.519,0.217,231.2,-97.5864563,295.9402466,84.95825195,88.25,107.75,51,0,-20
1.2,50,50,60,go_to_pick_up_from_red,red,TRUE,FALSE,joint 1 -,FALSE,47:57.1,16.633,0.217,231.2,31.22006989,310.0468445,84.95825195,64.25,83.75,51,0,-20
1.2,50,50,60,go_to_pick_up_from_red,red,TRUE,FALSE,joint 1 -,FALSE,47:58.5,16.557,0.163,231.2,154.6283569,270.5435181,84.95825195,40.25,59.75,51,0,-20
1.2,50,50,60,go_to_pick_up_from_red,red,TRUE,FALSE,joint 1 -,FALSE,47:59.2,16.557,0.163,231.2,259.098175,173.1238708,84.95825195,13.75,33.25,51,0,-20
1.2,50,50,60,go_to_pick_up_from_red,red,TRUE,FALSE,joint 1 -,FALSE,48:00.1,16.576,0.163,231.2,292.6355591,107.0894623,84.95825195,0.100008011,20.060009,51,0,-20
1.2,50,50,60,moving_belt,red,FALSE,TRUE,joint 1 -,FALSE,48:01.5,16.462,0.163,233.1,292.822052,106.5785141,84.95825195,0,20,51,0,-20
1.2,50,50,60,moving_belt,red,FALSE,TRUE,joint 1 -,FALSE,48:02.2,16.538,0.167,233.1,292.822052,106.5785141,84.95825195,0,20,51,0,-20
1.2,50,50,60,moving_belt,red,FALSE,TRUE,joint 1 -,FALSE,48:02.9,16.538,0.167,233.1,292.822052,106.5785141,84.95825195,0,20,51,0,-20
1.2,50,50,60,moving_belt,red,FALSE,TRUE,joint 1 -,FALSE,48:04.3,16.785,0.165,233.1,292.822052,106.5785141,84.95825195,0,20,51,0,-20
1.2,50,50,60,go_to_pick_down,red,TRUE,FALSE,joint 3 +,FALSE,48:04.3,16.785,0.165,233.1,292.6874084,106.5295105,78.46930695,0,20,51,2.75999999,-20
1.2,50,50,60,go_to_pick_down,red,TRUE,FALSE,joint 3 +,FALSE,48:06.2,16.595,0.165,233.1,285.0717773,103.757637,36.41139221,0,20,51,19.51207733,-20
1.2,50,50,60,go_to_pick_up_from_pick_down,red,TRUE,FALSE,joint 3 -,TRUE,48:06.9,16.633,0.162,233.1,286.105896,104.1340332,39.67918396,0,20,51,17.64999771,-20
1.2,50,50,60,go_to_pick_up_from_pick_down,red,TRUE,FALSE,joint 3 -,TRUE,48:08.4,23.203,0.162,233.1,292.7748718,106.5613403,81.11663818,0,20,51,1.329422474,-20
1.2,50,50,60,go_to_color_detect_up,red,TRUE,FALSE,joint 1 +,TRUE,48:09.1,22.633,0.22,233.1,285.158783,125.6511307,84.95825195,3.780000687,24.06000137,51,0,-20
1.2,50,50,60,go_to_color_detect_up,red,TRUE,FALSE,joint 1 +,TRUE,48:10.5,22.462,0.22,233.1,205.4618378,234.2843628,84.95825195,28.75,49.25,51,0,-20
1.2,50,50,60,go_to_color_detect_up,red,TRUE,FALSE,joint 1 +,TRUE,48:11.3,22.462,0.218,233.1,133.9080658,281.375824,84.95825195,44.55000305,64.63999939,51,0,-20
1.2,50,50,60,go_to_color_detect_up,red,TRUE,FALSE,joint 3 +,TRUE,48:12.0,22.405,0.218,233.1,131.3189087,281.6142883,68.82730865,45,65,51,6.659998894,-20
1.2,50,50,60,go_to_color_detect_up,red,TRUE,FALSE,joint 3 +,TRUE,48:13.3,22.177,0.212,233.1,123.5059433,264.8593445,12.01442719,45,65,51,30.24999809,-20
1.2,50,50,60,go_to_color_detect_up,red,TRUE,FALSE,joint 3 +,TRUE,48:14.0,22.177,0.212,233.1,111.3639755,238.8208008,-23.80205536,45,65,51,47.79000092,-20
1.2,50,50,60,go_to_color_detect_up,red,TRUE,FALSE,joint 3 -,FALSE,48:15.4,22.007,0.211,233.1,116.4767685,249.7852325,-11.42433167,45,65,51,40.59000015,-20
1.2,50,50,60,go_to_color_detect_up,red,TRUE,FALSE,joint 3 -,FALSE,48:16.1,22.007,0.211,233.1,128.7366791,276.0766602,40.14319611,45,65,51,17.25,-20
1.2,50,50,60,go_to_color_detect_up,red,TRUE,FALSE,joint 3 -,FALSE,48:17.5,17.089,0.166,233.1,131.6936646,282.4179382,84.41947174,45,65,51,0.149999335,-20
1.2,50,50,60,detecting_color,red,FALSE,FALSE,detecting_color,FALSE,48:18.2,17.089,0.166,233.1,131.6940765,282.4188232,84.95825195,45,65,51,0,-20
1.2,50,50,60,detecting_color,red,FALSE,FALSE,detecting_color,FALSE,48:18.9,16.728,0.166,233.1,131.6940765,282.4188232,84.95825195,45,65,51,0,-20
1.2,50,50,60,detecting_color,red,FALSE,FALSE,detecting_color,FALSE,48:20.4,16.747,0.164,233.1,131.6940765,282.4188232,84.95825195,45,65,51,0,-20
1.2,50,50,60,detecting_color,red,FALSE,FALSE,detecting_color,FALSE,48:21.1,16.614,0.164,233.1,131.6940765,282.4188232,84.95825195,45,65,51,0,-20
1.2,50,50,60,go_to_color_detect_down,red,TRUE,FALSE,joint 3 +,FALSE,48:22.5,16.595,0.163,233.1,130.7689819,280.4349976,59.68467712,45,65,51,10.34999847,-20
1.2,50,50,60,go_to_color_detect_down,red,TRUE,FALSE,joint 3 +,FALSE,48:23.2,16.595,0.163,233.1,121.224144,259.9660034,3.289428711,45,65,51,34.25,-20
1.2,50,50,60,go_to_color_detect_down,red,TRUE,FALSE,joint 3 +,TRUE,48:23.9,16.614,0.162,233.1,111.1388397,238.3379974,-24.28404236,45,65,51,48,-20
1.2,50,50,60,go_to_color_detect_up,red,TRUE,FALSE,joint 3 -,TRUE,48:25.3,16.652,0.162,233.1,118.4574356,254.0327759,-5.746017456,45,65,51,37.65000153,-20
1.2,50,50,60,go_to_color_detect_up,red,TRUE,FALSE,joint 3 -,TRUE,48:25.9,23.203,0.218,233.1,129.782547,278.3195801,48.77371597,45,65,51,13.75,-20
1.2,50,50,60,go_to_green_up,green,TRUE,FALSE,joint 1 +,TRUE,48:27.3,22.595,0.218,233.1,131.6940765,282.4188232,84.95825195,45,65,51,0,-20
1.2,50,50,60,go_to_green_up,green,TRUE,FALSE,joint 1 +,TRUE,48:28.0,22.595,0.214,233.1,78.81162262,301.4837646,84.95825195,55.34999847,75.80999756,51,0,-20
1.2,50,50,60,go_to_green_up,green,TRUE,FALSE,joint 1 +,TRUE,48:29.4,22.462,0.214,233.1,-45.19883728,308.3193054,84.95825195,78.34000397,98.70000458,51,0,-20
1.2,50,50,60,go_to_pick_up_from_green,green,TRUE,FALSE,joint 1 -,FALSE,48:30.1,22.291,0.213,233.1,-75.12258148,302.4241028,84.95825195,83.95000458,103.8000031,51,0,-20
1.2,50,50,60,go_to_pick_up_from_green,green,TRUE,FALSE,joint 1 -,FALSE,48:30.8,22.291,0.213,233.1,20.38055992,310.9475403,84.95825195,66.25,85.75,51,0,-20
1.2,50,50,60,go_to_pick_up_from_green,green,TRUE,FALSE,joint 1 -,FALSE,48:32.0,17.108,0.213,233.1,145.0923309,275.775177,84.95825195,42.25,61.75,51,0,-20
1.2,50,50,60,go_to_pick_up_from_green,green,TRUE,FALSE,joint 1 -,FALSE,48:33.4,16.652,0.163,233.1,254.4775085,179.8469391,84.95825195,15.25,34.75,51,0,-20
1.2,50,50,60,go_to_pick_up_from_green,green,TRUE,FALSE,joint 1 -,FALSE,48:34.1,16.652,0.163,233.1,292.297699,108.0082397,84.95825195,0.280000687,20.21000099,51,0,-20
1.2,50,50,60,moving_belt,green,FALSE,TRUE,joint 1 -,FALSE,48:35.5,16.557,0.163,233.1,292.822052,106.5785141,84.95825195,0,20,51,0,-20
1.2,50,50,60,moving_belt,green,FALSE,TRUE,joint 1 -,FALSE,48:36.2,16.614,0.163,233.1,292.822052,106.5785141,84.95825195,0,20,51,0,-20
1.2,50,50,60,moving_belt,green,FALSE,TRUE,joint 1 -,FALSE,48:36.9,16.614,0.167,233.1,292.822052,106.5785141,84.95825195,0,20,51,0,-20
1.2,50,50,60,moving_belt,green,FALSE,TRUE,joint 1 -,FALSE,48:38.3,16.633,0.167,233.1,292.822052,106.5785141,84.95825195,0,20,51,0,-20
1.2,50,50,60,go_to_pick_down,green,TRUE,FALSE,joint 3 +,FALSE,48:39.0,16.671,0.167,233.1,292.7461243,106.5508728,80.08444214,0,20,51,2.099999905,-20
1.2,50,50,60,go_to_pick_down,green,TRUE,FALSE,joint 3 +,FALSE,48:40.4,16.633,0.167,233.1,285.6533203,103.9693146,38.21777344,0,20,51,18.79782867,-20
1.2,50,50,60,go_to_pick_up_from_pick_down,green,TRUE,FALSE,joint 3 -,TRUE,48:41.0,16.329,0.161,233.1,284.2507019,103.4588013,33.98278046,0,20,51,20.09999847,-20
1.2,50,50,60,go_to_pick_up_from_pick_down,green,TRUE,FALSE,joint 3 -,TRUE,48:42.4,22.975,0.161,233.1,292.7136841,106.5390701,79.13619995,0,20,51,2.06175518,-20
1.2,50,50,60,go_to_color_detect_up,green,TRUE,FALSE,joint 1 +,TRUE,48:43.1,22.329,0.213,233.1,286.842865,121.757576,84.95825195,3,23.25,51,0,-20
1.2,50,50,60,go_to_color_detect_up,green,TRUE,FALSE,joint 1 +,TRUE,48:44.5,22.158,0.213,233.1,213.5130768,226.9711304,84.95825195,26.75,47.25,51,0,-20
1.2,50,50,60,go_to_color_detect_up,green,TRUE,FALSE,joint 1 +,TRUE,48:45.2,22.158,0.21,233.1,135.5264435,280.5999146,84.95825195,44.22000122,64.34000397,51,0,-20
1.2,50,50,60,go_to_color_detect_up,green,TRUE,FALSE,joint 3 +,TRUE,48:45.9,22.158,0.21,233.1,131.3965149,281.7807312,70.58803558,45,65,51,5.949998856,-20
1.2,50,50,60,go_to_color_detect_up,green,TRUE,FALSE,joint 3 +,TRUE,48:47.3,21.912,0.209,233.1,124.2944183,266.5502319,15.38025665,45,65,51,28.74999809,-20
1.2,50,50,60,go_to_color_detect_up,green,TRUE,FALSE,joint 3 +,TRUE,48:48.0,21.912,0.209,233.1,111.5801086,239.2843018,-23.33481598,45,65,51,47.54999924,-20
1.2,50,50,60,go_to_color_detect_up,green,TRUE,FALSE,joint 3 -,FALSE,48:49.4,21.836,0.209,233.1,115.4529572,247.5896606,-14.14525604,45,65,51,42.04999924,-20
1.2,50,50,60,go_to_color_detect_up,green,TRUE,FALSE,joint 3 -,FALSE,48:50.1,21.836,0.209,231.2,128.0396423,274.5818787,35.28449249,45,65,51,19.25,-20
1.2,50,50,60,go_to_color_detect_up,green,TRUE,FALSE,joint 3 -,FALSE,48:51.4,16.937,0.166,231.2,131.6912079,282.4126892,83.54717255,45,65,51,0.449999571,-20
1.2,50,50,60,detecting_color,green,FALSE,FALSE,detecting_color,FALSE,48:52.1,16.937,0.166,233.1,131.6940765,282.4188232,84.95825195,45,65,51,0,-20
1.2,50,50,60,go_to_color_detect_down,green,TRUE,FALSE,joint 3 +,FALSE,48:53.5,16.538,0.163,233.1,131.6940765,282.4188232,84.95825195,45,65,51,0,-20
1.2,50,50,60,go_to_color_detect_down,green,TRUE,FALSE,joint 3 +,FALSE,48:54.2,16.557,0.163,233.1,129.782547,278.3195801,48.7737236,45,65,51,14.74999809,-20
1.2,50,50,60,go_to_color_detect_down,green,TRUE,FALSE,joint 3 +,FALSE,48:54.9,16.557,0.163,233.1,118.4574356,254.0327759,-5.746017456,45,65,51,38.54000092,-20
1.2,50,50,60,go_to_color_detect_up,green,TRUE,FALSE,joint 3 -,TRUE,48:56.3,16.424,0.161,233.1,111.1388397,238.3379974,-24.28404236,45,65,51,48,-20
1.2,50,50,60,go_to_color_detect_up,green,TRUE,FALSE,joint 3 -,TRUE,48:57.0,16.424,0.161,233.1,121.5233612,260.607666,4.359146118,45,65,51,32.75,-20
1.2,50,50,60,go_to_color_detect_up,green,TRUE,FALSE,joint 3 -,TRUE,48:58.4,22.329,0.214,233.1,130.8492126,280.6070251,60.79747391,45,65,51,9.030000687,-20
1.2,50,50,60,go_to_blue_up,blue,TRUE,FALSE,joint 1 +,TRUE,48:59.1,22.329,0.214,231.2,131.6447449,282.4418335,84.95825195,45.01000214,65.02999878,51,0,-20
1.2,50,50,60,go_to_blue_up,blue,TRUE,FALSE,joint 1 +,TRUE,49:00.4,21.95,0.211,231.2,58.184021,306.1345215,84.95825195,59.23870087,79.57312775,51,0,-20
1.2,50,50,60,go_to_pick_up_from_blue,blue,TRUE,FALSE,joint 1 -,FALSE,49:01.1,22.121,0.211,231.2,29.59623528,310.2060547,84.95825195,64.55000305,84.45000458,51,0,-20
1.2,50,50,60,go_to_pick_up_from_blue,blue,TRUE,FALSE,joint 1 -,FALSE,49:01.9,18.513,0.188,231.2,112.9410324,290.4273682,84.95825195,48.75,68.25,51,0,-20
1.2,50,50,60,go_to_pick_up_from_blue,blue,TRUE,FALSE,joint 1 -,FALSE,49:03.3,16.5,0.188,231.2,232.4824677,207.4985199,84.95825195,21.75,41.25,51,0,-20
1.2,50,50,60,go_to_pick_up_from_blue,blue,TRUE,FALSE,joint 1 -,FALSE,49:04.0,16.5,0.166,231.2,288.7199707,117.23703,84.95825195,2.100002289,21.90000153,51,0,-20
1.2,50,50,60,moving_belt,blue,FALSE,TRUE,joint 1 -,FALSE,49:05.4,16.5,0.166,231.2,292.822052,106.5785141,84.95825195,0,20,51,0,-20
1.2,50,50,60,moving_belt,blue,FALSE,TRUE,joint 1 -,FALSE,49:06.1,16.405,0.169,231.2,292.822052,106.5785141,84.95825195,0,20,51,0,-20
1.2,50,50,60,moving_belt,blue,FALSE,TRUE,joint 1 -,FALSE,49:07.5,16.557,0.169,231.2,292.822052,106.5785141,84.95825195,0,20,51,0,-20
1.2,50,50,60,moving_belt,blue,FALSE,TRUE,joint 1 -,FALSE,49:08.2,16.538,0.169,231.2,292.822052,106.5785141,84.95825195,0,20,51,0,-20
1.2,50,50,60,go_to_pick_down,blue,TRUE,FALSE,joint 3 +,FALSE,49:08.9,16.538,0.166,231.2,292.8204041,106.577919,84.23987579,0,20,51,0.360000014,-20
1.2,50,50,60,go_to_pick_down,blue,TRUE,FALSE,joint 3 +,FALSE,49:10.3,16.671,0.166,231.2,288.3233643,104.941124,47.7482872,0,20,51,15.04083061,-20
1.2,50,50,60,go_to_pick_up_from_pick_down,blue,TRUE,FALSE,joint 3 -,TRUE,49:11.0,16.291,0.164,231.2,282.9523926,102.9862595,30.39100266,0,20,51,21.71999931,-20
1.2,50,50,60,go_to_pick_up_from_pick_down,blue,TRUE,FALSE,joint 3 -,TRUE,49:12.4,17.165,0.164,231.2,292.1752319,106.3430939,70.74932098,0,20,51,5.218752861,-20
1.2,50,50,60,go_to_color_detect_up,blue,TRUE,FALSE,joint 1 +,TRUE,49:13.1,22.367,0.218,231.2,291.3440552,110.5548782,84.95825195,0.780002594,20.91000175,51,0,-20
1.2,50,50,60,go_to_color_detect_up,blue,TRUE,FALSE,joint 1 +,TRUE,49:14.5,21.931,0.218,231.2,246.3905182,190.7759247,84.95825195,17.75,38.25,51,0,-20
1.2,50,50,60,go_to_color_detect_up,blue,TRUE,FALSE,joint 1 +,TRUE,49:15.2,21.931,0.214,231.2,147.4933929,274.4985046,84.95825195,41.75,62,51,0,-20
1.2,50,50,60,go_to_color_detect_up,blue,TRUE,FALSE,joint 3 +,TRUE,49:16.5,21.969,0.214,231.2,131.6523438,282.3293457,79.57162476,45,65,51,2.309999704,-20
1.2,50,50,60,go_to_color_detect_up,blue,TRUE,FALSE,joint 3 +,TRUE,49:17.2,21.779,0.213,231.2,127.0682907,272.4988098,29.29690552,45,65,51,22.74999809,-20
1.2,50,50,60,go_to_color_detect_up,blue,TRUE,FALSE,joint 3 +,TRUE,49:17.9,21.779,0.213,233.1,114.3032532,245.124115,-17.04574585,45,65,51,44.22000122,-20
1.2,50,50,60,go_to_color_detect_up,blue,TRUE,FALSE,joint 3 -,FALSE,49:19.3,21.798,0.212,233.1,112.9659119,242.2561646,-20.23066711,45,65,51,45.47000122,-20
1.2,50,50,60,go_to_color_detect_up,blue,TRUE,FALSE,joint 3 -,FALSE,49:20.5,21.798,0.212,233.1,125.5249634,269.1891479,21.09479904,45,65,51,25.25,-20
1.2,50,50,60,go_to_color_detect_up,blue,TRUE,FALSE,joint 3 -,FALSE,49:21.2,16.462,0.168,233.1,131.5381622,282.0845032,74.55049133,45,65,51,3.780000448,-20
1.2,50,50,60,detecting_color,blue,FALSE,FALSE,detecting_color,FALSE,49:21.9,16.804,0.168,231.2,131.6940765,282.4188232,84.95825195,45,65,51,0,-20
1.2,50,50,60,detecting_color,blue,FALSE,FALSE,detecting_color,FALSE,49:23.3,16.424,0.164,231.2,131.6940765,282.4188232,84.95825195,45,65,51,0,-20
1.2,50,50,60,go_to_color_detect_down,blue,TRUE,FALSE,joint 3 +,FALSE,49:24.0,16.386,0.164,231.2,130.7689819,280.4349976,59.68467712,45,65,51,10.34999847,-20
1.2,50,50,60,go_to_color_detect_down,blue,TRUE,FALSE,joint 3 +,FALSE,49:25.4,16.215,0.164,233.1,121.224144,259.9660034,3.289428711,45,65,51,34.25,-20
1.2,50,50,60,go_to_color_detect_down,blue,TRUE,FALSE,joint 3 +,FALSE,49:26.2,16.348,0.164,233.1,111.2595749,238.5969086,-24.02616119,45,65,51,47.90000153,-20
1.2,50,50,60,go_to_color_detect_up,blue,TRUE,FALSE,joint 3 -,TRUE,49:27.0,16.348,0.164,233.1,118.7569962,254.6751862,-4.834693909,45,65,51,37.19000244,-20
1.2,50,50,60,go_to_color_detect_up,blue,TRUE,FALSE,joint 3 -,TRUE,49:28.3,22.367,0.221,233.1,129.9137115,278.6008301,50.01842499,45,65,51,13.25,-20
1.2,50,50,60,go_to_color_detect_up,blue,TRUE,FALSE,joint 3 -,TRUE,49:29.0,22.291,0.221,233.1,131.693985,282.4186401,84.70169067,45,65,51,0.05999919,-20
1.2,50,50,60,go_to_red_up,red,TRUE,FALSE,joint 1 +,TRUE,49:30.4,21.931,0.216,233.1,76.3886795,302.106781,84.95825195,55.80999756,76.27999878,51,0,-20
1.2,50,50,60,go_to_red_up,red,TRUE,FALSE,joint 1 +,TRUE,49:31.1,21.931,0.216,233.1,-50.08974075,307.5625916,84.95825195,79.25,99.75,51,0,-20
1.2,50,50,60,go_to_red_up,red,TRUE,FALSE,joint 1 +,TRUE,49:32.5,22.083,0.214,233.1,-167.2928619,262.9007874,84.95825195,102.4700012,122.6900024,51,0,-20
1.2,50,50,60,go_to_pick_up_from_red,red,TRUE,FALSE,joint 1 -,FALSE,49:33.2,22.158,0.214,233.1,-168.3011017,262.2565002,84.95825195,102.6900024,122.4700012,51,0,-20
1.2,50,50,60,go_to_pick_up_from_red,red,TRUE,FALSE,joint 1 -,FALSE,49:34.6,18.38,0.18,233.1,-68.77256012,303.9310303,84.95825195,82.75,102.25,51,0,-20
1.2,50,50,60,go_to_pick_up_from_red,red,TRUE,FALSE,joint 1 -,FALSE,49:35.3,16.272,0.18,233.1,76.70497894,302.0266418,84.95825195,55.75,75.25,51,0,-20
1.2,50,50,60,go_to_pick_up_from_red,red,TRUE,FALSE,joint 1 -,FALSE,49:35.9,16.272,0.165,233.1,192.9187927,244.7163086,84.95825195,31.75,51.25,51,0,-20
1.2,50,50,60,go_to_pick_up_from_red,red,TRUE,FALSE,joint 1 -,FALSE,49:37.3,16.424,0.165,233.1,274.6271057,147.2537842,84.95825195,8.200000763,27.80000114,51,0,-20
1.2,50,50,60,moving_belt,red,FALSE,TRUE,joint 1 -,FALSE,49:38.0,16.348,0.165,233.1,292.822052,106.5785141,84.95825195,0,20,51,0,-20
1.2,50,50,60,moving_belt,red,FALSE,TRUE,joint 1 -,FALSE,49:39.4,16.405,0.165,233.1,292.822052,106.5785141,84.95825195,0,20,51,0,-20
1.2,50,50,60,moving_belt,red,FALSE,TRUE,joint 1 -,FALSE,49:40.1,16.804,0.165,233.1,292.822052,106.5785141,84.95825195,0,20,51,0,-20
1.2,50,50,60,moving_belt,red,FALSE,TRUE,joint 1 -,FALSE,49:41.5,16.804,0.168,233.1,292.822052,106.5785141,84.95825195,0,20,51,0,-20
1.2,50,50,60,moving_belt,red,FALSE,TRUE,joint 1 -,FALSE,49:42.2,16.348,0.168,233.1,292.822052,106.5785141,84.95825195,0,20,51,0,-20
1.2,50,50,60,go_to_pick_down,red,TRUE,FALSE,joint 3 +,FALSE,49:43.5,16.443,0.167,233.1,292.0778809,106.3076553,69.72015381,0,20,51,6.300000191,-20
1.2,50,50,60,go_to_pick_down,red,TRUE,FALSE,joint 3 +,FALSE,49:44.2,16.443,0.167,233.1,283.1508484,103.0584869,30.92228699,0,20,51,21.65524292,-20
1.2,50,50,60,go_to_pick_up_from_pick_down,red,TRUE,FALSE,joint 3 -,TRUE,49:44.9,16.557,0.165,233.1,289.2979126,105.2958298,51.96545029,0,20,51,12.53999901,-20
1.2,50,50,60,go_to_pick_up_from_pick_down,red,TRUE,FALSE,joint 3 -,TRUE,49:46.3,23.146,0.165,233.1,292.821991,106.5784912,84.8188324,0,20,51,0.026258357,-20
1.2,50,50,60,go_to_color_detect_up,red,TRUE,FALSE,joint 1 +,TRUE,49:47.0,23.032,0.222,233.1,273.5663757,149.2151794,84.95825195,8.61000061,29.03000069,51,0,-20
1.2,50,50,60,go_to_color_detect_up,red,TRUE,FALSE,joint 1 +,TRUE,49:48.4,22.842,0.222,233.1,178.2890625,255.5714111,84.95825195,35.10000229,55.54000092,51,0,-20
1.2,50,50,60,go_to_color_detect_up,red,TRUE,FALSE,joint 3 +,TRUE,49:49.1,22.842,0.221,233.1,131.6940765,282.4188232,84.9325943,45,65,51,0.029999994,-20
1.2,50,50,60,go_to_color_detect_up,red,TRUE,FALSE,joint 3 +,TRUE,49:50.5,22.766,0.221,233.1,129.6468048,278.0284729,47.5317688,45,65,51,15.24999809,-20
1.2,50,50,60,go_to_color_detect_up,red,TRUE,FALSE,joint 3 +,TRUE,49:51.2,22.69,0.22,233.1,118.1616211,253.3983917,-6.631698608,45,65,51,38.97000122,-20
1.2,50,50,60,go_to_color_detect_up,red,TRUE,FALSE,joint 3 -,FALSE,49:51.9,22.614,0.22,233.1,111.146904,238.3552856,-24.26689148,45,65,51,47.97000122,-20
1.2,50,50,60,go_to_color_detect_up,red,TRUE,FALSE,joint 3 -,FALSE,49:53.3,22.386,0.218,233.1,121.818634,261.2408752,5.434997559,45,65,51,32.25,-20
1.2,50,50,60,go_to_color_detect_up,red,TRUE,FALSE,joint 3 -,FALSE,49:54.0,16.937,0.218,233.1,130.924118,280.7676697,61.8863678,45,65,51,8.61000061,-20
1.2,50,50,60,detecting_color,red,FALSE,FALSE,detecting_color,FALSE,49:55.4,16.937,0.169,233.1,131.6940765,282.4188232,84.95825195,45,65,51,0,-20
1.2,50,50,60,detecting_color,red,FALSE,FALSE,detecting_color,FALSE,49:56.1,16.937,0.169,233.1,131.6940765,282.4188232,84.95825195,45,65,51,0,-20
1.2,50,50,60,detecting_color,red,FALSE,FALSE,detecting_color,FALSE,49:57.5,16.595,0.164,233.1,131.6940765,282.4188232,84.95825195,45,65,51,0,-20
1.2,50,50,60,detecting_color,red,FALSE,FALSE,detecting_color,FALSE,49:58.2,16.481,0.164,233.1,131.6940765,282.4188232,84.95825195,45,65,51,0,-20
1.2,50,50,60,detecting_color,red,FALSE,FALSE,detecting_color,FALSE,49:59.6,16.462,0.162,233.1,131.6940765,282.4188232,84.95825195,45,65,51,0,-20
1.2,50,50,60,go_to_color_detect_down,red,TRUE,FALSE,joint 3 +,FALSE,50:00.3,16.576,0.162,233.1,130.7689819,280.4349976,59.68467712,45,65,51,10.34999847,-20
1.2,50,50,60,go_to_color_detect_down,red,TRUE,FALSE,joint 3 +,FALSE,50:01.0,16.576,0.162,233.1,121.224144,259.9660034,3.289428711,45,65,51,34.25,-20
1.2,50,50,60,go_to_color_detect_down,red,TRUE,FALSE,joint 3 +,TRUE,50:02.4,16.519,0.162,233.1,111.1388397,238.3379974,-24.28404236,45,65,51,48,-20
1.2,50,50,60,go_to_color_detect_up,red,TRUE,FALSE,joint 3 -,TRUE,50:03.1,16.519,0.162,233.1,118.4574356,254.0327759,-5.746017456,45,65,51,37.65000153,-20
1.2,50,50,60,go_to_color_detect_up,red,TRUE,FALSE,joint 3 -,TRUE,50:04.5,23.127,0.224,233.1,129.782547,278.3195801,48.77371597,45,65,51,13.75,-20
1.2,50,50,60,go_to_green_up,green,TRUE,FALSE,joint 1 +,TRUE,50:05.1,23.127,0.224,233.1,131.6940765,282.4188232,84.95825195,45,65,51,0,-20
1.2,50,50,60,go_to_green_up,green,TRUE,FALSE,joint 1 +,TRUE,50:05.8,23.165,0.218,233.1,78.81162262,301.4837646,84.95825195,55.34999847,75.80999756,51,0,-20
1.2,50,50,60,go_to_green_up,green,TRUE,FALSE,joint 1 +,TRUE,50:06.6,22.804,0.218,233.1,-45.19883728,308.3193054,84.95825195,78.34000397,98.70000458,51,0,-20
1.2,50,50,60,go_to_pick_up_from_green,green,TRUE,FALSE,joint 1 -,FALSE,50:07.9,22.88,0.218,233.1,-75.12258148,302.4241028,84.95825195,83.95000458,103.8000031,51,0,-20
1.2,50,50,60,go_to_pick_up_from_green,green,TRUE,FALSE,joint 1 -,FALSE,50:09.4,20.374,0.217,233.1,20.38055992,310.9475403,84.95825195,66.25,85.75,51,0,-20
1.2,50,50,60,go_to_pick_up_from_green,green,TRUE,FALSE,joint 1 -,FALSE,50:10.1,16.5,0.162,233.1,145.0923309,275.775177,84.95825195,42.25,61.75,51,0,-20
1.2,50,50,60,go_to_pick_up_from_green,green,TRUE,FALSE,joint 1 -,FALSE,50:11.5,16.576,0.162,233.1,254.4775085,179.8469391,84.95825195,15.25,34.75,51,0,-20
1.2,50,50,60,go_to_pick_up_from_green,green,TRUE,FALSE,joint 1 -,FALSE,50:12.2,16.576,0.162,233.1,292.297699,108.0082397,84.95825195,0.280000687,20.21000099,51,0,-20
1.2,50,50,60,moving_belt,green,FALSE,TRUE,joint 1 -,FALSE,50:13.6,16.462,0.162,233.1,292.822052,106.5785141,84.95825195,0,20,51,0,-20
1.2,50,50,60,moving_belt,green,FALSE,TRUE,joint 1 -,FALSE,50:14.3,16.785,0.163,233.1,292.822052,106.5785141,84.95825195,0,20,51,0,-20
1.2,50,50,60,moving_belt,green,FALSE,TRUE,joint 1 -,FALSE,50:15.0,16.367,0.163,233.1,292.822052,106.5785141,84.95825195,0,20,51,0,-20
1.2,50,50,60,moving_belt,green,FALSE,TRUE,joint 1 -,FALSE,50:16.4,16.69,0.164,233.1,292.822052,106.5785141,84.95825195,0,20,51,0,-20
1.2,50,50,60,go_to_pick_down,green,TRUE,FALSE,joint 3 +,FALSE,50:17.1,16.69,0.164,233.1,292.7292786,106.5447464,79.57162476,0,20,51,2.309999943,-20
1.2,50,50,60,go_to_pick_down,green,TRUE,FALSE,joint 3 +,FALSE,50:18.5,16.595,0.163,233.1,285.4541321,103.8968124,37.59046555,0,20,51,19.04591179,-20
1.2,50,50,60,go_to_pick_up_from_pick_down,green,TRUE,FALSE,joint 3 -,TRUE,50:19.1,16.595,0.163,233.1,285.6913757,103.9831696,38.33879852,0,20,51,18.21999931,-20
1.2,50,50,60,go_to_pick_up_from_pick_down,green,TRUE,FALSE,joint 3 -,TRUE,50:20.5,22.728,0.215,233.1,292.7489929,106.551918,80.17759705,0,20,51,1.675588846,-20
1.2,50,50,60,go_to_color_detect_up,green,TRUE,FALSE,joint 1 +,TRUE,50:21.2,22.728,0.215,233.1,285.7477112,124.305954,84.95825195,3.510000229,23.78000069,51,0,-20
1.2,50,50,60,go_to_color_detect_up,green,TRUE,FALSE,joint 1 +,TRUE,50:22.6,22.386,0.215,233.1,209.5193939,230.6628723,84.95825195,27.75,48.25,51,0,-20
1.2,50,50,60,go_to_color_detect_up,green,TRUE,FALSE,joint 1 +,TRUE,50:23.3,22.329,0.216,233.1,134.9384613,280.8831482,84.95825195,44.34000397,64.45000458,51,0,-20
1.2,50,50,60,go_to_color_detect_up,green,TRUE,FALSE,joint 3 +,TRUE,50:24.0,22.329,0.216,233.1,131.3593903,281.7011108,69.72015381,45,65,51,6.29999876,-20
1.2,50,50,60,go_to_color_detect_up,green,TRUE,FALSE,joint 3 +,TRUE,50:25.4,22.121,0.215,233.1,122.3972168,262.4816589,7.604812622,45,65,51,32.25,-20
1.2,50,50,60,go_to_color_detect_up,green,TRUE,FALSE,joint 3 +,TRUE,50:26.1,22.177,0.215,233.1,111.5001602,239.112854,-23.50814056,45,65,51,47.63999939,-20
1.2,50,50,60,go_to_color_detect_up,green,TRUE,FALSE,joint 3 -,FALSE,50:27.5,22.102,0.211,233.1,115.4529572,247.5896606,-14.14525604,45,65,51,42.04999924,-20
1.2,50,50,60,go_to_color_detect_up,green,TRUE,FALSE,joint 3 -,FALSE,50:28.2,16.728,0.211,233.1,129.058197,276.7662048,42.59339523,45,65,51,16.25,-20
1.2,50,50,60,go_to_color_detect_up,green,TRUE,FALSE,joint 3 -,FALSE,50:29.6,16.994,0.17,233.1,131.6912079,282.4126892,83.54717255,45,65,51,0.449999571,-20
1.2,50,50,60,detecting_color,green,FALSE,FALSE,detecting_color,FALSE,50:30.3,16.576,0.17,233.1,131.6940765,282.4188232,84.95825195,45,65,51,0,-20
1.2,50,50,60,go_to_color_detect_down,green,TRUE,FALSE,joint 3 +,FALSE,50:30.9,16.576,0.17,233.1,131.693985,282.4186401,84.70169067,45,65,51,0.149999976,-20
1.2,50,50,60,go_to_color_detect_down,green,TRUE,FALSE,joint 3 +,FALSE,50:32.3,16.766,0.163,233.1,129.9137115,278.6008301,50.0184288,45,65,51,14.24999809,-20
1.2,50,50,60,go_to_color_detect_down,green,TRUE,FALSE,joint 3 +,FALSE,50:33.0,16.709,0.163,233.1,117.019928,250.9500275,-9.924034119,45,65,51,40.59000015,-20
1.2,50,50,60,go_to_color_detect_up,green,TRUE,FALSE,joint 3 -,TRUE,50:34.4,16.671,0.163,233.1,111.1871643,238.4416351,-24.1809845,45,65,51,47.90000153,-20
1.2,50,50,60,go_to_color_detect_up,green,TRUE,FALSE,joint 3 -,TRUE,50:35.2,20.146,0.163,233.1,120.6139069,258.6573486,1.16872406,45,65,51,34.25,-20
1.2,50,50,60,go_to_color_detect_up,green,TRUE,FALSE,joint 3 -,TRUE,50:36.5,22.519,0.219,233.1,130.9939423,280.9173889,62.95118713,45,65,51,8.200000763,-20
1.2,50,50,60,go_to_blue_up,blue,TRUE,FALSE,joint 1 +,TRUE,50:37.2,22.633,0.219,233.1,131.3982239,282.5566101,84.95825195,45.05999756,65.09999847,51,0,-20
1.2,50,50,60,go_to_blue_up,blue,TRUE,FALSE,joint 1 +,TRUE,50:38.6,22.253,0.214,233.1,65.84661102,304.5783386,84.95825195,57.80099487,78.17542267,51,0,-20
1.2,50,50,60,go_to_pick_up_from_blue,blue,TRUE,FALSE,joint 1 -,FALSE,50:39.4,22.253,0.214,233.1,32.08574677,309.9584351,84.95825195,64.09000397,83.95000458,51,0,-20
1.2,50,50,60,go_to_pick_up_from_blue,blue,TRUE,FALSE,joint 1 -,FALSE,50:40.0,22.196,0.211,233.1,123.0079803,286.3088684,84.95825195,46.75,66.25,51,0,-20
1.2,50,50,60,go_to_pick_up_from_blue,blue,TRUE,FALSE,joint 1 -,FALSE,50:41.4,16.576,0.211,233.1,228.8257141,211.5243073,84.95825195,22.75,42.25,51,0,-20
1.2,50,50,60,go_to_pick_up_from_blue,blue,TRUE,FALSE,joint 1 -,FALSE,50:42.1,16.614,0.163,233.1,290.2099915,113.4984055,84.95825195,1.36000061,21.20000076,51,0,-20
1.2,50,50,60,moving_belt,blue,FALSE,TRUE,joint 1 -,FALSE,50:43.5,16.652,0.163,233.1,292.822052,106.5785141,84.95825195,0,20,51,0,-20
1.2,50,50,60,moving_belt,blue,FALSE,TRUE,joint 1 -,FALSE,50:44.5,16.652,0.164,233.1,292.822052,106.5785141,84.95825195,0,20,51,0,-20
1.2,50,50,60,moving_belt,blue,FALSE,TRUE,joint 1 -,FALSE,50:45.2,16.747,0.164,233.1,292.822052,106.5785141,84.95825195,0,20,51,0,-20
1.2,50,50,60,moving_belt,blue,FALSE,TRUE,joint 1 -,FALSE,50:46.5,16.614,0.166,233.1,292.822052,106.5785141,84.95825195,0,20,51,0,-20
1.2,50,50,60,go_to_pick_down,blue,TRUE,FALSE,joint 3 +,FALSE,50:47.2,16.69,0.166,233.1,292.8156738,106.5761948,83.54717255,0,20,51,0.660000026,-20
1.2,50,50,60,go_to_pick_down,blue,TRUE,FALSE,joint 3 +,FALSE,50:48.6,16.538,0.162,233.1,287.3941956,104.6029434,44.15583038,0,20,51,16.45316315,-20
1.2,50,50,60,go_to_pick_up_from_pick_down,blue,TRUE,FALSE,joint 3 -,TRUE,50:49.3,16.576,0.162,233.1,283.254425,103.0961838,31.20195007,0,20,51,21.33999825,-20
1.2,50,50,60,go_to_pick_up_from_pick_down,blue,TRUE,FALSE,joint 3 -,TRUE,50:50.5,16.576,0.162,233.1,292.4342041,106.437355,73.95043945,0,20,51,4.006420135,-20
1.2,50,50,60,go_to_color_detect_up,blue,TRUE,FALSE,joint 1 +,TRUE,50:51.2,22.595,0.216,233.1,290.2099915,113.4984055,84.95825195,1.36000061,21.53000069,51,0,-20
1.2,50,50,60,go_to_color_detect_up,blue,TRUE,FALSE,joint 1 +,TRUE,50:52.6,22.14,0.216,233.1,239.5824432,199.2585907,84.95825195,19.75,40.25,51,0,-20
1.2,50,50,60,go_to_color_detect_up,blue,TRUE,FALSE,joint 1 +,TRUE,50:53.3,22.272,0.216,233.1,142.9702606,276.8812561,84.95825195,42.69000244,62.90000153,51,0,-20
1.2,50,50,60,go_to_color_detect_up,blue,TRUE,FALSE,joint 3 +,TRUE,50:54.0,22.177,0.216,233.1,131.6220093,282.2643127,77.87983704,45,65,51,2.999999762,-20
1.2,50,50,60,go_to_color_detect_up,blue,TRUE,FALSE,joint 3 +,TRUE,50:55.4,22.102,0.21,233.1,126.6489868,271.5996094,26.93090439,45,65,51,23.74999809,-20
1.2,50,50,60,go_to_color_detect_up,blue,TRUE,FALSE,joint 3 +,TRUE,50:56.1,21.779,0.21,233.1,113.8873825,244.2322693,-18.05711365,45,65,51,44.75,-20
1.2,50,50,60,go_to_color_detect_up,blue,TRUE,FALSE,joint 3 -,FALSE,50:57.5,21.665,0.214,233.1,113.4981155,243.3974762,-18.98644257,45,65,51,44.75,-20
1.2,50,50,60,go_to_color_detect_up,blue,TRUE,FALSE,joint 3 -,FALSE,50:58.2,21.665,0.214,233.1,126.2123032,270.663147,24.58258438,45,65,51,23.75,-20
1.2,50,50,60,go_to_color_detect_up,blue,TRUE,FALSE,joint 3 -,FALSE,50:59.6,16.747,0.166,233.1,131.594162,282.2045593,76.62441254,45,65,51,3.000000477,-20
1.2,50,50,60,detecting_color,blue,FALSE,FALSE,detecting_color,FALSE,51:00.3,16.975,0.166,233.1,131.6940765,282.4188232,84.95825195,45,65,51,0,-20
1.2,50,50,60,detecting_color,blue,FALSE,FALSE,detecting_color,FALSE,51:01.0,16.975,0.166,233.1,131.6940765,282.4188232,84.95825195,45,65,51,0,-20
1.2,50,50,60,go_to_color_detect_down,blue,TRUE,FALSE,joint 3 +,FALSE,51:02.4,16.614,0.167,233.1,131.2270355,281.4172668,66.96707153,45,65,51,7.409998894,-20
1.2,50,50,60,go_to_color_detect_down,blue,TRUE,FALSE,joint 3 +,FALSE,51:03.0,16.614,0.167,233.1,123.2348709,264.2780151,10.9034729,45,65,51,30.74999809,-20
1.2,50,50,60,go_to_color_detect_down,blue,TRUE,FALSE,joint 3 +,FALSE,51:04.6,16.633,0.167,233.1,111.7634811,239.6775513,-22.93490601,45,65,51,47.34000015,-20
1.2,50,50,60,go_to_color_detect_up,blue,TRUE,FALSE,joint 3 -,TRUE,51:05.3,16.633,0.167,233.1,116.4767685,249.7852325,-11.42433167,45,65,51,40.59000015,-20
1.2,50,50,60,go_to_color_detect_up,blue,TRUE,FALSE,joint 3 -,TRUE,51:06.0,23.222,0.21,233.1,128.7366791,276.0766602,40.14319611,45,65,51,17.25,-20
1.2,50,50,60,go_to_color_detect_up,blue,TRUE,FALSE,joint 3 -,TRUE,51:07.6,22.538,0.21,233.1,131.688324,282.4064941,82.9571228,45,65,51,0.659999609,-20
1.2,50,50,60,go_to_red_up,red,TRUE,FALSE,joint 1 +,TRUE,51:08.3,22.045,0.219,233.1,94.17108154,297.0446777,84.95825195,52.40999603,72.79999542,51,0,-20
1.2,50,50,60,go_to_red_up,red,TRUE,FALSE,joint 1 +,TRUE,51:09.0,22.045,0.219,233.1,-31.22009659,310.0468445,84.95825195,75.75,96.25,51,0,-20
1.2,50,50,60,go_to_red_up,red,TRUE,FALSE,joint 1 +,TRUE,51:10.4,22.272,0.217,233.1,-149.6447144,273.3316345,84.95825195,98.70000458,119.0500031,51,0,-20
1.2,50,50,60,go_to_pick_up_from_red,red,TRUE,FALSE,joint 1 -,FALSE,51:11.1,22.329,0.217,233.1,-173.3499451,258.9469604,84.95825195,103.8000031,123.6399994,51,0,-20
1.2,50,50,60,go_to_pick_up_from_red,red,TRUE,FALSE,joint 1 -,FALSE,51:12.5,17.487,0.216,233.1,-84.58480835,299.9152222,84.95825195,85.75,105.25,51,0,-20
1.2,50,50,60,go_to_pick_up_from_red,red,TRUE,FALSE,joint 1 -,FALSE,51:13.2,17.487,0.216,233.1,44.71440506,308.3899231,84.95825195,61.75,81.25,51,0,-20
1.2,50,50,60,go_to_pick_up_from_red,red,TRUE,FALSE,joint 1 -,FALSE,51:14.6,16.614,0.166,233.1,177.6193848,256.037262,84.95825195,35.25,54.75,51,0,-20
1.2,50,50,60,go_to_pick_up_from_red,red,TRUE,FALSE,joint 1 -,FALSE,51:15.3,16.614,0.166,233.1,266.3184204,161.7968445,84.95825195,11.28000069,30.81000137,51,0,-20
1.2,50,50,60,moving_belt,red,FALSE,TRUE,joint 1 -,FALSE,51:16.1,16.481,0.166,233.1,292.822052,106.5785141,84.95825195,0,20,51,0,-20
1.2,50,50,60,moving_belt,red,FALSE,TRUE,joint 1 -,FALSE,51:17.5,16.595,0.166,233.1,292.822052,106.5785141,84.95825195,0,20,51,0,-20
1.2,50,50,60,moving_belt,red,FALSE,TRUE,joint 1 -,FALSE,51:18.2,16.291,0.163,233.1,292.822052,106.5785141,84.95825195,0,20,51,0,-20
1.2,50,50,60,moving_belt,red,FALSE,TRUE,joint 1 -,FALSE,51:19.6,16.728,0.163,233.1,292.822052,106.5785141,84.95825195,0,20,51,0,-20
1.2,50,50,60,moving_belt,red,FALSE,TRUE,joint 1 -,FALSE,51:20.3,16.728,0.163,233.1,292.822052,106.5785141,84.95825195,0,20,51,0,-20
1.2,50,50,60,go_to_pick_down,red,TRUE,FALSE,joint 3 +,FALSE,51:21.6,16.557,0.167,233.1,292.5629272,106.4841995,75.95851135,0,20,51,3.779999971,-20
1.2,50,50,60,go_to_pick_down,red,TRUE,FALSE,joint 3 +,FALSE,51:22.3,16.405,0.167,233.1,283.5477295,103.2029419,32.00322723,0,20,51,21.24290848,-20
1.2,50,50,60,go_to_pick_up_from_pick_down,red,TRUE,FALSE,joint 3 -,TRUE,51:23.0,16.291,0.164,233.1,286.7579956,104.3713837,41.88148499,0,20,51,16.71999931,-20
1.2,50,50,60,go_to_pick_up_from_pick_down,red,TRUE,FALSE,joint 3 -,TRUE,51:24.4,22.709,0.164,233.1,292.8000183,106.5704956,82.33309174,0,20,51,0.885172844,-20
1.2,50,50,60,go_to_color_detect_up,red,TRUE,FALSE,joint 1 +,TRUE,51:25.1,22.367,0.218,233.1,277.5766296,141.6154938,84.95825195,7.030002594,27.41000175,51,0,-20
1.2,50,50,60,go_to_color_detect_up,red,TRUE,FALSE,joint 1 +,TRUE,51:26.1,21.969,0.218,233.1,199.2585907,239.5824432,84.95825195,30.25,50.75,51,0,-20
1.2,50,50,60,go_to_color_detect_up,red,TRUE,FALSE,joint 1 +,TRUE,51:27.5,22.253,0.216,233.1,132.7282715,281.9342651,84.95825195,44.79000092,64.84999847,51,0,-20
1.2,50,50,60,go_to_color_detect_up,red,TRUE,FALSE,joint 3 +,TRUE,51:28.1,22.026,0.216,233.1,130.6832275,280.2510681,58.54812622,45,65,51,10.80999851,-20
1.2,50,50,60,go_to_color_detect_up,red,TRUE,FALSE,joint 3 +,TRUE,51:29.6,21.741,0.214,233.1,120.9209824,259.3158569,2.22592926,45,65,51,34.75,-20
1.2,50,50,60,go_to_color_detect_up,red,TRUE,FALSE,joint 3 +,TRUE,51:30.3,21.741,0.214,233.1,111.2193604,238.5106812,-24.11220551,45,65,51,47.94000244,-20
1.2,50,50,60,go_to_color_detect_up,red,TRUE,FALSE,joint 3 -,FALSE,51:31.0,21.874,0.214,233.1,118.7569962,254.6751862,-4.834693909,45,65,51,37.19000244,-20
1.2,50,50,60,go_to_color_detect_up,red,TRUE,FALSE,joint 3 -,FALSE,51:32.4,18.171,0.214,233.1,129.9137115,278.6008301,50.01842499,45,65,51,13.25,-20
1.2,50,50,60,go_to_color_detect_up,red,TRUE,FALSE,joint 3 -,FALSE,51:33.1,16.709,0.17,233.1,131.693985,282.4186401,84.70169067,45,65,51,0.05999919,-20
1.2,50,50,60,detecting_color,red,FALSE,FALSE,detecting_color,FALSE,51:34.5,16.557,0.17,231.2,131.6940765,282.4188232,84.95825195,45,65,51,0,-20
1.2,50,50,60,detecting_color,red,FALSE,FALSE,detecting_color,FALSE,51:35.2,16.5,0.167,231.2,131.6940765,282.4188232,84.95825195,45,65,51,0,-20
1.2,50,50,60,detecting_color,red,FALSE,FALSE,detecting_color,FALSE,51:36.5,16.462,0.167,231.2,131.6940765,282.4188232,84.95825195,45,65,51,0,-20
1.2,50,50,60,detecting_color,red,FALSE,FALSE,detecting_color,FALSE,51:37.2,16.462,0.166,231.2,131.6940765,282.4188232,84.95825195,45,65,51,0,-20
1.2,50,50,60,go_to_color_detect_down,red,TRUE,FALSE,joint 3 +,FALSE,51:38.6,16.234,0.166,231.2,131.6940765,282.4188232,84.95825195,45,65,51,0,-20
1.2,50,50,60,go_to_color_detect_down,red,TRUE,FALSE,joint 3 +,FALSE,51:39.3,16.234,0.166,231.2,130.5916443,280.054657,57.38800049,45,65,51,11.27999878,-20
1.2,50,50,60,go_to_color_detect_down,red,TRUE,FALSE,joint 3 +,FALSE,51:40.0,16.291,0.166,231.2,120.6139069,258.6573486,1.16872406,45,65,51,35.25,-20
1.2,50,50,60,go_to_color_detect_down,red,TRUE,FALSE,joint 3 +,TRUE,51:41.4,16.424,0.166,231.2,111.1388397,238.3379974,-24.28404236,45,65,51,48,-20
1.2,50,50,60,go_to_color_detect_up,red,TRUE,FALSE,joint 3 -,TRUE,51:42.1,16.424,0.166,231.2,118.7569962,254.6751862,-4.834693909,45,65,51,37.19000244,-20
1.2,50,50,60,go_to_color_detect_up,red,TRUE,FALSE,joint 3 -,TRUE,51:43.5,22.329,0.218,231.2,129.9137115,278.6008301,50.01842499,45,65,51,13.25,-20
1.2,50,50,60,go_to_green_up,green,TRUE,FALSE,joint 1 +,TRUE,51:44.2,22.405,0.218,231.2,131.6940765,282.4188232,84.95825195,45,65,51,0,-20
1.2,50,50,60,go_to_green_up,green,TRUE,FALSE,joint 1 +,TRUE,51:45.1,22.405,0.218,231.2,76.3886795,302.106781,84.95825195,55.80999756,76.27999878,51,0,-20
1.2,50,50,60,go_to_green_up,green,TRUE,FALSE,joint 1 +,TRUE,51:46.5,22.121,0.213,231.2,-47.13511658,308.0292664,84.95825195,78.70000458,99.05000305,51,0,-20
1.2,50,50,60,go_to_pick_up_from_green,green,TRUE,FALSE,joint 1 -,FALSE,51:47.2,22.158,0.213,231.2,-74.33058929,302.6197205,84.95825195,83.80000305,103.6399994,51,0,-20
1.2,50,50,60,go_to_pick_up_from_green,green,TRUE,FALSE,joint 1 -,FALSE,51:48.6,20.279,0.199,231.2,25.80424309,310.5444946,84.95825195,65.25,84.75,51,0,-20
1.2,50,50,60,go_to_pick_up_from_green,green,TRUE,FALSE,joint 1 -,FALSE,51:49.3,16.329,0.199,231.2,149.8831635,273.2009583,84.95825195,41.25,60.75,51,0,-20
1.2,50,50,60,go_to_pick_up_from_green,green,TRUE,FALSE,joint 1 -,FALSE,51:49.9,16.329,0.165,231.2,257.5775146,175.3782959,84.95825195,14.25,33.75,51,0,-20
1.2,50,50,60,go_to_pick_up_from_green,green,TRUE,FALSE,joint 1 -,FALSE,51:51.2,16.291,0.165,231.2,292.5420227,107.3447647,84.95825195,0.150001526,20.10000229,51,0,-20
1.2,50,50,60,moving_belt,green,FALSE,TRUE,joint 1 -,FALSE,51:52.6,16.405,0.165,231.2,292.822052,106.5785141,84.95825195,0,20,51,0,-20
1.2,50,50,60,moving_belt,green,FALSE,TRUE,joint 1 -,FALSE,51:53.3,16.975,0.165,231.2,292.822052,106.5785141,84.95825195,0,20,51,0,-20
1.2,50,50,60,moving_belt,green,FALSE,TRUE,joint 1 -,FALSE,51:53.9,16.633,0.165,231.2,292.822052,106.5785141,84.95825195,0,20,51,0,-20
1.2,50,50,60,moving_belt,green,FALSE,TRUE,joint 1 -,FALSE,51:55.5,16.253,0.168,231.2,292.822052,106.5785141,84.95825195,0,20,51,0,-20
1.2,50,50,60,go_to_pick_down,green,TRUE,FALSE,joint 3 +,FALSE,51:56.7,16.253,0.168,231.2,292.6874084,106.5295105,78.46930695,0,20,51,2.75999999,-20
1.2,50,50,60,go_to_pick_down,green,TRUE,FALSE,joint 3 +,FALSE,51:57.4,16.69,0.168,231.2,285.0717773,103.757637,36.41139221,0,20,51,19.51207733,-20
1.2,50,50,60,go_to_pick_up_from_pick_down,green,TRUE,FALSE,joint 3 -,TRUE,51:58.1,16.215,0.168,231.2,284.7452087,103.6387863,35.42940521,0,20,51,19.46999931,-20
1.2,50,50,60,go_to_pick_up_from_pick_down,green,TRUE,FALSE,joint 3 -,TRUE,51:59.5,19.785,0.188,231.2,292.7630005,106.5570221,80.65991974,0,20,51,1.497505665,-20
1.2,50,50,60,go_to_color_detect_up,green,TRUE,FALSE,joint 1 +,TRUE,52:00.1,22.329,0.188,231.2,285.158783,125.6511307,84.95825195,3.780000687,24.06000137,51,0,-20
1.2,50,50,60,go_to_color_detect_up,green,TRUE,FALSE,joint 1 +,TRUE,52:01.5,22.158,0.212,231.2,219.3813477,221.3041992,84.95825195,25.25,45.75,51,0,-20
1.2,50,50,60,go_to_color_detect_up,green,TRUE,FALSE,joint 1 +,TRUE,52:02.3,22.083,0.212,231.2,134.3989563,281.1416931,84.95825195,44.45000458,64.55000305,51,0,-20
1.2,50,50,60,go_to_color_detect_up,green,TRUE,FALSE,joint 3 +,TRUE,52:03.7,21.874,0.215,231.2,131.3593903,281.7011108,69.72015381,45,65,51,6.29999876,-20
1.2,50,50,60,go_to_color_detect_up,green,TRUE,FALSE,joint 3 +,TRUE,52:04.4,21.912,0.215,231.2,124.0357437,265.9954834,14.2529068,45,65,51,29.24999809,-20
1.2,50,50,60,go_to_color_detect_up,green,TRUE,FALSE,joint 3 +,TRUE,52:05.1,21.76,0.209,231.2,111.5001602,239.112854,-23.50814056,45,65,51,47.63999939,-20
1.2,50,50,60,go_to_color_detect_up,green,TRUE,FALSE,joint 3 -,FALSE,52:06.4,21.931,0.209,231.2,115.700676,248.1208954,-13.49924469,45,65,51,41.70000076,-20
1.2,50,50,60,go_to_color_detect_up,green,TRUE,FALSE,joint 3 -,FALSE,52:07.1,16.462,0.162,231.2,128.2206116,274.9699707,36.49372482,45,65,51,18.75,-20
1.2,50,50,60,go_to_color_detect_up,green,TRUE,FALSE,joint 3 -,FALSE,52:08.5,16.899,0.162,231.2,131.6836395,282.3964539,82.26448822,45,65,51,0.909999847,-20
1.2,50,50,60,detecting_color,green,FALSE,FALSE,detecting_color,FALSE,52:09.3,16.899,0.166,231.2,131.6940765,282.4188232,84.95825195,45,65,51,0,-20
1.2,50,50,60,go_to_color_detect_down,green,TRUE,FALSE,joint 3 +,FALSE,52:10.1,16.424,0.166,231.2,131.694046,282.4187927,84.80431366,45,65,51,0.099999979,-20
1.2,50,50,60,go_to_color_detect_down,green,TRUE,FALSE,joint 3 +,FALSE,52:11.5,16.329,0.162,231.2,129.2121887,277.096405,43.82339096,45,65,51,16.74999809,-20
1.2,50,50,60,go_to_color_detect_down,green,TRUE,FALSE,joint 3 +,FALSE,52:12.1,16.253,0.162,231.2,117.2987137,251.5478973,-9.137878418,45,65,51,40.20000076,-20
1.2,50,50,60,go_to_color_detect_up,green,TRUE,FALSE,joint 3 -,TRUE,52:13.6,16.31,0.161,231.2,111.1871643,238.4416351,-24.1809845,45,65,51,47.90000153,-20
1.2,50,50,60,go_to_color_detect_up,green,TRUE,FALSE,joint 3 -,TRUE,52:14.3,23.051,0.161,231.2,122.3972168,262.4816589,7.604804993,45,65,51,31.25,-20
1.2,50,50,60,go_to_color_detect_up,green,TRUE,FALSE,joint 3 -,TRUE,52:15.7,22.386,0.217,231.2,131.0589294,281.0567627,63.9917984,45,65,51,7.800000668,-20
1.2,50,50,60,go_to_blue_up,blue,TRUE,FALSE,joint 1 +,TRUE,52:16.3,22.443,0.217,231.2,131.200943,282.6482544,84.95825195,45.09999847,65.15000153,51,0,-20
1.2,50,50,60,go_to_blue_up,blue,TRUE,FALSE,joint 1 +,TRUE,52:17.0,22.045,0.217,231.2,63.85482407,305.0021362,84.95825195,58.17542267,78.53984833,51,0,-20
1.2,50,50,60,go_to_pick_up_from_blue,blue,TRUE,FALSE,joint 1 -,FALSE,52:18.6,21.874,0.214,231.2,32.84300995,309.8791199,84.95825195,63.95000458,83.80000305,51,0,-20
1.2,50,50,60,go_to_pick_up_from_blue,blue,TRUE,FALSE,joint 1 -,FALSE,52:19.5,19.31,0.214,231.2,125.5018005,285.2245178,84.95825195,46.25,65.75,51,0,-20
1.2,50,50,60,go_to_pick_up_from_blue,blue,TRUE,FALSE,joint 1 -,FALSE,52:20.2,16.329,0.161,231.2,241.3121338,197.1603088,84.95825195,19.25,38.75,51,0,-20
1.2,50,50,60,go_to_pick_up_from_blue,blue,TRUE,FALSE,joint 1 -,FALSE,52:21.5,16.348,0.161,231.2,290.5258179,112.6875381,84.95825195,1.200000763,21.05000114,51,0,-20
1.2,50,50,60,moving_belt,blue,FALSE,TRUE,joint 1 -,FALSE,52:22.2,16.348,0.161,231.2,292.822052,106.5785141,84.95825195,0,20,51,0,-20
1.2,50,50,60,moving_belt,blue,FALSE,TRUE,joint 1 -,FALSE,52:23.6,16.519,0.161,231.2,292.822052,106.5785141,84.95825195,0,20,51,0,-20
1.2,50,50,60,moving_belt,blue,FALSE,TRUE,joint 1 -,FALSE,52:24.3,16.538,0.167,231.2,292.822052,106.5785141,84.95825195,0,20,51,0,-20
1.2,50,50,60,moving_belt,blue,FALSE,TRUE,joint 1 -,FALSE,52:25.0,16.557,0.167,231.2,292.822052,106.5785141,84.95825195,0,20,51,0,-20
1.2,50,50,60,go_to_pick_down,blue,TRUE,FALSE,joint 3 +,FALSE,52:26.4,16.5,0.167,231.2,292.8211365,106.5781784,84.41947174,0,20,51,0.280000001,-20
1.2,50,50,60,go_to_pick_down,blue,TRUE,FALSE,joint 3 +,FALSE,52:27.1,16.5,0.164,231.2,287.1656494,104.5197525,43.32322693,0,20,51,16.78124619,-20
1.2,50,50,60,go_to_pick_up_from_pick_down,blue,TRUE,FALSE,joint 3 -,TRUE,52:28.5,16.5,0.164,231.2,283.3511658,103.1313934,31.46472168,0,20,51,21.21999741,-20
1.2,50,50,60,go_to_pick_up_from_pick_down,blue,TRUE,FALSE,joint 3 -,TRUE,52:29.2,16.766,0.166,231.2,292.0940857,106.3135529,69.8862381,0,20,51,5.546835899,-20
1.2,50,50,60,go_to_color_detect_up,blue,TRUE,FALSE,joint 1 +,TRUE,52:30.6,22.234,0.166,231.2,289.511261,115.2690735,84.95825195,1.710000992,21.90000153,51,0,-20
1.2,50,50,60,go_to_color_detect_up,blue,TRUE,FALSE,joint 1 +,TRUE,52:31.3,22.234,0.216,231.2,236.0684052,203.4095612,84.95825195,20.75,41.25,51,0,-20
1.2,50,50,60,go_to_color_detect_up,blue,TRUE,FALSE,joint 1 +,TRUE,52:32.7,22.215,0.216,231.2,147.4933929,274.4985046,84.95825195,41.75,62,51,0,-20
1.2,50,50,60,go_to_color_detect_up,blue,TRUE,FALSE,joint 3 +,TRUE,52:33.4,22.196,0.213,231.2,131.5775299,282.1689148,75.95851135,45,65,51,3.779999733,-20
1.2,50,50,60,go_to_color_detect_up,blue,TRUE,FALSE,joint 3 +,TRUE,52:34.1,21.95,0.213,231.2,125.9874725,270.1809998,23.41527176,45,65,51,25.24999809,-20
1.2,50,50,60,go_to_color_detect_up,blue,TRUE,FALSE,joint 3 +,TRUE,52:35.5,22.064,0.211,231.2,113.3137131,243.0020294,-19.42093658,45,65,51,45.47000122,-20
1.2,50,50,60,go_to_color_detect_up,blue,TRUE,FALSE,joint 3 -,FALSE,52:36.2,22.083,0.211,231.2,114.0920486,244.6711731,-17.5617981,45,65,51,43.94000244,-20
1.2,50,50,60,go_to_color_detect_up,blue,TRUE,FALSE,joint 3 -,FALSE,52:37.7,17.222,0.164,231.2,126.860817,272.053894,28.11174011,45,65,51,22.25,-20
1.2,50,50,60,go_to_color_detect_up,blue,TRUE,FALSE,joint 3 -,FALSE,52:38.4,16.975,0.164,231.2,131.6335144,282.2889709,78.46930695,45,65,51,2.31000042,-20
1.2,50,50,60,detecting_color,blue,FALSE,FALSE,detecting_color,FALSE,52:39.1,16.975,0.164,231.2,131.6940765,282.4188232,84.95825195,45,65,51,0,-20
1.2,50,50,60,go_to_color_detect_down,blue,TRUE,FALSE,joint 3 +,FALSE,52:40.5,16.652,0.166,231.2,131.6940765,282.4188232,84.9325943,45,65,51,0.029999994,-20
1.2,50,50,60,go_to_color_detect_down,blue,TRUE,FALSE,joint 3 +,FALSE,52:41.1,16.576,0.166,231.2,129.5065002,277.7275696,46.29266739,45,65,51,15.74999809,-20
1.2,50,50,60,go_to_color_detect_down,blue,TRUE,FALSE,joint 3 +,FALSE,52:42.5,16.386,0.162,231.2,117.869751,252.7724915,-7.492027283,45,65,51,39.38999939,-20
1.2,50,50,60,go_to_color_detect_up,blue,TRUE,FALSE,joint 3 -,TRUE,52:43.2,16.481,0.162,231.2,111.1630096,238.3898315,-24.23252106,45,65,51,47.94000244,-20
1.2,50,50,60,go_to_color_detect_up,blue,TRUE,FALSE,joint 3 -,TRUE,52:44.6,20.184,0.166,231.2,121.818634,261.2408752,5.434997559,45,65,51,32.25,-20
1.2,50,50,60,go_to_color_detect_up,blue,TRUE,FALSE,joint 3 -,TRUE,52:45.3,22.5,0.166,231.2,130.924118,280.7676697,61.8863678,45,65,51,8.61000061,-20
1.2,50,50,60,go_to_red_up,red,TRUE,FALSE,joint 1 +,TRUE,52:46.1,22.557,0.219,231.2,129.4719238,283.444458,84.95825195,45.44999695,65.54999542,51,0,-20
1.2,50,50,60,go_to_red_up,red,TRUE,FALSE,joint 1 +,TRUE,52:47.5,22.291,0.219,231.2,47.40386581,307.9880066,84.95825195,61.25,81.75,51,0,-20
1.2,50,50,60,go_to_red_up,red,TRUE,FALSE,joint 1 +,TRUE,52:48.2,22.177,0.212,231.2,-81.9644165,300.6419373,84.95825195,85.25,105.75,51,0,-20
1.2,50,50,60,go_to_red_up,red,TRUE,FALSE,joint 1 +,TRUE,52:49.6,22.519,0.212,231.2,-175.7826843,257.3017273,84.95825195,104.340004,124.4500046,51,0,-20
1.2,50,50,60,go_to_pick_up_from_red,red,TRUE,FALSE,joint 1 -,FALSE,52:50.3,22.519,0.217,231.2,-152.9254456,271.5097351,84.95825195,99.38999939,119.0500031,51,0,-20
1.2,50,50,60,go_to_pick_up_from_red,red,TRUE,FALSE,joint 1 -,FALSE,52:51.7,16.576,0.217,231.2,-36.62641144,309.4547424,84.95825195,76.75,96.25,51,0,-20
1.2,50,50,60,go_to_pick_up_from_red,red,TRUE,FALSE,joint 1 -,FALSE,52:52.4,16.576,0.167,231.2,107.8551636,292.3542175,84.95825195,49.75,69.25,51,0,-20
1.2,50,50,60,go_to_pick_up_from_red,red,TRUE,FALSE,joint 1 -,FALSE,52:53.1,16.424,0.167,231.2,217.4417725,223.2102203,84.95825195,25.75,45.25,51,0,-20
1.2,50,50,60,go_to_pick_up_from_red,red,TRUE,FALSE,joint 1 -,FALSE,52:54.5,16.652,0.163,231.2,284.5412903,127.04319,84.95825195,4.060005188,23.7800045,51,0,-20
1.2,50,50,60,moving_belt,red,FALSE,TRUE,joint 1 -,FALSE,52:55.2,16.652,0.163,231.2,292.822052,106.5785141,84.95825195,0,20,51,0,-20
1.2,50,50,60,moving_belt,red,FALSE,TRUE,joint 1 -,FALSE,52:56.5,16.652,0.163,231.2,292.822052,106.5785141,84.95825195,0,20,51,0,-20
1.2,50,50,60,moving_belt,red,FALSE,TRUE,joint 1 -,FALSE,52:57.2,16.652,0.163,231.2,292.822052,106.5785141,84.95825195,0,20,51,0,-20
1.2,50,50,60,moving_belt,red,FALSE,TRUE,joint 1 -,FALSE,52:58.6,16.69,0.163,231.2,292.822052,106.5785141,84.95825195,0,20,51,0,-20
1.2,50,50,60,go_to_pick_down,red,TRUE,FALSE,joint 3 +,FALSE,52:59.3,16.595,0.163,231.2,292.822052,106.5785141,84.95825195,0,20,51,0,-20
1.2,50,50,60,go_to_pick_down,red,TRUE,FALSE,joint 3 +,FALSE,53:00.1,16.595,0.163,231.2,290.3707886,105.6863251,57.38799286,0,20,51,11.27808285,-20
1.2,50,50,60,go_to_pick_up_from_pick_down,red,TRUE,FALSE,joint 3 -,TRUE,53:01.4,16.443,0.166,231.2,282.817749,102.9372406,30.03384399,0,20,51,21.89999771,-20
1.2,50,50,60,go_to_pick_up_from_pick_down,red,TRUE,FALSE,joint 3 -,TRUE,53:02.2,16.443,0.166,231.2,291.1403503,105.9664307,62.09014893,0,20,51,8.531500816,-20
1.2,50,50,60,go_to_color_detect_up,red,TRUE,FALSE,joint 1 +,TRUE,53:03.6,22.709,0.221,231.2,292.7102966,106.8851013,84.95825195,0.060001373,20.10000229,51,0,-20
