demetriskallis/dobot_magician_pick_and_place_and_color_sorting/Sampling/OLD_DATA/sampling_joint_movement_extra/old_measurements/joint_measurements__armv_60_arma_60_belts_60_cube_1.2g.csv
cube/weight,arm/velocity_ratio,arm/acceleration_ratio,belt/speed,dobot/operation,dobot/color,dobot/moving_arm,dobot/moving_belt,dobot/operation2,dobot/suction,meross/sample_timestamp,meross/power,meross/current,meross/voltage,dobot/pose_x,dobot/pose_y,dobot/pose_z,dobot/pose_rHead,dobot/pose_joint1Angle,dobot/pose_joint2Angle,dobot/pose_joint3Angle,dobot/pose_joint4Angle
1.2,60,60,60,homing,,,,homing,,,,,,134.6893311,-2.067362547,1.5965271,-0.87937057,-1.279370546,5.141951084,64.66359711,0
1.2,60,60,60,homing,,,,homing,,,,,,124.4699402,-51.50461197,1.5965271,-22.47935867,-22.87935829,5.141951084,64.66359711,0
1.2,60,60,60,homing,,,,homing,,,,,,100.608284,-89.57379913,1.5965271,-41.67938614,-42.07938766,5.141951084,64.66359711,0
1.2,60,60,60,homing,,,,homing,,57:31.8,16.367,0.161,227.4,65.55408478,-117.6781769,1.5965271,-60.87945938,-61.27946091,5.141951084,64.66359711,0
1.2,60,60,60,homing,,,,homing,,57:32.5,16.367,0.161,227.4,18.56212807,-133.4201508,1.5965271,-82.07953644,-82.47953796,5.141951084,64.66359711,0
1.2,60,60,60,homing,,,,homing,,57:33.2,16.329,0.161,227.4,-26.34796906,-132.1032867,1.5965271,-101.2796097,-101.6796112,5.141951084,64.66359711,0
1.2,60,60,60,homing,,,,homing,,57:34.9,16.424,0.163,227.4,-69.13570404,-115.6103058,1.5965271,-120.8796844,-121.279686,5.141951084,64.66359711,0
1.2,60,60,60,homing,,,,homing,,57:35.6,16.386,0.163,227.4,-97.872612,-92.55508423,1.5965271,-136.5995178,-136.5795135,5.141951084,64.66359711,0
1.2,60,60,60,homing,,,,homing,,57:36.3,16.386,0.162,227.4,-96.30783844,-94.18222046,1.5965271,-135.6393127,-135.6193085,5.141951084,64.66359711,0
1.2,60,60,60,homing,,,,homing,,57:37.8,16.291,0.162,227.4,-76.37266541,-119.269577,2.331710815,-122.6329117,-122.0809097,7.117396832,63.53697586,0
1.2,60,60,60,homing,,,,homing,,57:38.5,16.291,0.161,227.4,-1.031242847,-167.3830109,4.216651917,-90.3529892,-89.75299072,14.3704443,59.4004631,0
1.2,60,60,60,homing,,,,homing,,57:39.9,16.576,0.161,229.3,97.17157745,-179.3637238,4.451118469,-61.55306244,-60.95306396,25.0717926,53.29734421,0
1.2,60,60,60,homing,,,,homing,,57:40.5,16.576,0.161,229.3,195.9007416,-126.0227509,2.351051331,-32.75313568,-32.15313721,34.07045364,48.1652832,0
1.2,60,60,60,homing,,,,homing,,57:41.9,16.538,0.161,229.3,247.7069092,-17.0074234,0.277374268,-3.927733421,-3.626675367,39.16122818,45.26195145,0
1.2,60,60,60,homing,,,,homing,,57:42.6,16.538,0.16,229.3,249.9999847,0,-7.63E-06,0,0,39.71385956,44.94676971,0
1.2,60,60,60,homing,,,,homing,,57:44.0,16.12,0.16,229.3,249.9999847,0.00017966,-7.63E-06,4.12E-05,4.12E-05,39.71385956,44.94676971,0
1.2,60,60,60,homing,,,,homing,,57:44.7,16.12,0.159,229.3,249.9999847,0.00017966,-7.63E-06,4.12E-05,4.12E-05,39.71385956,44.94676971,0
1.2,60,60,60,homing,,,,homing,,57:45.4,16.158,0.159,229.3,249.9999847,0.00017966,-7.63E-06,4.12E-05,4.12E-05,39.71385956,44.94676971,0
1.2,60,60,60,homing,,,,homing,,57:46.8,16.044,0.159,229.3,249.9999847,0.00017966,-7.63E-06,4.12E-05,4.12E-05,39.71385956,44.94676971,0
1.2,60,60,60,homing,,,,homing,,57:47.4,16.044,0.158,229.3,250.0689545,0.00017971,0.056442261,4.12E-05,4.12E-05,39.71768188,44.91252899,0
1.2,60,60,60,homing,,,,homing,,57:48.8,16.044,0.158,229.3,261.3916931,46.77868652,29.55125427,4.10E-05,10.54108906,37.07829285,31.55356789,-10.54104805
1.2,60,60,60,homing,,,,homing,,57:49.5,16.5,0.163,229.3,275.0000305,103,65,4.20E-05,20.53320694,42.43653107,13.62708092,-20.53316498
1.2,60,60,60,go_to_pick_up_from_homing,nothing,,,go_to_pick_up_from_homing,,57:50.9,16.88,0.163,229.3,291.2089844,106.357811,82.64425659,7.63E-06,20.05544662,50.1095314,1.417015791,-20.0554409
1.2,60,60,60,moving_belt,nothing,FALSE,TRUE,go_to_pick_up_from_homing,,57:51.6,16.747,0.163,229.3,292.822052,106.5785141,84.95825195,0,20,51,0,-20
1.2,60,60,60,moving_belt,nothing,FALSE,TRUE,go_to_pick_up_from_homing,,57:52.9,16.956,0.163,229.3,292.822052,106.5785141,84.95825195,0,20,51,0,-20
1.2,60,60,60,moving_belt,nothing,FALSE,TRUE,go_to_pick_up_from_homing,,57:53.9,16.956,0.161,229.3,292.822052,106.5785141,84.95825195,0,20,51,0,-20
1.2,60,60,60,moving_belt,nothing,FALSE,TRUE,go_to_pick_up_from_homing,,57:54.6,16.614,0.161,229.3,292.822052,106.5785141,84.95825195,0,20,51,0,-20
1.2,60,60,60,go_to_pick_down,nothing,TRUE,FALSE,joint 3 +,,57:56.0,16.709,0.16,229.3,292.8088684,106.5737152,82.9263382,0,20,51,0.950399995,-20
1.2,60,60,60,go_to_pick_down,nothing,TRUE,FALSE,joint 3 +,,57:56.7,16.481,0.16,229.3,285.1274719,103.7779236,36.58117676,0,20,51,19.48999977,-20
1.2,60,60,60,go_to_pick_up_from_pick_down,nothing,TRUE,FALSE,joint 3 -,TRUE,57:57.4,16.196,0.16,229.3,286.2976074,104.203804,40.31427002,0,20,51,17.32000351,-20
1.2,60,60,60,go_to_pick_up_from_pick_down,nothing,TRUE,FALSE,joint 3 -,TRUE,57:58.8,23.374,0.168,229.3,292.822052,106.5785141,84.95795441,0,20,51,0,-20
1.2,60,60,60,go_to_color_detect_up,nothing,TRUE,FALSE,joint 1 +,TRUE,57:59.5,22.785,0.168,229.3,255.5589447,178.3069,84.95825195,14.90399551,35.56639481,51,0,-20
1.2,60,60,60,go_to_color_detect_up,nothing,TRUE,FALSE,joint 1 +,TRUE,58:00.9,22.633,0.212,229.3,144.3659058,276.1561279,84.95825195,42.40081406,62.66721344,51,0,-20
1.2,60,60,60,go_to_color_detect_up,nothing,TRUE,FALSE,joint 3 +,TRUE,58:01.6,22.671,0.212,229.3,131.1478882,281.2475281,65.50842285,45,65,51,8.078401566,-20
1.2,60,60,60,go_to_color_detect_up,nothing,TRUE,FALSE,joint 3 +,TRUE,58:02.9,22.253,0.212,231.2,118.1329651,253.3369446,-6.716751099,45,65,51,39.09599304,-20
1.2,60,60,60,go_to_color_detect_up,nothing,TRUE,FALSE,joint 3 -,FALSE,58:03.6,22.253,0.212,231.2,111.6583176,239.4520264,-23.1646347,45,65,51,47.20800018,-20
1.2,60,60,60,go_to_color_detect_up,nothing,TRUE,FALSE,joint 3 -,FALSE,58:04.3,22.462,0.213,231.2,128.1089325,274.7304993,35.74352264,45,65,51,18.84001541,-20
1.2,60,60,60,go_to_color_detect_up,nothing,TRUE,FALSE,joint 3 -,FALSE,58:05.5,16.481,0.213,227.4,131.6937256,282.4180908,84.46560669,45,65,51,0.124816157,-20
1.2,60,60,60,detecting_color,nothing,FALSE,FALSE,detecting_color,FALSE,58:06.9,16.652,0.164,227.4,131.6940765,282.4188232,84.95825195,45,65,51,0,-20
1.2,60,60,60,go_to_color_detect_down,nothing,TRUE,FALSE,joint 3 +,FALSE,58:07.6,16.291,0.164,227.4,131.6075745,282.2333374,77.20337677,45,65,51,3.326400518,-20
1.2,60,60,60,go_to_color_detect_down,nothing,TRUE,FALSE,joint 3 +,FALSE,58:09.0,16.196,0.161,227.4,122.6545944,263.0336304,8.597732544,45,65,51,31.98239136,-20
1.2,60,60,60,go_to_color_detect_up,nothing,TRUE,FALSE,joint 3 -,TRUE,58:09.7,16.196,0.161,227.4,111.2084198,238.4872131,-24.1355896,45,65,51,47.85599899,-20
1.2,60,60,60,go_to_color_detect_up,nothing,TRUE,FALSE,joint 3 -,TRUE,58:10.4,16.272,0.161,227.4,123.9468384,265.8048401,13.87080383,45,65,51,28.20000648,-20
1.2,60,60,60,go_to_color_detect_up,nothing,TRUE,FALSE,joint 3 -,TRUE,58:11.8,23.317,0.19,227.4,131.6514893,282.3275146,79.51620483,45,65,51,1.881616116,-20
1.2,60,60,60,go_to_red_up,red,TRUE,FALSE,joint 1 +,TRUE,58:12.6,22.804,0.215,227.4,100.0931931,295.1018066,84.95825195,51.26399231,71.69599152,51,0,-20
1.2,60,60,60,go_to_red_up,red,TRUE,FALSE,joint 1 +,TRUE,58:14.0,22.538,0.215,227.4,-87.98194885,298.9363098,84.95825195,86.40003204,107.1200333,51,0,-20
1.2,60,60,60,go_to_pick_up_from_red,red,TRUE,FALSE,joint 1 -,FALSE,58:14.7,22.709,0.215,227.4,-178.4783173,255.4392548,84.95825195,104.9424362,124.9760361,51,0,-20
1.2,60,60,60,go_to_pick_up_from_red,red,TRUE,FALSE,joint 1 -,FALSE,58:16.0,22.652,0.215,227.4,-92.97793579,297.4203186,84.95825195,87.36000824,106.640007,51,0,-20
1.2,60,60,60,go_to_pick_up_from_red,red,TRUE,FALSE,joint 1 -,FALSE,58:16.7,16.082,0.215,227.4,92.14722443,297.6787415,84.95825195,52.79994965,72.07994843,51,0,-20
1.2,60,60,60,go_to_pick_up_from_red,red,TRUE,FALSE,joint 1 -,FALSE,58:17.5,16.082,0.16,227.4,244.7503357,192.8756256,84.95825195,18.23989105,37.52228928,51,0,-20
1.2,60,60,60,moving_belt,red,FALSE,TRUE,joint 1 -,FALSE,58:18.9,16.215,0.16,227.4,292.822052,106.5785141,84.95825195,0,20,51,0,-20
1.2,60,60,60,moving_belt,red,FALSE,TRUE,joint 1 -,FALSE,58:19.5,16.215,0.16,227.4,292.822052,106.5785141,84.95825195,0,20,51,0,-20
1.2,60,60,60,moving_belt,red,FALSE,TRUE,joint 1 -,FALSE,58:20.9,16.747,0.16,227.4,292.822052,106.5785141,84.95825195,0,20,51,0,-20
1.2,60,60,60,moving_belt,red,FALSE,TRUE,joint 1 -,FALSE,58:21.6,16.063,0.158,227.4,292.822052,106.5785141,84.95825195,0,20,51,0,-20
1.2,60,60,60,moving_belt,red,FALSE,TRUE,joint 1 -,FALSE,58:23.0,16.386,0.158,227.4,292.822052,106.5785141,84.95825195,0,20,51,0,-20
1.2,60,60,60,go_to_pick_down,red,TRUE,FALSE,joint 3 +,FALSE,58:23.7,16.386,0.163,227.4,292.4295959,106.4356766,73.88520813,0,20,51,4.680000305,-20
1.2,60,60,60,go_to_pick_down,red,TRUE,FALSE,joint 3 +,TRUE,58:25.0,16.272,0.163,227.4,282.7637024,102.9175797,29.8913269,0,20,51,22,-20
1.2,60,60,60,go_to_pick_up_from_pick_down,red,TRUE,FALSE,joint 3 -,TRUE,58:25.7,16.272,0.184,227.4,291.5811157,106.1268463,65.29837036,0,20,51,7.222507954,-20
1.2,60,60,60,go_to_color_detect_up,red,TRUE,FALSE,joint 1 +,TRUE,58:26.4,23.393,0.184,227.4,290.6766052,112.2980042,84.95825195,1.123197556,21.3103981,51,0,-20
1.2,60,60,60,go_to_color_detect_up,red,TRUE,FALSE,joint 1 +,TRUE,58:27.8,23.165,0.218,227.4,201.2802277,237.8865051,84.95825195,29.76480865,50.42000961,51,0,-20
1.2,60,60,60,go_to_color_detect_up,red,TRUE,FALSE,joint 3 +,TRUE,58:28.5,23.165,0.218,227.4,131.6940765,282.4188232,84.95825195,45,65,51,0,-20
1.2,60,60,60,go_to_color_detect_up,red,TRUE,FALSE,joint 3 +,TRUE,58:29.9,22.88,0.218,227.4,129.6040802,277.9368286,47.14980698,45,65,51,15.56640148,-20
1.2,60,60,60,go_to_color_detect_up,red,TRUE,FALSE,joint 3 +,TRUE,58:30.6,23.108,0.218,227.4,112.8195114,241.942215,-20.56772614,45,65,51,46.11839294,-20
1.2,60,60,60,go_to_color_detect_up,red,TRUE,FALSE,joint 3 -,FALSE,58:32.0,23.146,0.215,227.4,115.3308182,247.3277283,-14.46090698,45,65,51,42.1536026,-20
1.2,60,60,60,go_to_color_detect_up,red,TRUE,FALSE,joint 3 -,FALSE,58:32.6,17.658,0.215,227.4,130.2906647,279.4092102,53.88945389,45,65,51,11.61601543,-20
1.2,60,60,60,detecting_color,red,FALSE,FALSE,detecting_color,FALSE,58:34.0,17.013,0.165,227.4,131.6940765,282.4188232,84.95825195,45,65,51,0,-20
1.2,60,60,60,detecting_color,red,FALSE,FALSE,detecting_color,FALSE,58:34.7,16.462,0.165,229.3,131.6940765,282.4188232,84.95825195,45,65,51,0,-20
1.2,60,60,60,go_to_color_detect_down,red,TRUE,FALSE,joint 3 +,FALSE,58:35.4,16.462,0.165,229.3,131.6940002,282.4187012,84.7365799,45,65,51,0.144000009,-20
1.2,60,60,60,go_to_color_detect_down,red,TRUE,FALSE,joint 3 +,FALSE,58:36.8,16.329,0.16,229.3,128.2811279,275.099762,36.9057045,45,65,51,19.80000114,-20
1.2,60,60,60,go_to_color_detect_down,red,TRUE,FALSE,joint 3 +,FALSE,58:37.5,16.31,0.16,231.2,111.856987,239.878067,-22.72974396,45,65,51,47.25599289,-20
1.2,60,60,60,go_to_color_detect_up,red,TRUE,FALSE,joint 3 -,TRUE,58:38.9,16.31,0.16,231.2,117.2142105,251.3666687,-9.377365112,45,65,51,39.43200302,-20
1.2,60,60,60,go_to_color_detect_up,red,TRUE,FALSE,joint 3 -,TRUE,58:39.6,23.602,0.16,231.2,130.8567505,280.6231995,60.90475082,45,65,51,8.904014587,-20
1.2,60,60,60,go_to_green_up,green,TRUE,FALSE,joint 1 +,TRUE,58:40.3,23.753,0.16,231.2,123.1179352,286.2615967,84.95825195,46.72799683,66.95839691,51,0,-20
1.2,60,60,60,go_to_green_up,green,TRUE,FALSE,joint 1 +,TRUE,58:42.0,23.127,0.221,231.2,-8.987835884,311.4850769,84.95825195,71.65280151,92.26560211,51,0,-20
1.2,60,60,60,go_to_pick_up_from_green,green,TRUE,FALSE,joint 1 -,FALSE,58:43.0,23.184,0.216,231.2,-77.92521667,301.7141113,84.95825195,84.48160553,104.352005,51,0,-20
1.2,60,60,60,go_to_pick_up_from_green,green,TRUE,FALSE,joint 1 -,FALSE,58:43.7,23.184,0.216,231.2,41.64426804,308.819519,84.95825195,62.31999969,81.59999847,51,0,-20
1.2,60,60,60,go_to_pick_up_from_green,green,TRUE,FALSE,joint 1 -,FALSE,58:45.1,16.272,0.159,231.2,209.4793549,230.6992188,84.95825195,27.7599411,47.03993988,51,0,-20
1.2,60,60,60,go_to_pick_up_from_green,green,TRUE,FALSE,joint 1 -,FALSE,58:45.8,16.272,0.159,231.2,291.5827637,109.9236832,84.95825195,0.655921936,20.52552223,51,0,-20
1.2,60,60,60,moving_belt,green,FALSE,TRUE,joint 1 -,FALSE,58:46.4,16.329,0.159,231.2,292.822052,106.5785141,84.95825195,0,20,51,0,-20
1.2,60,60,60,moving_belt,green,FALSE,TRUE,joint 1 -,FALSE,58:47.8,16.614,0.162,231.2,292.822052,106.5785141,84.95825195,0,20,51,0,-20
1.2,60,60,60,moving_belt,green,FALSE,TRUE,joint 1 -,FALSE,58:48.5,16.614,0.162,231.2,292.822052,106.5785141,84.95825195,0,20,51,0,-20
1.2,60,60,60,moving_belt,green,FALSE,TRUE,joint 1 -,FALSE,58:49.9,16.329,0.162,229.3,292.822052,106.5785141,84.95825195,0,20,51,0,-20
1.2,60,60,60,go_to_pick_down,green,TRUE,FALSE,joint 3 +,FALSE,58:50.6,16.329,0.162,229.3,292.7955322,106.5688553,82.07671356,0,20,51,1.31039989,-20
1.2,60,60,60,go_to_pick_down,green,TRUE,FALSE,joint 3 +,FALSE,58:51.9,16.633,0.162,229.3,283.6303711,103.233017,32.23146439,0,20,51,21.18039894,-20
1.2,60,60,60,go_to_pick_up_from_pick_down,green,TRUE,FALSE,joint 3 -,TRUE,58:52.6,16.424,0.162,231.2,288.7644653,105.1016693,49.59092712,0,20,51,13.43200493,-20
1.2,60,60,60,go_to_color_detect_up,green,TRUE,FALSE,joint 1 +,TRUE,58:54.0,23.583,0.219,231.2,292.7952576,106.6520996,84.95825195,0.014400482,20.04319954,51,0,-20
1.2,60,60,60,go_to_color_detect_up,green,TRUE,FALSE,joint 1 +,TRUE,58:55.0,22.918,0.219,229.3,231.7203827,208.3492432,84.95825195,21.9600029,42.68000412,51,0,-20
1.2,60,60,60,go_to_color_detect_up,green,TRUE,FALSE,joint 1 +,TRUE,58:55.7,22.709,0.215,229.3,133.9610596,281.3506165,84.95825195,44.53921509,64.6472168,51,0,-20
1.2,60,60,60,go_to_color_detect_up,green,TRUE,FALSE,joint 3 +,TRUE,58:56.5,22.614,0.215,229.3,130.6198578,280.1151733,57.73988342,45,65,51,11.2320013,-20
1.2,60,60,60,go_to_color_detect_up,green,TRUE,FALSE,joint 3 +,TRUE,58:57.8,22.633,0.211,229.3,114.4120712,245.3574677,-16.77789307,45,65,51,44.13599396,-20
1.2,60,60,60,go_to_color_detect_up,green,TRUE,FALSE,joint 3 -,FALSE,58:58.6,22.595,0.211,231.2,113.7476501,243.9326172,-18.3926239,45,65,51,44.35680389,-20
1.2,60,60,60,go_to_color_detect_up,green,TRUE,FALSE,joint 3 -,FALSE,59:00.0,16.766,0.163,231.2,129.282196,277.2465515,44.39611435,45,65,51,15.34561634,-20
1.2,60,60,60,detecting_color,green,FALSE,FALSE,detecting_color,FALSE,59:00.7,16.766,0.163,229.3,131.6940765,282.4188232,84.95825195,45,65,51,0,-20
1.2,60,60,60,detecting_color,green,FALSE,FALSE,detecting_color,FALSE,59:01.4,17.051,0.163,229.3,131.6940765,282.4188232,84.95825195,45,65,51,0,-20
1.2,60,60,60,go_to_color_detect_down,green,TRUE,FALSE,joint 3 +,FALSE,59:02.8,16.576,0.162,229.3,131.4524994,281.9007874,72.00732422,45,65,51,5.443201065,-20
1.2,60,60,60,go_to_color_detect_down,green,TRUE,FALSE,joint 3 +,FALSE,59:03.5,16.595,0.162,229.3,118.1329651,253.3369446,-6.716751099,45,65,51,39.09599304,-20
1.2,60,60,60,go_to_color_detect_up,green,TRUE,FALSE,joint 3 -,TRUE,59:04.8,16.538,0.162,231.2,111.6583176,239.4520264,-23.1646347,45,65,51,47.20800018,-20
1.2,60,60,60,go_to_color_detect_up,green,TRUE,FALSE,joint 3 -,TRUE,59:05.5,23.45,0.162,231.2,126.0553818,270.3266296,23.76495743,45,65,51,23.8800106,-20
1.2,60,60,60,go_to_color_detect_up,green,TRUE,FALSE,joint 3 -,TRUE,59:06.9,23.279,0.216,231.2,131.6937256,282.4180908,84.46560669,45,65,51,0.124816157,-20
1.2,60,60,60,go_to_blue_up,blue,TRUE,FALSE,joint 1 +,TRUE,59:07.6,22.899,0.216,231.2,69.3493576,303.7999268,84.95825195,57.14124298,77.60975647,51,0,-20
1.2,60,60,60,go_to_pick_up_from_blue,blue,TRUE,FALSE,joint 1 -,FALSE,59:09.0,21.836,0.211,231.2,33.23887634,309.8369141,84.95825195,63.87680817,83.68960571,51,0,-20
1.2,60,60,60,go_to_pick_up_from_blue,blue,TRUE,FALSE,joint 1 -,FALSE,59:09.7,21.836,0.211,231.2,178.1999207,255.6335602,84.95825195,35.11998749,54.39998627,51,0,-20
1.2,60,60,60,go_to_pick_up_from_blue,blue,TRUE,FALSE,joint 1 -,FALSE,59:11.1,16.519,0.161,231.2,282.9134216,130.6282196,84.95825195,4.78395462,24.4199543,51,0,-20
1.2,60,60,60,moving_belt,blue,FALSE,TRUE,joint 1 -,FALSE,59:11.7,16.595,0.161,231.2,292.822052,106.5785141,84.95825195,0,20,51,0,-20
1.2,60,60,60,moving_belt,blue,FALSE,TRUE,joint 1 -,FALSE,59:12.4,16.595,0.161,231.2,292.822052,106.5785141,84.95825195,0,20,51,0,-20
1.2,60,60,60,moving_belt,blue,FALSE,TRUE,joint 1 -,FALSE,59:13.8,16.557,0.162,231.2,292.822052,106.5785141,84.95825195,0,20,51,0,-20
1.2,60,60,60,moving_belt,blue,FALSE,TRUE,joint 1 -,FALSE,59:14.5,16.367,0.162,231.2,292.822052,106.5785141,84.95825195,0,20,51,0,-20
1.2,60,60,60,go_to_pick_down,blue,TRUE,FALSE,joint 3 +,FALSE,59:15.9,16.215,0.158,231.2,292.822052,106.5785141,84.95825195,0,20,51,0,-20
1.2,60,60,60,go_to_pick_down,blue,TRUE,FALSE,joint 3 +,FALSE,59:16.6,16.5,0.158,231.2,287.1427307,104.5114136,43.24071503,0,20,51,16.87800026,-20
1.2,60,60,60,go_to_pick_up_from_pick_down,blue,TRUE,FALSE,joint 3 -,TRUE,59:18.0,16.462,0.161,231.2,284.4571838,103.5339508,34.58100128,0,20,51,19.79680252,-20
1.2,60,60,60,go_to_pick_up_from_pick_down,blue,TRUE,FALSE,joint 3 -,TRUE,59:18.6,23.469,0.161,231.2,292.7839661,106.5646515,81.50647736,0,20,51,1.155812979,-20
1.2,60,60,60,go_to_color_detect_up,blue,TRUE,FALSE,joint 1 +,TRUE,59:20.0,22.747,0.215,231.2,269.5306091,156.3872681,84.95825195,10.12319565,30.6703949,51,0,-20
1.2,60,60,60,go_to_color_detect_up,blue,TRUE,FALSE,joint 1 +,TRUE,59:20.7,22.538,0.215,231.2,156.9776917,269.1871643,84.95825195,39.75121307,60.1328125,51,0,-20
1.2,60,60,60,go_to_color_detect_up,blue,TRUE,FALSE,joint 3 +,TRUE,59:22.1,22.481,0.212,231.2,131.5685272,282.1495972,75.61743164,45,65,51,3.974400759,-20
1.2,60,60,60,go_to_color_detect_up,blue,TRUE,FALSE,joint 3 +,TRUE,59:22.8,22.481,0.212,231.2,121.874649,261.3610229,5.641410828,45,65,51,33.31199265,-20
1.2,60,60,60,go_to_color_detect_up,blue,TRUE,FALSE,joint 3 -,FALSE,59:23.5,22.329,0.21,231.2,111.1388397,238.3379974,-24.28404236,45,65,51,48,-20
1.2,60,60,60,go_to_color_detect_up,blue,TRUE,FALSE,joint 3 -,FALSE,59:24.8,22.462,0.21,231.2,123.9468384,265.8048401,13.87080383,45,65,51,28.20000648,-20
1.2,60,60,60,go_to_color_detect_up,blue,TRUE,FALSE,joint 3 -,FALSE,59:25.5,16.709,0.163,231.2,131.6514893,282.3275146,79.51620483,45,65,51,1.881616116,-20
1.2,60,60,60,detecting_color,blue,FALSE,FALSE,detecting_color,FALSE,59:26.9,17.089,0.163,231.2,131.6940765,282.4188232,84.95825195,45,65,51,0,-20
1.2,60,60,60,go_to_color_detect_down,blue,TRUE,FALSE,joint 3 +,FALSE,59:27.6,16.481,0.159,231.2,131.6940002,282.4187012,84.7365799,45,65,51,0.144000009,-20
1.2,60,60,60,go_to_color_detect_down,blue,TRUE,FALSE,joint 3 +,FALSE,59:29.0,16.443,0.159,231.2,127.473999,273.368866,31.70376968,45,65,51,21.95999908,-20
1.2,60,60,60,go_to_color_detect_down,blue,TRUE,FALSE,joint 3 +,FALSE,59:29.7,16.443,0.159,231.2,112.2897034,240.8060303,-21.76921082,45,65,51,46.75199509,-20
1.2,60,60,60,go_to_color_detect_up,blue,TRUE,FALSE,joint 3 -,TRUE,59:31.0,21.095,0.161,231.2,118.2495956,253.5870514,-6.369781494,45,65,51,37.87680435,-20
1.2,60,60,60,go_to_color_detect_up,blue,TRUE,FALSE,joint 3 -,TRUE,59:31.7,21.095,0.161,231.2,131.2883301,281.5487061,68.18479156,45,65,51,6.124815464,-20
1.2,60,60,60,go_to_red_up,red,TRUE,FALSE,joint 1 +,TRUE,59:32.4,23.051,0.216,231.2,124.1962662,285.7954102,84.95825195,46.51199341,66.72799683,51,0,-20
1.2,60,60,60,go_to_red_up,red,TRUE,FALSE,joint 1 +,TRUE,59:33.8,22.253,0.216,231.2,-10.87522316,311.4248962,84.95825195,72.00000763,92.72000885,51,0,-20
1.2,60,60,60,go_to_red_up,red,TRUE,FALSE,joint 1 +,TRUE,59:34.5,22.5,0.21,231.2,-169.5352478,261.4603882,84.95825195,102.9600372,123.1952362,51,0,-20
1.2,60,60,60,go_to_pick_up_from_red,red,TRUE,FALSE,joint 1 -,FALSE,59:35.9,22.652,0.21,231.2,-153.7152557,271.0633545,84.95825195,99.55680847,119.1536102,51,0,-20
1.2,60,60,60,go_to_pick_up_from_red,red,TRUE,FALSE,joint 1 -,FALSE,59:36.6,16.386,0.176,231.2,7.396076202,311.526947,84.95825195,68.6399765,87.91997528,51,0,-20
1.2,60,60,60,go_to_pick_up_from_red,red,TRUE,FALSE,joint 1 -,FALSE,59:37.9,16.348,0.176,231.2,201.3005829,237.8693085,84.95825195,29.75991058,49.03990936,51,0,-20
1.2,60,60,60,go_to_pick_up_from_red,red,TRUE,FALSE,joint 1 -,FALSE,59:38.6,16.348,0.161,231.2,288.5923462,117.550827,84.95825195,2.162288666,21.91988945,51,0,-20
1.2,60,60,60,moving_belt,red,FALSE,TRUE,joint 1 -,FALSE,59:40.0,16.424,0.161,231.2,292.822052,106.5785141,84.95825195,0,20,51,0,-20
1.2,60,60,60,moving_belt,red,FALSE,TRUE,joint 1 -,FALSE,59:40.7,16.69,0.159,231.2,292.822052,106.5785141,84.95825195,0,20,51,0,-20
1.2,60,60,60,moving_belt,red,FALSE,TRUE,joint 1 -,FALSE,59:42.1,16.595,0.159,231.2,292.822052,106.5785141,84.95825195,0,20,51,0,-20
1.2,60,60,60,moving_belt,red,FALSE,TRUE,joint 1 -,FALSE,59:42.8,16.367,0.16,231.2,292.822052,106.5785141,84.95825195,0,20,51,0,-20
1.2,60,60,60,go_to_pick_down,red,TRUE,FALSE,joint 3 +,FALSE,59:43.5,16.367,0.16,231.2,292.8132019,106.5752945,83.29575348,0,20,51,0.791999996,-20
1.2,60,60,60,go_to_pick_down,red,TRUE,FALSE,joint 3 +,FALSE,59:44.9,16.462,0.16,231.2,285.5928345,103.9472885,38.02624893,0,20,51,18.92339897,-20
1.2,60,60,60,go_to_pick_up_from_pick_down,red,TRUE,FALSE,joint 3 -,TRUE,59:45.6,16.215,0.16,231.2,285.7928772,104.0201035,38.66301346,0,20,51,18.02560425,-20
1.2,60,60,60,go_to_pick_up_from_pick_down,red,TRUE,FALSE,joint 3 -,TRUE,59:46.9,23.222,0.219,231.2,292.821991,106.5784912,84.82788086,0,20,51,0.019515362,-20
1.2,60,60,60,go_to_color_detect_up,red,TRUE,FALSE,joint 1 +,TRUE,59:47.6,23.222,0.219,231.2,261.3326111,169.7321167,84.95825195,13.00319672,33.62239838,51,0,-20
1.2,60,60,60,go_to_color_detect_up,red,TRUE,FALSE,joint 1 +,TRUE,59:48.7,22.842,0.219,227.4,140.7096863,278.0368652,84.95825195,43.15681076,63.38001251,51,0,-20
1.2,60,60,60,go_to_color_detect_up,red,TRUE,FALSE,joint 3 +,TRUE,59:49.4,22.918,0.216,227.4,131.2703094,281.5100708,67.81784058,45,65,51,7.142401695,-20
1.2,60,60,60,go_to_color_detect_up,red,TRUE,FALSE,joint 3 +,TRUE,59:50.2,22.899,0.216,227.4,118.848259,254.8708954,-4.554100037,45,65,51,38.05439377,-20
1.2,60,60,60,go_to_color_detect_up,red,TRUE,FALSE,joint 3 -,FALSE,59:51.8,22.728,0.214,227.4,111.4627075,239.0325317,-23.5891571,45,65,51,47.48160172,-20
1.2,60,60,60,go_to_color_detect_up,red,TRUE,FALSE,joint 3 -,FALSE,59:52.6,19.861,0.214,227.4,127.2834167,272.9601746,30.55777359,45,65,51,21.00001335,-20
1.2,60,60,60,go_to_color_detect_up,red,TRUE,FALSE,joint 3 -,FALSE,59:53.3,19.861,0.164,227.4,131.6927795,282.4160767,84.00995636,45,65,51,0.273616016,-20
1.2,60,60,60,detecting_color,red,FALSE,FALSE,detecting_color,FALSE,59:54.1,17.07,0.164,227.4,131.6940765,282.4188232,84.95825195,45,65,51,0,-20
1.2,60,60,60,detecting_color,red,FALSE,FALSE,detecting_color,FALSE,59:55.9,16.462,0.16,227.4,131.6940765,282.4188232,84.95825195,45,65,51,0,-20
1.2,60,60,60,detecting_color,red,FALSE,FALSE,detecting_color,FALSE,59:56.5,16.329,0.16,229.3,131.6940765,282.4188232,84.95825195,45,65,51,0,-20
1.2,60,60,60,detecting_color,red,FALSE,FALSE,detecting_color,FALSE,59:57.9,16.291,0.159,229.3,131.6940765,282.4188232,84.95825195,45,65,51,0,-20
1.2,60,60,60,go_to_color_detect_down,red,TRUE,FALSE,joint 3 +,FALSE,59:58.6,16.31,0.159,227.4,131.6915283,282.4133911,83.62824249,45,65,51,0.648000062,-20
1.2,60,60,60,go_to_color_detect_down,red,TRUE,FALSE,joint 3 +,FALSE,00:00.0,16.31,0.161,227.4,124.9228668,267.8979492,18.22166443,45,65,51,27.71999359,-20
1.2,60,60,60,go_to_color_detect_down,red,TRUE,FALSE,joint 3 +,FALSE,00:00.7,16.31,0.161,227.4,111.3588409,238.8097992,-23.81309509,45,65,51,47.80799484,-20
1.2,60,60,60,go_to_color_detect_up,red,TRUE,FALSE,joint 3 -,TRUE,00:02.0,23.298,0.219,227.4,119.3352966,255.9153595,-3.032485962,45,65,51,36.19200516,-20
1.2,60,60,60,go_to_color_detect_up,red,TRUE,FALSE,joint 3 -,TRUE,00:02.7,23.298,0.219,227.4,131.5528412,282.1159668,75.05211639,45,65,51,3.537616253,-20
1.2,60,60,60,go_to_green_up,green,TRUE,FALSE,joint 1 +,TRUE,00:04.1,23.013,0.217,227.4,113.4822159,290.2163391,84.95825195,48.64319611,68.97439575,51,0,-20
1.2,60,60,60,go_to_green_up,green,TRUE,FALSE,joint 1 +,TRUE,00:04.1,23.013,0.217,227.4,-48.32606506,307.844635,84.95825195,78.92160034,99.33280182,51,0,-20
1.2,60,60,60,go_to_pick_up_from_green,green,TRUE,FALSE,joint 1 -,FALSE,00:05.2,22.88,0.217,229.3,-71.53868866,303.2918701,84.95825195,83.27200317,103.0416031,51,0,-20
1.2,60,60,60,go_to_pick_up_from_green,green,TRUE,FALSE,joint 1 -,FALSE,00:06.9,17.886,0.216,227.4,68.61347198,303.96698,84.95825195,57.27999115,76.55998993,51,0,-20
1.2,60,60,60,go_to_pick_up_from_green,green,TRUE,FALSE,joint 1 -,FALSE,00:07.6,17.886,0.216,227.4,231.575119,208.5106659,84.95825195,21.99993134,41.27993011,51,0,-20
1.2,60,60,60,go_to_pick_up_from_green,green,TRUE,FALSE,joint 1 -,FALSE,00:09.0,16.101,0.159,227.4,292.7924194,106.6598816,84.95825195,0.015922546,20.00072289,51,0,-20
1.2,60,60,60,moving_belt,green,FALSE,TRUE,joint 1 -,FALSE,00:09.7,16.101,0.159,227.4,292.822052,106.5785141,84.95825195,0,20,51,0,-20
1.2,60,60,60,moving_belt,green,FALSE,TRUE,joint 1 -,FALSE,00:11.1,16.633,0.162,227.4,292.822052,106.5785141,84.95825195,0,20,51,0,-20
1.2,60,60,60,moving_belt,green,FALSE,TRUE,joint 1 -,FALSE,00:11.7,16.443,0.162,227.4,292.822052,106.5785141,84.95825195,0,20,51,0,-20
1.2,60,60,60,moving_belt,green,FALSE,TRUE,joint 1 -,FALSE,00:13.1,16.405,0.161,227.4,292.822052,106.5785141,84.95825195,0,20,51,0,-20
1.2,60,60,60,go_to_pick_down,green,TRUE,FALSE,joint 3 +,FALSE,00:13.8,16.367,0.161,227.4,292.5429077,106.4769135,75.61743164,0,20,51,3.974400282,-20
1.2,60,60,60,go_to_pick_down,green,TRUE,FALSE,joint 3 +,FALSE,00:14.5,16.367,0.161,227.4,283.1424255,103.0554199,30.8995285,0,20,51,21.6799984,-20
1.2,60,60,60,go_to_pick_up_from_pick_down,green,TRUE,FALSE,joint 3 -,TRUE,00:15.9,16.272,0.159,227.4,289.8649292,105.5022049,54.70446777,0,20,51,11.3296051,-20
1.2,60,60,60,go_to_color_detect_up,green,TRUE,FALSE,joint 1 +,TRUE,00:16.6,23.108,0.159,227.4,292.5532532,107.3141022,84.95825195,0.1439991,20.2159996,51,0,-20
1.2,60,60,60,go_to_color_detect_up,green,TRUE,FALSE,joint 1 +,TRUE,00:18.0,22.064,0.211,229.3,223.7029724,216.9347992,84.95825195,24.12000656,44.84000778,51,0,-20
1.2,60,60,60,go_to_color_detect_up,green,TRUE,FALSE,joint 1 +,TRUE,00:18.7,22.064,0.211,229.3,132.9702759,281.8202209,84.95825195,44.74081421,64.82001495,51,0,-20
1.2,60,60,60,go_to_color_detect_up,green,TRUE,FALSE,joint 3 +,TRUE,00:19.4,22.348,0.208,229.3,130.5041656,279.8670654,56.32526398,45,65,51,11.80800152,-20
1.2,60,60,60,go_to_color_detect_up,green,TRUE,FALSE,joint 3 +,TRUE,00:20.9,21.912,0.208,231.2,114.1555328,244.807312,-17.40722656,45,65,51,44.46239471,-20
1.2,60,60,60,go_to_color_detect_up,green,TRUE,FALSE,joint 3 -,FALSE,00:21.6,21.969,0.207,231.2,113.7476501,243.9326172,-18.3926239,45,65,51,44.35680389,-20
1.2,60,60,60,go_to_color_detect_up,green,TRUE,FALSE,joint 3 -,FALSE,00:23.0,16.633,0.207,231.2,129.4791412,277.6689148,46.05604172,45,65,51,14.68801594,-20
1.2,60,60,60,detecting_color,green,FALSE,FALSE,detecting_color,FALSE,00:23.7,16.633,0.163,231.2,131.6940765,282.4188232,84.95825195,45,65,51,0,-20
1.2,60,60,60,detecting_color,green,FALSE,FALSE,detecting_color,FALSE,00:24.4,16.823,0.163,231.2,131.6940765,282.4188232,84.95825195,45,65,51,0,-20
1.2,60,60,60,go_to_color_detect_down,green,TRUE,FALSE,joint 3 +,FALSE,00:25.8,16.158,0.16,231.2,131.4869385,281.9746399,72.96443176,45,65,51,5.054400921,-20
1.2,60,60,60,go_to_color_detect_down,green,TRUE,FALSE,joint 3 +,FALSE,00:26.8,16.348,0.16,231.2,118.1329651,253.3369446,-6.716751099,45,65,51,39.09599304,-20
1.2,60,60,60,go_to_color_detect_up,green,TRUE,FALSE,joint 3 -,TRUE,00:27.5,16.348,0.16,231.2,111.6583176,239.4520264,-23.1646347,45,65,51,47.20800018,-20
1.2,60,60,60,go_to_color_detect_up,green,TRUE,FALSE,joint 3 -,TRUE,00:28.8,22.994,0.16,231.2,126.0553818,270.3266296,23.76495743,45,65,51,23.8800106,-20
1.2,60,60,60,go_to_color_detect_up,green,TRUE,FALSE,joint 3 -,TRUE,00:29.5,22.69,0.16,231.2,131.6937256,282.4180908,84.46560669,45,65,51,0.124816157,-20
1.2,60,60,60,go_to_blue_up,blue,TRUE,FALSE,joint 1 +,TRUE,00:30.9,22.386,0.214,231.2,71.90739441,303.2046509,84.95825195,56.65833282,77.14124298,51,0,-20
1.2,60,60,60,go_to_pick_up_from_blue,blue,TRUE,FALSE,joint 1 -,FALSE,00:31.6,22.102,0.214,231.2,30.66805267,310.1019287,84.95825195,64.352005,84.20800781,51,0,-20
1.2,60,60,60,go_to_pick_up_from_blue,blue,TRUE,FALSE,joint 1 -,FALSE,00:33.0,20.393,0.208,231.2,168.438385,262.168335,84.95825195,37.27999115,56.55998993,51,0,-20
1.2,60,60,60,go_to_pick_up_from_blue,blue,TRUE,FALSE,joint 1 -,FALSE,00:33.7,16.31,0.208,231.2,280.1671143,136.4188538,84.95825195,5.96235466,25.5551548,51,0,-20
1.2,60,60,60,moving_belt,blue,FALSE,TRUE,joint 1 -,FALSE,00:34.4,16.31,0.158,231.2,292.822052,106.5785141,84.95825195,0,20,51,0,-20
1.2,60,60,60,moving_belt,blue,FALSE,TRUE,joint 1 -,FALSE,00:35.3,16.234,0.158,231.2,292.822052,106.5785141,84.95825195,0,20,51,0,-20
1.2,60,60,60,moving_belt,blue,FALSE,TRUE,joint 1 -,FALSE,00:36.4,16.5,0.158,231.2,292.822052,106.5785141,84.95825195,0,20,51,0,-20
1.2,60,60,60,moving_belt,blue,FALSE,TRUE,joint 1 -,FALSE,00:37.6,16.253,0.161,231.2,292.822052,106.5785141,84.95825195,0,20,51,0,-20
1.2,60,60,60,moving_belt,blue,FALSE,TRUE,joint 1 -,FALSE,00:38.5,16.253,0.161,231.2,292.822052,106.5785141,84.95825195,0,20,51,0,-20
1.2,60,60,60,go_to_pick_down,blue,TRUE,FALSE,joint 3 +,FALSE,00:39.9,16.272,0.161,231.2,288.5335693,105.0176392,48.6140976,0,20,51,14.77750015,-20
1.2,60,60,60,go_to_pick_up_from_pick_down,blue,TRUE,FALSE,joint 3 -,TRUE,00:40.5,16.272,0.161,231.2,283.6043091,103.223526,32.15937424,0,20,51,20.87680244,-20
1.2,60,60,60,go_to_pick_up_from_pick_down,blue,TRUE,FALSE,joint 3 -,TRUE,00:41.9,23.127,0.16,231.2,292.7939453,106.5682831,81.99305725,0,20,51,0.980513155,-20
1.2,60,60,60,go_to_color_detect_up,blue,TRUE,FALSE,joint 1 +,TRUE,00:42.6,23.127,0.16,231.2,276.1460266,144.3852692,84.95825195,7.60319519,28.07839584,51,0,-20
1.2,60,60,60,go_to_color_detect_up,blue,TRUE,FALSE,joint 1 +,TRUE,00:44.0,22.234,0.211,229.3,166.8465576,263.1842651,84.95825195,37.62720871,58.08081055,51,0,-20
1.2,60,60,60,go_to_color_detect_up,blue,TRUE,FALSE,joint 3 +,TRUE,00:44.7,22.215,0.211,229.3,131.6232605,282.2669678,77.94134521,45,65,51,3.024000406,-20
1.2,60,60,60,go_to_color_detect_up,blue,TRUE,FALSE,joint 3 +,TRUE,00:45.5,22.158,0.212,229.3,123.0453491,263.871582,10.13977814,45,65,51,31.2959919,-20
1.2,60,60,60,go_to_color_detect_up,blue,TRUE,FALSE,joint 3 -,FALSE,00:47.0,22.158,0.21,227.4,111.1465912,238.3546295,-24.26754761,45,65,51,47.99999237,-20
1.2,60,60,60,go_to_color_detect_up,blue,TRUE,FALSE,joint 3 -,FALSE,00:47.8,22.196,0.21,229.3,123.5650177,264.9860229,12.25956726,45,65,51,28.9200058,-20
1.2,60,60,60,go_to_color_detect_up,blue,TRUE,FALSE,joint 3 -,FALSE,00:49.1,16.709,0.166,229.3,131.6406708,282.3042908,78.86401367,45,65,51,2.121616125,-20
1.2,60,60,60,detecting_color,blue,FALSE,FALSE,detecting_color,FALSE,00:49.9,16.899,0.166,229.3,131.6940765,282.4188232,84.95825195,45,65,51,0,-20
1.2,60,60,60,go_to_color_detect_down,blue,TRUE,FALSE,joint 3 +,FALSE,00:50.5,16.899,0.166,229.3,131.6938782,282.4184265,84.58879852,45,65,51,0.216000021,-20
1.2,60,60,60,go_to_color_detect_down,blue,TRUE,FALSE,joint 3 +,FALSE,00:51.9,16.329,0.159,229.3,128.0213013,274.5425415,35.1637764,45,65,51,20.52000046,-20
1.2,60,60,60,go_to_color_detect_down,blue,TRUE,FALSE,joint 3 +,FALSE,00:52.6,16.405,0.159,229.3,111.7348251,239.6160889,-22.99760437,45,65,51,47.39519119,-20
1.2,60,60,60,go_to_color_detect_up,blue,TRUE,FALSE,joint 3 -,TRUE,00:54.0,16.538,0.16,229.3,117.2142105,251.3666687,-9.377365112,45,65,51,39.43200302,-20
1.2,60,60,60,go_to_color_detect_up,blue,TRUE,FALSE,joint 3 -,TRUE,00:54.7,23.146,0.16,227.4,130.9454041,280.813324,62.20565033,45,65,51,8.40481472,-20
1.2,60,60,60,go_to_red_up,red,TRUE,FALSE,joint 1 +,TRUE,00:56.1,22.5,0.214,227.4,121.9658051,286.754364,84.95825195,46.95839691,67.20319366,51,0,-20
1.2,60,60,60,go_to_red_up,red,TRUE,FALSE,joint 1 +,TRUE,00:56.7,22.5,0.214,229.3,-18.69797325,311.0532227,84.95825195,73.44001007,94.16001129,51,0,-20
1.2,60,60,60,go_to_red_up,red,TRUE,FALSE,joint 1 +,TRUE,00:58.1,22.557,0.211,229.3,-163.1336365,265.5016785,84.95825195,101.5680389,121.8752365,51,0,-20
1.2,60,60,60,go_to_pick_up_from_red,red,TRUE,FALSE,joint 1 -,FALSE,00:58.8,22.443,0.211,227.4,-147.7520752,274.3593445,84.95825195,98.30400848,117.857605,51,0,-20
1.2,60,60,60,go_to_pick_up_from_red,red,TRUE,FALSE,joint 1 -,FALSE,00:59.5,22.443,0.211,227.4,19.13232422,311.026825,84.95825195,66.47997284,85.75997162,51,0,-20
1.2,60,60,60,go_to_pick_up_from_red,red,TRUE,FALSE,joint 1 -,FALSE,01:00.9,16.329,0.16,229.3,189.0947571,247.683075,84.95825195,32.63991547,51.91991425,51,0,-20
1.2,60,60,60,go_to_pick_up_from_red,red,TRUE,FALSE,joint 1 -,FALSE,01:01.6,16.367,0.16,229.3,289.0870667,116.3288422,84.95825195,1.91988945,21.69188881,51,0,-20
1.2,60,60,60,moving_belt,red,FALSE,TRUE,joint 1 -,FALSE,01:02.9,16.234,0.16,227.4,292.822052,106.5785141,84.95825195,0,20,51,0,-20
1.2,60,60,60,moving_belt,red,FALSE,TRUE,joint 1 -,FALSE,01:03.6,16.766,0.16,227.4,292.822052,106.5785141,84.95825195,0,20,51,0,-20
1.2,60,60,60,moving_belt,red,FALSE,TRUE,joint 1 -,FALSE,01:05.0,16.424,0.162,227.4,292.822052,106.5785141,84.95825195,0,20,51,0,-20
1.2,60,60,60,moving_belt,red,FALSE,TRUE,joint 1 -,FALSE,01:05.7,16.424,0.162,227.4,292.822052,106.5785141,84.95825195,0,20,51,0,-20
1.2,60,60,60,go_to_pick_down,red,TRUE,FALSE,joint 3 +,FALSE,01:07.1,16.367,0.16,227.4,292.8216248,106.5783539,84.58879852,0,20,51,0.215999991,-20
1.2,60,60,60,go_to_pick_down,red,TRUE,FALSE,joint 3 +,FALSE,01:07.8,16.424,0.16,227.4,284.9068909,103.6976318,35.91283035,0,20,51,19.75169945,-20
1.2,60,60,60,go_to_pick_up_from_pick_down,red,TRUE,FALSE,joint 3 -,TRUE,01:08.5,16.31,0.16,227.4,286.2976074,104.203804,40.31427002,0,20,51,17.32000351,-20
1.2,60,60,60,go_to_pick_up_from_pick_down,red,TRUE,FALSE,joint 3 -,TRUE,01:09.9,23.165,0.162,227.4,292.8209229,106.5781097,84.36529541,0,20,51,0.156614661,-20
1.2,60,60,60,go_to_color_detect_up,red,TRUE,FALSE,joint 1 +,TRUE,01:10.6,22.462,0.162,227.4,255.5589447,178.3069,84.95825195,14.90399551,35.56639481,51,0,-20
1.2,60,60,60,go_to_color_detect_up,red,TRUE,FALSE,joint 1 +,TRUE,01:12.0,22.31,0.21,227.4,144.3659058,276.1561279,84.95825195,42.40081406,62.66721344,51,0,-20
1.2,60,60,60,go_to_color_detect_up,red,TRUE,FALSE,joint 3 +,TRUE,01:12.7,22.348,0.21,227.4,131.1478882,281.2475281,65.50842285,45,65,51,8.078401566,-20
1.2,60,60,60,go_to_color_detect_up,red,TRUE,FALSE,joint 3 +,TRUE,01:14.1,22.14,0.21,227.4,118.1329651,253.3369446,-6.716751099,45,65,51,39.09599304,-20
1.2,60,60,60,go_to_color_detect_up,red,TRUE,FALSE,joint 3 -,FALSE,01:14.8,22.14,0.21,227.4,111.6583176,239.4520264,-23.1646347,45,65,51,47.20800018,-20
1.2,60,60,60,go_to_color_detect_up,red,TRUE,FALSE,joint 3 -,FALSE,01:15.4,22.196,0.208,227.4,127.8429413,274.1600647,34.00680923,45,65,51,19.56001472,-20
1.2,60,60,60,go_to_color_detect_up,red,TRUE,FALSE,joint 3 -,FALSE,01:17.1,16.728,0.164,229.3,131.6937256,282.4180908,84.46560669,45,65,51,0.124816157,-20
1.2,60,60,60,detecting_color,red,FALSE,FALSE,detecting_color,FALSE,01:17.8,16.918,0.164,229.3,131.6940765,282.4188232,84.95825195,45,65,51,0,-20
1.2,60,60,60,detecting_color,red,FALSE,FALSE,detecting_color,FALSE,01:18.6,16.253,0.164,231.2,131.6940765,282.4188232,84.95825195,45,65,51,0,-20
1.2,60,60,60,detecting_color,red,FALSE,FALSE,detecting_color,FALSE,01:20.0,16.329,0.16,231.2,131.6940765,282.4188232,84.95825195,45,65,51,0,-20
1.2,60,60,60,detecting_color,red,FALSE,FALSE,detecting_color,FALSE,01:20.8,16.462,0.16,231.2,131.6940765,282.4188232,84.95825195,45,65,51,0,-20
1.2,60,60,60,detecting_color,red,FALSE,FALSE,detecting_color,FALSE,01:21.5,16.462,0.159,231.2,131.6940765,282.4188232,84.95825195,45,65,51,0,-20
1.2,60,60,60,go_to_color_detect_down,red,TRUE,FALSE,joint 3 +,FALSE,01:22.2,16.386,0.159,231.2,131.5894165,282.194397,76.42871857,45,65,51,3.643200636,-20
1.2,60,60,60,go_to_color_detect_down,red,TRUE,FALSE,joint 3 +,FALSE,01:23.9,16.462,0.162,229.3,122.2641983,262.1964111,7.098434448,45,65,51,32.65439224,-20
1.2,60,60,60,go_to_color_detect_up,red,TRUE,FALSE,joint 3 -,TRUE,01:24.7,16.424,0.162,229.3,111.138855,238.338028,-24.28403473,45,65,51,48,-20
1.2,60,60,60,go_to_color_detect_up,red,TRUE,FALSE,joint 3 -,TRUE,01:26.0,20.279,0.215,229.3,123.5650177,264.9860229,12.25956726,45,65,51,28.9200058,-20
1.2,60,60,60,go_to_color_detect_up,red,TRUE,FALSE,joint 3 -,TRUE,01:26.8,22.823,0.215,229.3,131.6406708,282.3042908,78.86401367,45,65,51,2.121616125,-20
1.2,60,60,60,go_to_green_up,green,TRUE,FALSE,joint 1 +,TRUE,01:26.8,22.823,0.215,229.3,106.3004684,292.9230957,84.95825195,50.05438995,70.44319153,51,0,-20
1.2,60,60,60,go_to_green_up,green,TRUE,FALSE,joint 1 +,TRUE,01:28.9,22.14,0.21,229.3,-56.68034744,306.4165039,84.95825195,80.48000336,100.8336029,51,0,-20
1.2,60,60,60,go_to_pick_up_from_green,green,TRUE,FALSE,joint 1 -,FALSE,01:29.6,22.367,0.21,229.3,-64.66074371,304.8323059,84.95825195,81.97600555,101.6736069,51,0,-20
1.2,60,60,60,go_to_pick_up_from_green,green,TRUE,FALSE,joint 1 -,FALSE,01:31.0,19.633,0.209,229.3,109.8427734,291.6132813,84.95825195,49.35997772,68.6399765,51,0,-20
1.2,60,60,60,go_to_pick_up_from_green,green,TRUE,FALSE,joint 1 -,FALSE,01:31.7,16.329,0.209,229.3,255.4446106,178.4706726,84.95825195,14.9407196,34.29191971,51,0,-20
1.2,60,60,60,moving_belt,green,FALSE,TRUE,joint 1 -,FALSE,01:33.2,16.367,0.162,229.3,292.822052,106.5785141,84.95825195,0,20,51,0,-20
1.2,60,60,60,moving_belt,green,FALSE,TRUE,joint 1 -,FALSE,01:34.0,16.481,0.162,229.3,292.822052,106.5785141,84.95825195,0,20,51,0,-20
1.2,60,60,60,moving_belt,green,FALSE,TRUE,joint 1 -,FALSE,01:34.7,16.481,0.161,229.3,292.822052,106.5785141,84.95825195,0,20,51,0,-20
1.2,60,60,60,moving_belt,green,FALSE,TRUE,joint 1 -,FALSE,01:36.0,16.367,0.161,229.3,292.822052,106.5785141,84.95825195,0,20,51,0,-20
1.2,60,60,60,moving_belt,green,FALSE,TRUE,joint 1 -,FALSE,01:36.7,16.576,0.161,229.3,292.822052,106.5785141,84.95825195,0,20,51,0,-20
1.2,60,60,60,go_to_pick_down,green,TRUE,FALSE,joint 3 +,FALSE,01:38.1,16.481,0.161,229.3,291.7501526,106.1883774,66.68088531,0,20,51,7.603201389,-20
1.2,60,60,60,go_to_pick_up_from_pick_down,green,TRUE,FALSE,joint 3 -,TRUE,01:39.2,16.348,0.16,229.3,282.7636108,102.9175491,29.89107895,0,20,51,22,-20
1.2,60,60,60,go_to_pick_up_from_pick_down,green,TRUE,FALSE,joint 3 -,TRUE,01:39.9,22.975,0.16,231.2,292.2704773,106.3777542,71.83454895,0,20,51,4.745109558,-20
1.2,60,60,60,go_to_color_detect_up,green,TRUE,FALSE,joint 1 +,TRUE,01:40.5,22.975,0.16,231.2,289.0088196,116.5231018,84.95825195,1.958396912,22.20319748,51,0,-20
1.2,60,60,60,go_to_color_detect_up,green,TRUE,FALSE,joint 1 +,TRUE,01:41.9,22.253,0.211,229.3,206.8435822,233.0653839,84.95825195,28.41120911,49.09520721,51,0,-20
1.2,60,60,60,go_to_color_detect_up,green,TRUE,FALSE,joint 3 +,TRUE,01:42.6,22.291,0.211,229.3,131.6940002,282.4187012,84.7365799,45,65,51,0.144000009,-20
1.2,60,60,60,go_to_color_detect_up,green,TRUE,FALSE,joint 3 +,TRUE,01:43.4,22.291,0.211,229.3,128.2811279,275.099762,36.9057045,45,65,51,19.80000114,-20
1.2,60,60,60,go_to_color_detect_up,green,TRUE,FALSE,joint 3 +,TRUE,01:45.1,22.14,0.21,227.4,112.8195114,241.942215,-20.56772614,45,65,51,46.11839294,-20
1.2,60,60,60,go_to_color_detect_up,green,TRUE,FALSE,joint 3 -,FALSE,01:45.9,22.158,0.21,227.4,117.2142105,251.3666687,-9.377365112,45,65,51,39.43200302,-20
1.2,60,60,60,go_to_color_detect_up,green,TRUE,FALSE,joint 3 -,FALSE,01:46.6,17.298,0.21,227.4,130.9454041,280.813324,62.20565033,45,65,51,8.40481472,-20
1.2,60,60,60,detecting_color,green,FALSE,FALSE,detecting_color,FALSE,01:48.0,17.07,0.166,227.4,131.6940765,282.4188232,84.95825195,45,65,51,0,-20
1.2,60,60,60,detecting_color,green,FALSE,FALSE,detecting_color,FALSE,01:48.6,16.386,0.166,229.3,131.6940765,282.4188232,84.95825195,45,65,51,0,-20
1.2,60,60,60,go_to_color_detect_down,green,TRUE,FALSE,joint 3 +,FALSE,01:50.1,16.367,0.161,229.3,131.2703094,281.5100708,67.81784058,45,65,51,7.142401695,-20
1.2,60,60,60,go_to_color_detect_down,green,TRUE,FALSE,joint 3 +,FALSE,01:50.8,16.367,0.161,229.3,116.773819,250.4222565,-10.60887909,45,65,51,41.00639343,-20
1.2,60,60,60,go_to_color_detect_up,green,TRUE,FALSE,joint 3 -,TRUE,01:52.2,16.405,0.162,229.3,112.0358582,240.261673,-22.33493042,45,65,51,46.6896019,-20
1.2,60,60,60,go_to_color_detect_up,green,TRUE,FALSE,joint 3 -,TRUE,01:52.9,18.817,0.162,229.3,126.9899521,272.3308105,28.8460083,45,65,51,21.72001266,-20
1.2,60,60,60,go_to_color_detect_up,green,TRUE,FALSE,joint 3 -,TRUE,01:53.5,22.842,0.162,229.3,131.6940613,282.4187927,84.87200165,45,65,51,0.009616196,-20
1.2,60,60,60,go_to_blue_up,blue,TRUE,FALSE,joint 1 +,TRUE,01:54.2,22.766,0.215,229.3,66.86284637,304.3568726,84.95825195,57.60975647,78.06386566,51,0,-20
1.2,60,60,60,go_to_pick_up_from_blue,blue,TRUE,FALSE,joint 1 -,FALSE,01:55.9,22.158,0.209,227.4,32.30426025,309.9357605,84.95825195,64.04960632,83.87680817,51,0,-20
1.2,60,60,60,go_to_pick_up_from_blue,blue,TRUE,FALSE,joint 1 -,FALSE,01:56.6,22.158,0.209,229.3,174.973526,257.8526611,84.95825195,35.83998871,55.11998749,51,0,-20
1.2,60,60,60,go_to_pick_up_from_blue,blue,TRUE,FALSE,joint 1 -,FALSE,01:58.0,16.424,0.161,229.3,282.0445251,132.4938049,84.95825195,5.162355423,24.78395462,51,0,-20
1.2,60,60,60,moving_belt,blue,FALSE,TRUE,joint 1 -,FALSE,01:58.7,16.405,0.161,229.3,292.822052,106.5785141,84.95825195,0,20,51,0,-20
1.2,60,60,60,moving_belt,blue,FALSE,TRUE,joint 1 -,FALSE,02:00.2,16.804,0.161,227.4,292.822052,106.5785141,84.95825195,0,20,51,0,-20
1.2,60,60,60,moving_belt,blue,FALSE,TRUE,joint 1 -,FALSE,02:00.8,16.291,0.161,227.4,292.822052,106.5785141,84.95825195,0,20,51,0,-20
1.2,60,60,60,moving_belt,blue,FALSE,TRUE,joint 1 -,FALSE,02:01.5,16.291,0.161,229.3,292.822052,106.5785141,84.95825195,0,20,51,0,-20
1.2,60,60,60,go_to_pick_down,blue,TRUE,FALSE,joint 3 +,FALSE,02:02.9,16.462,0.161,229.3,292.822052,106.5785141,84.95825195,0,20,51,0.014399999,-20
1.2,60,60,60,go_to_pick_down,blue,TRUE,FALSE,joint 3 +,FALSE,02:03.6,16.31,0.161,227.4,287.6939697,104.7120438,45.27656555,0,20,51,16.08099937,-20
1.2,60,60,60,go_to_pick_up_from_pick_down,blue,TRUE,FALSE,joint 3 -,TRUE,02:05.0,16.196,0.16,227.4,284.2657776,103.4642792,34.0260849,0,20,51,20.04160309,-20
1.2,60,60,60,go_to_pick_up_from_pick_down,blue,TRUE,FALSE,joint 3 -,TRUE,02:05.6,22.045,0.16,227.4,292.8125305,106.5750504,83.23133087,0,20,51,0.541013837,-20
1.2,60,60,60,go_to_color_detect_up,blue,TRUE,FALSE,joint 1 +,TRUE,02:07.0,22.405,0.209,227.4,273.6756897,149.0145874,84.95825195,8.567995071,29.07199478,51,0,-20
1.2,60,60,60,go_to_color_detect_up,blue,TRUE,FALSE,joint 1 +,TRUE,02:07.7,21.95,0.209,229.3,162.7254028,265.7520752,84.95825195,38.5200119,58.94481277,51,0,-20
1.2,60,60,60,go_to_color_detect_up,blue,TRUE,FALSE,joint 3 +,TRUE,02:09.1,21.969,0.209,229.3,131.5894165,282.194397,76.42871857,45,65,51,3.643200636,-20
1.2,60,60,60,go_to_color_detect_up,blue,TRUE,FALSE,joint 3 +,TRUE,02:09.8,21.969,0.209,229.3,122.2641983,262.1964111,7.098434448,45,65,51,32.65439224,-20
1.2,60,60,60,go_to_color_detect_up,blue,TRUE,FALSE,joint 3 -,FALSE,02:11.1,22.026,0.208,229.3,111.1388397,238.3379974,-24.28404236,45,65,51,48,-20
1.2,60,60,60,go_to_color_detect_up,blue,TRUE,FALSE,joint 3 -,FALSE,02:11.8,22.026,0.208,229.3,121.6147232,260.8036194,4.689849854,45,65,51,32.43360519,-20
1.2,60,60,60,go_to_color_detect_up,blue,TRUE,FALSE,joint 3 -,FALSE,02:12.5,17.279,0.208,229.3,131.6514893,282.3275146,79.51620483,45,65,51,1.881616116,-20
1.2,60,60,60,detecting_color,blue,FALSE,FALSE,detecting_color,FALSE,02:13.9,16.861,0.165,229.3,131.6940765,282.4188232,84.95825195,45,65,51,0,-20
1.2,60,60,60,go_to_color_detect_down,blue,TRUE,FALSE,joint 3 +,FALSE,02:14.6,16.462,0.165,229.3,131.6938782,282.4184265,84.58879852,45,65,51,0.216000021,-20
1.2,60,60,60,go_to_color_detect_down,blue,TRUE,FALSE,joint 3 +,FALSE,02:16.1,16.31,0.16,231.2,128.0213013,274.5425415,35.1637764,45,65,51,20.52000046,-20
1.2,60,60,60,go_to_color_detect_down,blue,TRUE,FALSE,joint 3 +,FALSE,02:16.7,16.31,0.16,231.2,112.6323242,241.5407867,-20.9954834,45,65,51,46.34399414,-20
1.2,60,60,60,go_to_color_detect_up,blue,TRUE,FALSE,joint 3 -,TRUE,02:18.1,19.386,0.161,231.2,117.2142105,251.3666687,-9.377365112,45,65,51,39.43200302,-20
1.2,60,60,60,go_to_color_detect_up,blue,TRUE,FALSE,joint 3 -,TRUE,02:18.8,22.633,0.161,231.2,130.9454041,280.813324,62.20565033,45,65,51,8.40481472,-20
1.2,60,60,60,go_to_red_up,red,TRUE,FALSE,joint 1 +,TRUE,02:20.2,22.519,0.212,231.2,128.4916687,283.8901367,84.95825195,45.647995,65.79199219,51,0,-20
1.2,60,60,60,go_to_red_up,red,TRUE,FALSE,joint 1 +,TRUE,02:20.9,21.969,0.212,231.2,-14.78776646,311.2636414,84.95825195,72.72000885,93.44001007,51,0,-20
1.2,60,60,60,go_to_red_up,red,TRUE,FALSE,joint 1 +,TRUE,02:21.6,22.291,0.208,231.2,-163.1336365,265.5016785,84.95825195,101.5680389,121.8752365,51,0,-20
1.2,60,60,60,go_to_pick_up_from_red,red,TRUE,FALSE,joint 1 -,FALSE,02:22.9,22.272,0.208,231.2,-162.1537018,266.1012878,84.95825195,101.3568039,121.0256042,51,0,-20
1.2,60,60,60,go_to_pick_up_from_red,red,TRUE,FALSE,joint 1 -,FALSE,02:23.6,16.139,0.208,231.2,11.3101387,311.4093933,84.95825195,67.91997528,87.19997406,51,0,-20
1.2,60,60,60,go_to_pick_up_from_red,red,TRUE,FALSE,joint 1 -,FALSE,02:25.0,16.177,0.157,231.2,185.9674225,250.0397034,84.95825195,33.35991669,52.63991547,51,0,-20
1.2,60,60,60,go_to_pick_up_from_red,red,TRUE,FALSE,joint 1 -,FALSE,02:25.7,16.177,0.157,231.2,284.8529053,126.3429871,84.95825195,3.919088364,23.59028816,51,0,-20
1.2,60,60,60,moving_belt,red,FALSE,TRUE,joint 1 -,FALSE,02:27.0,16.158,0.159,231.2,292.822052,106.5785141,84.95825195,0,20,51,0,-20
1.2,60,60,60,moving_belt,red,FALSE,TRUE,joint 1 -,FALSE,02:27.7,16.538,0.159,231.2,292.822052,106.5785141,84.95825195,0,20,51,0,-20
1.2,60,60,60,moving_belt,red,FALSE,TRUE,joint 1 -,FALSE,02:29.1,16.329,0.161,231.2,292.822052,106.5785141,84.95825195,0,20,51,0,-20
1.2,60,60,60,moving_belt,red,FALSE,TRUE,joint 1 -,FALSE,02:29.8,16.367,0.161,231.2,292.822052,106.5785141,84.95825195,0,20,51,0,-20
1.2,60,60,60,go_to_pick_down,red,TRUE,FALSE,joint 3 +,FALSE,02:31.2,16.386,0.16,231.2,292.8218994,106.5784607,84.7365799,0,20,51,0.143999994,-20
1.2,60,60,60,go_to_pick_down,red,TRUE,FALSE,joint 3 +,FALSE,02:31.9,16.386,0.16,231.2,286.8719177,104.4128418,42.27903748,0,20,51,17.25489998,-20
1.2,60,60,60,go_to_pick_up_from_pick_down,red,TRUE,FALSE,joint 3 -,TRUE,02:32.6,16.215,0.16,231.2,286.2976074,104.203804,40.31427002,0,20,51,17.32000351,-20
1.2,60,60,60,go_to_pick_up_from_pick_down,red,TRUE,FALSE,joint 3 -,TRUE,02:34.0,21.304,0.16,231.2,292.8209229,106.5781097,84.36529541,0,20,51,0.156614661,-20
1.2,60,60,60,go_to_color_detect_up,red,TRUE,FALSE,joint 1 +,TRUE,02:34.7,22.804,0.21,231.2,266.4538879,161.5736694,84.95825195,11.23199463,31.80799484,51,0,-20
1.2,60,60,60,go_to_color_detect_up,red,TRUE,FALSE,joint 1 +,TRUE,02:36.1,22.329,0.21,231.2,144.3659058,276.1561279,84.95825195,42.40081406,62.66721344,51,0,-20
1.2,60,60,60,go_to_color_detect_up,red,TRUE,FALSE,joint 3 +,TRUE,02:36.8,22.329,0.209,231.2,131.4524994,281.9007874,72.00732422,45,65,51,5.443201065,-20
1.2,60,60,60,go_to_color_detect_up,red,TRUE,FALSE,joint 3 +,TRUE,02:37.8,22.405,0.209,231.2,120.335228,258.0597229,0.226081848,45,65,51,35.79838943,-20
1.2,60,60,60,go_to_color_detect_up,red,TRUE,FALSE,joint 3 -,FALSE,02:39.1,22.329,0.211,231.2,111.6583176,239.4520264,-23.1646347,45,65,51,47.20800018,-20
1.2,60,60,60,go_to_color_detect_up,red,TRUE,FALSE,joint 3 -,FALSE,02:39.8,17.829,0.211,231.2,126.0553818,270.3266296,23.76495743,45,65,51,23.8800106,-20
1.2,60,60,60,go_to_color_detect_up,red,TRUE,FALSE,joint 3 -,FALSE,02:41.2,16.918,0.163,231.2,131.6864471,282.4024963,82.65539551,45,65,51,0.744016051,-20
1.2,60,60,60,detecting_color,red,FALSE,FALSE,detecting_color,FALSE,02:41.9,16.918,0.163,229.3,131.6940765,282.4188232,84.95825195,45,65,51,0,-20
1.2,60,60,60,detecting_color,red,FALSE,FALSE,detecting_color,FALSE,02:42.6,16.196,0.163,229.3,131.6940765,282.4188232,84.95825195,45,65,51,0,-20
1.2,60,60,60,detecting_color,red,FALSE,FALSE,detecting_color,FALSE,02:43.9,16.272,0.159,229.3,131.6940765,282.4188232,84.95825195,45,65,51,0,-20
1.2,60,60,60,detecting_color,red,FALSE,FALSE,detecting_color,FALSE,02:44.6,16.367,0.159,229.3,131.6940765,282.4188232,84.95825195,45,65,51,0,-20
1.2,60,60,60,go_to_color_detect_down,red,TRUE,FALSE,joint 3 +,FALSE,02:46.0,16.196,0.159,229.3,131.6932068,282.4169922,84.18241119,45,65,51,0.40320003,-20
1.2,60,60,60,go_to_color_detect_down,red,TRUE,FALSE,joint 3 +,FALSE,02:46.7,16.196,0.159,229.3,127.186615,272.7525635,29.98625183,45,65,51,22.6799984,-20
1.2,60,60,60,go_to_color_detect_down,red,TRUE,FALSE,joint 3 +,FALSE,02:48.1,16.272,0.162,229.3,111.4357986,238.9748383,-23.64725494,45,65,51,47.72639465,-20
1.2,60,60,60,go_to_color_detect_up,red,TRUE,FALSE,joint 3 -,TRUE,02:48.8,16.329,0.162,229.3,118.6063995,254.3522186,-5.294708252,45,65,51,37.3296051,-20
1.2,60,60,60,go_to_color_detect_up,red,TRUE,FALSE,joint 3 -,TRUE,02:49.5,23.051,0.162,229.3,131.231842,281.4275818,67.05971527,45,65,51,6.552015305,-20
1.2,60,60,60,go_to_green_up,green,TRUE,FALSE,joint 1 +,TRUE,02:51.1,22.538,0.215,227.4,116.611908,288.9729919,84.95825195,48.02399445,68.32639313,51,0,-20
1.2,60,60,60,go_to_green_up,green,TRUE,FALSE,joint 1 +,TRUE,02:51.8,22.538,0.21,227.4,-27.77445221,310.3744812,84.95825195,75.11360168,95.63999939,51,0,-20
1.2,60,60,60,go_to_pick_up_from_green,green,TRUE,FALSE,joint 1 -,FALSE,02:53.2,22.462,0.21,227.4,-78.53170776,301.5567932,84.95825195,84.59680176,104.4816055,51,0,-20
1.2,60,60,60,go_to_pick_up_from_green,green,TRUE,FALSE,joint 1 -,FALSE,02:53.9,22.462,0.21,227.4,64.78836823,304.8052063,84.95825195,57.99999237,77.27999115,51,0,-20
1.2,60,60,60,go_to_pick_up_from_green,green,TRUE,FALSE,joint 1 -,FALSE,02:54.6,16.405,0.16,227.4,226.262085,214.264328,84.95825195,23.43993378,42.71993256,51,0,-20
1.2,60,60,60,go_to_pick_up_from_green,green,TRUE,FALSE,joint 1 -,FALSE,02:56.0,16.31,0.16,229.3,291.5827637,109.9236832,84.95825195,0.655921936,20.52552223,51,0,-20
1.2,60,60,60,moving_belt,green,FALSE,TRUE,joint 1 -,FALSE,02:56.7,16.367,0.161,229.3,292.822052,106.5785141,84.95825195,0,20,51,0,-20
1.2,60,60,60,moving_belt,green,FALSE,TRUE,joint 1 -,FALSE,02:58.0,16.481,0.161,229.3,292.822052,106.5785141,84.95825195,0,20,51,0,-20
1.2,60,60,60,moving_belt,green,FALSE,TRUE,joint 1 -,FALSE,02:58.7,16.481,0.162,229.3,292.822052,106.5785141,84.95825195,0,20,51,0,-20
1.2,60,60,60,moving_belt,green,FALSE,TRUE,joint 1 -,FALSE,03:00.1,16.424,0.162,227.4,292.822052,106.5785141,84.95825195,0,20,51,0,-20
1.2,60,60,60,go_to_pick_down,green,TRUE,FALSE,joint 3 +,FALSE,03:00.8,16.424,0.161,227.4,292.7592468,106.5556564,80.5255127,0,20,51,1.958399773,-20
1.2,60,60,60,go_to_pick_down,green,TRUE,FALSE,joint 3 +,FALSE,03:02.2,16.557,0.161,229.3,284.1160889,103.4098053,33.59698486,0,20,51,20.65449905,-20
1.2,60,60,60,go_to_pick_up_from_pick_down,green,TRUE,FALSE,joint 3 -,TRUE,03:02.8,16.348,0.163,229.3,287.923645,104.795639,46.1590004,0,20,51,14.85760498,-20
1.2,60,60,60,go_to_color_detect_up,green,TRUE,FALSE,joint 1 +,TRUE,03:04.2,23.089,0.163,229.3,292.6610107,107.0199509,84.95825195,0.086399078,20.1439991,51,0,-20
1.2,60,60,60,go_to_color_detect_up,green,TRUE,FALSE,joint 1 +,TRUE,03:04.9,22.462,0.209,229.3,241.8960724,196.4434357,84.95825195,19.07999802,39.79999924,51,0,-20
1.2,60,60,60,go_to_color_detect_up,green,TRUE,FALSE,joint 1 +,TRUE,03:05.6,22.158,0.209,229.3,137.6616211,279.5585938,84.95825195,43.78321457,63.96321487,51,0,-20
1.2,60,60,60,go_to_color_detect_up,green,TRUE,FALSE,joint 3 +,TRUE,03:07.0,22.424,0.209,229.3,130.6198578,280.1151733,57.73988342,45,65,51,11.2320013,-20
1.2,60,60,60,go_to_color_detect_up,green,TRUE,FALSE,joint 3 +,TRUE,03:07.7,22.272,0.209,229.3,116.1353302,249.0529938,-12.34692383,45,65,51,41.87519455,-20
1.2,60,60,60,go_to_color_detect_up,green,TRUE,FALSE,joint 3 -,FALSE,03:09.0,22.253,0.211,229.3,112.3425674,240.9194031,-21.65059662,45,65,51,46.27200317,-20
1.2,60,60,60,go_to_color_detect_up,green,TRUE,FALSE,joint 3 -,FALSE,03:09.7,22.253,0.211,229.3,129.0725555,276.7969666,42.70638657,45,65,51,16.01761627,-20
1.2,60,60,60,detecting_color,green,FALSE,FALSE,detecting_color,FALSE,03:11.2,16.766,0.211,229.3,131.6940765,282.4188232,84.95821381,45,65,51,0,-20
1.2,60,60,60,detecting_color,green,FALSE,FALSE,detecting_color,FALSE,03:11.8,16.994,0.165,229.3,131.6940765,282.4188232,84.95825195,45,65,51,0,-20
1.2,60,60,60,go_to_color_detect_down,green,TRUE,FALSE,joint 3 +,FALSE,03:13.2,16.519,0.165,229.3,131.6881409,282.4060974,82.92633057,45,65,51,0.950400054,-20
1.2,60,60,60,go_to_color_detect_down,green,TRUE,FALSE,joint 3 +,FALSE,03:14.0,16.576,0.161,229.3,126.27005,270.7869873,24.88684082,45,65,51,24.83999634,-20
1.2,60,60,60,go_to_color_detect_down,green,TRUE,FALSE,joint 3 +,FALSE,03:14.7,16.576,0.161,231.2,111.1968384,238.4623871,-24.16034698,45,65,51,47.96639252,-20
1.2,60,60,60,go_to_color_detect_up,green,TRUE,FALSE,joint 3 -,TRUE,03:16.1,21.342,0.166,231.2,119.7066269,256.7116699,-1.844230652,45,65,51,35.60160446,-20
1.2,60,60,60,go_to_color_detect_up,green,TRUE,FALSE,joint 3 -,TRUE,03:16.8,22.842,0.166,231.2,131.3856049,281.7573242,70.32757568,45,65,51,5.313615799,-20
1.2,60,60,60,go_to_blue_up,blue,TRUE,FALSE,joint 1 +,TRUE,03:18.2,22.709,0.212,231.2,113.4822159,290.2163391,84.95825195,48.64319611,68.97439575,51,0,-20
1.2,60,60,60,go_to_blue_up,blue,TRUE,FALSE,joint 1 +,TRUE,03:18.9,22.177,0.212,231.2,27.79984093,310.3721924,84.95825195,64.88171387,84.93262482,51,0,-20
1.2,60,60,60,go_to_pick_up_from_blue,blue,TRUE,FALSE,joint 1 -,FALSE,03:19.6,22.121,0.212,231.2,90.10818481,298.3022766,84.95825195,53.19200897,72.60160828,51,0,-20
1.2,60,60,60,go_to_pick_up_from_blue,blue,TRUE,FALSE,joint 1 -,FALSE,03:21.0,16.5,0.193,231.2,254.9851532,179.1265106,84.95825195,15.08795547,34.43595505,51,0,-20
1.2,60,60,60,moving_belt,blue,FALSE,TRUE,joint 1 -,FALSE,03:21.7,16.5,0.193,231.2,292.822052,106.5785141,84.95825195,0,20,51,0,-20
1.2,60,60,60,moving_belt,blue,FALSE,TRUE,joint 1 -,FALSE,03:23.1,16.481,0.159,231.2,292.822052,106.5785141,84.95825195,0,20,51,0,-20
1.2,60,60,60,moving_belt,blue,FALSE,TRUE,joint 1 -,FALSE,03:23.7,16.367,0.159,231.2,292.822052,106.5785141,84.95825195,0,20,51,0,-20
1.2,60,60,60,moving_belt,blue,FALSE,TRUE,joint 1 -,FALSE,03:24.4,16.31,0.161,231.2,292.822052,106.5785141,84.95825195,0,20,51,0,-20
1.2,60,60,60,moving_belt,blue,FALSE,TRUE,joint 1 -,FALSE,03:26.1,16.158,0.161,231.2,292.822052,106.5785141,84.95825195,0,20,51,0,-20
1.2,60,60,60,go_to_pick_down,blue,TRUE,FALSE,joint 3 +,FALSE,03:26.8,16.405,0.16,231.2,292.5429077,106.4769135,75.61743164,0,20,51,3.974400282,-20
1.2,60,60,60,go_to_pick_down,blue,TRUE,FALSE,joint 3 +,FALSE,03:27.5,16.405,0.16,231.2,282.7812195,102.9239426,29.93747711,0,20,51,21.99739647,-20
1.2,60,60,60,go_to_pick_up_from_pick_down,blue,TRUE,FALSE,joint 3 -,TRUE,03:28.5,16.633,0.16,231.2,291.0596924,105.9370651,61.55168915,0,20,51,8.655607224,-20
1.2,60,60,60,go_to_color_detect_up,blue,TRUE,FALSE,joint 1 +,TRUE,03:29.4,23.279,0.16,231.2,289.4750366,115.3600006,84.95825195,1.727996826,21.95839691,51,0,-20
1.2,60,60,60,go_to_color_detect_up,blue,TRUE,FALSE,joint 1 +,TRUE,03:31.1,22.291,0.209,231.2,209.6690369,230.5268402,84.95825195,27.71281052,48.41120911,51,0,-20
1.2,60,60,60,go_to_color_detect_up,blue,TRUE,FALSE,joint 3 +,TRUE,03:31.8,22.462,0.209,231.2,131.7294769,282.4023132,84.95825195,44.99281311,65.00001526,51,0,-20
1.2,60,60,60,go_to_color_detect_up,blue,TRUE,FALSE,joint 3 +,TRUE,03:33.2,22.253,0.208,231.2,128.5316772,275.6370544,38.65522766,45,65,51,19.08000183,-20
1.2,60,60,60,go_to_color_detect_up,blue,TRUE,FALSE,joint 3 +,TRUE,03:33.8,22.215,0.208,231.2,113.0170975,242.3659363,-20.11230469,45,65,51,45.87839127,-20
1.2,60,60,60,go_to_color_detect_up,blue,TRUE,FALSE,joint 3 -,FALSE,03:34.5,22.272,0.208,231.2,115.0446548,246.7140503,-15.19338989,45,65,51,42.55680084,-20
1.2,60,60,60,go_to_color_detect_up,blue,TRUE,FALSE,joint 3 -,FALSE,03:36.1,17.032,0.209,231.2,130.8567505,280.6231995,60.90475082,45,65,51,8.904014587,-20
1.2,60,60,60,detecting_color,blue,FALSE,FALSE,detecting_color,FALSE,03:36.7,17.108,0.209,231.2,131.6940765,282.4188232,84.95825195,45,65,51,0,-20
1.2,60,60,60,detecting_color,blue,FALSE,FALSE,detecting_color,FALSE,03:38.1,16.614,0.166,231.2,131.6940765,282.4188232,84.95825195,45,65,51,0,-20
1.2,60,60,60,go_to_color_detect_down,blue,TRUE,FALSE,joint 3 +,FALSE,03:38.9,16.614,0.166,231.2,131.1478882,281.2475281,65.50842285,45,65,51,8.078401566,-20
1.2,60,60,60,go_to_color_detect_down,blue,TRUE,FALSE,joint 3 +,FALSE,03:39.7,16.614,0.163,231.2,118.1329651,253.3369446,-6.716751099,45,65,51,39.09599304,-20
1.2,60,60,60,go_to_color_detect_up,blue,TRUE,FALSE,joint 3 -,TRUE,03:41.1,16.69,0.163,231.2,111.6583176,239.4520264,-23.1646347,45,65,51,47.20800018,-20
1.2,60,60,60,go_to_color_detect_up,blue,TRUE,FALSE,joint 3 -,TRUE,03:41.8,19.101,0.163,231.2,127.8429413,274.1600647,34.00680923,45,65,51,19.56001472,-20
1.2,60,60,60,go_to_color_detect_up,blue,TRUE,FALSE,joint 3 -,TRUE,03:43.1,22.918,0.163,229.3,131.6937256,282.4180908,84.46560669,45,65,51,0.124816157,-20
1.2,60,60,60,go_to_red_up,red,TRUE,FALSE,joint 1 +,TRUE,03:43.9,22.918,0.213,229.3,71.11518097,303.391449,84.95825195,56.80799103,77.39839172,51,0,-20
1.2,60,60,60,go_to_red_up,red,TRUE,FALSE,joint 1 +,TRUE,03:45.2,22.386,0.213,229.3,-127.4524384,284.3582458,84.95825195,94.14243317,114.6944351,51,0,-20
1.2,60,60,60,go_to_pick_up_from_red,red,TRUE,FALSE,joint 1 -,FALSE,03:45.9,22.614,0.212,229.3,-176.9341583,256.511261,84.95825195,104.5968018,124.4816055,51,0,-20
1.2,60,60,60,go_to_pick_up_from_red,red,TRUE,FALSE,joint 1 -,FALSE,03:46.6,22.614,0.212,229.3,-70.31002045,303.5790405,84.95825195,83.04000092,102.3199997,51,0,-20
1.2,60,60,60,go_to_pick_up_from_red,red,TRUE,FALSE,joint 1 -,FALSE,03:47.6,16.823,0.212,229.3,135.8205719,280.4576721,84.95825195,44.159935,63.43993378,51,0,-20
1.2,60,60,60,go_to_pick_up_from_red,red,TRUE,FALSE,joint 1 -,FALSE,03:49.0,16.576,0.161,229.3,268.2777405,158.5269012,84.95825195,10.57908821,30.03428841,51,0,-20
1.2,60,60,60,moving_belt,red,FALSE,TRUE,joint 1 -,FALSE,03:49.7,16.614,0.161,229.3,292.822052,106.5785141,84.95825195,0,20,51,0,-20
1.2,60,60,60,moving_belt,red,FALSE,TRUE,joint 1 -,FALSE,03:51.1,16.519,0.162,229.3,292.822052,106.5785141,84.95825195,0,20,51,0,-20
1.2,60,60,60,moving_belt,red,FALSE,TRUE,joint 1 -,FALSE,03:51.8,16.595,0.162,229.3,292.822052,106.5785141,84.95825195,0,20,51,0,-20
1.2,60,60,60,moving_belt,red,FALSE,TRUE,joint 1 -,FALSE,03:53.2,16.329,0.163,229.3,292.822052,106.5785141,84.95825195,0,20,51,0,-20
1.2,60,60,60,moving_belt,red,FALSE,TRUE,joint 1 -,FALSE,03:53.9,16.329,0.163,229.3,292.822052,106.5785141,84.95825195,0,20,51,0,-20
1.2,60,60,60,go_to_pick_down,red,TRUE,FALSE,joint 3 +,FALSE,03:54.7,16.481,0.161,229.3,290.8914795,105.8758392,60.4675293,0,20,51,10.12320137,-20
1.2,60,60,60,go_to_pick_up_from_pick_down,red,TRUE,FALSE,joint 3 -,TRUE,03:56.1,16.31,0.161,229.3,282.8414917,102.9458847,30.09666824,0,20,51,21.8560009,-20
1.2,60,60,60,go_to_pick_up_from_pick_down,red,TRUE,FALSE,joint 3 -,TRUE,03:56.7,19.899,0.169,229.3,292.581543,106.4909744,76.28756714,0,20,51,3.076611042,-20
1.2,60,60,60,go_to_color_detect_up,red,TRUE,FALSE,joint 1 +,TRUE,03:57.7,22.823,0.169,229.3,284.7308044,126.6179047,84.95825195,3.974395752,24.31999588,51,0,-20
1.2,60,60,60,go_to_color_detect_up,red,TRUE,FALSE,joint 1 +,TRUE,03:59.1,22.196,0.21,229.3,173.4402161,258.8865051,84.95825195,36.18001175,56.67681122,51,0,-20
1.2,60,60,60,go_to_color_detect_up,red,TRUE,FALSE,joint 3 +,TRUE,03:59.8,22.367,0.21,229.3,131.6855316,282.4005127,82.51998901,45,65,51,1.123200059,-20
1.2,60,60,60,go_to_color_detect_up,red,TRUE,FALSE,joint 3 +,TRUE,04:01.1,22.291,0.211,229.3,125.9465485,270.0932312,23.20565414,45,65,51,25.55999565,-20
1.2,60,60,60,go_to_color_detect_up,red,TRUE,FALSE,joint 3 +,TRUE,04:01.8,22.291,0.211,229.3,111.1968384,238.4623871,-24.16034698,45,65,51,47.96639252,-20
1.2,60,60,60,go_to_color_detect_up,red,TRUE,FALSE,joint 3 -,FALSE,04:03.2,19.405,0.212,229.3,119.7066269,256.7116699,-1.844230652,45,65,51,35.60160446,-20
1.2,60,60,60,go_to_color_detect_up,red,TRUE,FALSE,joint 3 -,FALSE,04:03.9,19.405,0.212,229.3,131.3856049,281.7573242,70.32757568,45,65,51,5.313615799,-20
1.2,60,60,60,detecting_color,red,FALSE,FALSE,detecting_color,FALSE,04:04.6,17.032,0.212,229.3,131.6940765,282.4188232,84.95825195,45,65,51,0,-20
1.2,60,60,60,detecting_color,red,FALSE,FALSE,detecting_color,FALSE,04:06.2,16.5,0.164,229.3,131.6940765,282.4188232,84.95825195,45,65,51,0,-20
1.2,60,60,60,detecting_color,red,FALSE,FALSE,detecting_color,FALSE,04:06.9,16.443,0.164,229.3,131.6940765,282.4188232,84.95825195,45,65,51,0,-20
1.2,60,60,60,detecting_color,red,FALSE,FALSE,detecting_color,FALSE,04:08.2,16.481,0.16,229.3,131.6940765,282.4188232,84.95825195,45,65,51,0,-20
1.2,60,60,60,go_to_color_detect_down,red,TRUE,FALSE,joint 3 +,FALSE,04:08.9,16.481,0.16,229.3,131.2119904,281.3850098,66.68088531,45,65,51,7.603201866,-20
1.2,60,60,60,go_to_color_detect_down,red,TRUE,FALSE,joint 3 +,FALSE,04:09.9,16.424,0.16,229.3,116.450882,249.7297211,-11.49481201,45,65,51,41.44799423,-20
1.2,60,60,60,go_to_color_detect_up,red,TRUE,FALSE,joint 3 -,TRUE,04:10.6,16.386,0.16,229.3,112.3425674,240.9194031,-21.65059662,45,65,51,46.27200317,-20
1.2,60,60,60,go_to_color_detect_up,red,TRUE,FALSE,joint 3 -,TRUE,04:11.3,16.386,0.16,229.3,127.5677643,273.5699463,32.27812958,45,65,51,20.28001404,-20
1.2,60,60,60,go_to_green_up,green,TRUE,FALSE,joint 1 +,TRUE,04:13.0,22.975,0.204,229.3,131.6940765,282.4188232,84.95821381,45,65,51,0,-20
1.2,60,60,60,go_to_green_up,green,TRUE,FALSE,joint 1 +,TRUE,04:13.7,22.804,0.212,229.3,54.62547684,306.7894897,84.95825195,59.9039917,80.56639099,51,0,-20
1.2,60,60,60,go_to_green_up,green,TRUE,FALSE,joint 1 +,TRUE,04:15.0,22.557,0.212,231.2,-75.14157867,302.4193726,84.95825195,83.95360565,104.1200027,51,0,-20
1.2,60,60,60,go_to_pick_up_from_green,green,TRUE,FALSE,joint 1 -,FALSE,04:15.9,22.557,0.207,231.2,-20.47833443,310.9411011,84.95825195,73.76800537,93.19200897,51,0,-20
1.2,60,60,60,go_to_pick_up_from_green,green,TRUE,FALSE,joint 1 -,FALSE,04:16.6,20.582,0.207,231.2,155.8075104,269.8661499,84.95825195,39.99996185,59.27996063,51,0,-20
1.2,60,60,60,go_to_pick_up_from_green,green,TRUE,FALSE,joint 1 -,FALSE,04:18.3,16.424,0.151,231.2,276.0796204,144.512146,84.95825195,7.629522324,27.16792297,51,0,-20
1.2,60,60,60,moving_belt,green,FALSE,TRUE,joint 1 -,FALSE,04:18.9,16.31,0.151,231.2,292.822052,106.5785141,84.95825195,0,20,51,0,-20
1.2,60,60,60,moving_belt,green,FALSE,TRUE,joint 1 -,FALSE,04:19.6,16.481,0.151,231.2,292.822052,106.5785141,84.95825195,0,20,51,0,-20
1.2,60,60,60,moving_belt,green,FALSE,TRUE,joint 1 -,FALSE,04:21.0,16.5,0.151,231.2,292.822052,106.5785141,84.95825195,0,20,51,0,-20
1.2,60,60,60,moving_belt,green,FALSE,TRUE,joint 1 -,FALSE,04:21.7,16.5,0.151,231.2,292.822052,106.5785141,84.95825195,0,20,51,0,-20
1.2,60,60,60,moving_belt,green,FALSE,TRUE,joint 1 -,FALSE,04:23.1,16.367,0.152,231.2,292.822052,106.5785141,84.95825195,0,20,51,0,-20
1.2,60,60,60,go_to_pick_down,green,TRUE,FALSE,joint 3 +,FALSE,04:23.8,16.082,0.152,231.2,288.2530518,104.915535,47.46353912,0,20,51,15.22640038,-20
1.2,60,60,60,go_to_pick_up_from_pick_down,green,TRUE,FALSE,joint 3 -,TRUE,04:25.2,16.196,0.147,231.2,283.9134827,103.3360672,33.02240372,0,20,51,20.48800278,-20
1.2,60,60,60,go_to_pick_up_from_pick_down,green,TRUE,FALSE,joint 3 -,TRUE,04:25.8,21.646,0.147,231.2,292.7378235,106.5478592,79.82543182,0,20,51,1.768112302,-20
1.2,60,60,60,go_to_color_detect_up,green,TRUE,FALSE,joint 1 +,TRUE,04:26.6,22.5,0.195,231.2,273.6756897,149.0145874,84.95825195,8.567995071,29.07199478,51,0,-20
1.2,60,60,60,go_to_color_detect_up,green,TRUE,FALSE,joint 1 +,TRUE,04:28.0,21.95,0.195,231.2,162.7254028,265.7520752,84.95825195,38.5200119,58.94481277,51,0,-20
1.2,60,60,60,go_to_color_detect_up,green,TRUE,FALSE,joint 3 +,TRUE,04:28.7,22.234,0.192,231.2,131.6577911,282.3410339,79.93469238,45,65,51,2.203200102,-20
1.2,60,60,60,go_to_color_detect_up,green,TRUE,FALSE,joint 3 +,TRUE,04:30.1,21.969,0.192,231.2,121.874649,261.3610229,5.641410828,45,65,51,33.31199265,-20
1.2,60,60,60,go_to_color_detect_up,green,TRUE,FALSE,joint 3 -,FALSE,04:31.0,22.045,0.194,231.2,111.1388397,238.3379974,-24.28404236,45,65,51,48,-20
1.2,60,60,60,go_to_color_detect_up,green,TRUE,FALSE,joint 3 -,FALSE,04:32.0,21.969,0.194,231.2,122.3933334,262.4733276,7.589950562,45,65,51,31.06560516,-20
1.2,60,60,60,go_to_color_detect_up,green,TRUE,FALSE,joint 3 -,FALSE,04:32.7,16.804,0.194,231.2,131.6681213,282.3631897,80.71011353,45,65,51,1.444816113,-20
1.2,60,60,60,detecting_color,green,FALSE,FALSE,detecting_color,FALSE,04:34.1,16.88,0.156,231.2,131.6940765,282.4188232,84.95825195,45,65,51,0,-20
1.2,60,60,60,go_to_color_detect_down,green,TRUE,FALSE,joint 3 +,FALSE,04:34.8,16.367,0.156,231.2,131.690094,282.4103088,83.29575348,45,65,51,0.792000055,-20
1.2,60,60,60,go_to_color_detect_down,green,TRUE,FALSE,joint 3 +,FALSE,04:36.1,16.31,0.151,231.2,126.5845947,271.4615173,26.57751465,45,65,51,24.11999702,-20
1.2,60,60,60,go_to_color_detect_down,green,TRUE,FALSE,joint 3 +,FALSE,04:36.8,16.31,0.151,231.2,111.856987,239.878067,-22.72974396,45,65,51,47.25599289,-20
1.2,60,60,60,go_to_color_detect_up,green,TRUE,FALSE,joint 3 -,TRUE,04:38.0,16.348,0.153,231.2,119.7066269,256.7116699,-1.844230652,45,65,51,35.60160446,-20
1.2,60,60,60,go_to_color_detect_up,green,TRUE,FALSE,joint 3 -,TRUE,04:38.6,21.627,0.153,231.2,131.3856049,281.7573242,70.32757568,45,65,51,5.313615799,-20
1.2,60,60,60,go_to_blue_up,blue,TRUE,FALSE,joint 1 +,TRUE,04:40.0,22.31,0.199,231.2,119.4386978,287.8161316,84.95825195,47.46239471,67.73599243,51,0,-20
1.2,60,60,60,go_to_blue_up,blue,TRUE,FALSE,joint 1 +,TRUE,04:40.7,22.31,0.199,231.2,27.32618332,310.4142761,84.95825195,64.9691391,84.99124908,51,0,-20
1.2,60,60,60,go_to_pick_up_from_blue,blue,TRUE,FALSE,joint 1 -,FALSE,04:42.1,21.228,0.193,231.2,96.31073761,296.3578491,84.95825195,51.99681091,71.37760925,51,0,-20
1.2,60,60,60,go_to_pick_up_from_blue,blue,TRUE,FALSE,joint 1 -,FALSE,04:42.8,21.228,0.193,231.2,246.090683,191.1625366,84.95825195,17.83995819,37.13035965,51,0,-20
1.2,60,60,60,moving_belt,blue,FALSE,TRUE,joint 1 -,FALSE,04:44.2,16.139,0.153,231.2,292.822052,106.5785141,84.95825195,0,20,51,0,-20
1.2,60,60,60,moving_belt,blue,FALSE,TRUE,joint 1 -,FALSE,04:44.2,16.139,0.153,231.2,292.822052,106.5785141,84.95825195,0,20,51,0,-20
1.2,60,60,60,moving_belt,blue,FALSE,TRUE,joint 1 -,FALSE,04:46.2,16.481,0.156,231.2,292.822052,106.5785141,84.95825195,0,20,51,0,-20
1.2,60,60,60,moving_belt,blue,FALSE,TRUE,joint 1 -,FALSE,04:47.0,16.234,0.156,231.2,292.822052,106.5785141,84.95825195,0,20,51,0,-20
1.2,60,60,60,moving_belt,blue,FALSE,TRUE,joint 1 -,FALSE,04:47.9,16.234,0.156,231.2,292.822052,106.5785141,84.95825195,0,20,51,0,-20
1.2,60,60,60,go_to_pick_down,blue,TRUE,FALSE,joint 3 +,FALSE,04:48.6,16.348,0.155,231.2,292.3614807,106.410881,72.96443176,0,20,51,5.054400444,-20
1.2,60,60,60,go_to_pick_down,blue,TRUE,FALSE,joint 3 +,TRUE,04:50.3,16.462,0.155,231.2,282.7636108,102.9175491,29.89107895,0,20,51,22,-20
1.2,60,60,60,go_to_pick_up_from_pick_down,blue,TRUE,FALSE,joint 3 -,TRUE,04:51.0,16.462,0.155,231.2,291.5811157,106.1268463,65.29837036,0,20,51,7.222507954,-20
1.2,60,60,60,go_to_color_detect_up,blue,TRUE,FALSE,joint 1 +,TRUE,04:51.7,23.089,0.155,231.2,290.6766052,112.2980042,84.95825195,1.123197556,21.3103981,51,0,-20
1.2,60,60,60,go_to_color_detect_up,blue,TRUE,FALSE,joint 1 +,TRUE,04:53.1,22.196,0.199,231.2,201.2802277,237.8865051,84.95825195,29.76480865,50.42000961,51,0,-20
1.2,60,60,60,go_to_color_detect_up,blue,TRUE,FALSE,joint 3 +,TRUE,04:53.8,22.196,0.199,229.3,131.6940765,282.4188232,84.95825195,45,65,51,0,-20
1.2,60,60,60,go_to_color_detect_up,blue,TRUE,FALSE,joint 3 +,TRUE,04:55.1,22.121,0.204,229.3,129.4153442,277.532074,45.5100708,45,65,51,16.24320221,-20
1.2,60,60,60,go_to_color_detect_up,blue,TRUE,FALSE,joint 3 +,TRUE,04:55.8,22.121,0.204,227.4,112.6323242,241.5407867,-20.9954834,45,65,51,46.34399414,-20
1.2,60,60,60,go_to_color_detect_up,blue,TRUE,FALSE,joint 3 -,FALSE,04:56.9,22.121,0.204,227.4,115.6253662,247.9593964,-13.69645691,45,65,51,41.73600388,-20
1.2,60,60,60,go_to_color_detect_up,blue,TRUE,FALSE,joint 3 -,FALSE,04:58.3,16.728,0.21,227.4,130.4216919,279.6902161,55.35954666,45,65,51,11.04481506,-20
1.2,60,60,60,detecting_color,blue,FALSE,FALSE,detecting_color,FALSE,04:58.9,16.728,0.165,227.4,131.6940765,282.4188232,84.95825195,45,65,51,0,-20
1.2,60,60,60,detecting_color,blue,FALSE,FALSE,detecting_color,FALSE,04:59.9,16.899,0.165,227.4,131.6940765,282.4188232,84.95825195,45,65,51,0,-20
1.2,60,60,60,go_to_color_detect_down,blue,TRUE,FALSE,joint 3 +,FALSE,05:00.7,16.5,0.165,227.4,130.8258209,280.5568542,60.4675293,45,65,51,10.12320137,-20
1.2,60,60,60,go_to_color_detect_down,blue,TRUE,FALSE,joint 3 +,FALSE,05:02.1,16.348,0.163,227.4,116.773819,250.4222565,-10.60887909,45,65,51,41.00639343,-20
1.2,60,60,60,go_to_color_detect_up,blue,TRUE,FALSE,joint 3 -,TRUE,05:02.8,16.5,0.163,227.4,112.1837769,240.5788727,-22.00605774,45,65,51,46.48800278,-20
1.2,60,60,60,go_to_color_detect_up,blue,TRUE,FALSE,joint 3 -,TRUE,05:04.2,23.184,0.161,227.4,128.8497009,276.3190613,40.9874649,45,65,51,16.70401573,-20
1.2,60,60,60,go_to_color_detect_up,blue,TRUE,FALSE,joint 3 -,TRUE,05:04.9,22.823,0.161,227.4,131.6940765,282.4188232,84.93357849,45,65,51,1.62E-05,-20
1.2,60,60,60,go_to_red_up,red,TRUE,FALSE,joint 1 +,TRUE,05:06.3,22.576,0.211,227.4,54.62547684,306.7894897,84.95825195,59.9039917,80.56639099,51,0,-20
1.2,60,60,60,go_to_red_up,red,TRUE,FALSE,joint 1 +,TRUE,05:07.0,22.272,0.211,227.4,-124.6352158,285.604248,84.95825195,93.57603455,114.1424332,51,0,-20
1.2,60,60,60,go_to_pick_up_from_red,red,TRUE,FALSE,joint 1 -,FALSE,05:07.7,22.348,0.209,227.4,-175.8366089,257.2648621,84.95825195,104.352005,124.2080078,51,0,-20
1.2,60,60,60,go_to_pick_up_from_red,red,TRUE,FALSE,joint 1 -,FALSE,05:09.1,22.158,0.209,227.4,-62.65884018,305.250061,84.95825195,81.59999847,100.8799973,51,0,-20
1.2,60,60,60,go_to_pick_up_from_red,red,TRUE,FALSE,joint 1 -,FALSE,05:09.8,16.329,0.161,227.4,142.8256073,276.9559021,84.95825195,42.71993256,61.99993134,51,0,-20
1.2,60,60,60,go_to_pick_up_from_red,red,TRUE,FALSE,joint 1 -,FALSE,05:10.8,16.462,0.161,227.4,271.2052002,153.4648438,84.95825195,9.503889084,28.98788834,51,0,-20
1.2,60,60,60,moving_belt,red,FALSE,TRUE,joint 1 -,FALSE,05:12.2,16.405,0.159,227.4,292.822052,106.5785141,84.95825195,0,20,51,0,-20
1.2,60,60,60,moving_belt,red,FALSE,TRUE,joint 1 -,FALSE,05:12.9,16.405,0.159,227.4,292.822052,106.5785141,84.95825195,0,20,51,0,-20
1.2,60,60,60,moving_belt,red,FALSE,TRUE,joint 1 -,FALSE,05:14.3,16.405,0.157,227.4,292.822052,106.5785141,84.95825195,0,20,51,0,-20
1.2,60,60,60,moving_belt,red,FALSE,TRUE,joint 1 -,FALSE,05:15.0,16.405,0.157,227.4,292.822052,106.5785141,84.95825195,0,20,51,0,-20
1.2,60,60,60,moving_belt,red,FALSE,TRUE,joint 1 -,FALSE,05:15.7,16.424,0.157,227.4,292.822052,106.5785141,84.95825195,0,20,51,0,-20
1.2,60,60,60,go_to_pick_down,red,TRUE,FALSE,joint 3 +,FALSE,05:17.0,16.348,0.158,227.4,290.6715698,105.7958069,59.1207428,0,20,51,10.67040157,-20
1.2,60,60,60,go_to_pick_up_from_pick_down,red,TRUE,FALSE,joint 3 -,TRUE,05:17.7,16.348,0.158,227.4,282.8414917,102.9458847,30.09666824,0,20,51,21.8560009,-20
1.2,60,60,60,go_to_pick_up_from_pick_down,red,TRUE,FALSE,joint 3 -,TRUE,05:18.4,16.671,0.161,227.4,292.6229553,106.5060425,77.06858826,0,20,51,2.786111355,-20
1.2,60,60,60,go_to_color_detect_up,red,TRUE,FALSE,joint 1 +,TRUE,05:20.1,22.899,0.161,227.4,283.9618835,128.3330383,84.95825195,4.31999588,24.67999649,51,0,-20
1.2,60,60,60,go_to_color_detect_up,red,TRUE,FALSE,joint 1 +,TRUE,05:20.9,22.595,0.21,227.4,185.4429169,250.4289551,84.95825195,33.48000717,54.04880905,51,0,-20
1.2,60,60,60,go_to_color_detect_up,red,TRUE,FALSE,joint 3 +,TRUE,05:22.3,22.652,0.21,227.4,131.6881409,282.4060974,82.92633057,45,65,51,0.950400054,-20
1.2,60,60,60,go_to_color_detect_up,red,TRUE,FALSE,joint 3 +,TRUE,05:23.0,22.538,0.214,227.4,126.27005,270.7869873,24.88684082,45,65,51,24.83999634,-20
1.2,60,60,60,go_to_color_detect_up,red,TRUE,FALSE,joint 3 +,TRUE,05:23.7,22.424,0.214,227.4,111.2393112,238.5534668,-24.06952667,45,65,51,47.92799377,-20
1.2,60,60,60,go_to_color_detect_up,red,TRUE,FALSE,joint 3 -,FALSE,05:25.1,22.538,0.21,227.4,119.3352966,255.9153595,-3.032485962,45,65,51,36.19200516,-20
1.2,60,60,60,go_to_color_detect_up,red,TRUE,FALSE,joint 3 -,FALSE,05:25.7,17.26,0.21,227.4,131.3394623,281.6583557,69.27412415,45,65,51,5.712015629,-20
1.2,60,60,60,detecting_color,red,FALSE,FALSE,detecting_color,FALSE,05:27.1,17.26,0.166,227.4,131.6940765,282.4188232,84.95825195,45,65,51,0,-20
1.2,60,60,60,detecting_color,red,FALSE,FALSE,detecting_color,FALSE,05:27.8,16.69,0.166,227.4,131.6940765,282.4188232,84.95825195,45,65,51,0,-20
1.2,60,60,60,detecting_color,red,FALSE,FALSE,detecting_color,FALSE,05:29.2,16.538,0.16,227.4,131.6940765,282.4188232,84.95825195,45,65,51,0,-20
1.2,60,60,60,go_to_color_detect_down,red,TRUE,FALSE,joint 3 +,FALSE,05:29.9,16.538,0.16,227.4,131.6577911,282.3410339,79.93469238,45,65,51,2.203200102,-20
1.2,60,60,60,go_to_color_detect_down,red,TRUE,FALSE,joint 3 +,FALSE,05:31.3,16.557,0.161,227.4,123.8205261,265.5339661,13.33249664,45,65,51,29.87999153,-20
1.2,60,60,60,go_to_color_detect_down,red,TRUE,FALSE,joint 3 +,TRUE,05:32.0,16.557,0.161,227.4,111.1968384,238.4623871,-24.16034698,45,65,51,47.96639252,-20
1.2,60,60,60,go_to_color_detect_up,red,TRUE,FALSE,joint 3 -,TRUE,05:32.7,16.709,0.161,227.4,122.7839279,263.3109741,9.103424072,45,65,51,30.36000443,-20
1.2,60,60,60,go_to_color_detect_up,red,TRUE,FALSE,joint 3 -,TRUE,05:33.4,23.431,0.218,227.4,131.6129761,282.2449036,77.44930267,45,65,51,2.64481616,-20
1.2,60,60,60,go_to_green_up,green,TRUE,FALSE,joint 1 +,TRUE,05:35.2,22.709,0.218,227.4,108.2123108,292.222229,84.95825195,49.67999268,70.05438995,51,0,-20
1.2,60,60,60,go_to_green_up,green,TRUE,FALSE,joint 1 +,TRUE,05:35.9,22.709,0.211,227.4,-54.71115112,306.774231,84.95825195,80.11199951,100.4800034,51,0,-20
1.2,60,60,60,go_to_pick_up_from_green,green,TRUE,FALSE,joint 1 -,FALSE,05:36.6,22.766,0.211,227.4,-66.19210815,304.503418,84.95825195,82.26400757,101.9760056,51,0,-20
1.2,60,60,60,go_to_pick_up_from_green,green,TRUE,FALSE,joint 1 -,FALSE,05:38.3,16.576,0.191,227.4,83.79944611,300.1356201,84.95825195,54.39998627,73.67998505,51,0,-20
1.2,60,60,60,go_to_pick_up_from_green,green,TRUE,FALSE,joint 1 -,FALSE,05:39.0,16.576,0.191,227.4,253.3617554,181.4154205,84.95825195,15.60391998,34.9407196,51,0,-20
1.2,60,60,60,moving_belt,green,FALSE,TRUE,joint 1 -,FALSE,05:39.7,16.671,0.161,227.4,292.822052,106.5785141,84.95825195,0,20,51,0,-20
1.2,60,60,60,moving_belt,green,FALSE,TRUE,joint 1 -,FALSE,05:41.2,16.557,0.161,227.4,292.822052,106.5785141,84.95825195,0,20,51,0,-20
1.2,60,60,60,moving_belt,green,FALSE,TRUE,joint 1 -,FALSE,05:41.9,16.405,0.162,227.4,292.822052,106.5785141,84.95825195,0,20,51,0,-20
1.2,60,60,60,moving_belt,green,FALSE,TRUE,joint 1 -,FALSE,05:43.3,16.519,0.162,227.4,292.822052,106.5785141,84.95825195,0,20,51,0,-20
1.2,60,60,60,moving_belt,green,FALSE,TRUE,joint 1 -,FALSE,05:44.0,16.519,0.161,227.4,292.822052,106.5785141,84.95825195,0,20,51,0,-20
1.2,60,60,60,go_to_pick_down,green,TRUE,FALSE,joint 3 +,FALSE,05:44.7,16.234,0.161,227.4,292.1991882,106.3518066,71.01399231,0,20,51,5.846400738,-20
1.2,60,60,60,go_to_pick_down,green,TRUE,FALSE,joint 3 +,FALSE,05:46.1,16.443,0.165,227.4,282.8094482,102.934227,30.01195145,0,20,51,21.98049736,-20
1.2,60,60,60,go_to_pick_up_from_pick_down,green,TRUE,FALSE,joint 3 -,TRUE,05:46.8,16.5,0.165,227.4,290.6311035,105.7810745,58.88056946,0,20,51,9.683006287,-20
1.2,60,60,60,go_to_color_detect_up,green,TRUE,FALSE,joint 1 +,TRUE,05:48.2,23.051,0.216,227.4,290.6766052,112.2980042,84.95825195,1.123197556,21.3103981,51,0,-20
1.2,60,60,60,go_to_color_detect_up,green,TRUE,FALSE,joint 1 +,TRUE,05:48.9,22.272,0.216,227.4,218.1807251,222.4879608,84.95825195,25.560009,46.28001022,51,0,-20
1.2,60,60,60,go_to_color_detect_up,green,TRUE,FALSE,joint 3 +,TRUE,05:50.2,22.272,0.214,227.4,132.2615662,282.1535034,84.95825195,44.8848114,64.93521118,51,0,-20
1.2,60,60,60,go_to_color_detect_up,green,TRUE,FALSE,joint 3 +,TRUE,05:50.9,22.272,0.214,227.4,129.2142487,277.1008301,43.84012985,45,65,51,16.93440247,-20
1.2,60,60,60,go_to_color_detect_up,green,TRUE,FALSE,joint 3 +,TRUE,05:52.3,22.196,0.213,227.4,113.6707458,243.7676849,-18.57635498,45,65,51,45.07199478,-20
1.2,60,60,60,go_to_color_detect_up,green,TRUE,FALSE,joint 3 -,FALSE,05:53.0,22.196,0.213,227.4,114.4984207,245.5426331,-16.5643692,45,65,51,43.32000351,-20
1.2,60,60,60,go_to_color_detect_up,green,TRUE,FALSE,joint 3 -,FALSE,05:53.8,22.196,0.213,227.4,130.6561584,280.1930237,58.19986343,45,65,51,9.945614815,-20
1.2,60,60,60,detecting_color,green,FALSE,FALSE,detecting_color,FALSE,05:54.6,16.994,0.169,227.4,131.6940765,282.4188232,84.95825195,45,65,51,0,-20
1.2,60,60,60,detecting_color,green,FALSE,FALSE,detecting_color,FALSE,05:56.1,17.013,0.169,227.4,131.6940765,282.4188232,84.95825195,45,65,51,0,-20
1.2,60,60,60,go_to_color_detect_down,green,TRUE,FALSE,joint 3 +,FALSE,05:56.8,16.443,0.163,227.4,131.6577911,282.3410339,79.93469238,45,65,51,2.203200102,-20
1.2,60,60,60,go_to_color_detect_down,green,TRUE,FALSE,joint 3 +,FALSE,05:58.2,16.367,0.163,223.7,124.1966248,266.3405151,14.95124817,45,65,51,29.15999222,-20
1.2,60,60,60,go_to_color_detect_down,green,TRUE,FALSE,joint 3 +,TRUE,05:58.9,16.557,0.166,223.7,111.2393112,238.5534668,-24.06952667,45,65,51,47.92799377,-20
1.2,60,60,60,go_to_color_detect_up,green,TRUE,FALSE,joint 3 -,TRUE,05:59.6,16.557,0.166,225.6,122.0034256,261.6371765,6.118934631,45,65,51,31.75680542,-20
1.2,60,60,60,go_to_color_detect_up,green,TRUE,FALSE,joint 3 -,TRUE,06:00.4,21.646,0.166,225.6,131.5956573,282.2077637,76.68687439,45,65,51,2.928016186,-20
1.2,60,60,60,go_to_blue_up,blue,TRUE,FALSE,joint 1 +,TRUE,06:02.2,22.709,0.221,223.7,110.0462494,291.5365295,84.95825195,49.31999207,69.67999268,51,0,-20
1.2,60,60,60,go_to_pick_up_from_blue,blue,TRUE,FALSE,joint 1 -,FALSE,06:03.0,22.215,0.214,223.7,27.15902901,310.4289246,84.95825195,65,84.98560333,51,0,-20
1.2,60,60,60,go_to_pick_up_from_blue,blue,TRUE,FALSE,joint 1 -,FALSE,06:03.7,22.158,0.214,223.7,112.9065094,290.4407959,84.95825195,48.75680542,68.06560516,51,0,-20
1.2,60,60,60,go_to_pick_up_from_blue,blue,TRUE,FALSE,joint 1 -,FALSE,06:05.1,16.367,0.214,225.6,257.006958,176.2133484,84.95825195,14.43595505,33.7983551,51,0,-20
1.2,60,60,60,moving_belt,blue,FALSE,TRUE,joint 1 -,FALSE,06:05.8,16.367,0.165,225.6,292.822052,106.5785141,84.95825195,0,20,51,0,-20
1.2,60,60,60,moving_belt,blue,FALSE,TRUE,joint 1 -,FALSE,06:07.2,16.671,0.165,225.6,292.822052,106.5785141,84.95825195,0,20,51,0,-20
1.2,60,60,60,moving_belt,blue,FALSE,TRUE,joint 1 -,FALSE,06:07.9,16.671,0.166,225.6,292.822052,106.5785141,84.95825195,0,20,51,0,-20
1.2,60,60,60,moving_belt,blue,FALSE,TRUE,joint 1 -,FALSE,06:09.3,16.481,0.166,225.6,292.822052,106.5785141,84.95825195,0,20,51,0,-20
1.2,60,60,60,moving_belt,blue,FALSE,TRUE,joint 1 -,FALSE,06:10.0,16.367,0.163,225.6,292.822052,106.5785141,84.95825195,0,20,51,0,-20
1.2,60,60,60,go_to_pick_down,blue,TRUE,FALSE,joint 3 +,FALSE,06:11.3,16.424,0.163,225.6,292.1035461,106.3170013,69.98454285,0,20,51,6.264000893,-20
1.2,60,60,60,go_to_pick_up_from_pick_down,blue,TRUE,FALSE,joint 3 -,TRUE,06:12.0,16.424,0.163,225.6,282.7636108,102.9175491,29.89107895,0,20,51,21.98559952,-20
1.2,60,60,60,go_to_pick_up_from_pick_down,blue,TRUE,FALSE,joint 3 -,TRUE,06:12.7,16.291,0.163,225.6,291.977478,106.2711182,68.72757721,0,20,51,5.919008732,-20
1.2,60,60,60,go_to_color_detect_up,blue,TRUE,FALSE,joint 1 +,TRUE,06:14.1,22.443,0.216,225.6,286.1445923,123.3896484,84.95825195,3.326396942,23.64319611,51,0,-20
1.2,60,60,60,go_to_color_detect_up,blue,TRUE,FALSE,joint 1 +,TRUE,06:14.8,22.443,0.216,223.7,193.1868439,244.5047607,84.95825195,31.68721008,52.29920959,51,0,-20
1.2,60,60,60,go_to_color_detect_up,blue,TRUE,FALSE,joint 3 +,TRUE,06:16.2,22.026,0.21,223.7,131.6940613,282.4187927,84.84741974,45,65,51,0.086400002,-20
1.2,60,60,60,go_to_color_detect_up,blue,TRUE,FALSE,joint 3 +,TRUE,06:16.9,21.969,0.21,225.6,128.2811279,275.099762,36.9057045,45,65,51,19.80000114,-20
1.2,60,60,60,go_to_color_detect_up,blue,TRUE,FALSE,joint 3 +,TRUE,06:17.5,21.969,0.21,225.6,111.856987,239.878067,-22.72974396,45,65,51,47.25599289,-20
1.2,60,60,60,go_to_color_detect_up,blue,TRUE,FALSE,joint 3 -,FALSE,06:18.7,21.988,0.209,225.6,117.2142105,251.3666687,-9.377365112,45,65,51,39.43200302,-20
1.2,60,60,60,go_to_color_detect_up,blue,TRUE,FALSE,joint 3 -,FALSE,06:20.1,16.538,0.166,225.6,130.9454041,280.813324,62.20565033,45,65,51,8.40481472,-20
1.2,60,60,60,detecting_color,blue,FALSE,FALSE,detecting_color,FALSE,06:20.8,16.538,0.166,225.6,131.6940765,282.4188232,84.95825195,45,65,51,0,-20
1.2,60,60,60,detecting_color,blue,FALSE,FALSE,detecting_color,FALSE,06:22.1,16.367,0.166,225.6,131.6940765,282.4188232,84.95825195,45,65,51,0,-20
1.2,60,60,60,go_to_color_detect_down,blue,TRUE,FALSE,joint 3 +,FALSE,06:22.8,16.367,0.162,225.6,131.1478882,281.2475281,65.50842285,45,65,51,8.078401566,-20
1.2,60,60,60,go_to_color_detect_down,blue,TRUE,FALSE,joint 3 +,FALSE,06:24.2,16.405,0.162,225.6,117.7837143,252.5879822,-7.743118286,45,65,51,39.59519196,-20
1.2,60,60,60,go_to_color_detect_up,blue,TRUE,FALSE,joint 3 -,TRUE,06:24.9,16.253,0.164,225.6,111.5548553,239.2301483,-23.38963318,45,65,51,47.35200119,-20
1.2,60,60,60,go_to_color_detect_up,blue,TRUE,FALSE,joint 3 -,TRUE,06:26.3,21.342,0.164,225.6,127.5677643,273.5699463,32.27812958,45,65,51,20.28001404,-20
1.2,60,60,60,go_to_color_detect_up,blue,TRUE,FALSE,joint 3 -,TRUE,06:26.9,22.652,0.218,225.6,131.6933594,282.4173279,84.2562561,45,65,51,0.192016095,-20
1.2,60,60,60,go_to_red_up,red,TRUE,FALSE,joint 1 +,TRUE,06:28.4,21.95,0.218,225.6,74.16150665,302.6612244,84.95825195,56.23199463,76.80799103,51,0,-20
1.2,60,60,60,go_to_red_up,red,TRUE,FALSE,joint 1 +,TRUE,06:29.0,21.95,0.208,225.6,-124.6352158,285.604248,84.95825195,93.57603455,114.1424332,51,0,-20
1.2,60,60,60,go_to_pick_up_from_red,red,TRUE,FALSE,joint 1 -,FALSE,06:29.7,22.31,0.208,227.4,-177.7713165,255.9318085,84.95825195,104.7840042,124.6976013,51,0,-20
1.2,60,60,60,go_to_pick_up_from_red,red,TRUE,FALSE,joint 1 -,FALSE,06:31.1,22.121,0.179,227.4,-77.91679382,301.7162781,84.95825195,84.48000336,103.7600021,51,0,-20
1.2,60,60,60,go_to_pick_up_from_red,red,TRUE,FALSE,joint 1 -,FALSE,06:31.8,16.158,0.179,227.4,128.7297058,283.7823181,84.95825195,45.59993744,64.87993622,51,0,-20
1.2,60,60,60,go_to_pick_up_from_red,red,TRUE,FALSE,joint 1 -,FALSE,06:33.2,16.234,0.159,227.4,265.0912781,163.7997131,84.95825195,11.71188927,31.1382885,51,0,-20
1.2,60,60,60,moving_belt,red,FALSE,TRUE,joint 1 -,FALSE,06:33.9,16.234,0.159,227.4,292.822052,106.5785141,84.95825195,0,20,51,0,-20
1.2,60,60,60,moving_belt,red,FALSE,TRUE,joint 1 -,FALSE,06:35.3,16.5,0.159,227.4,292.822052,106.5785141,84.95825195,0,20,51,0,-20
1.2,60,60,60,moving_belt,red,FALSE,TRUE,joint 1 -,FALSE,06:36.0,16.5,0.158,227.4,292.822052,106.5785141,84.95825195,0,20,51,0,-20
1.2,60,60,60,moving_belt,red,FALSE,TRUE,joint 1 -,FALSE,06:36.7,16.272,0.158,227.4,292.822052,106.5785141,84.95825195,0,20,51,0,-20
1.2,60,60,60,moving_belt,red,FALSE,TRUE,joint 1 -,FALSE,06:38.1,16.196,0.161,227.4,292.822052,106.5785141,84.95825195,0,20,51,0,-20
1.2,60,60,60,go_to_pick_down,red,TRUE,FALSE,joint 3 +,FALSE,06:38.9,16.557,0.161,227.4,291.0941467,105.9496078,61.77994919,0,20,51,9.590401649,-20
1.2,60,60,60,go_to_pick_up_from_pick_down,red,TRUE,FALSE,joint 3 -,TRUE,06:40.2,16.025,0.16,227.4,282.8026123,102.9317322,29.99386215,0,20,51,21.91360092,-20
1.2,60,60,60,go_to_pick_up_from_pick_down,red,TRUE,FALSE,joint 3 -,TRUE,06:40.9,16.025,0.16,227.4,292.5340271,106.4736786,75.46992493,0,20,51,3.381510735,-20
1.2,60,60,60,go_to_color_detect_up,red,TRUE,FALSE,joint 1 +,TRUE,06:42.3,22.747,0.214,227.4,284.7308044,126.6179047,84.95825195,3.974395752,24.31999588,51,0,-20
1.2,60,60,60,go_to_color_detect_up,red,TRUE,FALSE,joint 1 +,TRUE,06:43.0,22.652,0.214,227.4,190.5642242,246.5542755,84.95825195,32.29920959,52.89680862,51,0,-20
1.2,60,60,60,go_to_color_detect_up,red,TRUE,FALSE,joint 3 +,TRUE,06:43.8,22.709,0.214,227.4,131.6881409,282.4060974,82.92633057,45,65,51,0.950400054,-20
1.2,60,60,60,go_to_color_detect_up,red,TRUE,FALSE,joint 3 +,TRUE,06:45.2,22.614,0.212,227.4,126.27005,270.7869873,24.88684082,45,65,51,24.83999634,-20
1.2,60,60,60,go_to_color_detect_up,red,TRUE,FALSE,joint 3 +,TRUE,06:46.1,22.443,0.212,227.4,111.7348251,239.6160889,-22.99760437,45,65,51,47.39519119,-20
1.2,60,60,60,go_to_color_detect_up,red,TRUE,FALSE,joint 3 -,FALSE,06:46.8,22.614,0.211,227.4,119.7066269,256.7116699,-1.844230652,45,65,51,35.60160446,-20
1.2,60,60,60,go_to_color_detect_up,red,TRUE,FALSE,joint 3 -,FALSE,06:48.3,16.994,0.164,227.4,131.3394623,281.6583557,69.27412415,45,65,51,5.712015629,-20
1.2,60,60,60,detecting_color,red,FALSE,FALSE,detecting_color,FALSE,06:49.0,16.861,0.164,227.4,131.6940765,282.4188232,84.95825195,45,65,51,0,-20
1.2,60,60,60,detecting_color,red,FALSE,FALSE,detecting_color,FALSE,06:50.2,16.291,0.164,225.6,131.6940765,282.4188232,84.95825195,45,65,51,0,-20
1.2,60,60,60,detecting_color,red,FALSE,FALSE,detecting_color,FALSE,06:50.9,16.291,0.163,225.6,131.6940765,282.4188232,84.95825195,45,65,51,0,-20
1.2,60,60,60,detecting_color,red,FALSE,FALSE,detecting_color,FALSE,06:52.2,16.31,0.163,225.6,131.6940765,282.4188232,84.95825195,45,65,51,0,-20
1.2,60,60,60,detecting_color,red,FALSE,FALSE,detecting_color,FALSE,06:52.9,16.31,0.163,225.6,131.6940765,282.4188232,84.95825195,45,65,51,0,-20
1.2,60,60,60,detecting_color,red,FALSE,FALSE,detecting_color,FALSE,06:53.8,16.253,0.163,225.6,131.6940765,282.4188232,84.95825195,45,65,51,0,-20
1.2,60,60,60,go_to_color_detect_down,red,TRUE,FALSE,joint 3 +,FALSE,06:55.2,16.31,0.163,225.6,129.6040802,277.9368286,47.14980698,45,65,51,15.56640148,-20
1.2,60,60,60,go_to_color_detect_down,red,TRUE,FALSE,joint 3 +,FALSE,06:55.9,16.31,0.163,225.6,114.1555328,244.807312,-17.40722656,45,65,51,44.46239471,-20
1.2,60,60,60,go_to_color_detect_up,red,TRUE,FALSE,joint 3 -,TRUE,06:57.3,17.241,0.163,225.6,113.7476501,243.9326172,-18.3926239,45,65,51,44.35680389,-20
1.2,60,60,60,go_to_color_detect_up,red,TRUE,FALSE,joint 3 -,TRUE,06:58.0,17.241,0.163,225.6,130.1498413,279.1072083,52.38657761,45,65,51,12.20161533,-20
1.2,60,60,60,go_to_green_up,green,TRUE,FALSE,joint 1 +,TRUE,06:59.4,23.336,0.219,225.6,131.4810944,282.5180664,84.95825195,45.04319763,65.08639526,51,0,-20
1.2,60,60,60,go_to_green_up,green,TRUE,FALSE,joint 1 +,TRUE,07:00.1,22.576,0.219,227.4,39.91888428,309.0472717,84.95825195,62.63999176,83.35999298,51,0,-20
1.2,60,60,60,go_to_green_up,green,TRUE,FALSE,joint 1 +,TRUE,07:00.7,22.652,0.219,227.4,-80.49213409,301.0394592,84.95825195,84.96960449,104.9920044,51,0,-20
1.2,60,60,60,go_to_pick_up_from_green,green,TRUE,FALSE,joint 1 -,FALSE,07:02.1,22.557,0.214,227.4,-7.49165535,311.5246582,84.95825195,71.37760925,90.74401093,51,0,-20
1.2,60,60,60,go_to_pick_up_from_green,green,TRUE,FALSE,joint 1 -,FALSE,07:02.8,16.234,0.214,227.4,188.4021912,248.2102814,84.95825195,32.79994965,52.07994843,51,0,-20
1.2,60,60,60,go_to_pick_up_from_green,green,TRUE,FALSE,joint 1 -,FALSE,07:04.2,16.196,0.161,227.4,285.4179688,125.061203,84.95825195,3.661521912,23.34392166,51,0,-20
1.2,60,60,60,moving_belt,green,FALSE,TRUE,joint 1 -,FALSE,07:04.9,16.196,0.161,227.4,292.822052,106.5785141,84.95825195,0,20,51,0,-20
1.2,60,60,60,moving_belt,green,FALSE,TRUE,joint 1 -,FALSE,07:06.3,16.348,0.159,227.4,292.822052,106.5785141,84.95825195,0,20,51,0,-20
1.2,60,60,60,moving_belt,green,FALSE,TRUE,joint 1 -,FALSE,07:07.1,16.348,0.159,227.4,292.822052,106.5785141,84.95825195,0,20,51,0,-20
1.2,60,60,60,moving_belt,green,FALSE,TRUE,joint 1 -,FALSE,07:08.0,16.196,0.159,227.4,292.822052,106.5785141,84.95825195,0,20,51,0,-20
1.2,60,60,60,go_to_pick_down,green,TRUE,FALSE,joint 3 +,FALSE,07:08.7,16.196,0.159,227.4,292.8218994,106.5784607,84.7365799,0,20,51,0.143999994,-20
1.2,60,60,60,go_to_pick_down,green,TRUE,FALSE,joint 3 +,FALSE,07:10.1,16.405,0.162,227.4,286.8719177,104.4128418,42.27903748,0,20,51,17.25489998,-20
1.2,60,60,60,go_to_pick_up_from_pick_down,green,TRUE,FALSE,joint 3 -,TRUE,07:10.1,16.405,0.162,227.4,284.6582336,103.607132,35.17149353,0,20,51,19.53760338,-20
1.2,60,60,60,go_to_pick_up_from_pick_down,green,TRUE,FALSE,joint 3 -,TRUE,07:12.4,22.747,0.215,227.4,292.8198853,106.5777283,84.13721466,0,20,51,0.231114477,-20
1.2,60,60,60,go_to_color_detect_up,green,TRUE,FALSE,joint 1 +,TRUE,07:13.2,22.026,0.215,227.4,268.0247803,158.9542236,84.95825195,10.6703949,31.23199463,51,0,-20
1.2,60,60,60,go_to_color_detect_up,green,TRUE,FALSE,joint 1 +,TRUE,07:14.0,22.026,0.208,227.4,155.181366,270.2266846,84.95825195,40.1328125,60.50001144,51,0,-20
1.2,60,60,60,go_to_color_detect_up,green,TRUE,FALSE,joint 3 +,TRUE,07:15.4,22.045,0.208,227.4,131.4869385,281.9746399,72.96443176,45,65,51,5.054400921,-20
1.2,60,60,60,go_to_color_detect_up,green,TRUE,FALSE,joint 3 +,TRUE,07:16.1,22.045,0.207,227.4,120.7162857,258.8768921,1.51902771,45,65,51,35.19839096,-20
1.2,60,60,60,go_to_color_detect_up,green,TRUE,FALSE,joint 3 -,FALSE,07:16.8,22.045,0.207,227.4,111.1736526,238.4126587,-24.2098465,45,65,51,47.91359711,-20
1.2,60,60,60,go_to_color_detect_up,green,TRUE,FALSE,joint 3 -,FALSE,07:17.5,22.177,0.207,227.4,125.7259445,269.6201477,22.09023285,45,65,51,24.60000992,-20
1.2,60,60,60,go_to_color_detect_up,green,TRUE,FALSE,joint 3 -,FALSE,07:19.2,17.146,0.163,227.4,131.6833344,282.3957825,82.22442627,45,65,51,0.897616088,-20
1.2,60,60,60,detecting_color,green,FALSE,FALSE,detecting_color,FALSE,07:19.2,17.146,0.163,227.4,131.6940765,282.4188232,84.95825195,45,65,51,0,-20
1.2,60,60,60,go_to_color_detect_down,green,TRUE,FALSE,joint 3 +,FALSE,07:21.4,16.69,0.162,229.3,131.6577911,282.3410339,79.93469238,45,65,51,2.203200102,-20
1.2,60,60,60,go_to_color_detect_down,green,TRUE,FALSE,joint 3 +,FALSE,07:22.1,16.69,0.162,229.3,124.1966248,266.3405151,14.95124817,45,65,51,29.15999222,-20
1.2,60,60,60,go_to_color_detect_up,green,TRUE,FALSE,joint 3 -,TRUE,07:22.8,16.633,0.159,229.3,111.2393112,238.5534668,-24.06952667,45,65,51,47.92799377,-20
1.2,60,60,60,go_to_color_detect_up,green,TRUE,FALSE,joint 3 -,TRUE,07:24.1,17.582,0.159,229.3,122.7839279,263.3109741,9.103424072,45,65,51,30.36000443,-20
1.2,60,60,60,go_to_color_detect_up,green,TRUE,FALSE,joint 3 -,TRUE,07:24.8,22.785,0.211,229.3,131.6129761,282.2449036,77.44930267,45,65,51,2.64481616,-20
1.2,60,60,60,go_to_blue_up,blue,TRUE,FALSE,joint 1 +,TRUE,07:26.2,22.728,0.211,229.3,108.2123108,292.222229,84.95825195,49.67999268,70.05438995,51,0,-20
1.2,60,60,60,go_to_pick_up_from_blue,blue,TRUE,FALSE,joint 1 -,FALSE,07:26.9,21.969,0.206,229.3,27.23700142,310.4220886,84.95825195,64.98560333,84.95680237,51,0,-20
1.2,60,60,60,go_to_pick_up_from_blue,blue,TRUE,FALSE,joint 1 -,FALSE,07:28.3,22.102,0.206,229.3,119.9528503,287.6022339,84.95825195,47.36000824,66.64000702,51,0,-20
1.2,60,60,60,go_to_pick_up_from_blue,blue,TRUE,FALSE,joint 1 -,FALSE,07:29.0,16.329,0.159,229.3,260.822052,170.5156708,84.95825195,13.17515564,32.56635666,51,0,-20
1.2,60,60,60,moving_belt,blue,FALSE,TRUE,joint 1 -,FALSE,07:30.3,16.5,0.159,229.3,292.822052,106.5785141,84.95825195,0,20,51,0,-20
1.2,60,60,60,moving_belt,blue,FALSE,TRUE,joint 1 -,FALSE,07:31.1,16.538,0.16,229.3,292.822052,106.5785141,84.95825195,0,20,51,0,-20
1.2,60,60,60,moving_belt,blue,FALSE,TRUE,joint 1 -,FALSE,07:31.9,16.538,0.16,229.3,292.822052,106.5785141,84.95825195,0,20,51,0,-20
1.2,60,60,60,moving_belt,blue,FALSE,TRUE,joint 1 -,FALSE,07:33.3,16.595,0.159,229.3,292.822052,106.5785141,84.95825195,0,20,51,0,-20
1.2,60,60,60,moving_belt,blue,FALSE,TRUE,joint 1 -,FALSE,07:34.0,16.519,0.159,229.3,292.822052,106.5785141,84.95825195,0,20,51,0,-20
1.2,60,60,60,go_to_pick_down,blue,TRUE,FALSE,joint 3 +,FALSE,07:35.4,16.405,0.159,229.3,291.7501526,106.1883774,66.68088531,0,20,51,7.603201389,-20
1.2,60,60,60,go_to_pick_up_from_pick_down,blue,TRUE,FALSE,joint 3 -,TRUE,07:36.1,16.519,0.16,229.3,282.8414917,102.9458847,30.09666824,0,20,51,21.8560009,-20
1.2,60,60,60,go_to_pick_up_from_pick_down,blue,TRUE,FALSE,joint 3 -,TRUE,07:36.8,16.519,0.16,229.3,292.3486023,106.4061966,72.79795074,0,20,51,4.382609844,-20
1.2,60,60,60,go_to_color_detect_up,blue,TRUE,FALSE,joint 1 +,TRUE,07:38.1,22.899,0.214,229.3,287.4008484,120.4345932,84.95825195,2.735996246,23.02399635,51,0,-20
1.2,60,60,60,go_to_color_detect_up,blue,TRUE,FALSE,joint 1 +,TRUE,07:38.8,22.329,0.214,229.3,182.9477081,252.2575531,84.95825195,34.04880905,54.60321045,51,0,-20
1.2,60,60,60,go_to_color_detect_up,blue,TRUE,FALSE,joint 3 +,TRUE,07:40.2,22.519,0.212,229.3,131.6932068,282.4169922,84.18241119,45,65,51,0.40320003,-20
1.2,60,60,60,go_to_color_detect_up,blue,TRUE,FALSE,joint 3 +,TRUE,07:40.9,22.348,0.212,229.3,127.473999,273.368866,31.70376968,45,65,51,21.95999908,-20
1.2,60,60,60,go_to_color_detect_up,blue,TRUE,FALSE,joint 3 +,TRUE,07:42.3,22.158,0.211,229.3,111.5241623,239.1643219,-23.45616913,45,65,51,47.63039398,-20
1.2,60,60,60,go_to_color_detect_up,blue,TRUE,FALSE,joint 3 -,FALSE,07:43.0,22.158,0.211,229.3,118.2495956,253.5870514,-6.369781494,45,65,51,37.87680435,-20
1.2,60,60,60,go_to_color_detect_up,blue,TRUE,FALSE,joint 3 -,FALSE,07:44.4,18.703,0.165,229.3,131.169693,281.2943115,65.89907837,45,65,51,6.99361515,-20
1.2,60,60,60,detecting_color,blue,FALSE,FALSE,detecting_color,FALSE,07:45.1,17.222,0.165,229.3,131.6940765,282.4188232,84.95825195,45,65,51,0,-20
1.2,60,60,60,detecting_color,blue,FALSE,FALSE,detecting_color,FALSE,07:45.8,16.671,0.165,229.3,131.6940765,282.4188232,84.95825195,45,65,51,0,-20
1.2,60,60,60,go_to_color_detect_down,blue,TRUE,FALSE,joint 3 +,FALSE,07:46.7,16.671,0.163,229.3,130.5041656,279.8670654,56.32526398,45,65,51,11.80800152,-20
1.2,60,60,60,go_to_color_detect_down,blue,TRUE,FALSE,joint 3 +,FALSE,07:48.4,16.633,0.161,229.3,114.1555328,244.807312,-17.40722656,45,65,51,44.46239471,-20
1.2,60,60,60,go_to_color_detect_up,blue,TRUE,FALSE,joint 3 -,TRUE,07:49.1,16.633,0.161,229.3,113.988472,244.4490509,-17.81304932,45,65,51,44.02560425,-20
1.2,60,60,60,go_to_color_detect_up,blue,TRUE,FALSE,joint 3 -,TRUE,07:50.1,17.582,0.161,227.4,130.4216919,279.6902161,55.35954666,45,65,51,11.04481506,-20
1.2,60,60,60,go_to_red_up,red,TRUE,FALSE,joint 1 +,TRUE,07:50.8,22.918,0.217,227.4,130.9838867,282.7489319,84.95825195,45.14399719,65.21599579,51,0,-20
1.2,60,60,60,go_to_red_up,red,TRUE,FALSE,joint 1 +,TRUE,07:52.1,22.177,0.217,227.4,28.24247169,310.3322449,84.95825195,64.79999542,85.51999664,51,0,-20
1.2,60,60,60,go_to_red_up,red,TRUE,FALSE,joint 1 +,TRUE,07:52.8,22.405,0.214,227.4,-154.940094,270.3651123,84.95825195,99.81603241,120.1952362,51,0,-20
1.2,60,60,60,go_to_pick_up_from_red,red,TRUE,FALSE,joint 1 -,FALSE,07:54.2,22.576,0.214,227.4,-167.602951,262.7032166,84.95825195,102.5376053,122.2640076,51,0,-20
1.2,60,60,60,go_to_pick_up_from_red,red,TRUE,FALSE,joint 1 -,FALSE,07:54.9,18.152,0.191,227.4,-27.80904579,310.3713684,84.95825195,75.11998749,94.39998627,51,0,-20
1.2,60,60,60,go_to_pick_up_from_red,red,TRUE,FALSE,joint 1 -,FALSE,07:56.2,16.519,0.191,227.4,173.1694183,259.067688,84.95825195,36.23992157,55.51992035,51,0,-20
1.2,60,60,60,go_to_pick_up_from_red,red,TRUE,FALSE,joint 1 -,FALSE,07:56.9,16.519,0.162,227.4,281.5431824,133.5558319,84.95825195,5.378288269,24.99188805,51,0,-20
1.2,60,60,60,moving_belt,red,FALSE,TRUE,joint 1 -,FALSE,07:57.6,16.557,0.162,227.4,292.822052,106.5785141,84.95825195,0,20,51,0,-20
1.2,60,60,60,moving_belt,red,FALSE,TRUE,joint 1 -,FALSE,07:59.4,16.576,0.166,227.4,292.822052,106.5785141,84.95825195,0,20,51,0,-20
1.2,60,60,60,moving_belt,red,FALSE,TRUE,joint 1 -,FALSE,08:00.1,16.481,0.166,227.4,292.822052,106.5785141,84.95825195,0,20,51,0,-20
1.2,60,60,60,moving_belt,red,FALSE,TRUE,joint 1 -,FALSE,08:00.8,16.234,0.166,227.4,292.822052,106.5785141,84.95825195,0,20,51,0,-20
1.2,60,60,60,go_to_pick_down,red,TRUE,FALSE,joint 3 +,FALSE,08:02.2,16.462,0.161,227.4,292.822052,106.5785141,84.95825195,0,20,51,0,-20
1.2,60,60,60,go_to_pick_down,red,TRUE,FALSE,joint 3 +,FALSE,08:02.9,16.462,0.161,227.4,287.4169922,104.6112289,44.23983765,0,20,51,16.48670006,-20
1.2,60,60,60,go_to_pick_up_from_pick_down,red,TRUE,FALSE,joint 3 -,TRUE,08:04.2,16.424,0.16,227.4,284.2657776,103.4642792,34.0260849,0,20,51,20.04160309,-20
1.2,60,60,60,go_to_pick_up_from_pick_down,red,TRUE,FALSE,joint 3 -,TRUE,08:04.9,17.905,0.16,227.4,292.8125305,106.5750504,83.23133087,0,20,51,0.541013837,-20
1.2,60,60,60,go_to_color_detect_up,red,TRUE,FALSE,joint 1 +,TRUE,08:06.3,22.158,0.213,227.4,270.9732056,153.8741455,84.95825195,9.590394974,30.12319565,51,0,-20
1.2,60,60,60,go_to_color_detect_up,red,TRUE,FALSE,joint 1 +,TRUE,08:07.0,22.158,0.213,227.4,158.8343811,268.0958252,84.95825195,39.35521317,59.75121307,51,0,-20
1.2,60,60,60,go_to_color_detect_up,red,TRUE,FALSE,joint 3 +,TRUE,08:07.7,22.272,0.209,227.4,131.6577911,282.3410339,79.93469238,45,65,51,2.203200102,-20
1.2,60,60,60,go_to_color_detect_up,red,TRUE,FALSE,joint 3 +,TRUE,08:09.1,21.969,0.209,227.4,121.874649,261.3610229,5.641410828,45,65,51,33.31199265,-20
1.2,60,60,60,go_to_color_detect_up,red,TRUE,FALSE,joint 3 -,FALSE,08:09.8,22.083,0.208,227.4,111.1388397,238.3379974,-24.28404236,45,65,51,48,-20
1.2,60,60,60,go_to_color_detect_up,red,TRUE,FALSE,joint 3 -,FALSE,08:11.2,20.772,0.208,227.4,121.6147232,260.8036194,4.689849854,45,65,51,32.43360519,-20
1.2,60,60,60,go_to_color_detect_up,red,TRUE,FALSE,joint 3 -,FALSE,08:11.9,20.772,0.163,227.4,131.6605835,282.3470154,80.13158417,45,65,51,1.656016111,-20
1.2,60,60,60,detecting_color,red,FALSE,FALSE,detecting_color,FALSE,08:12.6,16.899,0.163,227.4,131.6940765,282.4188232,84.95825195,45,65,51,0,-20
1.2,60,60,60,detecting_color,red,FALSE,FALSE,detecting_color,FALSE,08:14.2,16.519,0.163,227.4,131.6940765,282.4188232,84.95825195,45,65,51,0,-20
1.2,60,60,60,detecting_color,red,FALSE,FALSE,detecting_color,FALSE,08:14.9,16.443,0.163,227.4,131.6940765,282.4188232,84.95825195,45,65,51,0,-20
1.2,60,60,60,detecting_color,red,FALSE,FALSE,detecting_color,FALSE,08:16.3,16.424,0.16,227.4,131.6940765,282.4188232,84.95825195,45,65,51,0,-20
1.2,60,60,60,detecting_color,red,FALSE,FALSE,detecting_color,FALSE,08:16.9,16.443,0.16,227.4,131.6940765,282.4188232,84.95825195,45,65,51,0,-20
1.2,60,60,60,go_to_color_detect_down,red,TRUE,FALSE,joint 3 +,FALSE,08:18.1,16.443,0.16,227.4,131.6925354,282.4155273,83.92379761,45,65,51,0.518400073,-20
1.2,60,60,60,go_to_color_detect_down,red,TRUE,FALSE,joint 3 +,FALSE,08:19.0,16.291,0.162,227.4,127.186615,272.7525635,29.98625183,45,65,51,22.6799984,-20
1.2,60,60,60,go_to_color_detect_down,red,TRUE,FALSE,joint 3 +,FALSE,08:20.4,16.386,0.163,227.4,111.9902573,240.1638641,-22.43588257,45,65,51,47.1023941,-20
1.2,60,60,60,go_to_color_detect_up,red,TRUE,FALSE,joint 3 -,TRUE,08:21.1,16.367,0.163,227.4,117.2142105,251.3666687,-9.377365112,45,65,51,39.43200302,-20
1.2,60,60,60,go_to_color_detect_up,red,TRUE,FALSE,joint 3 -,TRUE,08:21.8,22.994,0.163,229.3,131.3856049,281.7573242,70.32757568,45,65,51,5.313615799,-20
1.2,60,60,60,go_to_green_up,green,TRUE,FALSE,joint 1 +,TRUE,08:23.2,22.842,0.212,229.3,121.9658051,286.754364,84.95825195,46.95839691,67.20319366,51,0,-20
1.2,60,60,60,go_to_green_up,green,TRUE,FALSE,joint 1 +,TRUE,08:23.9,22.253,0.212,229.3,-15.56997681,311.2254944,84.95825195,72.86399841,93.44799805,51,0,-20
1.2,60,60,60,go_to_pick_up_from_green,green,TRUE,FALSE,joint 1 -,FALSE,08:24.6,22.177,0.207,229.3,-77.24260712,301.8895569,84.95825195,84.352005,104.2080078,51,0,-20
1.2,60,60,60,go_to_pick_up_from_green,green,TRUE,FALSE,joint 1 -,FALSE,08:25.7,22.215,0.207,229.3,45.52164078,308.2718201,84.95825195,61.59999847,80.87999725,51,0,-20
1.2,60,60,60,go_to_pick_up_from_green,green,TRUE,FALSE,joint 1 -,FALSE,08:25.7,22.215,0.207,229.3,212.3618164,228.0486603,84.95825195,27.03993988,46.31993866,51,0,-20
