demetriskallis/dobot_magician_pick_and_place_and_color_sorting/Sampling/OLD_DATA/sampling_joint_movement_extra/old_measurements/joint_measurements__armv_70_arma_70_belts_60_cube_1.2g.csv
cube/weight,arm/velocity_ratio,arm/acceleration_ratio,belt/speed,dobot/operation,dobot/color,dobot/moving_arm,dobot/moving_belt,dobot/operation2,dobot/suction,meross/sample_timestamp,meross/power,meross/current,meross/voltage,dobot/pose_x,dobot/pose_y,dobot/pose_z,dobot/pose_rHead,dobot/pose_joint1Angle,dobot/pose_joint2Angle,dobot/pose_joint3Angle,dobot/pose_joint4Angle
1.2,70,70,60,homing,,,,homing,,,,,,195.808609,67.15276337,78.58465576,-1.070543289,18.52945709,4.827904224,22.36585999,-20
1.2,70,70,60,homing,,,,homing,,,,,,207.0013275,-0.97740835,78.58465576,-20.27053452,-0.670534253,4.827904224,22.36585999,-20
1.2,70,70,60,homing,,,,homing,,,,,,195.165741,-68.99884796,78.58465576,-39.47052765,-19.87052536,4.827904224,22.36585999,-20
1.2,70,70,60,homing,,,,homing,,30:49.9,16.595,0.162,229.3,156.0603027,-135.9988708,78.58465576,-61.07054901,-41.47055054,4.827904224,22.36585999,-20
1.2,70,70,60,homing,,,,homing,,30:51.2,16.576,0.162,229.3,102.6539307,-179.7572632,78.58465576,-80.27062225,-60.67062378,4.827904224,22.36585999,-20
1.2,70,70,60,homing,,,,homing,,30:51.9,16.576,0.162,229.3,37.82749939,-203.5180206,78.58465576,-99.4706955,-79.87069702,4.827904224,22.36585999,-20
1.2,70,70,60,homing,,,,homing,,30:53.3,16.576,0.162,229.3,-38.32989883,-203.423996,78.58465576,-120.6707764,-101.0707779,4.827904224,22.36585999,-20
1.2,70,70,60,homing,,,,homing,,30:54.0,16.595,0.162,229.3,-103.0974884,-179.5032196,78.58465576,-139.8708496,-120.2708511,4.827904224,22.36585999,-20
1.2,70,70,60,homing,,,,homing,,30:55.4,16.576,0.165,229.3,-150.2812195,-142.358902,78.58465576,-156.5507202,-136.5307159,4.827904224,22.36585999,-20
1.2,70,70,60,homing,,,,homing,,30:56.3,16.5,0.165,229.3,-147.5706787,-145.1667938,78.58465576,-155.4704895,-135.4504852,4.827904224,22.36585999,-20
1.2,70,70,60,homing,,,,homing,,30:57.1,16.5,0.164,229.3,-123.5154114,-169.0041656,76.18373108,-145.3775482,-125.6929092,6.266243458,23.29686546,-19.1754055
1.2,70,70,60,homing,,,,homing,,30:57.8,16.633,0.164,229.3,-30.96014786,-216.1048279,65.83224487,-114.198082,-97.55297089,11.88683033,26.93494797,-15.95314026
1.2,70,70,60,homing,,,,homing,,30:58.7,16.975,0.164,229.3,96.15769958,-213.4925079,41.76593018,-75.32798767,-65.15305328,23.25958061,34.29627609,-9.433181763
1.2,70,70,60,homing,,,,homing,,31:00.2,16.823,0.164,229.3,195.5132446,-147.0791931,18.06097412,-40.91633987,-36.35312653,32.95957565,40.57487106,-3.872204304
1.2,70,70,60,homing,,,,homing,,31:00.9,16.823,0.164,229.3,246.4122009,-36.72292709,3.477111816,-9.223384857,-8.03137207,38.47932816,44.14769363,-0.70774591
1.2,70,70,60,homing,,,,homing,,31:02.2,16.899,0.164,229.3,248.3753662,0.000178493,0.971359253,4.12E-05,4.12E-05,38.95094681,45.05290222,0
1.2,70,70,60,homing,,,,homing,,31:03.0,16.899,0.164,229.3,249.9999847,0.00017966,-7.63E-06,4.12E-05,4.12E-05,39.71385956,44.94676971,0
1.2,70,70,60,homing,,,,homing,,31:04.3,16.595,0.165,229.3,249.9999847,0.00017966,-7.63E-06,4.12E-05,4.12E-05,39.71385956,44.94676971,0
1.2,70,70,60,homing,,,,homing,,31:05.0,16.595,0.165,229.3,249.9999847,0.00017966,-7.63E-06,4.12E-05,4.12E-05,39.71385956,44.94676971,0
1.2,70,70,60,homing,,,,homing,,31:06.4,16.462,0.16,229.3,249.9999847,0.00017966,-7.63E-06,4.12E-05,4.12E-05,39.71385956,44.94676971,0
1.2,70,70,60,homing,,,,homing,,31:07.1,16.5,0.16,229.3,249.9999847,0.00017966,-7.63E-06,4.12E-05,4.12E-05,39.71385956,44.94676971,0
1.2,70,70,60,homing,,,,homing,,31:08.5,16.5,0.16,229.3,249.9999847,0.00017966,-7.63E-06,4.12E-05,4.12E-05,39.71385956,44.94676971,0
1.2,70,70,60,homing,,,,homing,,31:09.1,16.5,0.16,229.3,249.9999847,0.00017966,-7.63E-06,4.12E-05,4.12E-05,39.71385956,44.94676971,0
1.2,70,70,60,homing,,,,homing,,31:09.8,16.481,0.161,229.3,249.9999847,0.00017966,-7.63E-06,4.12E-05,4.12E-05,39.71385956,44.94676971,0
1.2,70,70,60,homing,,,,homing,,31:11.2,16.481,0.161,229.3,249.9999847,0.00017966,-7.63E-06,4.12E-05,4.12E-05,39.71385956,44.94676971,0
1.2,70,70,60,homing,,,,homing,,31:11.9,16.386,0.16,229.3,249.9999847,0.00017966,-7.63E-06,4.12E-05,4.12E-05,39.71385956,44.94676971,0
1.2,70,70,60,homing,,,,homing,,31:13.3,16.633,0.16,229.3,249.9999847,0.00017966,-7.63E-06,4.12E-05,4.12E-05,39.71385956,44.94676971,0
1.2,70,70,60,homing,,,,homing,,31:13.9,16.633,0.16,229.3,249.9999847,0.00017966,-7.63E-06,4.12E-05,4.12E-05,39.71385956,44.94676971,0
1.2,70,70,60,homing,,,,homing,,31:15.3,16.519,0.16,229.3,249.9999847,0.00017966,-7.63E-06,4.12E-05,4.12E-05,39.71385956,44.94676971,0
1.2,70,70,60,homing,,,,homing,,31:16.0,16.519,0.16,229.3,249.9999847,0.00017966,-7.63E-06,4.12E-05,4.12E-05,39.71385956,44.94676971,0
1.2,70,70,60,homing,,,,homing,,31:17.4,16.557,0.162,229.3,249.9999847,0.00017966,-7.63E-06,4.12E-05,4.12E-05,39.71385956,44.94676971,0
1.2,70,70,60,homing,,,,homing,,31:18.1,16.671,0.162,229.3,251.7631989,7.099066257,4.497329712,4.11E-05,1.803610086,38.87077713,42.90844345,-1.803568959
1.2,70,70,60,homing,,,,homing,,31:19.4,17.032,0.161,229.3,272.0955811,91.01303864,57.43757248,4.20E-05,18.67369843,40.50973129,17.64220619,-18.67365646
1.2,70,70,60,go_to_pick_up_from_homing,nothing,,,go_to_pick_up_from_homing,,31:20.1,16.975,0.161,229.3,281.993866,104.6264191,71.74093628,2.67E-05,20.33917618,45.55271912,8.668281555,-20.33915138
1.2,70,70,60,moving_belt,nothing,FALSE,TRUE,go_to_pick_up_from_homing,,31:20.8,16.975,0.162,229.3,292.822052,106.5785141,84.95825195,0,20,51,-2.33E-10,-20
1.2,70,70,60,moving_belt,nothing,FALSE,TRUE,go_to_pick_up_from_homing,,31:22.2,16.918,0.162,229.3,292.822052,106.5785141,84.95825195,0,20,51,-2.33E-10,-20
1.2,70,70,60,moving_belt,nothing,FALSE,TRUE,go_to_pick_up_from_homing,,31:22.9,16.329,0.161,229.3,292.822052,106.5785141,84.95825195,0,20,51,-2.33E-10,-20
1.2,70,70,60,moving_belt,nothing,FALSE,TRUE,go_to_pick_up_from_homing,,31:24.3,16.253,0.161,229.3,292.822052,106.5785141,84.95825195,0,20,51,-2.33E-10,-20
1.2,70,70,60,moving_belt,nothing,FALSE,TRUE,go_to_pick_up_from_homing,,31:25.0,16.253,0.161,229.3,292.822052,106.5785141,84.95825195,0,20,51,-2.33E-10,-20
1.2,70,70,60,go_to_pick_down,nothing,TRUE,FALSE,joint 3 +,,31:26.3,16.386,0.16,229.3,287.0768127,104.4874191,43.00442886,0,20,51,17.03368378,-20
1.2,70,70,60,go_to_pick_up_from_pick_down,nothing,TRUE,FALSE,joint 3 -,TRUE,31:27.0,16.386,0.16,229.3,288.3669128,104.9569778,47.92589569,0,20,51,14.04240131,-20
1.2,70,70,60,go_to_color_detect_up,nothing,TRUE,FALSE,joint 1 +,TRUE,31:28.4,23.032,0.164,229.3,292.2713318,108.0796509,84.95825195,0.293998718,20.41159821,51,0,-20
1.2,70,70,60,go_to_color_detect_up,nothing,TRUE,FALSE,joint 1 +,TRUE,31:29.1,22.5,0.164,229.3,210.765213,229.5250702,84.95825195,27.43977737,48.25967407,51,0,-20
1.2,70,70,60,go_to_color_detect_up,nothing,TRUE,FALSE,joint 3 +,TRUE,31:30.1,22.5,0.213,229.3,131.6893616,282.4087524,83.14798737,45,65,51,0.882000029,-20
1.2,70,70,60,go_to_color_detect_up,nothing,TRUE,FALSE,joint 3 +,TRUE,31:31.5,22.443,0.21,229.3,123.1978683,264.1986694,10.75354767,45,65,51,31.14037132,-20
1.2,70,70,60,go_to_color_detect_up,nothing,TRUE,FALSE,joint 3 -,FALSE,31:32.1,22.158,0.21,227.4,111.2335205,238.5410461,-24.08192444,45,65,51,47.80400085,-20
1.2,70,70,60,go_to_color_detect_up,nothing,TRUE,FALSE,joint 3 -,FALSE,31:32.8,19.899,0.21,227.4,129.0238342,276.6924744,42.32413483,45,65,51,16.05653381,-20
1.2,70,70,60,detecting_color,nothing,FALSE,FALSE,detecting_color,FALSE,31:34.2,17.127,0.165,227.4,131.6940765,282.4188232,84.95825195,45,65,51,0,-20
1.2,70,70,60,detecting_color,nothing,FALSE,FALSE,detecting_color,FALSE,31:34.9,17.127,0.165,227.4,131.6940765,282.4188232,84.95825195,45,65,51,0,-20
1.2,70,70,60,go_to_color_detect_down,nothing,TRUE,FALSE,joint 3 +,FALSE,31:36.3,16.443,0.163,227.4,130.6834564,280.2515564,58.55114365,45,65,51,10.99560165,-20
1.2,70,70,60,go_to_color_detect_down,nothing,TRUE,FALSE,joint 3 +,FALSE,31:37.0,16.443,0.163,227.4,113.7634888,243.9665833,-18.35470581,45,65,51,45.00511932,-20
1.2,70,70,60,go_to_color_detect_up,nothing,TRUE,FALSE,joint 3 -,TRUE,31:38.4,16.443,0.166,227.4,116.7450333,250.3605194,-10.68843842,45,65,51,40.0424118,-20
1.2,70,70,60,go_to_color_detect_up,nothing,TRUE,FALSE,joint 3 -,TRUE,31:39.0,23.26,0.166,227.4,131.6092224,282.2368774,77.27792358,45,65,51,2.66220665,-20
1.2,70,70,60,go_to_red_up,red,TRUE,FALSE,joint 1 +,TRUE,31:39.7,23.222,0.166,227.4,94.17745972,297.0426636,84.95825195,52.4087677,72.95756531,51,0,-20
1.2,70,70,60,go_to_red_up,red,TRUE,FALSE,joint 1 +,TRUE,31:41.4,22.747,0.216,227.4,-122.6779404,286.4504395,84.95825195,93.18395996,113.8547592,51,0,-20
1.2,70,70,60,go_to_pick_up_from_red,red,TRUE,FALSE,joint 1 -,FALSE,31:42.1,22.747,0.216,227.4,-168.1088409,262.3797913,84.95825195,102.6480103,122.3344116,51,0,-20
1.2,70,70,60,go_to_pick_up_from_red,red,TRUE,FALSE,joint 1 -,FALSE,31:43.5,16.576,0.216,227.4,14.84191227,311.2610474,84.95825195,67.27001953,86.29001617,51,0,-20
1.2,70,70,60,go_to_pick_up_from_red,red,TRUE,FALSE,joint 1 -,FALSE,31:44.2,16.576,0.164,227.4,237.2545166,202.0248108,84.95825195,20.41475296,39.529953,51,0,-20
1.2,70,70,60,moving_belt,red,FALSE,TRUE,joint 1 -,FALSE,31:44.9,16.614,0.164,227.4,292.822052,106.5785141,84.95825195,0,20,51,0,-20
1.2,70,70,60,moving_belt,red,FALSE,TRUE,joint 1 -,FALSE,31:46.2,16.443,0.164,227.4,292.822052,106.5785141,84.95825195,0,20,51,0,-20
1.2,70,70,60,moving_belt,red,FALSE,TRUE,joint 1 -,FALSE,31:46.9,16.443,0.162,227.4,292.822052,106.5785141,84.95825195,0,20,51,0,-20
1.2,70,70,60,moving_belt,red,FALSE,TRUE,joint 1 -,FALSE,31:48.3,16.291,0.162,227.4,292.822052,106.5785141,84.95825195,0,20,51,0,-20
1.2,70,70,60,moving_belt,red,FALSE,TRUE,joint 1 -,FALSE,31:49.0,16.291,0.162,227.4,292.822052,106.5785141,84.95825195,0,20,51,0,-20
1.2,70,70,60,go_to_pick_down,red,TRUE,FALSE,joint 3 +,FALSE,31:50.3,16.424,0.162,227.4,291.6688232,106.1587753,66.0029068,0,20,51,7.957600594,-20
1.2,70,70,60,go_to_pick_up_from_pick_down,red,TRUE,FALSE,joint 3 -,TRUE,31:51.0,16.139,0.161,227.4,284.0985718,103.4034271,33.54697037,0,20,51,20.21640396,-20
1.2,70,70,60,go_to_pick_up_from_pick_down,red,TRUE,FALSE,joint 3 -,TRUE,31:52.4,20.526,0.161,227.4,292.8183899,106.577179,83.88773346,0,20,51,0.299539626,-20
1.2,70,70,60,go_to_color_detect_up,red,TRUE,FALSE,joint 1 +,TRUE,31:53.1,22.443,0.213,227.4,256.7371216,176.6062775,84.95825195,14.52359772,35.2879982,51,0,-20
1.2,70,70,60,go_to_color_detect_up,red,TRUE,FALSE,joint 1 +,TRUE,31:54.5,22.272,0.213,227.4,132.2253418,282.1705017,84.95825195,44.89216614,64.94766235,51,0,-20
1.2,70,70,60,go_to_color_detect_up,red,TRUE,FALSE,joint 3 +,TRUE,31:55.2,22.215,0.21,227.4,129.0188141,276.6817322,42.28493118,45,65,51,17.69880104,-20
1.2,70,70,60,go_to_color_detect_up,red,TRUE,FALSE,joint 3 +,TRUE,31:56.1,21.912,0.21,227.4,111.8446808,239.8516846,-22.75679779,45,65,51,47.29377747,-20
1.2,70,70,60,go_to_color_detect_up,red,TRUE,FALSE,joint 3 -,FALSE,31:56.8,22.026,0.21,227.4,122.2954102,262.2633362,7.216835022,45,65,51,31.12440109,-20
1.2,70,70,60,go_to_color_detect_up,red,TRUE,FALSE,joint 3 -,FALSE,31:58.2,17.317,0.197,227.4,131.6830902,282.3952637,82.1936264,45,65,51,0.882128119,-20
1.2,70,70,60,detecting_color,red,FALSE,FALSE,detecting_color,FALSE,31:58.9,16.747,0.197,227.4,131.6940765,282.4188232,84.95825195,45,65,51,0,-20
1.2,70,70,60,detecting_color,red,FALSE,FALSE,detecting_color,FALSE,32:00.3,16.177,0.161,227.4,131.6940765,282.4188232,84.95825195,45,65,51,0,-20
1.2,70,70,60,detecting_color,red,FALSE,FALSE,detecting_color,FALSE,32:00.9,16.177,0.161,227.4,131.6940765,282.4188232,84.95825195,45,65,51,0,-20
1.2,70,70,60,detecting_color,red,FALSE,FALSE,detecting_color,FALSE,32:02.3,16.215,0.162,227.4,131.6940765,282.4188232,84.95825195,45,65,51,0,-20
1.2,70,70,60,go_to_color_detect_down,red,TRUE,FALSE,joint 3 +,FALSE,32:03.0,16.215,0.162,227.4,131.6830902,282.3952637,82.19265747,45,65,51,1.293600082,-20
1.2,70,70,60,go_to_color_detect_down,red,TRUE,FALSE,joint 3 +,FALSE,32:04.4,16.215,0.164,227.4,119.6049805,256.4936829,-2.171981812,45,65,51,37.01634979,-20
1.2,70,70,60,go_to_color_detect_up,red,TRUE,FALSE,joint 3 -,TRUE,32:05.1,16.253,0.164,229.3,112.0000687,240.1849213,-22.41416931,45,65,51,46.70640564,-20
1.2,70,70,60,go_to_color_detect_up,red,TRUE,FALSE,joint 3 -,TRUE,32:06.4,22.329,0.194,229.3,129.2705383,277.2215576,44.30015564,45,65,51,15.27303696,-20
1.2,70,70,60,go_to_green_up,green,TRUE,FALSE,joint 1 +,TRUE,32:07.1,22.823,0.194,229.3,126.3574905,284.8464661,84.95825195,46.0779953,66.29359436,51,0,-20
1.2,70,70,60,go_to_green_up,green,TRUE,FALSE,joint 1 +,TRUE,32:08.5,22.367,0.21,229.3,-27.47181892,310.4013977,84.95825195,75.05773163,95.67221069,51,0,-20
1.2,70,70,60,go_to_pick_up_from_green,green,TRUE,FALSE,joint 1 -,FALSE,32:09.2,22.367,0.21,229.3,-72.59272766,303.0413208,84.95825195,83.47120667,103.2164078,51,0,-20
1.2,70,70,60,go_to_pick_up_from_green,green,TRUE,FALSE,joint 1 -,FALSE,32:09.9,21.171,0.21,229.3,134.987381,280.8596191,84.95825195,44.33002472,63.35002518,51,0,-20
1.2,70,70,60,go_to_pick_up_from_green,green,TRUE,FALSE,joint 1 -,FALSE,32:11.2,16.329,0.16,229.3,282.7753906,130.9267273,84.95825195,4.844423294,24.4184227,51,0,-20
1.2,70,70,60,moving_belt,green,FALSE,TRUE,joint 1 -,FALSE,32:12.0,16.329,0.16,229.3,292.822052,106.5785141,84.95825195,0,20,51,0,-20
1.2,70,70,60,moving_belt,green,FALSE,TRUE,joint 1 -,FALSE,32:13.3,16.443,0.159,229.3,292.822052,106.5785141,84.95825195,0,20,51,0,-20
1.2,70,70,60,moving_belt,green,FALSE,TRUE,joint 1 -,FALSE,32:14.0,16.443,0.159,229.3,292.822052,106.5785141,84.95825195,0,20,51,0,-20
1.2,70,70,60,moving_belt,green,FALSE,TRUE,joint 1 -,FALSE,32:15.4,16.253,0.16,229.3,292.822052,106.5785141,84.95825195,0,20,51,0,-20
1.2,70,70,60,go_to_pick_down,green,TRUE,FALSE,joint 3 +,FALSE,32:16.1,16.253,0.16,229.3,292.8202515,106.577858,84.2039566,0,20,51,0.411599994,-20
1.2,70,70,60,go_to_pick_down,green,TRUE,FALSE,joint 3 +,FALSE,32:16.8,16.253,0.162,229.3,284.3175354,103.4831238,34.17549515,0,20,51,20.46485138,-20
1.2,70,70,60,go_to_pick_up_from_pick_down,green,TRUE,FALSE,joint 3 -,TRUE,32:18.3,17.241,0.162,229.3,291.2924805,106.0218048,63.14315033,0,20,51,7.965817928,-20
1.2,70,70,60,go_to_color_detect_up,green,TRUE,FALSE,joint 1 +,TRUE,32:18.3,17.241,0.162,229.3,288.2015381,118.505722,84.95825195,2.351997375,22.66559792,51,0,-20
1.2,70,70,60,go_to_color_detect_up,green,TRUE,FALSE,joint 1 +,TRUE,32:20.4,22.026,0.218,229.3,179.8169403,254.4987183,84.95825195,34.7567482,55.38064575,51,0,-20
1.2,70,70,60,go_to_color_detect_up,green,TRUE,FALSE,joint 3 +,TRUE,32:21.2,22.31,0.211,229.3,131.5338287,282.0751953,74.40718079,45,65,51,4.527600288,-20
1.2,70,70,60,go_to_color_detect_up,green,TRUE,FALSE,joint 3 +,TRUE,32:21.9,21.836,0.211,229.3,117.9198761,252.8799744,-7.345222473,45,65,51,39.48394012,-20
1.2,70,70,60,go_to_color_detect_up,green,TRUE,FALSE,joint 3 -,FALSE,32:23.3,21.912,0.209,229.3,112.9984894,242.3260345,-20.15538025,45,65,51,45.33441162,-20
1.2,70,70,60,go_to_color_detect_up,green,TRUE,FALSE,joint 3 -,FALSE,32:24.1,19.614,0.209,229.3,131.0091095,280.9499207,63.1894989,45,65,51,7.948169708,-20
1.2,70,70,60,detecting_color,green,FALSE,FALSE,detecting_color,FALSE,32:25.4,16.975,0.165,229.3,131.6940765,282.4188232,84.95825195,45,65,51,0,-20
1.2,70,70,60,detecting_color,green,FALSE,FALSE,detecting_color,FALSE,32:26.1,16.329,0.165,229.3,131.6940765,282.4188232,84.95825195,45,65,51,0,-20
1.2,70,70,60,go_to_color_detect_down,green,TRUE,FALSE,joint 3 +,FALSE,32:26.8,16.329,0.165,229.3,128.1653442,274.8514709,36.12088013,45,65,51,20.28600121,-20
1.2,70,70,60,go_to_color_detect_down,green,TRUE,FALSE,joint 3 +,FALSE,32:28.2,16.291,0.161,229.3,111.4707413,239.0497589,-23.57180023,45,65,51,47.70386505,-20
1.2,70,70,60,go_to_color_detect_up,green,TRUE,FALSE,joint 3 -,TRUE,32:28.9,16.253,0.161,229.3,124.5671082,267.1350098,16.59467316,45,65,51,26.81240082,-20
1.2,70,70,60,go_to_color_detect_up,green,TRUE,FALSE,joint 3 -,TRUE,32:30.3,22.899,0.216,229.3,131.6932526,282.4170532,84.19846344,45,65,51,0.198643655,-20
1.2,70,70,60,go_to_blue_up,blue,TRUE,FALSE,joint 1 +,TRUE,32:31.0,22.519,0.216,229.3,58.53630066,306.0673828,84.95825195,59.17276001,79.64096069,51,0,-20
1.2,70,70,60,go_to_pick_up_from_blue,blue,TRUE,FALSE,joint 1 -,FALSE,32:32.4,22.196,0.21,229.3,64.14752197,304.9407043,84.95825195,58.12042999,77.5912323,51,0,-20
1.2,70,70,60,go_to_pick_up_from_blue,blue,TRUE,FALSE,joint 1 -,FALSE,32:33.1,22.196,0.21,229.3,248.392868,188.1614227,84.95825195,17.14448929,36.33448792,51,0,-20
1.2,70,70,60,moving_belt,blue,FALSE,TRUE,joint 1 -,FALSE,32:34.4,16.367,0.162,229.3,292.822052,106.5785141,84.95825195,0,20,51,0,-20
1.2,70,70,60,moving_belt,blue,FALSE,TRUE,joint 1 -,FALSE,32:35.1,16.272,0.162,229.3,292.822052,106.5785141,84.95825195,0,20,51,0,-20
1.2,70,70,60,moving_belt,blue,FALSE,TRUE,joint 1 -,FALSE,32:35.8,16.652,0.162,229.3,292.822052,106.5785141,84.95825195,0,20,51,0,-20
1.2,70,70,60,moving_belt,blue,FALSE,TRUE,joint 1 -,FALSE,32:37.5,16.424,0.163,229.3,292.822052,106.5785141,84.95825195,0,20,51,0,-20
1.2,70,70,60,moving_belt,blue,FALSE,TRUE,joint 1 -,FALSE,32:38.2,16.424,0.161,229.3,292.822052,106.5785141,84.95825195,0,20,51,0,-20
1.2,70,70,60,go_to_pick_down,blue,TRUE,FALSE,joint 3 +,FALSE,32:38.9,16.329,0.161,229.3,289.9800415,105.5441055,55.29294586,0,20,51,12.26983452,-20
1.2,70,70,60,go_to_pick_up_from_pick_down,blue,TRUE,FALSE,joint 3 -,TRUE,32:40.3,16.367,0.161,229.3,284.0985718,103.4034271,33.54697037,0,20,51,20.21640396,-20
1.2,70,70,60,go_to_pick_up_from_pick_down,blue,TRUE,FALSE,joint 3 -,TRUE,32:40.9,19.747,0.162,229.3,292.822052,106.5785141,84.9458313,0,20,51,0,-20
1.2,70,70,60,go_to_color_detect_up,blue,TRUE,FALSE,joint 1 +,TRUE,32:42.4,22.386,0.212,229.3,237.7079315,201.4911346,84.95825195,20.2859993,41.18759918,51,0,-20
1.2,70,70,60,go_to_color_detect_up,blue,TRUE,FALSE,joint 3 +,TRUE,32:43.1,22.386,0.212,229.3,132.2253418,282.1705017,84.95825195,44.89216614,64.94766235,51,0,-20
1.2,70,70,60,go_to_color_detect_up,blue,TRUE,FALSE,joint 3 +,TRUE,32:44.5,22.064,0.209,229.3,126.3186874,270.8912964,25.14452362,45,65,51,24.96989632,-20
1.2,70,70,60,go_to_color_detect_up,blue,TRUE,FALSE,joint 3 +,TRUE,32:45.1,22.045,0.209,229.3,111.1579819,238.3790436,-24.24325562,45,65,51,47.99534607,-20
1.2,70,70,60,go_to_color_detect_up,blue,TRUE,FALSE,joint 3 -,FALSE,32:46.5,18.836,0.209,229.3,124.11586,266.1672974,14.59955597,45,65,51,27.7140007,-20
1.2,70,70,60,go_to_color_detect_up,blue,TRUE,FALSE,joint 3 -,FALSE,32:47.2,18.836,0.167,229.3,131.6924591,282.4153748,83.8980484,45,65,51,0.296140522,-20
1.2,70,70,60,detecting_color,blue,FALSE,FALSE,detecting_color,FALSE,32:47.9,17.07,0.167,229.3,131.6940765,282.4188232,84.95825195,45,65,51,0,-20
1.2,70,70,60,go_to_color_detect_down,blue,TRUE,FALSE,joint 3 +,FALSE,32:49.3,16.519,0.165,229.3,131.5878143,282.1909485,76.36417389,45,65,51,3.724000216,-20
1.2,70,70,60,go_to_color_detect_down,blue,TRUE,FALSE,joint 3 +,FALSE,32:50.0,16.367,0.165,229.3,118.3304825,253.7605286,-6.127807617,45,65,51,38.89644241,-20
1.2,70,70,60,go_to_color_detect_up,blue,TRUE,FALSE,joint 3 -,TRUE,32:51.4,16.443,0.163,229.3,114.0496674,244.5802917,-17.66474915,45,65,51,43.88401794,-20
1.2,70,70,60,go_to_color_detect_up,blue,TRUE,FALSE,joint 3 -,TRUE,32:52.1,23.127,0.163,229.3,130.8039551,280.5099792,60.16335297,45,65,51,9.103563309,-20
1.2,70,70,60,go_to_red_up,red,TRUE,FALSE,joint 1 +,TRUE,32:53.5,22.785,0.215,229.3,121.4671478,286.9659729,84.95825195,47.05799103,67.35198975,51,0,-20
1.2,70,70,60,go_to_red_up,red,TRUE,FALSE,joint 1 +,TRUE,32:54.2,22.272,0.215,229.3,-91.68950653,297.8200378,84.95825195,87.11196899,107.9395676,51,0,-20
1.2,70,70,60,go_to_pick_up_from_red,red,TRUE,FALSE,joint 1 -,FALSE,32:54.9,22.519,0.215,229.3,-178.647583,255.3209076,84.95825195,104.9804001,124.9412003,51,0,-20
1.2,70,70,60,go_to_pick_up_from_red,red,TRUE,FALSE,joint 1 -,FALSE,32:56.3,22.348,0.214,229.3,-59.40584564,305.8998108,84.95825195,80.99006653,100.0100632,51,0,-20
1.2,70,70,60,go_to_pick_up_from_red,red,TRUE,FALSE,joint 1 -,FALSE,32:56.9,16.576,0.214,229.3,208.2280731,231.8292694,84.95825195,28.0699501,47.08995056,51,0,-20
1.2,70,70,60,go_to_pick_up_from_red,red,TRUE,FALSE,joint 1 -,FALSE,32:57.9,16.576,0.163,229.3,292.2397156,108.1651077,84.95825195,0.310750961,20.2099514,51,0,-20
1.2,70,70,60,moving_belt,red,FALSE,TRUE,joint 1 -,FALSE,32:59.3,16.595,0.163,229.3,292.822052,106.5785141,84.95825195,0,20,51,0,-20
1.2,70,70,60,moving_belt,red,FALSE,TRUE,joint 1 -,FALSE,33:00.0,16.595,0.163,229.3,292.822052,106.5785141,84.95825195,0,20,51,0,-20
1.2,70,70,60,moving_belt,red,FALSE,TRUE,joint 1 -,FALSE,33:01.4,16.329,0.163,227.4,292.822052,106.5785141,84.95825195,0,20,51,0,-20
1.2,70,70,60,moving_belt,red,FALSE,TRUE,joint 1 -,FALSE,33:02.1,16.405,0.164,227.4,292.822052,106.5785141,84.95825195,0,20,51,0,-20
1.2,70,70,60,go_to_pick_down,red,TRUE,FALSE,joint 3 +,FALSE,33:03.4,16.272,0.164,227.4,292.4657593,106.4488373,74.40718079,0,20,51,4.527600288,-20
1.2,70,70,60,go_to_pick_up_from_pick_down,red,TRUE,FALSE,joint 3 -,TRUE,33:04.1,16.424,0.164,227.4,282.7636108,102.9175491,29.89107895,0,20,51,22,-20
1.2,70,70,60,go_to_pick_up_from_pick_down,red,TRUE,FALSE,joint 3 -,TRUE,33:05.5,22.424,0.164,227.4,292.3895874,106.4211121,73.3352356,0,20,51,4.123286247,-20
1.2,70,70,60,go_to_color_detect_up,red,TRUE,FALSE,joint 1 +,TRUE,33:06.2,22.823,0.216,227.4,275.2476501,146.0905914,84.95825195,7.957597733,28.52599716,51,0,-20
1.2,70,70,60,go_to_color_detect_up,red,TRUE,FALSE,joint 1 +,TRUE,33:06.9,22.367,0.216,227.4,149.4604187,273.4324646,84.95825195,41.33862305,61.70772171,51,0,-20
1.2,70,70,60,go_to_color_detect_up,red,TRUE,FALSE,joint 3 +,TRUE,33:08.3,22.329,0.213,227.4,131.2467804,281.4596252,67.35009766,45,65,51,7.408800602,-20
1.2,70,70,60,go_to_color_detect_up,red,TRUE,FALSE,joint 3 +,TRUE,33:09.0,22.158,0.213,227.4,113.494194,243.3890686,-18.99572754,45,65,51,45.33781433,-20
1.2,70,70,60,go_to_color_detect_up,red,TRUE,FALSE,joint 3 -,FALSE,33:10.4,22.31,0.213,227.4,116.7450333,250.3605194,-10.68843842,45,65,51,40.0424118,-20
1.2,70,70,60,go_to_color_detect_up,red,TRUE,FALSE,joint 3 -,FALSE,33:11.1,17.886,0.213,227.4,131.4180756,281.8269653,71.11746979,45,65,51,4.952388287,-20
1.2,70,70,60,detecting_color,red,FALSE,FALSE,detecting_color,FALSE,33:12.5,17.127,0.166,227.4,131.6940765,282.4188232,84.95825195,45,65,51,0,-20
1.2,70,70,60,detecting_color,red,FALSE,FALSE,detecting_color,FALSE,33:13.2,16.595,0.166,227.4,131.6940765,282.4188232,84.95825195,45,65,51,0,-20
1.2,70,70,60,detecting_color,red,FALSE,FALSE,detecting_color,FALSE,33:13.9,16.595,0.166,227.4,131.6940765,282.4188232,84.95825195,45,65,51,0,-20
1.2,70,70,60,detecting_color,red,FALSE,FALSE,detecting_color,FALSE,33:15.3,16.576,0.164,227.4,131.6940765,282.4188232,84.95825195,45,65,51,0,-20
1.2,70,70,60,detecting_color,red,FALSE,FALSE,detecting_color,FALSE,33:15.9,16.538,0.164,227.4,131.6940765,282.4188232,84.95825195,45,65,51,0,-20
1.2,70,70,60,go_to_color_detect_down,red,TRUE,FALSE,joint 3 +,FALSE,33:17.3,16.557,0.165,227.4,130.9097595,280.7368774,61.67354584,45,65,51,9.721601486,-20
1.2,70,70,60,go_to_color_detect_down,red,TRUE,FALSE,joint 3 +,FALSE,33:18.0,16.538,0.165,227.4,114.3412857,245.2056732,-16.95227051,45,65,51,44.28092194,-20
1.2,70,70,60,go_to_color_detect_up,red,TRUE,FALSE,joint 3 -,TRUE,33:19.4,16.595,0.163,227.4,117.9269791,252.8952179,-7.324378967,45,65,51,38.27840805,-20
1.2,70,70,60,go_to_color_detect_up,red,TRUE,FALSE,joint 3 -,TRUE,33:20.1,23.07,0.163,227.4,131.534256,282.0761108,74.42101288,45,65,51,3.719097376,-20
1.2,70,70,60,go_to_green_up,green,TRUE,FALSE,joint 1 +,TRUE,33:21.5,22.785,0.216,227.4,99.54719543,295.2864685,84.95825195,51.36997223,71.87957001,51,0,-20
1.2,70,70,60,go_to_green_up,green,TRUE,FALSE,joint 1 +,TRUE,33:22.2,22.348,0.216,227.4,-74.57173157,302.5603943,84.95825195,83.84567261,104.0485458,51,0,-20
1.2,70,70,60,go_to_pick_up_from_green,green,TRUE,FALSE,joint 1 -,FALSE,33:22.9,22.557,0.216,227.4,-21.76130676,310.8539429,84.95825195,74.00444794,93.33805084,51,0,-20
1.2,70,70,60,go_to_pick_up_from_green,green,TRUE,FALSE,joint 1 -,FALSE,33:24.4,16.899,0.213,227.4,201.8392944,237.4123688,84.95825195,29.63003159,48.65003204,51,0,-20
1.2,70,70,60,go_to_pick_up_from_green,green,TRUE,FALSE,joint 1 -,FALSE,33:25.2,16.747,0.166,227.4,291.8571777,109.1930466,84.95825195,0.512420654,20.38042068,51,0,-20
1.2,70,70,60,moving_belt,green,FALSE,TRUE,joint 1 -,FALSE,33:25.9,16.747,0.166,227.4,292.822052,106.5785141,84.95825195,0,20,51,0,-20
1.2,70,70,60,moving_belt,green,FALSE,TRUE,joint 1 -,FALSE,33:27.4,16.234,0.161,227.4,292.822052,106.5785141,84.95825195,0,20,51,0,-20
1.2,70,70,60,moving_belt,green,FALSE,TRUE,joint 1 -,FALSE,33:28.1,16.234,0.161,227.4,292.822052,106.5785141,84.95825195,0,20,51,0,-20
1.2,70,70,60,moving_belt,green,FALSE,TRUE,joint 1 -,FALSE,33:29.5,16.557,0.162,227.4,292.822052,106.5785141,84.95825195,0,20,51,0,-20
1.2,70,70,60,go_to_pick_down,green,TRUE,FALSE,joint 3 +,FALSE,33:30.2,16.272,0.162,227.4,292.4657593,106.4488373,74.40718079,0,20,51,4.527600288,-20
1.2,70,70,60,go_to_pick_up_from_pick_down,green,TRUE,FALSE,joint 3 -,TRUE,33:31.5,16.329,0.163,227.4,282.8695679,102.9561005,30.17094421,0,20,51,21.80400085,-20
1.2,70,70,60,go_to_pick_up_from_pick_down,green,TRUE,FALSE,joint 3 -,TRUE,33:32.2,22.367,0.163,227.4,292.7050171,106.5359192,78.90838623,0,20,51,2.064587593,-20
1.2,70,70,60,go_to_color_detect_up,green,TRUE,FALSE,joint 1 +,TRUE,33:32.9,22.367,0.163,229.3,275.2476501,146.0905914,84.95825195,7.957597733,28.52599716,51,0,-20
1.2,70,70,60,go_to_color_detect_up,green,TRUE,FALSE,joint 1 +,TRUE,33:34.3,22.462,0.211,229.3,138.9897003,278.9006958,84.95825195,43.51070404,63.74259949,51,0,-20
1.2,70,70,60,go_to_color_detect_up,green,TRUE,FALSE,joint 3 +,TRUE,33:35.0,22.386,0.211,229.3,130.5535736,279.9730225,56.92040253,45,65,51,11.66200161,-20
1.2,70,70,60,go_to_color_detect_up,green,TRUE,FALSE,joint 3 +,TRUE,33:36.4,22.083,0.209,229.3,113.494194,243.3890686,-18.99572754,45,65,51,45.33781433,-20
1.2,70,70,60,go_to_color_detect_up,green,TRUE,FALSE,joint 3 -,FALSE,33:37.1,21.988,0.209,229.3,116.7450333,250.3605194,-10.68843842,45,65,51,40.0424118,-20
1.2,70,70,60,go_to_color_detect_up,green,TRUE,FALSE,joint 3 -,FALSE,33:38.5,17.506,0.164,229.3,131.6092224,282.2368774,77.27792358,45,65,51,2.66220665,-20
1.2,70,70,60,detecting_color,green,FALSE,FALSE,detecting_color,FALSE,33:39.2,16.937,0.164,229.3,131.6940765,282.4188232,84.95825195,45,65,51,0,-20
1.2,70,70,60,detecting_color,green,FALSE,FALSE,detecting_color,FALSE,33:39.9,16.937,0.164,229.3,131.6940765,282.4188232,84.95825195,45,65,51,0,-20
1.2,70,70,60,go_to_color_detect_down,green,TRUE,FALSE,joint 3 +,FALSE,33:41.3,16.462,0.161,229.3,130.6834564,280.2515564,58.55114365,45,65,51,10.99560165,-20
1.2,70,70,60,go_to_color_detect_down,green,TRUE,FALSE,joint 3 +,FALSE,33:42.0,16.462,0.161,229.3,112.3546829,240.9453735,-21.62337494,45,65,51,46.70729065,-20
1.2,70,70,60,go_to_color_detect_up,green,TRUE,FALSE,joint 3 -,TRUE,33:43.3,16.386,0.16,229.3,119.1814499,255.5854187,-3.517578125,45,65,51,36.33800507,-20
1.2,70,70,60,go_to_color_detect_up,green,TRUE,FALSE,joint 3 -,TRUE,33:44.0,23.051,0.16,229.3,131.6092224,282.2368774,77.27792358,45,65,51,2.66220665,-20
1.2,70,70,60,go_to_blue_up,blue,TRUE,FALSE,joint 1 +,TRUE,33:45.4,22.253,0.216,229.3,75.63993073,302.295105,84.95825195,55.9519577,76.53775787,51,0,-20
1.2,70,70,60,go_to_pick_up_from_blue,blue,TRUE,FALSE,joint 1 -,FALSE,33:46.1,22.253,0.216,229.3,38.28928757,309.253418,84.95825195,62.94200897,82.64801025,51,0,-20
1.2,70,70,60,go_to_pick_up_from_blue,blue,TRUE,FALSE,joint 1 -,FALSE,33:47.5,16.5,0.21,229.3,207.4981232,232.4828339,84.95825195,28.25009537,47.27009583,51,0,-20
1.2,70,70,60,go_to_pick_up_from_blue,blue,TRUE,FALSE,joint 1 -,FALSE,33:48.2,16.5,0.21,229.3,292.8219299,106.5788879,84.95825195,7.25E-05,20,51,0,-20
1.2,70,70,60,moving_belt,blue,FALSE,TRUE,joint 1 -,FALSE,33:49.5,16.538,0.161,229.3,292.822052,106.5785141,84.95825195,0,20,51,0,-20
1.2,70,70,60,moving_belt,blue,FALSE,TRUE,joint 1 -,FALSE,33:50.2,16.367,0.161,229.3,292.822052,106.5785141,84.95825195,0,20,51,0,-20
1.2,70,70,60,moving_belt,blue,FALSE,TRUE,joint 1 -,FALSE,33:50.9,16.367,0.159,229.3,292.822052,106.5785141,84.95825195,0,20,51,0,-20
1.2,70,70,60,moving_belt,blue,FALSE,TRUE,joint 1 -,FALSE,33:52.3,16.386,0.159,229.3,292.822052,106.5785141,84.95825195,0,20,51,0,-20
1.2,70,70,60,go_to_pick_down,blue,TRUE,FALSE,joint 3 +,FALSE,33:53.0,16.386,0.159,229.3,292.4657593,106.4488373,74.40718079,0,20,51,4.527600288,-20
1.2,70,70,60,go_to_pick_up_from_pick_down,blue,TRUE,FALSE,joint 3 -,TRUE,33:54.3,16.443,0.162,229.3,282.7636108,102.9175491,29.89107895,0,20,51,22,-20
1.2,70,70,60,go_to_pick_up_from_pick_down,blue,TRUE,FALSE,joint 3 -,TRUE,33:55.0,16.272,0.162,229.3,292.7050171,106.5359192,78.90838623,0,20,51,2.064587593,-20
1.2,70,70,60,go_to_color_detect_up,blue,TRUE,FALSE,joint 1 +,TRUE,33:56.4,22.595,0.216,229.3,275.2476501,146.0905914,84.95825195,7.957597733,28.52599716,51,0,-20
1.2,70,70,60,go_to_color_detect_up,blue,TRUE,FALSE,joint 1 +,TRUE,33:57.1,21.893,0.216,229.3,149.4604187,273.4324646,84.95825195,41.33862305,61.70772171,51,0,-20
1.2,70,70,60,go_to_color_detect_up,blue,TRUE,FALSE,joint 3 +,TRUE,33:58.5,21.912,0.211,229.3,130.6834564,280.2515564,58.55114365,45,65,51,10.99560165,-20
1.2,70,70,60,go_to_color_detect_up,blue,TRUE,FALSE,joint 3 +,TRUE,33:59.2,21.912,0.211,229.3,113.7634888,243.9665833,-18.35470581,45,65,51,45.00511932,-20
1.2,70,70,60,go_to_color_detect_up,blue,TRUE,FALSE,joint 3 -,FALSE,34:00.5,20.943,0.206,229.3,117.130043,251.1861725,-9.614852905,45,65,51,39.47401047,-20
1.2,70,70,60,go_to_color_detect_up,blue,TRUE,FALSE,joint 3 -,FALSE,34:01.2,20.943,0.206,229.3,131.6270294,282.2750549,78.13046265,45,65,51,2.34910965,-20
1.2,70,70,60,detecting_color,blue,FALSE,FALSE,detecting_color,FALSE,34:01.9,16.766,0.165,229.3,131.6940765,282.4188232,84.95825195,45,65,51,0,-20
1.2,70,70,60,go_to_color_detect_down,blue,TRUE,FALSE,joint 3 +,FALSE,34:03.3,16.101,0.165,229.3,131.6924744,282.4154053,83.90224457,45,65,51,0.548799992,-20
1.2,70,70,60,go_to_color_detect_down,blue,TRUE,FALSE,joint 3 +,FALSE,34:04.0,16.196,0.16,229.3,121.379715,260.2996216,3.843055725,45,65,51,34.23516083,-20
1.2,70,70,60,go_to_color_detect_up,blue,TRUE,FALSE,joint 3 -,TRUE,34:05.4,16.12,0.16,229.3,111.5791397,239.2822266,-23.3368988,45,65,51,47.29440308,-20
1.2,70,70,60,go_to_color_detect_up,blue,TRUE,FALSE,joint 3 -,TRUE,34:06.0,16.12,0.187,229.3,128.4752197,275.5159912,38.25455475,45,65,51,17.68232727,-20
1.2,70,70,60,go_to_red_up,red,TRUE,FALSE,joint 1 +,TRUE,34:07.4,22.633,0.187,229.3,128.2061768,284.0191956,84.95825195,45.70559692,65.88199615,51,0,-20
1.2,70,70,60,go_to_red_up,red,TRUE,FALSE,joint 1 +,TRUE,34:08.1,21.931,0.207,229.3,-31.86916351,309.9807739,84.95825195,75.8699646,96.84996796,51,0,-20
1.2,70,70,60,go_to_red_up,red,TRUE,FALSE,joint 1 +,TRUE,34:09.5,22.272,0.207,229.3,-176.7584686,256.6323547,84.95825195,104.5575714,124.6795731,51,0,-20
1.2,70,70,60,go_to_pick_up_from_red,red,TRUE,FALSE,joint 1 -,FALSE,34:10.2,22.083,0.199,229.3,-88.28687286,298.8463745,84.95825195,86.45848083,105.5960846,51,0,-20
1.2,70,70,60,go_to_pick_up_from_red,red,TRUE,FALSE,joint 1 -,FALSE,34:11.6,16.386,0.199,229.3,156.6076355,269.4026184,84.95825195,39.82994461,58.84994507,51,0,-20
1.2,70,70,60,go_to_pick_up_from_red,red,TRUE,FALSE,joint 1 -,FALSE,34:12.2,16.405,0.199,229.3,286.7382813,122.003624,84.95825195,3.049154282,22.71315384,51,0,-20
1.2,70,70,60,moving_belt,red,FALSE,TRUE,joint 1 -,FALSE,34:12.9,16.405,0.162,229.3,292.822052,106.5785141,84.95825195,0,20,51,0,-20
1.2,70,70,60,moving_belt,red,FALSE,TRUE,joint 1 -,FALSE,34:14.3,16.348,0.162,229.3,292.822052,106.5785141,84.95825195,0,20,51,0,-20
1.2,70,70,60,moving_belt,red,FALSE,TRUE,joint 1 -,FALSE,34:15.0,16.234,0.161,229.3,292.822052,106.5785141,84.95825195,0,20,51,0,-20
1.2,70,70,60,moving_belt,red,FALSE,TRUE,joint 1 -,FALSE,34:16.0,16.234,0.161,229.3,292.822052,106.5785141,84.95825195,0,20,51,0,-20
1.2,70,70,60,go_to_pick_down,red,TRUE,FALSE,joint 3 +,FALSE,34:17.3,16.348,0.162,229.3,292.8115845,106.574707,83.14798737,0,20,51,0.882000029,-20
1.2,70,70,60,go_to_pick_down,red,TRUE,FALSE,joint 3 +,FALSE,34:18.0,16.348,0.162,229.3,283.7197266,103.2655334,32.47969055,0,20,51,21.11200142,-20
1.2,70,70,60,go_to_pick_up_from_pick_down,red,TRUE,FALSE,joint 3 -,TRUE,34:19.4,22.69,0.161,229.3,291.4891968,106.0933914,64.58665466,0,20,51,7.416901588,-20
1.2,70,70,60,go_to_color_detect_up,red,TRUE,FALSE,joint 1 +,TRUE,34:20.1,22.69,0.161,229.3,287.5486145,120.0813675,84.95825195,2.665597916,22.99879837,51,0,-20
1.2,70,70,60,go_to_color_detect_up,red,TRUE,FALSE,joint 1 +,TRUE,34:21.5,22.443,0.211,229.3,177.03508,256.4416199,84.95825195,35.38064575,55.98494339,51,0,-20
1.2,70,70,60,go_to_color_detect_up,red,TRUE,FALSE,joint 3 +,TRUE,34:22.2,22.386,0.211,229.3,131.5338287,282.0751953,74.40718079,45,65,51,4.527600288,-20
1.2,70,70,60,go_to_color_detect_up,red,TRUE,FALSE,joint 3 +,TRUE,34:23.6,21.969,0.209,229.3,117.9198761,252.8799744,-7.345222473,45,65,51,39.48394012,-20
1.2,70,70,60,go_to_color_detect_up,red,TRUE,FALSE,joint 3 -,FALSE,34:24.2,21.988,0.209,229.3,112.9984894,242.3260345,-20.15538025,45,65,51,45.33441162,-20
1.2,70,70,60,go_to_color_detect_up,red,TRUE,FALSE,joint 3 -,FALSE,34:24.9,21.988,0.209,229.3,131.0091095,280.9499207,63.1894989,45,65,51,7.948169708,-20
1.2,70,70,60,detecting_color,red,FALSE,FALSE,detecting_color,FALSE,34:26.3,16.861,0.164,229.3,131.6940765,282.4188232,84.95825195,45,65,51,0,-20
1.2,70,70,60,detecting_color,red,FALSE,FALSE,detecting_color,FALSE,34:27.0,16.861,0.164,229.3,131.6940765,282.4188232,84.95825195,45,65,51,0,-20
1.2,70,70,60,detecting_color,red,FALSE,FALSE,detecting_color,FALSE,34:28.4,16.424,0.163,229.3,131.6940765,282.4188232,84.95825195,45,65,51,0,-20
1.2,70,70,60,detecting_color,red,FALSE,FALSE,detecting_color,FALSE,34:29.1,16.348,0.163,229.3,131.6940765,282.4188232,84.95825195,45,65,51,0,-20
1.2,70,70,60,detecting_color,red,FALSE,FALSE,detecting_color,FALSE,34:30.5,16.443,0.161,229.3,131.6940765,282.4188232,84.95825195,45,65,51,0,-20
1.2,70,70,60,detecting_color,red,FALSE,FALSE,detecting_color,FALSE,34:31.2,16.348,0.161,229.3,131.6940765,282.4188232,84.95825195,45,65,51,0,-20
1.2,70,70,60,go_to_color_detect_down,red,TRUE,FALSE,joint 3 +,FALSE,34:32.0,16.348,0.161,229.3,131.654007,282.3328857,79.67931366,45,65,51,2.351999998,-20
1.2,70,70,60,go_to_color_detect_down,red,TRUE,FALSE,joint 3 +,FALSE,34:33.4,16.348,0.161,229.3,117.5173492,252.0167542,-8.513450623,45,65,51,40.05183792,-20
1.2,70,70,60,go_to_color_detect_up,red,TRUE,FALSE,joint 3 -,TRUE,34:34.2,16.31,0.159,229.3,112.9984894,242.3260345,-20.15538025,45,65,51,45.33441162,-20
1.2,70,70,60,go_to_color_detect_up,red,TRUE,FALSE,joint 3 -,TRUE,34:35.0,19.69,0.159,229.3,130.2599335,279.3433228,53.55493164,45,65,51,11.64955139,-20
